%
(; SHAPEOKO POSTPROCESSED v1)
( Source: BACK_0.4mm_ISOLATION.nc )
( Stripped: M30 only - kept T#/M6/M0/M1/MSG for Shapeoko/Carbide Motion )
( Wrapped with Shapeoko start/end blocks - mirrors 1001.nc structure )
G90        ( absolute positioning )
G17        ( XY plane select )
G21        ( mm units )
G94        ( feedrate units/min )
G28 G91 Z0 ( safe Z home - assumes machine has been homed )
G90        ( back to absolute )
G54        ( work coordinate system 1 )
M5         ( ensure spindle off at start )

(G-CODE GENERATED BY FLATCAM v8.994 - www.flatcam.org - Version Date: 2020/11/7)

(Name: Buzzer PCB V3 (rerouted traces)-B_Cu.gbr_iso_combined_1_cnc)
(Type: G-code from Geometry)
(Units: MM)

(Created on Saturday, 27 June 2026 at 22:16)

(This preprocessor is used with a motion controller loaded with GRBL firmware.)
(It is configured to be compatible with almost any version of GRBL firmware.)

(TOOL DIAMETER: 0.4 mm)
(Feedrate_XY: 350.0 mm/min)
(Feedrate_Z: 250.0 mm/min)
(Feedrate rapids 1500.0 mm/min)

(Z_Cut: -0.05 mm)
(Z_Move: 0.5 mm)
(Z Start: None mm)
(Z End: 40.0 mm)
(X,Y End: None mm)
(Steps per circle: 64)
(Steps per circle: 64)
(Preprocessor Geometry: grbl_11)

(X range:    2.2805 ...  133.5309  mm)
(Y range:   -2.7125 ...   68.7503  mm)

(Spindle Speed: 0.0 RPM)
G21
G90
G17
G94


G01 F350.00

M5             
G00 Z40.0000
G00 X0.0000 Y0.0000                
T1 M6
(MSG, Change to Tool Dia = 0.4000)
M0
G00 Z40.0000

M03
G01 F350.00
G00 X8.6662 Y3.5004
G01 F250.00
G01 Z-0.0500
G01 F350.00
G01 X8.6513 Y3.5251 F350.00
G01 X8.6458 Y3.5332 F350.00
G01 X8.5815 Y3.6199 F350.00
G01 X8.5721 Y3.6312 F350.00
G01 X8.5062 Y3.7039 F350.00
G01 X8.4959 Y3.7145 F350.00
G01 X8.4121 Y3.7901 F350.00
G01 X8.3256 Y3.8546 F350.00
G01 X8.3093 Y3.8655 F350.00
G01 X8.2208 Y3.9184 F350.00
G01 X8.2078 Y3.9252 F350.00
G01 X8.1101 Y3.9712 F350.00
G01 X8.0085 Y4.0077 F350.00
G01 X7.9897 Y4.0134 F350.00
G01 X7.8850 Y4.0394 F350.00
G01 X7.7782 Y4.0555 F350.00
G01 X7.7587 Y4.0574 F350.00
G01 X7.6509 Y4.0625 F350.00
G01 X7.5430 Y4.0574 F350.00
G01 X7.5235 Y4.0555 F350.00
G01 X7.4168 Y4.0394 F350.00
G01 X7.3120 Y4.0134 F350.00
G01 X7.2932 Y4.0077 F350.00
G01 X7.1916 Y3.9712 F350.00
G01 X7.0852 Y3.9208 F350.00
G01 X6.9925 Y3.8655 F350.00
G01 X6.9762 Y3.8546 F350.00
G01 X6.8896 Y3.7901 F350.00
G01 X6.8094 Y3.7178 F350.00
G01 X6.7956 Y3.7039 F350.00
G01 X6.7232 Y3.6238 F350.00
G01 X6.6587 Y3.5372 F350.00
G01 X6.6504 Y3.5251 F350.00
G01 X6.5974 Y3.4367 F350.00
G01 X6.5881 Y3.4194 F350.00
G01 X6.5422 Y3.3217 F350.00
G01 X6.5056 Y3.2202 F350.00
G01 X6.4999 Y3.2014 F350.00
G01 X6.4739 Y3.0966 F350.00
G01 X6.4566 Y2.9801 F350.00
G01 X6.4509 Y2.8625 F350.00
G01 X6.4509 Y1.8625 F350.00
G01 X6.4559 Y1.7547 F350.00
G01 X6.4572 Y1.7400 F350.00
G01 X6.4739 Y1.6284 F350.00
G01 X6.4999 Y1.5236 F350.00
G01 X6.5056 Y1.5048 F350.00
G01 X6.5387 Y1.4124 F350.00
G01 X6.5462 Y1.3943 F350.00
G01 X6.5926 Y1.2968 F350.00
G01 X6.6478 Y1.2041 F350.00
G01 X6.6587 Y1.1878 F350.00
G01 X6.7232 Y1.1012 F350.00
G01 X6.8023 Y1.0140 F350.00
G01 X6.8896 Y0.9349 F350.00
G01 X6.9762 Y0.8704 F350.00
G01 X6.9883 Y0.8621 F350.00
G01 X7.0766 Y0.8090 F350.00
G01 X7.0940 Y0.7998 F350.00
G01 X7.1916 Y0.7538 F350.00
G01 X7.2932 Y0.7173 F350.00
G01 X7.3120 Y0.7116 F350.00
G01 X7.4168 Y0.6856 F350.00
G01 X7.5332 Y0.6683 F350.00
G01 X7.6509 Y0.6625 F350.00
G01 X7.7587 Y0.6676 F350.00
G01 X7.7782 Y0.6695 F350.00
G01 X7.8850 Y0.6856 F350.00
G01 X7.9897 Y0.7116 F350.00
G01 X8.0085 Y0.7173 F350.00
G01 X8.1101 Y0.7538 F350.00
G01 X8.2165 Y0.8042 F350.00
G01 X8.3093 Y0.8595 F350.00
G01 X8.3256 Y0.8704 F350.00
G01 X8.4121 Y0.9349 F350.00
G01 X8.4923 Y1.0072 F350.00
G01 X8.5062 Y1.0211 F350.00
G01 X8.5785 Y1.1012 F350.00
G01 X8.6486 Y1.1958 F350.00
G01 X8.7043 Y1.2883 F350.00
G01 X8.7136 Y1.3056 F350.00
G01 X8.7555 Y1.3943 F350.00
G01 X8.7630 Y1.4124 F350.00
G01 X8.7992 Y1.5142 F350.00
G01 X8.8208 Y1.5996 F350.00
G01 X13.7878 Y1.5996 F350.00
G01 X13.8307 Y1.5418 F350.00
G01 X13.8399 Y1.5303 F350.00
G01 X13.9454 Y1.4139 F350.00
G01 X13.9559 Y1.4036 F350.00
G01 X14.0650 Y1.3048 F350.00
G01 X14.0762 Y1.2953 F350.00
G01 X14.2064 Y1.1990 F350.00
G01 X14.3409 Y1.1181 F350.00
G01 X14.3583 Y1.1088 F350.00
G01 X14.5003 Y1.0419 F350.00
G01 X14.6481 Y0.9888 F350.00
G01 X14.6668 Y0.9831 F350.00
G01 X14.8192 Y0.9452 F350.00
G01 X14.9794 Y0.9212 F350.00
G01 X14.9940 Y0.9200 F350.00
G01 X15.1410 Y0.9127 F350.00
G01 X15.1558 Y0.9126 F350.00
G01 X15.3175 Y0.9207 F350.00
G01 X15.4210 Y0.9358 F350.00
G01 X17.4509 Y-1.0940 F350.00
G01 X17.4509 Y-1.5125 F350.00
G01 X17.4566 Y-1.6301 F350.00
G01 X17.4722 Y-1.7369 F350.00
G01 X17.4761 Y-1.7562 F350.00
G01 X17.5025 Y-1.8608 F350.00
G01 X17.5404 Y-1.9672 F350.00
G01 X17.5462 Y-1.9807 F350.00
G01 X17.5881 Y-2.0694 F350.00
G01 X17.5974 Y-2.0867 F350.00
G01 X17.6531 Y-2.1792 F350.00
G01 X17.7232 Y-2.2738 F350.00
G01 X17.8023 Y-2.3610 F350.00
G01 X17.8822 Y-2.4337 F350.00
G01 X17.8973 Y-2.4462 F350.00
G01 X17.9762 Y-2.5046 F350.00
G01 X17.9883 Y-2.5129 F350.00
G01 X18.0852 Y-2.5708 F350.00
G01 X18.1916 Y-2.6212 F350.00
G01 X18.3025 Y-2.6608 F350.00
G01 X18.4072 Y-2.6873 F350.00
G01 X18.4264 Y-2.6911 F350.00
G01 X18.5332 Y-2.7067 F350.00
G01 X18.6410 Y-2.7123 F350.00
G01 X18.6607 Y-2.7123 F350.00
G01 X18.7587 Y-2.7074 F350.00
G01 X18.7782 Y-2.7055 F350.00
G01 X18.8850 Y-2.6894 F350.00
G01 X18.9897 Y-2.6634 F350.00
G01 X19.0085 Y-2.6577 F350.00
G01 X19.1101 Y-2.6212 F350.00
G01 X19.2165 Y-2.5708 F350.00
G01 X19.3175 Y-2.5103 F350.00
G01 X19.4121 Y-2.4401 F350.00
G01 X19.4994 Y-2.3610 F350.00
G01 X19.5785 Y-2.2738 F350.00
G01 X19.6486 Y-2.1792 F350.00
G01 X19.7043 Y-2.0867 F350.00
G01 X19.7114 Y-2.0738 F350.00
G01 X19.7595 Y-1.9717 F350.00
G01 X19.7992 Y-1.8608 F350.00
G01 X19.8278 Y-1.7466 F350.00
G01 X19.8451 Y-1.6301 F350.00
G01 X19.8509 Y-1.5125 F350.00
G01 X19.8508 Y-0.5076 F350.00
G01 X19.8451 Y-0.3949 F350.00
G01 X19.8295 Y-0.2881 F350.00
G01 X19.8257 Y-0.2688 F350.00
G01 X19.7992 Y-0.1642 F350.00
G01 X19.7630 Y-0.0624 F350.00
G01 X19.7555 Y-0.0443 F350.00
G01 X19.7092 Y0.0532 F350.00
G01 X19.6539 Y0.1459 F350.00
G01 X19.6430 Y0.1622 F350.00
G01 X19.5845 Y0.2410 F350.00
G01 X19.5721 Y0.2562 F350.00
G01 X19.4994 Y0.3360 F350.00
G01 X19.4121 Y0.4151 F350.00
G01 X19.3256 Y0.4796 F350.00
G01 X19.3093 Y0.4905 F350.00
G01 X19.2165 Y0.5458 F350.00
G01 X19.1101 Y0.5962 F350.00
G01 X18.9992 Y0.6358 F350.00
G01 X18.8945 Y0.6623 F350.00
G01 X18.8753 Y0.6661 F350.00
G01 X18.7782 Y0.6805 F350.00
G01 X18.7636 Y0.6821 F350.00
G01 X18.6509 Y0.6875 F350.00
G01 X18.5381 Y0.6821 F350.00
G01 X18.5235 Y0.6805 F350.00
G01 X18.4216 Y0.6653 F350.00
G01 X18.4120 Y0.6634 F350.00
G01 X18.3875 Y0.6574 F350.00
G01 X16.8075 Y2.2373 F350.00
G01 X16.8160 Y2.2713 F350.00
G01 X16.8191 Y2.2857 F350.00
G01 X16.8415 Y2.4361 F350.00
G01 X16.8431 Y2.4508 F350.00
G01 X16.8509 Y2.6125 F350.00
G01 X16.8427 Y2.7791 F350.00
G01 X16.8182 Y2.9442 F350.00
G01 X16.7803 Y3.0965 F350.00
G01 X16.7746 Y3.1153 F350.00
G01 X16.7250 Y3.2539 F350.00
G01 X16.7175 Y3.2720 F350.00
G01 X16.6501 Y3.4139 F350.00
G01 X16.5644 Y3.5570 F350.00
G01 X16.4650 Y3.6910 F350.00
G01 X16.3597 Y3.8075 F350.00
G01 X16.3458 Y3.8214 F350.00
G01 X16.2368 Y3.9202 F350.00
G01 X16.2216 Y3.9327 F350.00
G01 X16.0953 Y4.0260 F350.00
G01 X15.9608 Y4.1069 F350.00
G01 X15.9479 Y4.1140 F350.00
G01 X15.8014 Y4.1831 F350.00
G01 X15.6443 Y4.2393 F350.00
G01 X15.4825 Y4.2798 F350.00
G01 X15.3175 Y4.3043 F350.00
G01 X15.1509 Y4.3125 F350.00
G01 X14.9842 Y4.3043 F350.00
G01 X14.8192 Y4.2798 F350.00
G01 X14.6621 Y4.2407 F350.00
G01 X14.6481 Y4.2362 F350.00
G01 X14.5003 Y4.1831 F350.00
G01 X14.3495 Y4.1118 F350.00
G01 X14.2064 Y4.0260 F350.00
G01 X14.0762 Y3.9297 F350.00
G01 X14.0650 Y3.9202 F350.00
G01 X13.9488 Y3.8146 F350.00
G01 X13.8399 Y3.6947 F350.00
G01 X13.8307 Y3.6832 F350.00
G01 X13.7401 Y3.5610 F350.00
G01 X13.7321 Y3.5487 F350.00
G01 X13.7032 Y3.5004 F350.00
G01 X8.6662 Y3.5004 F350.00
G00 Z0.5000
G00 X5.9742 Y10.6327
G01 F250.00
G01 Z-0.0500
G01 F350.00
G01 X5.9590 Y10.5291 F350.00
G01 X5.9509 Y10.3674 F350.00
G01 X5.9511 Y10.3527 F350.00
G01 X5.9586 Y10.2008 F350.00
G01 X5.9602 Y10.1861 F350.00
G01 X5.9835 Y10.0308 F350.00
G01 X6.0227 Y9.8737 F350.00
G01 X6.0271 Y9.8597 F350.00
G01 X6.0803 Y9.7119 F350.00
G01 X6.1516 Y9.5611 F350.00
G01 X6.2374 Y9.4180 F350.00
G01 X6.3337 Y9.2879 F350.00
G01 X6.3432 Y9.2766 F350.00
G01 X6.4488 Y9.1604 F350.00
G01 X6.5724 Y9.0484 F350.00
G01 X6.7064 Y8.9490 F350.00
G01 X6.8495 Y8.8632 F350.00
G01 X7.0003 Y8.7919 F350.00
G01 X7.1574 Y8.7357 F350.00
G01 X7.3192 Y8.6952 F350.00
G01 X7.4794 Y8.6712 F350.00
G01 X7.4940 Y8.6700 F350.00
G01 X7.6410 Y8.6627 F350.00
G01 X7.6607 Y8.6627 F350.00
G01 X7.8175 Y8.6707 F350.00
G01 X7.9728 Y8.6935 F350.00
G01 X7.9921 Y8.6973 F350.00
G01 X8.1443 Y8.7357 F350.00
G01 X8.2923 Y8.7884 F350.00
G01 X8.3059 Y8.7938 F350.00
G01 X8.4435 Y8.8588 F350.00
G01 X8.4608 Y8.8681 F350.00
G01 X8.5953 Y8.9490 F350.00
G01 X8.7255 Y9.0453 F350.00
G01 X8.7368 Y9.0548 F350.00
G01 X8.8458 Y9.1536 F350.00
G01 X8.8564 Y9.1639 F350.00
G01 X8.9618 Y9.2803 F350.00
G01 X8.9710 Y9.2918 F350.00
G01 X9.0139 Y9.3496 F350.00
G01 X13.4731 Y9.3496 F350.00
G01 X13.4818 Y9.2905 F350.00
G01 X13.4845 Y9.2760 F350.00
G01 X13.5214 Y9.1285 F350.00
G01 X13.5255 Y9.1143 F350.00
G01 X13.5803 Y8.9619 F350.00
G01 X13.6472 Y8.8199 F350.00
G01 X13.6540 Y8.8068 F350.00
G01 X13.7374 Y8.6680 F350.00
G01 X13.8367 Y8.5340 F350.00
G01 X13.9488 Y8.4104 F350.00
G01 X14.0650 Y8.3048 F350.00
G01 X14.0762 Y8.2953 F350.00
G01 X14.2064 Y8.1990 F350.00
G01 X14.3495 Y8.1132 F350.00
G01 X14.5003 Y8.0419 F350.00
G01 X14.6574 Y7.9857 F350.00
G01 X14.8192 Y7.9452 F350.00
G01 X14.9842 Y7.9207 F350.00
G01 X15.1509 Y7.9125 F350.00
G01 X15.3126 Y7.9203 F350.00
G01 X15.3272 Y7.9219 F350.00
G01 X15.4728 Y7.9435 F350.00
G01 X15.4921 Y7.9473 F350.00
G01 X15.6443 Y7.9857 F350.00
G01 X15.8014 Y8.0419 F350.00
G01 X15.9522 Y8.1132 F350.00
G01 X16.0870 Y8.1937 F350.00
G01 X16.1034 Y8.2047 F350.00
G01 X16.2216 Y8.2923 F350.00
G01 X16.2368 Y8.3048 F350.00
G01 X16.3529 Y8.4104 F350.00
G01 X16.4650 Y8.5340 F350.00
G01 X16.5644 Y8.6680 F350.00
G01 X16.6453 Y8.8026 F350.00
G01 X16.6545 Y8.8199 F350.00
G01 X16.7175 Y8.9530 F350.00
G01 X16.7250 Y8.9711 F350.00
G01 X16.7777 Y9.1190 F350.00
G01 X16.8172 Y9.2760 F350.00
G01 X16.8199 Y9.2905 F350.00
G01 X16.8427 Y9.4459 F350.00
G01 X16.8506 Y9.6027 F350.00
G01 X16.8506 Y9.6223 F350.00
G01 X16.8434 Y9.7693 F350.00
G01 X16.8415 Y9.7889 F350.00
G01 X16.8182 Y9.9442 F350.00
G01 X16.7777 Y10.1060 F350.00
G01 X16.7215 Y10.2631 F350.00
G01 X16.6501 Y10.4139 F350.00
G01 X16.5644 Y10.5570 F350.00
G01 X16.4710 Y10.6832 F350.00
G01 X16.4586 Y10.6984 F350.00
G01 X16.3597 Y10.8075 F350.00
G01 X16.3458 Y10.8214 F350.00
G01 X16.2293 Y10.9266 F350.00
G01 X16.0953 Y11.0260 F350.00
G01 X15.9522 Y11.1118 F350.00
G01 X15.8059 Y11.1812 F350.00
G01 X15.7923 Y11.1866 F350.00
G01 X15.6443 Y11.2393 F350.00
G01 X15.4825 Y11.2798 F350.00
G01 X15.3175 Y11.3043 F350.00
G01 X15.1509 Y11.3125 F350.00
G01 X14.9842 Y11.3043 F350.00
G01 X14.8240 Y11.2807 F350.00
G01 X14.8096 Y11.2777 F350.00
G01 X14.6621 Y11.2407 F350.00
G01 X14.6481 Y11.2362 F350.00
G01 X14.6163 Y11.2248 F350.00
G01 X14.5911 Y11.2311 F350.00
G01 X14.5814 Y11.2330 F350.00
G01 X14.4989 Y11.2453 F350.00
G01 X14.4842 Y11.2465 F350.00
G01 X14.4009 Y11.2504 F350.00
G01 X9.0986 Y11.2504 F350.00
G01 X9.0696 Y11.2987 F350.00
G01 X9.0616 Y11.3110 F350.00
G01 X8.9710 Y11.4332 F350.00
G01 X8.9618 Y11.4447 F350.00
G01 X8.8529 Y11.5646 F350.00
G01 X8.7331 Y11.6735 F350.00
G01 X8.7216 Y11.6827 F350.00
G01 X8.6034 Y11.7703 F350.00
G01 X8.5870 Y11.7813 F350.00
G01 X8.4522 Y11.8618 F350.00
G01 X8.3014 Y11.9331 F350.00
G01 X8.1443 Y11.9893 F350.00
G01 X7.9921 Y12.0277 F350.00
G01 X7.9728 Y12.0315 F350.00
G01 X7.8272 Y12.0531 F350.00
G01 X7.8126 Y12.0547 F350.00
G01 X7.6509 Y12.0625 F350.00
G01 X7.4891 Y12.0547 F350.00
G01 X7.4745 Y12.0531 F350.00
G01 X7.3240 Y12.0307 F350.00
G01 X7.3096 Y12.0277 F350.00
G01 X7.2767 Y12.0194 F350.00
G01 X4.6812 Y14.6137 F350.00
G01 X4.6812 Y20.3613 F350.00
G01 X7.3807 Y23.0608 F350.00
G01 X7.4842 Y23.0457 F350.00
G01 X7.6460 Y23.0376 F350.00
G01 X7.6607 Y23.0377 F350.00
G01 X7.8077 Y23.0450 F350.00
G01 X7.8224 Y23.0462 F350.00
G01 X7.9825 Y23.0702 F350.00
G01 X8.1349 Y23.1081 F350.00
G01 X8.1537 Y23.1138 F350.00
G01 X8.3014 Y23.1669 F350.00
G01 X8.4435 Y23.2338 F350.00
G01 X8.4608 Y23.2431 F350.00
G01 X8.5953 Y23.3240 F350.00
G01 X8.7255 Y23.4203 F350.00
G01 X8.7368 Y23.4298 F350.00
G01 X8.8458 Y23.5286 F350.00
G01 X8.8564 Y23.5389 F350.00
G01 X8.9618 Y23.6553 F350.00
G01 X8.9710 Y23.6668 F350.00
G01 X9.0139 Y23.7246 F350.00
G01 X13.4731 Y23.7246 F350.00
G01 X13.4818 Y23.6655 F350.00
G01 X13.4845 Y23.6510 F350.00
G01 X13.5214 Y23.5035 F350.00
G01 X13.5255 Y23.4893 F350.00
G01 X13.5803 Y23.3369 F350.00
G01 X13.6472 Y23.1949 F350.00
G01 X13.6540 Y23.1818 F350.00
G01 X13.7374 Y23.0430 F350.00
G01 X13.8367 Y22.9090 F350.00
G01 X13.9488 Y22.7854 F350.00
G01 X14.0650 Y22.6798 F350.00
G01 X14.0762 Y22.6703 F350.00
G01 X14.2064 Y22.5740 F350.00
G01 X14.3495 Y22.4882 F350.00
G01 X14.5003 Y22.4169 F350.00
G01 X14.6574 Y22.3607 F350.00
G01 X14.8192 Y22.3202 F350.00
G01 X14.9842 Y22.2957 F350.00
G01 X15.1509 Y22.2875 F350.00
G01 X15.3175 Y22.2957 F350.00
G01 X15.4825 Y22.3202 F350.00
G01 X15.6443 Y22.3607 F350.00
G01 X15.8014 Y22.4169 F350.00
G01 X15.9522 Y22.4882 F350.00
G01 X16.0953 Y22.5740 F350.00
G01 X16.2293 Y22.6734 F350.00
G01 X16.3529 Y22.7854 F350.00
G01 X16.4586 Y22.9016 F350.00
G01 X16.4710 Y22.9168 F350.00
G01 X16.5644 Y23.0430 F350.00
G01 X16.6453 Y23.1776 F350.00
G01 X16.6545 Y23.1949 F350.00
G01 X16.7175 Y23.3280 F350.00
G01 X16.7250 Y23.3461 F350.00
G01 X16.7777 Y23.4940 F350.00
G01 X16.8182 Y23.6558 F350.00
G01 X16.8427 Y23.8209 F350.00
G01 X16.8506 Y23.9777 F350.00
G01 X16.8508 Y23.9924 F350.00
G01 X16.8427 Y24.1541 F350.00
G01 X16.8199 Y24.3095 F350.00
G01 X16.8160 Y24.3287 F350.00
G01 X16.7803 Y24.4715 F350.00
G01 X16.7746 Y24.4903 F350.00
G01 X16.7215 Y24.6381 F350.00
G01 X16.6501 Y24.7889 F350.00
G01 X16.5644 Y24.9320 F350.00
G01 X16.4710 Y25.0582 F350.00
G01 X16.4586 Y25.0734 F350.00
G01 X16.3597 Y25.1825 F350.00
G01 X16.3458 Y25.1964 F350.00
G01 X16.2293 Y25.3016 F350.00
G01 X16.0953 Y25.4010 F350.00
G01 X15.9522 Y25.4868 F350.00
G01 X15.8104 Y25.5541 F350.00
G01 X15.7923 Y25.5616 F350.00
G01 X15.6537 Y25.6112 F350.00
G01 X15.6349 Y25.6169 F350.00
G01 X15.4825 Y25.6548 F350.00
G01 X15.3272 Y25.6781 F350.00
G01 X15.3077 Y25.6800 F350.00
G01 X15.1509 Y25.6875 F350.00
G01 X14.9842 Y25.6793 F350.00
G01 X14.8240 Y25.6557 F350.00
G01 X14.8096 Y25.6527 F350.00
G01 X14.6621 Y25.6157 F350.00
G01 X14.6481 Y25.6112 F350.00
G01 X14.6163 Y25.5998 F350.00
G01 X14.5911 Y25.6061 F350.00
G01 X14.5814 Y25.6080 F350.00
G01 X14.4989 Y25.6203 F350.00
G01 X14.4842 Y25.6215 F350.00
G01 X14.4009 Y25.6254 F350.00
G01 X9.0986 Y25.6254 F350.00
G01 X9.0696 Y25.6737 F350.00
G01 X9.0616 Y25.6860 F350.00
G01 X8.9710 Y25.8082 F350.00
G01 X8.9618 Y25.8197 F350.00
G01 X8.8529 Y25.9396 F350.00
G01 X8.7331 Y26.0485 F350.00
G01 X8.7216 Y26.0577 F350.00
G01 X8.6034 Y26.1453 F350.00
G01 X8.5870 Y26.1563 F350.00
G01 X8.4522 Y26.2368 F350.00
G01 X8.3014 Y26.3081 F350.00
G01 X8.1443 Y26.3643 F350.00
G01 X7.9921 Y26.4027 F350.00
G01 X7.9728 Y26.4065 F350.00
G01 X7.8272 Y26.4281 F350.00
G01 X7.8126 Y26.4297 F350.00
G01 X7.6509 Y26.4375 F350.00
G01 X7.4891 Y26.4297 F350.00
G01 X7.4745 Y26.4281 F350.00
G01 X7.3240 Y26.4057 F350.00
G01 X7.3096 Y26.4027 F350.00
G01 X7.2767 Y26.3944 F350.00
G01 X4.1812 Y29.4887 F350.00
G01 X4.1812 Y34.2363 F350.00
G01 X7.2257 Y37.2808 F350.00
G01 X7.3096 Y37.2598 F350.00
G01 X7.3240 Y37.2568 F350.00
G01 X7.4745 Y37.2344 F350.00
G01 X7.4891 Y37.2328 F350.00
G01 X7.6509 Y37.2250 F350.00
G01 X7.8126 Y37.2328 F350.00
G01 X7.8272 Y37.2344 F350.00
G01 X7.9728 Y37.2560 F350.00
G01 X7.9921 Y37.2598 F350.00
G01 X8.1443 Y37.2982 F350.00
G01 X8.3014 Y37.3544 F350.00
G01 X8.4522 Y37.4257 F350.00
G01 X8.5870 Y37.5062 F350.00
G01 X8.6034 Y37.5172 F350.00
G01 X8.7216 Y37.6048 F350.00
G01 X8.7368 Y37.6173 F350.00
G01 X8.8529 Y37.7229 F350.00
G01 X8.9650 Y37.8465 F350.00
G01 X9.0644 Y37.9805 F350.00
G01 X9.1360 Y38.0996 F350.00
G01 X13.4543 Y38.0996 F350.00
G01 X13.4583 Y38.0182 F350.00
G01 X13.4596 Y38.0035 F350.00
G01 X13.4818 Y37.8530 F350.00
G01 X13.4845 Y37.8385 F350.00
G01 X13.5241 Y37.6815 F350.00
G01 X13.5767 Y37.5336 F350.00
G01 X13.5822 Y37.5199 F350.00
G01 X13.6516 Y37.3736 F350.00
G01 X13.7374 Y37.2305 F350.00
G01 X13.8367 Y37.0965 F350.00
G01 X13.9454 Y36.9764 F350.00
G01 X13.9559 Y36.9661 F350.00
G01 X14.0724 Y36.8609 F350.00
G01 X14.2064 Y36.7615 F350.00
G01 X14.3495 Y36.6757 F350.00
G01 X14.4913 Y36.6084 F350.00
G01 X14.5095 Y36.6009 F350.00
G01 X14.6481 Y36.5513 F350.00
G01 X14.6668 Y36.5456 F350.00
G01 X14.8192 Y36.5077 F350.00
G01 X14.9745 Y36.4844 F350.00
G01 X14.9891 Y36.4828 F350.00
G01 X15.1509 Y36.4750 F350.00
G01 X15.3077 Y36.4825 F350.00
G01 X15.3272 Y36.4844 F350.00
G01 X15.4825 Y36.5077 F350.00
G01 X15.6443 Y36.5482 F350.00
G01 X15.7923 Y36.6009 F350.00
G01 X15.8104 Y36.6084 F350.00
G01 X15.9435 Y36.6713 F350.00
G01 X15.9608 Y36.6806 F350.00
G01 X16.0953 Y36.7615 F350.00
G01 X16.2293 Y36.8609 F350.00
G01 X16.3529 Y36.9729 F350.00
G01 X16.4586 Y37.0891 F350.00
G01 X16.4710 Y37.1043 F350.00
G01 X16.5587 Y37.2225 F350.00
G01 X16.5696 Y37.2388 F350.00
G01 X16.6501 Y37.3736 F350.00
G01 X16.7195 Y37.5199 F350.00
G01 X16.7250 Y37.5336 F350.00
G01 X16.7777 Y37.6815 F350.00
G01 X16.8182 Y37.8433 F350.00
G01 X16.8427 Y38.0084 F350.00
G01 X16.8509 Y38.1750 F350.00
G01 X16.8427 Y38.3416 F350.00
G01 X16.8182 Y38.5067 F350.00
G01 X16.7777 Y38.6685 F350.00
G01 X16.7250 Y38.8164 F350.00
G01 X16.7175 Y38.8345 F350.00
G01 X16.6501 Y38.9764 F350.00
G01 X16.5644 Y39.1195 F350.00
G01 X16.4650 Y39.2535 F350.00
G01 X16.3597 Y39.3700 F350.00
G01 X16.3458 Y39.3839 F350.00
G01 X16.2293 Y39.4891 F350.00
G01 X16.1034 Y39.5828 F350.00
G01 X16.0870 Y39.5938 F350.00
G01 X15.9608 Y39.6694 F350.00
G01 X15.9435 Y39.6787 F350.00
G01 X15.8014 Y39.7456 F350.00
G01 X15.6537 Y39.7987 F350.00
G01 X15.6349 Y39.8044 F350.00
G01 X15.4825 Y39.8423 F350.00
G01 X15.3272 Y39.8656 F350.00
G01 X15.3126 Y39.8672 F350.00
G01 X15.1607 Y39.8748 F350.00
G01 X15.1460 Y39.8749 F350.00
G01 X14.9891 Y39.8672 F350.00
G01 X14.9745 Y39.8656 F350.00
G01 X14.9043 Y39.8552 F350.00
G01 X14.8489 Y39.8882 F350.00
G01 X14.7735 Y39.9241 F350.00
G01 X14.7554 Y39.9316 F350.00
G01 X14.6767 Y39.9595 F350.00
G01 X14.5958 Y39.9800 F350.00
G01 X14.5766 Y39.9838 F350.00
G01 X14.4940 Y39.9958 F350.00
G01 X14.4058 Y40.0003 F350.00
G01 X8.9675 Y40.0004 F350.00
G01 X8.9586 Y40.0109 F350.00
G01 X8.8529 Y40.1271 F350.00
G01 X8.7293 Y40.2391 F350.00
G01 X8.5953 Y40.3385 F350.00
G01 X8.4608 Y40.4194 F350.00
G01 X8.4479 Y40.4265 F350.00
G01 X8.4311 Y40.4345 F350.00
G01 X8.4311 Y44.5099 F350.00
G01 X18.7260 Y54.8048 F350.00
G01 X18.7722 Y54.8558 F350.00
G01 X18.8131 Y54.9110 F350.00
G01 X18.8484 Y54.9699 F350.00
G01 X18.8738 Y55.0231 F350.00
G01 X18.8813 Y55.0412 F350.00
G01 X18.9010 Y55.0967 F350.00
G01 X18.9177 Y55.1634 F350.00
G01 X18.9277 Y55.2314 F350.00
G01 X18.9311 Y55.3000 F350.00
G01 X18.9311 Y67.3497 F350.00
G01 X46.7806 Y67.3497 F350.00
G01 X46.7806 Y65.1500 F350.00
G01 X46.5936 Y65.1499 F350.00
G01 X46.5429 Y65.1473 F350.00
G01 X46.4974 Y65.1408 F350.00
G01 X46.4830 Y65.1381 F350.00
G01 X46.4432 Y65.1282 F350.00
G01 X46.4244 Y65.1225 F350.00
G01 X46.3813 Y65.1068 F350.00
G01 X46.3309 Y65.0830 F350.00
G01 X46.2831 Y65.0543 F350.00
G01 X46.2384 Y65.0211 F350.00
G01 X46.1971 Y64.9837 F350.00
G01 X46.1597 Y64.9425 F350.00
G01 X46.1265 Y64.8977 F350.00
G01 X46.0979 Y64.8499 F350.00
G01 X46.0741 Y64.7996 F350.00
G01 X46.0568 Y64.7518 F350.00
G01 X46.0527 Y64.7377 F350.00
G01 X46.0439 Y64.7027 F350.00
G01 X46.0401 Y64.6834 F350.00
G01 X46.0336 Y64.6380 F350.00
G01 X46.0309 Y64.5873 F350.00
G01 X46.0309 Y62.8176 F350.00
G01 X46.0336 Y62.7620 F350.00
G01 X46.0401 Y62.7166 F350.00
G01 X46.0439 Y62.6973 F350.00
G01 X46.0539 Y62.6576 F350.00
G01 X46.0584 Y62.6435 F350.00
G01 X46.0741 Y62.6004 F350.00
G01 X46.0935 Y62.5588 F350.00
G01 X46.1027 Y62.5415 F350.00
G01 X46.1265 Y62.5023 F350.00
G01 X46.1597 Y62.4575 F350.00
G01 X46.1971 Y62.4163 F350.00
G01 X46.2310 Y62.3853 F350.00
G01 X46.2461 Y62.3728 F350.00
G01 X46.2831 Y62.3457 F350.00
G01 X46.3224 Y62.3219 F350.00
G01 X46.3353 Y62.3148 F350.00
G01 X46.3723 Y62.2972 F350.00
G01 X46.3858 Y62.2914 F350.00
G01 X46.4291 Y62.2759 F350.00
G01 X46.4432 Y62.2718 F350.00
G01 X46.4830 Y62.2619 F350.00
G01 X46.4974 Y62.2592 F350.00
G01 X46.5429 Y62.2527 F350.00
G01 X46.5887 Y62.2502 F350.00
G01 X46.7806 Y62.2500 F350.00
G01 X46.7806 Y61.6931 F350.00
G01 X46.7496 Y61.7212 F350.00
G01 X46.7383 Y61.7307 F350.00
G01 X46.6516 Y61.7950 F350.00
G01 X46.6393 Y61.8030 F350.00
G01 X46.5551 Y61.8535 F350.00
G01 X46.5422 Y61.8606 F350.00
G01 X46.4401 Y61.9087 F350.00
G01 X46.3385 Y61.9452 F350.00
G01 X46.3197 Y61.9509 F350.00
G01 X46.2245 Y61.9748 F350.00
G01 X46.2101 Y61.9778 F350.00
G01 X46.0985 Y61.9942 F350.00
G01 X45.9907 Y61.9998 F350.00
G01 X45.9710 Y61.9998 F350.00
G01 X45.8632 Y61.9942 F350.00
G01 X45.7564 Y61.9786 F350.00
G01 X45.7372 Y61.9748 F350.00
G01 X45.6325 Y61.9483 F350.00
G01 X45.5262 Y61.9105 F350.00
G01 X45.5127 Y61.9047 F350.00
G01 X45.4240 Y61.8627 F350.00
G01 X45.4066 Y61.8535 F350.00
G01 X45.3142 Y61.7978 F350.00
G01 X45.2196 Y61.7276 F350.00
G01 X45.1394 Y61.6553 F350.00
G01 X45.1256 Y61.6414 F350.00
G01 X45.0532 Y61.5613 F350.00
G01 X44.9887 Y61.4747 F350.00
G01 X44.9778 Y61.4584 F350.00
G01 X44.9226 Y61.3657 F350.00
G01 X44.8762 Y61.2682 F350.00
G01 X44.8687 Y61.2501 F350.00
G01 X44.8325 Y61.1483 F350.00
G01 X44.8061 Y61.0437 F350.00
G01 X44.8022 Y61.0244 F350.00
G01 X44.7878 Y60.9274 F350.00
G01 X44.7862 Y60.9127 F350.00
G01 X44.7809 Y60.8000 F350.00
G01 X44.7809 Y58.7951 F350.00
G01 X44.7866 Y58.6824 F350.00
G01 X44.8039 Y58.5659 F350.00
G01 X44.8325 Y58.4517 F350.00
G01 X44.8687 Y58.3499 F350.00
G01 X44.8762 Y58.3318 F350.00
G01 X44.9181 Y58.2431 F350.00
G01 X44.9274 Y58.2258 F350.00
G01 X44.9831 Y58.1333 F350.00
G01 X45.0532 Y58.0387 F350.00
G01 X45.1256 Y57.9586 F350.00
G01 X45.1394 Y57.9447 F350.00
G01 X45.2196 Y57.8724 F350.00
G01 X45.3142 Y57.8022 F350.00
G01 X45.4152 Y57.7417 F350.00
G01 X45.5127 Y57.6953 F350.00
G01 X45.5308 Y57.6878 F350.00
G01 X45.6325 Y57.6517 F350.00
G01 X45.7468 Y57.6231 F350.00
G01 X45.8535 Y57.6070 F350.00
G01 X45.8730 Y57.6051 F350.00
G01 X45.9710 Y57.6002 F350.00
G01 X45.9907 Y57.6002 F350.00
G01 X46.0985 Y57.6058 F350.00
G01 X46.2053 Y57.6214 F350.00
G01 X46.2245 Y57.6252 F350.00
G01 X46.3292 Y57.6517 F350.00
G01 X46.4309 Y57.6878 F350.00
G01 X46.4491 Y57.6953 F350.00
G01 X46.5465 Y57.7417 F350.00
G01 X46.6393 Y57.7970 F350.00
G01 X46.6556 Y57.8079 F350.00
G01 X46.7421 Y57.8724 F350.00
G01 X46.8223 Y57.9447 F350.00
G01 X46.8362 Y57.9586 F350.00
G01 X46.9085 Y58.0387 F350.00
G01 X46.9730 Y58.1253 F350.00
G01 X46.9839 Y58.1416 F350.00
G01 X47.0368 Y58.2300 F350.00
G01 X47.0436 Y58.2431 F350.00
G01 X47.0895 Y58.3408 F350.00
G01 X47.1292 Y58.4517 F350.00
G01 X47.1578 Y58.5659 F350.00
G01 X47.1739 Y58.6726 F350.00
G01 X47.1755 Y58.6873 F350.00
G01 X47.1809 Y58.8000 F350.00
G01 X47.1809 Y60.0097 F350.00
G01 X47.9828 Y60.8120 F350.00
G01 X48.0222 Y60.8558 F350.00
G01 X48.0631 Y60.9110 F350.00
G01 X48.0984 Y60.9699 F350.00
G01 X48.1259 Y61.0275 F350.00
G01 X48.1313 Y61.0412 F350.00
G01 X48.1510 Y61.0967 F350.00
G01 X48.1677 Y61.1634 F350.00
G01 X48.1777 Y61.2314 F350.00
G01 X48.1809 Y61.2902 F350.00
G01 X48.1811 Y62.2500 F350.00
G01 X48.3730 Y62.2502 F350.00
G01 X48.4189 Y62.2527 F350.00
G01 X48.4740 Y62.2609 F350.00
G01 X48.5280 Y62.2744 F350.00
G01 X48.5804 Y62.2932 F350.00
G01 X48.6308 Y62.3170 F350.00
G01 X48.6745 Y62.3430 F350.00
G01 X48.6866 Y62.3513 F350.00
G01 X48.7233 Y62.3789 F350.00
G01 X48.7646 Y62.4163 F350.00
G01 X48.8020 Y62.4575 F350.00
G01 X48.8352 Y62.5023 F350.00
G01 X48.8638 Y62.5501 F350.00
G01 X48.8877 Y62.6004 F350.00
G01 X48.9064 Y62.6529 F350.00
G01 X48.9178 Y62.6973 F350.00
G01 X48.9209 Y62.7117 F350.00
G01 X48.9281 Y62.7620 F350.00
G01 X48.9309 Y62.8176 F350.00
G01 X48.9309 Y64.5824 F350.00
G01 X48.9281 Y64.6380 F350.00
G01 X48.9209 Y64.6883 F350.00
G01 X48.9178 Y64.7027 F350.00
G01 X48.9064 Y64.7471 F350.00
G01 X48.8877 Y64.7996 F350.00
G01 X48.8638 Y64.8499 F350.00
G01 X48.8352 Y64.8977 F350.00
G01 X48.8020 Y64.9425 F350.00
G01 X48.7646 Y64.9837 F350.00
G01 X48.7233 Y65.0211 F350.00
G01 X48.6866 Y65.0487 F350.00
G01 X48.6745 Y65.0570 F350.00
G01 X48.6308 Y65.0830 F350.00
G01 X48.5804 Y65.1068 F350.00
G01 X48.5280 Y65.1256 F350.00
G01 X48.4740 Y65.1391 F350.00
G01 X48.4189 Y65.1473 F350.00
G01 X48.3730 Y65.1498 F350.00
G01 X48.1811 Y65.1500 F350.00
G01 X48.1811 Y68.0500 F350.00
G01 X48.1777 Y68.1186 F350.00
G01 X48.1677 Y68.1866 F350.00
G01 X48.1510 Y68.2533 F350.00
G01 X48.1278 Y68.3180 F350.00
G01 X48.1028 Y68.3713 F350.00
G01 X48.0936 Y68.3886 F350.00
G01 X48.0658 Y68.4349 F350.00
G01 X48.0574 Y68.4471 F350.00
G01 X48.0222 Y68.4942 F350.00
G01 X47.9828 Y68.5380 F350.00
G01 X47.9689 Y68.5519 F350.00
G01 X47.9251 Y68.5913 F350.00
G01 X47.8739 Y68.6295 F350.00
G01 X47.8616 Y68.6375 F350.00
G01 X47.8195 Y68.6627 F350.00
G01 X47.8022 Y68.6720 F350.00
G01 X47.7488 Y68.6969 F350.00
G01 X47.6841 Y68.7201 F350.00
G01 X47.6175 Y68.7368 F350.00
G01 X47.5592 Y68.7457 F350.00
G01 X47.5397 Y68.7476 F350.00
G01 X47.4809 Y68.7503 F350.00
G01 X18.2309 Y68.7503 F350.00
G01 X18.1720 Y68.7476 F350.00
G01 X18.1525 Y68.7457 F350.00
G01 X18.0942 Y68.7368 F350.00
G01 X18.0371 Y68.7227 F350.00
G01 X18.0183 Y68.7170 F350.00
G01 X17.9629 Y68.6969 F350.00
G01 X17.9008 Y68.6676 F350.00
G01 X17.8418 Y68.6322 F350.00
G01 X17.7944 Y68.5973 F350.00
G01 X17.7792 Y68.5849 F350.00
G01 X17.7357 Y68.5452 F350.00
G01 X17.6960 Y68.5017 F350.00
G01 X17.6835 Y68.4865 F350.00
G01 X17.6514 Y68.4431 F350.00
G01 X17.6434 Y68.4307 F350.00
G01 X17.6181 Y68.3886 F350.00
G01 X17.6089 Y68.3713 F350.00
G01 X17.5839 Y68.3180 F350.00
G01 X17.5608 Y68.2533 F350.00
G01 X17.5441 Y68.1866 F350.00
G01 X17.5352 Y68.1284 F350.00
G01 X17.5333 Y68.1088 F350.00
G01 X17.5306 Y68.0500 F350.00
G01 X17.5306 Y55.5901 F350.00
G01 X7.2357 Y45.2952 F350.00
G01 X7.1896 Y45.2442 F350.00
G01 X7.1543 Y45.1971 F350.00
G01 X7.1434 Y45.1807 F350.00
G01 X7.1157 Y45.1344 F350.00
G01 X7.1089 Y45.1213 F350.00
G01 X7.0839 Y45.0680 F350.00
G01 X7.0608 Y45.0033 F350.00
G01 X7.0462 Y44.9462 F350.00
G01 X7.0424 Y44.9269 F350.00
G01 X7.0340 Y44.8686 F350.00
G01 X7.0307 Y44.8049 F350.00
G01 X7.0306 Y40.5067 F350.00
G01 X7.0049 Y40.4974 F350.00
G01 X6.9913 Y40.4916 F350.00
G01 X6.8583 Y40.4287 F350.00
G01 X6.8409 Y40.4194 F350.00
G01 X6.7064 Y40.3385 F350.00
G01 X6.5801 Y40.2452 F350.00
G01 X6.5686 Y40.2360 F350.00
G01 X6.4488 Y40.1271 F350.00
G01 X6.3367 Y40.0035 F350.00
G01 X6.2374 Y39.8695 F350.00
G01 X6.1564 Y39.7349 F350.00
G01 X6.1472 Y39.7176 F350.00
G01 X6.0842 Y39.5845 F350.00
G01 X6.0767 Y39.5664 F350.00
G01 X6.0241 Y39.4185 F350.00
G01 X5.9857 Y39.2662 F350.00
G01 X5.9826 Y39.2518 F350.00
G01 X5.9590 Y39.0916 F350.00
G01 X5.9509 Y38.9299 F350.00
G01 X5.9511 Y38.9152 F350.00
G01 X5.9586 Y38.7633 F350.00
G01 X5.9602 Y38.7486 F350.00
G01 X5.9661 Y38.7093 F350.00
G01 X2.5554 Y35.2985 F350.00
G01 X2.4962 Y35.2329 F350.00
G01 X2.4463 Y35.1660 F350.00
G01 X2.4354 Y35.1497 F350.00
G01 X2.3927 Y35.0780 F350.00
G01 X2.3568 Y35.0027 F350.00
G01 X2.3493 Y34.9845 F350.00
G01 X2.3214 Y34.9059 F350.00
G01 X2.2987 Y34.8154 F350.00
G01 X2.2851 Y34.7232 F350.00
G01 X2.2805 Y34.6300 F350.00
G01 X2.2805 Y29.0950 F350.00
G01 X2.2851 Y29.0018 F350.00
G01 X2.2971 Y28.9193 F350.00
G01 X2.3009 Y28.9000 F350.00
G01 X2.3188 Y28.8286 F350.00
G01 X2.3245 Y28.8098 F350.00
G01 X2.3493 Y28.7405 F350.00
G01 X2.3568 Y28.7223 F350.00
G01 X2.3927 Y28.6470 F350.00
G01 X2.4354 Y28.5753 F350.00
G01 X2.4463 Y28.5590 F350.00
G01 X2.4962 Y28.4921 F350.00
G01 X2.5554 Y28.4265 F350.00
G01 X5.9742 Y25.0077 F350.00
G01 X5.9602 Y24.9139 F350.00
G01 X5.9586 Y24.8992 F350.00
G01 X5.9511 Y24.7473 F350.00
G01 X5.9509 Y24.7326 F350.00
G01 X5.9583 Y24.5807 F350.00
G01 X5.9596 Y24.5660 F350.00
G01 X5.9826 Y24.4107 F350.00
G01 X5.9857 Y24.3963 F350.00
G01 X5.9939 Y24.3634 F350.00
G01 X3.0554 Y21.4235 F350.00
G01 X3.0026 Y21.3653 F350.00
G01 X2.9902 Y21.3502 F350.00
G01 X2.9407 Y21.2830 F350.00
G01 X2.8975 Y21.2115 F350.00
G01 X2.8883 Y21.1942 F350.00
G01 X2.8528 Y21.1187 F350.00
G01 X2.8214 Y21.0309 F350.00
G01 X2.8009 Y20.9500 F350.00
G01 X2.7971 Y20.9307 F350.00
G01 X2.7851 Y20.8482 F350.00
G01 X2.7805 Y20.7550 F350.00
G01 X2.7805 Y14.2200 F350.00
G01 X2.7851 Y14.1268 F350.00
G01 X2.7971 Y14.0443 F350.00
G01 X2.8009 Y14.0250 F350.00
G01 X2.8188 Y13.9536 F350.00
G01 X2.8245 Y13.9348 F350.00
G01 X2.8528 Y13.8563 F350.00
G01 X2.8927 Y13.7720 F350.00
G01 X2.9354 Y13.7003 F350.00
G01 X2.9463 Y13.6840 F350.00
G01 X2.9962 Y13.6171 F350.00
G01 X3.0554 Y13.5515 F350.00
G01 X5.9742 Y10.6327 F350.00
G00 Z0.5000
G00 X8.6662 Y17.8754
G01 F250.00
G01 Z-0.0500
G01 F350.00
G01 X8.6513 Y17.9001 F350.00
G01 X8.6458 Y17.9082 F350.00
G01 X8.5815 Y17.9949 F350.00
G01 X8.5721 Y18.0062 F350.00
G01 X8.5062 Y18.0789 F350.00
G01 X8.4959 Y18.0895 F350.00
G01 X8.4121 Y18.1651 F350.00
G01 X8.3256 Y18.2296 F350.00
G01 X8.3093 Y18.2405 F350.00
G01 X8.2208 Y18.2934 F350.00
G01 X8.2078 Y18.3002 F350.00
G01 X8.1101 Y18.3462 F350.00
G01 X8.0085 Y18.3827 F350.00
G01 X7.9897 Y18.3884 F350.00
G01 X7.8850 Y18.4144 F350.00
G01 X7.7782 Y18.4305 F350.00
G01 X7.7587 Y18.4324 F350.00
G01 X7.6509 Y18.4375 F350.00
G01 X7.5430 Y18.4324 F350.00
G01 X7.5235 Y18.4305 F350.00
G01 X7.4168 Y18.4144 F350.00
G01 X7.3120 Y18.3884 F350.00
G01 X7.2932 Y18.3827 F350.00
G01 X7.1916 Y18.3462 F350.00
G01 X7.0852 Y18.2958 F350.00
G01 X6.9925 Y18.2405 F350.00
G01 X6.9762 Y18.2296 F350.00
G01 X6.8896 Y18.1651 F350.00
G01 X6.8094 Y18.0928 F350.00
G01 X6.7956 Y18.0789 F350.00
G01 X6.7232 Y17.9988 F350.00
G01 X6.6587 Y17.9122 F350.00
G01 X6.6504 Y17.9001 F350.00
G01 X6.5974 Y17.8117 F350.00
G01 X6.5881 Y17.7944 F350.00
G01 X6.5422 Y17.6967 F350.00
G01 X6.5056 Y17.5952 F350.00
G01 X6.4999 Y17.5764 F350.00
G01 X6.4739 Y17.4716 F350.00
G01 X6.4566 Y17.3551 F350.00
G01 X6.4509 Y17.2375 F350.00
G01 X6.4509 Y16.2375 F350.00
G01 X6.4559 Y16.1297 F350.00
G01 X6.4572 Y16.1150 F350.00
G01 X6.4739 Y16.0034 F350.00
G01 X6.4999 Y15.8986 F350.00
G01 X6.5056 Y15.8798 F350.00
G01 X6.5387 Y15.7874 F350.00
G01 X6.5462 Y15.7693 F350.00
G01 X6.5926 Y15.6718 F350.00
G01 X6.6478 Y15.5791 F350.00
G01 X6.6587 Y15.5628 F350.00
G01 X6.7232 Y15.4762 F350.00
G01 X6.8023 Y15.3890 F350.00
G01 X6.8896 Y15.3099 F350.00
G01 X6.9762 Y15.2454 F350.00
G01 X6.9883 Y15.2371 F350.00
G01 X7.0766 Y15.1840 F350.00
G01 X7.0940 Y15.1748 F350.00
G01 X7.1916 Y15.1288 F350.00
G01 X7.2932 Y15.0923 F350.00
G01 X7.3120 Y15.0866 F350.00
G01 X7.4168 Y15.0606 F350.00
G01 X7.5332 Y15.0433 F350.00
G01 X7.6509 Y15.0375 F350.00
G01 X7.7587 Y15.0426 F350.00
G01 X7.7782 Y15.0445 F350.00
G01 X7.8850 Y15.0606 F350.00
G01 X7.9897 Y15.0866 F350.00
G01 X8.0085 Y15.0923 F350.00
G01 X8.1101 Y15.1288 F350.00
G01 X8.2165 Y15.1792 F350.00
G01 X8.3093 Y15.2345 F350.00
G01 X8.3256 Y15.2454 F350.00
G01 X8.4121 Y15.3099 F350.00
G01 X8.4923 Y15.3822 F350.00
G01 X8.5062 Y15.3961 F350.00
G01 X8.5785 Y15.4762 F350.00
G01 X8.6486 Y15.5708 F350.00
G01 X8.7043 Y15.6633 F350.00
G01 X8.7136 Y15.6806 F350.00
G01 X8.7555 Y15.7693 F350.00
G01 X8.7630 Y15.7874 F350.00
G01 X8.7992 Y15.8892 F350.00
G01 X8.8208 Y15.9746 F350.00
G01 X13.7878 Y15.9746 F350.00
G01 X13.8307 Y15.9168 F350.00
G01 X13.8399 Y15.9053 F350.00
G01 X13.9454 Y15.7889 F350.00
G01 X13.9559 Y15.7786 F350.00
G01 X14.0650 Y15.6798 F350.00
G01 X14.0762 Y15.6703 F350.00
G01 X14.2064 Y15.5740 F350.00
G01 X14.3409 Y15.4931 F350.00
G01 X14.3583 Y15.4838 F350.00
G01 X14.4958 Y15.4188 F350.00
G01 X14.5095 Y15.4134 F350.00
G01 X14.6574 Y15.3607 F350.00
G01 X14.8096 Y15.3223 F350.00
G01 X14.8289 Y15.3185 F350.00
G01 X14.9842 Y15.2957 F350.00
G01 X15.1410 Y15.2877 F350.00
G01 X15.1607 Y15.2877 F350.00
G01 X15.3116 Y15.2952 F350.00
G01 X17.4509 Y13.1560 F350.00
G01 X17.4509 Y12.7375 F350.00
G01 X17.4566 Y12.6199 F350.00
G01 X17.4722 Y12.5131 F350.00
G01 X17.4761 Y12.4938 F350.00
G01 X17.5025 Y12.3892 F350.00
G01 X17.5404 Y12.2828 F350.00
G01 X17.5462 Y12.2693 F350.00
G01 X17.5881 Y12.1806 F350.00
G01 X17.5974 Y12.1633 F350.00
G01 X17.6531 Y12.0708 F350.00
G01 X17.7232 Y11.9762 F350.00
G01 X17.8023 Y11.8890 F350.00
G01 X17.8822 Y11.8163 F350.00
G01 X17.8973 Y11.8038 F350.00
G01 X17.9762 Y11.7454 F350.00
G01 X17.9883 Y11.7371 F350.00
G01 X18.0852 Y11.6792 F350.00
G01 X18.1916 Y11.6288 F350.00
G01 X18.3025 Y11.5892 F350.00
G01 X18.4072 Y11.5627 F350.00
G01 X18.4264 Y11.5589 F350.00
G01 X18.5332 Y11.5433 F350.00
G01 X18.6410 Y11.5377 F350.00
G01 X18.6607 Y11.5377 F350.00
G01 X18.7587 Y11.5426 F350.00
G01 X18.7782 Y11.5445 F350.00
G01 X18.8850 Y11.5606 F350.00
G01 X18.9897 Y11.5866 F350.00
G01 X19.0085 Y11.5923 F350.00
G01 X19.1101 Y11.6288 F350.00
G01 X19.2165 Y11.6792 F350.00
G01 X19.3175 Y11.7397 F350.00
G01 X19.4121 Y11.8099 F350.00
G01 X19.4994 Y11.8890 F350.00
G01 X19.5785 Y11.9762 F350.00
G01 X19.6486 Y12.0708 F350.00
G01 X19.7043 Y12.1633 F350.00
G01 X19.7114 Y12.1762 F350.00
G01 X19.7595 Y12.2783 F350.00
G01 X19.7992 Y12.3892 F350.00
G01 X19.8278 Y12.5034 F350.00
G01 X19.8451 Y12.6199 F350.00
G01 X19.8509 Y12.7375 F350.00
G01 X19.8509 Y13.7375 F350.00
G01 X19.8458 Y13.8453 F350.00
G01 X19.8439 Y13.8649 F350.00
G01 X19.8278 Y13.9716 F350.00
G01 X19.8018 Y14.0764 F350.00
G01 X19.7961 Y14.0952 F350.00
G01 X19.7595 Y14.1967 F350.00
G01 X19.7136 Y14.2944 F350.00
G01 X19.7043 Y14.3117 F350.00
G01 X19.6486 Y14.4042 F350.00
G01 X19.5785 Y14.4988 F350.00
G01 X19.4994 Y14.5860 F350.00
G01 X19.4196 Y14.6587 F350.00
G01 X19.4044 Y14.6712 F350.00
G01 X19.3256 Y14.7296 F350.00
G01 X19.3093 Y14.7405 F350.00
G01 X19.2165 Y14.7958 F350.00
G01 X19.1146 Y14.8442 F350.00
G01 X19.1009 Y14.8497 F350.00
G01 X19.0085 Y14.8827 F350.00
G01 X18.9897 Y14.8884 F350.00
G01 X18.8850 Y14.9144 F350.00
G01 X18.7685 Y14.9317 F350.00
G01 X18.6509 Y14.9375 F350.00
G01 X18.5381 Y14.9321 F350.00
G01 X18.5235 Y14.9305 F350.00
G01 X18.4216 Y14.9153 F350.00
G01 X18.4120 Y14.9134 F350.00
G01 X18.3875 Y14.9074 F350.00
G01 X16.7825 Y16.5124 F350.00
G01 X16.8182 Y16.6558 F350.00
G01 X16.8427 Y16.8209 F350.00
G01 X16.8509 Y16.9875 F350.00
G01 X16.8434 Y17.1443 F350.00
G01 X16.8415 Y17.1639 F350.00
G01 X16.8199 Y17.3095 F350.00
G01 X16.8160 Y17.3287 F350.00
G01 X16.7777 Y17.4810 F350.00
G01 X16.7215 Y17.6381 F350.00
G01 X16.6501 Y17.7889 F350.00
G01 X16.5644 Y17.9320 F350.00
G01 X16.4650 Y18.0660 F350.00
G01 X16.3597 Y18.1825 F350.00
G01 X16.3458 Y18.1964 F350.00
G01 X16.2368 Y18.2952 F350.00
G01 X16.2216 Y18.3077 F350.00
G01 X16.0953 Y18.4010 F350.00
G01 X15.9608 Y18.4819 F350.00
G01 X15.9479 Y18.4890 F350.00
G01 X15.8014 Y18.5581 F350.00
G01 X15.6443 Y18.6143 F350.00
G01 X15.4825 Y18.6548 F350.00
G01 X15.3175 Y18.6793 F350.00
G01 X15.1509 Y18.6875 F350.00
G01 X14.9842 Y18.6793 F350.00
G01 X14.8192 Y18.6548 F350.00
G01 X14.6621 Y18.6157 F350.00
G01 X14.6481 Y18.6112 F350.00
G01 X14.5003 Y18.5581 F350.00
G01 X14.3495 Y18.4868 F350.00
G01 X14.2064 Y18.4010 F350.00
G01 X14.0762 Y18.3047 F350.00
G01 X14.0650 Y18.2952 F350.00
G01 X13.9488 Y18.1896 F350.00
G01 X13.8399 Y18.0697 F350.00
G01 X13.8307 Y18.0582 F350.00
G01 X13.7401 Y17.9360 F350.00
G01 X13.7321 Y17.9237 F350.00
G01 X13.7032 Y17.8754 F350.00
G01 X8.6662 Y17.8754 F350.00
G00 Z0.5000
G00 X20.4906 Y14.7107
G01 F250.00
G01 Z-0.0500
G01 F350.00
G01 X20.4373 Y14.6712 F350.00
G01 X20.4258 Y14.6620 F350.00
G01 X20.3494 Y14.5928 F350.00
G01 X20.3389 Y14.5825 F350.00
G01 X20.2632 Y14.4988 F350.00
G01 X20.1987 Y14.4122 F350.00
G01 X20.1904 Y14.4001 F350.00
G01 X20.1326 Y14.3032 F350.00
G01 X20.0822 Y14.1967 F350.00
G01 X20.0425 Y14.0858 F350.00
G01 X20.0139 Y13.9716 F350.00
G01 X19.9966 Y13.8551 F350.00
G01 X19.9909 Y13.7424 F350.00
G01 X19.9909 Y12.7326 F350.00
G01 X19.9966 Y12.6199 F350.00
G01 X20.0122 Y12.5131 F350.00
G01 X20.0161 Y12.4938 F350.00
G01 X20.0399 Y12.3986 F350.00
G01 X20.0440 Y12.3845 F350.00
G01 X20.0822 Y12.2783 F350.00
G01 X20.1326 Y12.1718 F350.00
G01 X20.1931 Y12.0708 F350.00
G01 X20.2632 Y11.9762 F350.00
G01 X20.3423 Y11.8890 F350.00
G01 X20.4296 Y11.8099 F350.00
G01 X20.5242 Y11.7397 F350.00
G01 X20.6252 Y11.6792 F350.00
G01 X20.7316 Y11.6288 F350.00
G01 X20.8425 Y11.5892 F350.00
G01 X20.9568 Y11.5606 F350.00
G01 X21.0732 Y11.5433 F350.00
G01 X21.1909 Y11.5375 F350.00
G01 X21.3085 Y11.5433 F350.00
G01 X21.4250 Y11.5606 F350.00
G01 X21.5297 Y11.5866 F350.00
G01 X21.5439 Y11.5907 F350.00
G01 X21.6501 Y11.6288 F350.00
G01 X21.7478 Y11.6748 F350.00
G01 X21.7651 Y11.6840 F350.00
G01 X21.8575 Y11.7397 F350.00
G01 X21.9521 Y11.8099 F350.00
G01 X22.0323 Y11.8822 F350.00
G01 X22.0462 Y11.8961 F350.00
G01 X22.1121 Y11.9688 F350.00
G01 X22.1245 Y11.9840 F350.00
G01 X22.1886 Y12.0708 F350.00
G01 X22.2443 Y12.1633 F350.00
G01 X22.2536 Y12.1806 F350.00
G01 X22.2955 Y12.2693 F350.00
G01 X22.3030 Y12.2874 F350.00
G01 X22.3392 Y12.3892 F350.00
G01 X22.3678 Y12.5034 F350.00
G01 X22.3851 Y12.6199 F350.00
G01 X22.3906 Y12.7277 F350.00
G01 X22.3908 Y13.7424 F350.00
G01 X22.3858 Y13.8453 F350.00
G01 X22.3839 Y13.8649 F350.00
G01 X22.3678 Y13.9716 F350.00
G01 X22.3418 Y14.0764 F350.00
G01 X22.3361 Y14.0952 F350.00
G01 X22.3030 Y14.1876 F350.00
G01 X22.2955 Y14.2057 F350.00
G01 X22.2492 Y14.3032 F350.00
G01 X22.1939 Y14.3959 F350.00
G01 X22.1858 Y14.4082 F350.00
G01 X22.1185 Y14.4988 F350.00
G01 X22.0428 Y14.5825 F350.00
G01 X22.0323 Y14.5928 F350.00
G01 X21.9559 Y14.6620 F350.00
G01 X21.9444 Y14.6712 F350.00
G01 X21.8911 Y14.7107 F350.00
G01 X21.8911 Y19.2199 F350.00
G01 X23.5209 Y20.8497 F350.00
G01 X30.2309 Y20.8497 F350.00
G01 X30.2897 Y20.8524 F350.00
G01 X30.3092 Y20.8543 F350.00
G01 X30.3675 Y20.8632 F350.00
G01 X30.4247 Y20.8773 F350.00
G01 X30.4435 Y20.8830 F350.00
G01 X30.4988 Y20.9031 F350.00
G01 X30.5566 Y20.9302 F350.00
G01 X30.5695 Y20.9373 F350.00
G01 X30.6116 Y20.9625 F350.00
G01 X30.6279 Y20.9734 F350.00
G01 X30.6751 Y21.0087 F350.00
G01 X30.7189 Y21.0481 F350.00
G01 X30.7328 Y21.0620 F350.00
G01 X30.7722 Y21.1058 F350.00
G01 X30.8074 Y21.1529 F350.00
G01 X30.8183 Y21.1693 F350.00
G01 X30.8484 Y21.2199 F350.00
G01 X30.8778 Y21.2820 F350.00
G01 X30.9010 Y21.3467 F350.00
G01 X30.9177 Y21.4134 F350.00
G01 X30.9277 Y21.4814 F350.00
G01 X30.9311 Y21.5500 F350.00
G01 X30.9311 Y40.8497 F350.00
G01 X35.9809 Y40.8497 F350.00
G01 X36.0446 Y40.8527 F350.00
G01 X36.0592 Y40.8543 F350.00
G01 X36.1078 Y40.8615 F350.00
G01 X36.1271 Y40.8654 F350.00
G01 X36.1841 Y40.8799 F350.00
G01 X36.2397 Y40.8995 F350.00
G01 X36.2578 Y40.9070 F350.00
G01 X36.3110 Y40.9324 F350.00
G01 X36.3616 Y40.9625 F350.00
G01 X36.3779 Y40.9734 F350.00
G01 X36.4251 Y41.0087 F350.00
G01 X36.4689 Y41.0481 F350.00
G01 X36.4828 Y41.0620 F350.00
G01 X36.5222 Y41.1058 F350.00
G01 X36.5574 Y41.1529 F350.00
G01 X36.5683 Y41.1693 F350.00
G01 X36.5984 Y41.2199 F350.00
G01 X36.6238 Y41.2731 F350.00
G01 X36.6313 Y41.2912 F350.00
G01 X36.6510 Y41.3467 F350.00
G01 X36.6677 Y41.4134 F350.00
G01 X36.6777 Y41.4814 F350.00
G01 X36.6811 Y41.5500 F350.00
G01 X36.6785 Y41.6088 F350.00
G01 X36.6765 Y41.6284 F350.00
G01 X36.6677 Y41.6866 F350.00
G01 X36.6536 Y41.7438 F350.00
G01 X36.6479 Y41.7626 F350.00
G01 X36.6278 Y41.8180 F350.00
G01 X36.6007 Y41.8757 F350.00
G01 X36.5911 Y41.8928 F350.00
G01 X36.5911 Y51.3678 F350.00
G01 X36.6201 Y51.3722 F350.00
G01 X36.6298 Y51.3741 F350.00
G01 X36.7297 Y51.3991 F350.00
G01 X36.7439 Y51.4032 F350.00
G01 X36.8501 Y51.4413 F350.00
G01 X36.9478 Y51.4873 F350.00
G01 X36.9608 Y51.4941 F350.00
G01 X37.0575 Y51.5522 F350.00
G01 X37.1521 Y51.6224 F350.00
G01 X37.2394 Y51.7015 F350.00
G01 X37.3153 Y51.7850 F350.00
G01 X37.3245 Y51.7965 F350.00
G01 X37.3886 Y51.8833 F350.00
G01 X37.4443 Y51.9758 F350.00
G01 X37.4536 Y51.9931 F350.00
G01 X37.4955 Y52.0818 F350.00
G01 X37.5030 Y52.0999 F350.00
G01 X37.5392 Y52.2017 F350.00
G01 X37.5678 Y52.3159 F350.00
G01 X37.5851 Y52.4324 F350.00
G01 X37.5908 Y52.5451 F350.00
G01 X37.5906 Y52.5598 F350.00
G01 X37.5858 Y52.6578 F350.00
G01 X37.5839 Y52.6774 F350.00
G01 X37.5678 Y52.7841 F350.00
G01 X37.5392 Y52.8983 F350.00
G01 X37.5030 Y53.0001 F350.00
G01 X37.4955 Y53.0182 F350.00
G01 X37.4492 Y53.1157 F350.00
G01 X37.3886 Y53.2167 F350.00
G01 X37.3185 Y53.3113 F350.00
G01 X37.2462 Y53.3914 F350.00
G01 X37.2323 Y53.4053 F350.00
G01 X37.1521 Y53.4776 F350.00
G01 X37.0575 Y53.5478 F350.00
G01 X36.9651 Y53.6035 F350.00
G01 X36.9478 Y53.6127 F350.00
G01 X36.8501 Y53.6587 F350.00
G01 X36.7392 Y53.6983 F350.00
G01 X36.6250 Y53.7269 F350.00
G01 X36.5085 Y53.7442 F350.00
G01 X36.3909 Y53.7500 F350.00
G01 X35.3909 Y53.7500 F350.00
G01 X35.2830 Y53.7449 F350.00
G01 X35.2635 Y53.7430 F350.00
G01 X35.1664 Y53.7286 F350.00
G01 X35.1472 Y53.7248 F350.00
G01 X35.0425 Y53.6983 F350.00
G01 X34.9408 Y53.6622 F350.00
G01 X34.9227 Y53.6547 F350.00
G01 X34.8252 Y53.6083 F350.00
G01 X34.7325 Y53.5530 F350.00
G01 X34.7162 Y53.5421 F350.00
G01 X34.6296 Y53.4776 F350.00
G01 X34.5494 Y53.4053 F350.00
G01 X34.5356 Y53.3914 F350.00
G01 X34.4697 Y53.3187 F350.00
G01 X34.4572 Y53.3035 F350.00
G01 X34.3931 Y53.2167 F350.00
G01 X34.3374 Y53.1242 F350.00
G01 X34.3281 Y53.1069 F350.00
G01 X34.2822 Y53.0092 F350.00
G01 X34.2456 Y52.9077 F350.00
G01 X34.2399 Y52.8889 F350.00
G01 X34.2139 Y52.7841 F350.00
G01 X34.1978 Y52.6774 F350.00
G01 X34.1959 Y52.6578 F350.00
G01 X34.1909 Y52.5500 F350.00
G01 X34.1966 Y52.4324 F350.00
G01 X34.2139 Y52.3159 F350.00
G01 X34.2425 Y52.2017 F350.00
G01 X34.2822 Y52.0908 F350.00
G01 X34.3326 Y51.9843 F350.00
G01 X34.3931 Y51.8833 F350.00
G01 X34.4572 Y51.7965 F350.00
G01 X34.4697 Y51.7813 F350.00
G01 X34.5423 Y51.7015 F350.00
G01 X34.6296 Y51.6224 F350.00
G01 X34.7242 Y51.5522 F350.00
G01 X34.8166 Y51.4965 F350.00
G01 X34.8340 Y51.4873 F350.00
G01 X34.9316 Y51.4413 F350.00
G01 X35.0332 Y51.4048 F350.00
G01 X35.0520 Y51.3991 F350.00
G01 X35.1520 Y51.3741 F350.00
G01 X35.1616 Y51.3722 F350.00
G01 X35.1906 Y51.3678 F350.00
G01 X35.1906 Y42.2503 F350.00
G01 X30.2309 Y42.2503 F350.00
G01 X30.1622 Y42.2469 F350.00
G01 X30.0942 Y42.2368 F350.00
G01 X30.0371 Y42.2227 F350.00
G01 X30.0183 Y42.2170 F350.00
G01 X29.9629 Y42.1969 F350.00
G01 X29.9008 Y42.1676 F350.00
G01 X29.8501 Y42.1375 F350.00
G01 X29.8338 Y42.1266 F350.00
G01 X29.7905 Y42.0944 F350.00
G01 X29.7792 Y42.0849 F350.00
G01 X29.7357 Y42.0452 F350.00
G01 X29.6896 Y41.9942 F350.00
G01 X29.6486 Y41.9390 F350.00
G01 X29.6181 Y41.8886 F350.00
G01 X29.6089 Y41.8713 F350.00
G01 X29.5858 Y41.8225 F350.00
G01 X29.5804 Y41.8088 F350.00
G01 X29.5608 Y41.7533 F350.00
G01 X29.5451 Y41.6914 F350.00
G01 X29.5424 Y41.6769 F350.00
G01 X29.5340 Y41.6186 F350.00
G01 X29.5306 Y41.5500 F350.00
G01 X29.5306 Y22.2503 F350.00
G01 X23.2260 Y22.2502 F350.00
G01 X23.1622 Y22.2469 F350.00
G01 X23.0942 Y22.2368 F350.00
G01 X23.0276 Y22.2201 F350.00
G01 X22.9720 Y22.2005 F350.00
G01 X22.9584 Y22.1950 F350.00
G01 X22.9095 Y22.1720 F350.00
G01 X22.8922 Y22.1627 F350.00
G01 X22.8418 Y22.1322 F350.00
G01 X22.7866 Y22.0913 F350.00
G01 X22.7357 Y22.0452 F350.00
G01 X20.6923 Y20.0016 F350.00
G01 X20.6560 Y19.9617 F350.00
G01 X20.6435 Y19.9465 F350.00
G01 X20.6086 Y19.8990 F350.00
G01 X20.5781 Y19.8486 F350.00
G01 X20.5689 Y19.8313 F350.00
G01 X20.5439 Y19.7780 F350.00
G01 X20.5208 Y19.7133 F350.00
G01 X20.5041 Y19.6466 F350.00
G01 X20.4952 Y19.5884 F350.00
G01 X20.4933 Y19.5688 F350.00
G01 X20.4906 Y19.5100 F350.00
G01 X20.4906 Y14.7107 F350.00
G00 Z0.5000
G00 X25.8215 Y12.3496
G01 F250.00
G01 Z-0.0500
G01 F350.00
G01 X25.9167 Y12.2215 F350.00
G01 X26.0288 Y12.0979 F350.00
G01 X26.1524 Y11.9859 F350.00
G01 X26.2864 Y11.8865 F350.00
G01 X26.4295 Y11.8007 F350.00
G01 X26.5803 Y11.7294 F350.00
G01 X26.7374 Y11.6732 F350.00
G01 X26.8992 Y11.6327 F350.00
G01 X27.0642 Y11.6082 F350.00
G01 X27.2309 Y11.6000 F350.00
G01 X27.3975 Y11.6082 F350.00
G01 X27.5625 Y11.6327 F350.00
G01 X27.7243 Y11.6732 F350.00
G01 X27.8814 Y11.7294 F350.00
G01 X28.0322 Y11.8007 F350.00
G01 X28.1753 Y11.8865 F350.00
G01 X28.3093 Y11.9859 F350.00
G01 X28.4329 Y12.0979 F350.00
G01 X28.5450 Y12.2215 F350.00
G01 X28.6444 Y12.3555 F350.00
G01 X28.7301 Y12.4986 F350.00
G01 X28.8015 Y12.6494 F350.00
G01 X28.8577 Y12.8065 F350.00
G01 X28.8982 Y12.9683 F350.00
G01 X28.9227 Y13.1334 F350.00
G01 X28.9309 Y13.3000 F350.00
G01 X28.9227 Y13.4666 F350.00
G01 X28.8982 Y13.6317 F350.00
G01 X28.8577 Y13.7935 F350.00
G01 X28.8015 Y13.9506 F350.00
G01 X28.7301 Y14.1014 F350.00
G01 X28.6444 Y14.2445 F350.00
G01 X28.5450 Y14.3785 F350.00
G01 X28.4397 Y14.4950 F350.00
G01 X28.4258 Y14.5089 F350.00
G01 X28.3093 Y14.6141 F350.00
G01 X28.1834 Y14.7078 F350.00
G01 X28.1670 Y14.7188 F350.00
G01 X28.0408 Y14.7944 F350.00
G01 X28.0235 Y14.8037 F350.00
G01 X27.8814 Y14.8706 F350.00
G01 X27.7243 Y14.9268 F350.00
G01 X27.5625 Y14.9673 F350.00
G01 X27.3975 Y14.9918 F350.00
G01 X27.2407 Y14.9998 F350.00
G01 X27.2210 Y14.9998 F350.00
G01 X27.0642 Y14.9918 F350.00
G01 X26.9089 Y14.9690 F350.00
G01 X26.8896 Y14.9652 F350.00
G01 X26.7374 Y14.9268 F350.00
G01 X26.5895 Y14.8741 F350.00
G01 X26.5713 Y14.8666 F350.00
G01 X26.4295 Y14.7993 F350.00
G01 X26.2947 Y14.7188 F350.00
G01 X26.2784 Y14.7078 F350.00
G01 X26.1524 Y14.6141 F350.00
G01 X26.0359 Y14.5089 F350.00
G01 X26.0220 Y14.4950 F350.00
G01 X25.9167 Y14.3785 F350.00
G01 X25.8215 Y14.2504 F350.00
G01 X24.9309 Y14.2504 F350.00
G01 X24.9309 Y14.7375 F350.00
G01 X24.9306 Y14.7473 F350.00
G01 X24.9294 Y14.7620 F350.00
G01 X24.9260 Y14.7813 F350.00
G01 X24.9222 Y14.7956 F350.00
G01 X24.9175 Y14.8095 F350.00
G01 X24.9117 Y14.8230 F350.00
G01 X24.9049 Y14.8361 F350.00
G01 X24.8972 Y14.8486 F350.00
G01 X24.8885 Y14.8605 F350.00
G01 X24.8791 Y14.8718 F350.00
G01 X24.8688 Y14.8823 F350.00
G01 X24.8577 Y14.8921 F350.00
G01 X24.8460 Y14.9010 F350.00
G01 X24.8337 Y14.9090 F350.00
G01 X24.8208 Y14.9161 F350.00
G01 X24.8074 Y14.9223 F350.00
G01 X24.7982 Y14.9258 F350.00
G01 X24.7842 Y14.9303 F350.00
G01 X24.7699 Y14.9337 F350.00
G01 X24.7505 Y14.9365 F350.00
G01 X24.7309 Y14.9375 F350.00
G01 X22.7260 Y14.9374 F350.00
G01 X22.7161 Y14.9370 F350.00
G01 X22.7015 Y14.9353 F350.00
G01 X22.6823 Y14.9315 F350.00
G01 X22.6681 Y14.9274 F350.00
G01 X22.6589 Y14.9241 F350.00
G01 X22.6409 Y14.9161 F350.00
G01 X22.6239 Y14.9065 F350.00
G01 X22.6117 Y14.8981 F350.00
G01 X22.6040 Y14.8921 F350.00
G01 X22.5894 Y14.8789 F350.00
G01 X22.5794 Y14.8681 F350.00
G01 X22.5732 Y14.8605 F350.00
G01 X22.5646 Y14.8486 F350.00
G01 X22.5545 Y14.8318 F350.00
G01 X22.5480 Y14.8185 F350.00
G01 X22.5426 Y14.8049 F350.00
G01 X22.5381 Y14.7908 F350.00
G01 X22.5338 Y14.7717 F350.00
G01 X22.5318 Y14.7571 F350.00
G01 X22.5309 Y14.7424 F350.00
G01 X22.5309 Y11.7375 F350.00
G01 X22.5318 Y11.7179 F350.00
G01 X22.5330 Y11.7082 F350.00
G01 X22.5357 Y11.6937 F350.00
G01 X22.5395 Y11.6794 F350.00
G01 X22.5426 Y11.6701 F350.00
G01 X22.5501 Y11.6520 F350.00
G01 X22.5568 Y11.6389 F350.00
G01 X22.5619 Y11.6305 F350.00
G01 X22.5702 Y11.6184 F350.00
G01 X22.5763 Y11.6106 F350.00
G01 X22.5860 Y11.5996 F350.00
G01 X22.5930 Y11.5927 F350.00
G01 X22.6078 Y11.5798 F350.00
G01 X22.6197 Y11.5712 F350.00
G01 X22.6323 Y11.5635 F350.00
G01 X22.6454 Y11.5567 F350.00
G01 X22.6635 Y11.5492 F350.00
G01 X22.6775 Y11.5447 F350.00
G01 X22.6967 Y11.5404 F350.00
G01 X22.7113 Y11.5385 F350.00
G01 X22.7260 Y11.5376 F350.00
G01 X24.7309 Y11.5375 F350.00
G01 X24.7456 Y11.5380 F350.00
G01 X24.7553 Y11.5390 F350.00
G01 X24.7699 Y11.5413 F350.00
G01 X24.7795 Y11.5435 F350.00
G01 X24.7936 Y11.5476 F350.00
G01 X24.8074 Y11.5527 F350.00
G01 X24.8208 Y11.5589 F350.00
G01 X24.8294 Y11.5635 F350.00
G01 X24.8420 Y11.5712 F350.00
G01 X24.8539 Y11.5798 F350.00
G01 X24.8652 Y11.5893 F350.00
G01 X24.8757 Y11.5996 F350.00
G01 X24.8855 Y11.6106 F350.00
G01 X24.8944 Y11.6223 F350.00
G01 X24.9024 Y11.6347 F350.00
G01 X24.9095 Y11.6476 F350.00
G01 X24.9156 Y11.6610 F350.00
G01 X24.9208 Y11.6748 F350.00
G01 X24.9236 Y11.6842 F350.00
G01 X24.9270 Y11.6985 F350.00
G01 X24.9299 Y11.7179 F350.00
G01 X24.9309 Y11.7375 F350.00
G01 X24.9309 Y12.3496 F350.00
G01 X25.8215 Y12.3496 F350.00
G00 Z0.5000
G00 X21.0306 Y0.6756
G01 F250.00
G01 Z-0.0500
G01 F350.00
G01 X20.9568 Y0.6644 F350.00
G01 X20.8472 Y0.6372 F350.00
G01 X20.8332 Y0.6327 F350.00
G01 X20.7408 Y0.5997 F350.00
G01 X20.7271 Y0.5942 F350.00
G01 X20.6252 Y0.5458 F350.00
G01 X20.5325 Y0.4905 F350.00
G01 X20.5162 Y0.4796 F350.00
G01 X20.4334 Y0.4182 F350.00
G01 X20.4222 Y0.4087 F350.00
G01 X20.3423 Y0.3360 F350.00
G01 X20.2697 Y0.2562 F350.00
G01 X20.2572 Y0.2410 F350.00
G01 X20.1931 Y0.1542 F350.00
G01 X20.1374 Y0.0617 F350.00
G01 X20.1281 Y0.0444 F350.00
G01 X20.0841 Y-0.0488 F350.00
G01 X20.0787 Y-0.0624 F350.00
G01 X20.0425 Y-0.1642 F350.00
G01 X20.0161 Y-0.2688 F350.00
G01 X20.0122 Y-0.2881 F350.00
G01 X19.9978 Y-0.3851 F350.00
G01 X19.9959 Y-0.4047 F350.00
G01 X19.9909 Y-0.5125 F350.00
G01 X19.9909 Y-1.5125 F350.00
G01 X19.9962 Y-1.6252 F350.00
G01 X19.9978 Y-1.6399 F350.00
G01 X20.0139 Y-1.7466 F350.00
G01 X20.0425 Y-1.8608 F350.00
G01 X20.0822 Y-1.9717 F350.00
G01 X20.1326 Y-2.0782 F350.00
G01 X20.1931 Y-2.1792 F350.00
G01 X20.2632 Y-2.2738 F350.00
G01 X20.3423 Y-2.3610 F350.00
G01 X20.4296 Y-2.4401 F350.00
G01 X20.5242 Y-2.5103 F350.00
G01 X20.6252 Y-2.5708 F350.00
G01 X20.7316 Y-2.6212 F350.00
G01 X20.8425 Y-2.6608 F350.00
G01 X20.9568 Y-2.6894 F350.00
G01 X21.0732 Y-2.7067 F350.00
G01 X21.1909 Y-2.7125 F350.00
G01 X21.3036 Y-2.7071 F350.00
G01 X21.3182 Y-2.7055 F350.00
G01 X21.4250 Y-2.6894 F350.00
G01 X21.5297 Y-2.6634 F350.00
G01 X21.5485 Y-2.6577 F350.00
G01 X21.6409 Y-2.6247 F350.00
G01 X21.6591 Y-2.6172 F350.00
G01 X21.7565 Y-2.5708 F350.00
G01 X21.8575 Y-2.5103 F350.00
G01 X21.9521 Y-2.4401 F350.00
G01 X22.0394 Y-2.3610 F350.00
G01 X22.1185 Y-2.2738 F350.00
G01 X22.1830 Y-2.1872 F350.00
G01 X22.1939 Y-2.1709 F350.00
G01 X22.2443 Y-2.0867 F350.00
G01 X22.2536 Y-2.0694 F350.00
G01 X22.2995 Y-1.9717 F350.00
G01 X22.3392 Y-1.8608 F350.00
G01 X22.3678 Y-1.7466 F350.00
G01 X22.3845 Y-1.6350 F350.00
G01 X22.3858 Y-1.6203 F350.00
G01 X22.3908 Y-1.5174 F350.00
G01 X22.3909 Y-1.2447 F350.00
G01 X22.3995 Y-1.2205 F350.00
G01 X22.4023 Y-1.2111 F350.00
G01 X22.4155 Y-1.1587 F350.00
G01 X22.4186 Y-1.1443 F350.00
G01 X22.4277 Y-1.0811 F350.00
G01 X22.4311 Y-1.0125 F350.00
G01 X22.4311 Y5.5997 F350.00
G01 X29.7358 Y5.5998 F350.00
G01 X29.7995 Y5.6031 F350.00
G01 X29.8675 Y5.6132 F350.00
G01 X29.9341 Y5.6299 F350.00
G01 X29.9897 Y5.6495 F350.00
G01 X30.0033 Y5.6550 F350.00
G01 X30.0522 Y5.6780 F350.00
G01 X30.0695 Y5.6873 F350.00
G01 X30.1199 Y5.7178 F350.00
G01 X30.1751 Y5.7587 F350.00
G01 X30.2260 Y5.8048 F350.00
G01 X30.2722 Y5.8558 F350.00
G01 X30.3131 Y5.9110 F350.00
G01 X30.3484 Y5.9699 F350.00
G01 X30.3778 Y6.0320 F350.00
G01 X30.4010 Y6.0967 F350.00
G01 X30.4177 Y6.1634 F350.00
G01 X30.4265 Y6.2216 F350.00
G01 X30.4282 Y6.2363 F350.00
G01 X30.4311 Y6.3000 F350.00
G01 X30.4311 Y9.5099 F350.00
G01 X42.9760 Y22.0548 F350.00
G01 X43.0222 Y22.1058 F350.00
G01 X43.0574 Y22.1529 F350.00
G01 X43.0683 Y22.1693 F350.00
G01 X43.0936 Y22.2114 F350.00
G01 X43.1007 Y22.2243 F350.00
G01 X43.1238 Y22.2731 F350.00
G01 X43.1313 Y22.2912 F350.00
G01 X43.1510 Y22.3467 F350.00
G01 X43.1655 Y22.4038 F350.00
G01 X43.1693 Y22.4231 F350.00
G01 X43.1777 Y22.4814 F350.00
G01 X43.1811 Y22.5500 F350.00
G01 X43.1811 Y45.7599 F350.00
G01 X45.0209 Y47.5997 F350.00
G01 X76.6777 Y47.5997 F350.00
G01 X76.7172 Y47.5465 F350.00
G01 X76.7264 Y47.5350 F350.00
G01 X76.7956 Y47.4586 F350.00
G01 X76.8058 Y47.4480 F350.00
G01 X76.8896 Y47.3724 F350.00
G01 X76.9801 Y47.3050 F350.00
G01 X76.9925 Y47.2970 F350.00
G01 X77.0852 Y47.2417 F350.00
G01 X77.1827 Y47.1953 F350.00
G01 X77.2008 Y47.1878 F350.00
G01 X77.2932 Y47.1548 F350.00
G01 X77.3120 Y47.1491 F350.00
G01 X77.4168 Y47.1231 F350.00
G01 X77.5235 Y47.1070 F350.00
G01 X77.5430 Y47.1051 F350.00
G01 X77.6460 Y47.1001 F350.00
G01 X78.6607 Y47.1002 F350.00
G01 X78.7685 Y47.1058 F350.00
G01 X78.8753 Y47.1214 F350.00
G01 X78.8945 Y47.1252 F350.00
G01 X78.9992 Y47.1517 F350.00
G01 X79.1009 Y47.1878 F350.00
G01 X79.1191 Y47.1953 F350.00
G01 X79.2165 Y47.2417 F350.00
G01 X79.3175 Y47.3022 F350.00
G01 X79.4121 Y47.3724 F350.00
G01 X79.4923 Y47.4447 F350.00
G01 X79.5062 Y47.4586 F350.00
G01 X79.5785 Y47.5387 F350.00
G01 X79.6430 Y47.6253 F350.00
G01 X79.6539 Y47.6416 F350.00
G01 X79.7092 Y47.7343 F350.00
G01 X79.7555 Y47.8318 F350.00
G01 X79.7630 Y47.8499 F350.00
G01 X79.7961 Y47.9423 F350.00
G01 X79.8018 Y47.9611 F350.00
G01 X79.8278 Y48.0659 F350.00
G01 X79.8439 Y48.1726 F350.00
G01 X79.8458 Y48.1922 F350.00
G01 X79.8509 Y48.3000 F350.00
G01 X79.8458 Y48.4078 F350.00
G01 X79.8439 Y48.4274 F350.00
G01 X79.8278 Y48.5341 F350.00
G01 X79.8018 Y48.6389 F350.00
G01 X79.7961 Y48.6577 F350.00
G01 X79.7595 Y48.7592 F350.00
G01 X79.7092 Y48.8657 F350.00
G01 X79.6539 Y48.9584 F350.00
G01 X79.6430 Y48.9747 F350.00
G01 X79.5785 Y49.0613 F350.00
G01 X79.4994 Y49.1485 F350.00
G01 X79.4196 Y49.2212 F350.00
G01 X79.4044 Y49.2337 F350.00
G01 X79.3256 Y49.2921 F350.00
G01 X79.3093 Y49.3030 F350.00
G01 X79.2165 Y49.3583 F350.00
G01 X79.1101 Y49.4087 F350.00
G01 X78.9992 Y49.4483 F350.00
G01 X78.8898 Y49.4759 F350.00
G01 X78.8753 Y49.4786 F350.00
G01 X78.7685 Y49.4942 F350.00
G01 X78.6558 Y49.4999 F350.00
G01 X77.6509 Y49.5000 F350.00
G01 X77.5332 Y49.4942 F350.00
G01 X77.4264 Y49.4786 F350.00
G01 X77.4072 Y49.4748 F350.00
G01 X77.3025 Y49.4483 F350.00
G01 X77.2008 Y49.4122 F350.00
G01 X77.1827 Y49.4047 F350.00
G01 X77.0895 Y49.3606 F350.00
G01 X77.0766 Y49.3535 F350.00
G01 X76.9842 Y49.2978 F350.00
G01 X76.8973 Y49.2337 F350.00
G01 X76.8858 Y49.2245 F350.00
G01 X76.8094 Y49.1553 F350.00
G01 X76.7956 Y49.1414 F350.00
G01 X76.7232 Y49.0613 F350.00
G01 X76.6777 Y49.0003 F350.00
G01 X44.5209 Y49.0003 F350.00
G01 X37.5535 Y55.9677 F350.00
G01 X37.5778 Y56.0659 F350.00
G01 X37.5939 Y56.1726 F350.00
G01 X37.5958 Y56.1922 F350.00
G01 X37.6009 Y56.3000 F350.00
G01 X37.5958 Y56.4078 F350.00
G01 X37.5939 Y56.4274 F350.00
G01 X37.5778 Y56.5341 F350.00
G01 X37.5492 Y56.6483 F350.00
G01 X37.5130 Y56.7501 F350.00
G01 X37.5055 Y56.7682 F350.00
G01 X37.4592 Y56.8657 F350.00
G01 X37.3986 Y56.9667 F350.00
G01 X37.3285 Y57.0613 F350.00
G01 X37.2562 Y57.1414 F350.00
G01 X37.2423 Y57.1553 F350.00
G01 X37.1621 Y57.2276 F350.00
G01 X37.0675 Y57.2978 F350.00
G01 X36.9751 Y57.3535 F350.00
G01 X36.9578 Y57.3627 F350.00
G01 X36.8691 Y57.4047 F350.00
G01 X36.8509 Y57.4122 F350.00
G01 X36.7492 Y57.4483 F350.00
G01 X36.6350 Y57.4769 F350.00
G01 X36.5185 Y57.4942 F350.00
G01 X36.4009 Y57.5000 F350.00
G01 X35.3960 Y57.4999 F350.00
G01 X35.2832 Y57.4942 F350.00
G01 X35.1764 Y57.4786 F350.00
G01 X35.1572 Y57.4748 F350.00
G01 X35.0525 Y57.4483 F350.00
G01 X34.9508 Y57.4122 F350.00
G01 X34.9327 Y57.4047 F350.00
G01 X34.8352 Y57.3583 F350.00
G01 X34.7425 Y57.3030 F350.00
G01 X34.7262 Y57.2921 F350.00
G01 X34.6396 Y57.2276 F350.00
G01 X34.5523 Y57.1485 F350.00
G01 X34.4732 Y57.0613 F350.00
G01 X34.4031 Y56.9667 F350.00
G01 X34.3426 Y56.8657 F350.00
G01 X34.2922 Y56.7592 F350.00
G01 X34.2525 Y56.6483 F350.00
G01 X34.2239 Y56.5341 F350.00
G01 X34.2078 Y56.4274 F350.00
G01 X34.2059 Y56.4078 F350.00
G01 X34.2009 Y56.3000 F350.00
G01 X34.2059 Y56.1922 F350.00
G01 X34.2078 Y56.1726 F350.00
G01 X34.2239 Y56.0659 F350.00
G01 X34.2499 Y55.9611 F350.00
G01 X34.2556 Y55.9423 F350.00
G01 X34.2887 Y55.8499 F350.00
G01 X34.2962 Y55.8318 F350.00
G01 X34.3426 Y55.7343 F350.00
G01 X34.4031 Y55.6333 F350.00
G01 X34.4732 Y55.5387 F350.00
G01 X34.5489 Y55.4550 F350.00
G01 X34.5594 Y55.4447 F350.00
G01 X34.6322 Y55.3788 F350.00
G01 X34.6473 Y55.3663 F350.00
G01 X34.7342 Y55.3022 F350.00
G01 X34.8352 Y55.2417 F350.00
G01 X34.9327 Y55.1953 F350.00
G01 X34.9508 Y55.1878 F350.00
G01 X35.0525 Y55.1517 F350.00
G01 X35.1668 Y55.1231 F350.00
G01 X35.2832 Y55.1058 F350.00
G01 X35.3960 Y55.1001 F350.00
G01 X36.4009 Y55.1000 F350.00
G01 X36.4389 Y55.1016 F350.00
G01 X43.4906 Y48.0500 F350.00
G01 X41.9857 Y46.5452 F350.00
G01 X41.9427 Y46.4980 F350.00
G01 X41.9335 Y46.4865 F350.00
G01 X41.9043 Y46.4471 F350.00
G01 X41.8934 Y46.4307 F350.00
G01 X41.8633 Y46.3801 F350.00
G01 X41.8339 Y46.3180 F350.00
G01 X41.8108 Y46.2533 F350.00
G01 X41.7962 Y46.1962 F350.00
G01 X41.7924 Y46.1769 F350.00
G01 X41.7852 Y46.1284 F350.00
G01 X41.7836 Y46.1137 F350.00
G01 X41.7806 Y46.0500 F350.00
G01 X41.7806 Y22.8401 F350.00
G01 X29.2357 Y10.2952 F350.00
G01 X29.1896 Y10.2442 F350.00
G01 X29.1486 Y10.1890 F350.00
G01 X29.1181 Y10.1386 F350.00
G01 X29.1089 Y10.1213 F350.00
G01 X29.0858 Y10.0725 F350.00
G01 X29.0804 Y10.0588 F350.00
G01 X29.0608 Y10.0033 F350.00
G01 X29.0441 Y9.9366 F350.00
G01 X29.0340 Y9.8686 F350.00
G01 X29.0309 Y9.8098 F350.00
G01 X29.0306 Y7.0003 F350.00
G01 X21.7260 Y7.0002 F350.00
G01 X21.6622 Y6.9969 F350.00
G01 X21.5942 Y6.9868 F350.00
G01 X21.5276 Y6.9701 F350.00
G01 X21.4629 Y6.9469 F350.00
G01 X21.4008 Y6.9176 F350.00
G01 X21.3418 Y6.8822 F350.00
G01 X21.2866 Y6.8413 F350.00
G01 X21.2428 Y6.8019 F350.00
G01 X21.2323 Y6.7916 F350.00
G01 X21.1896 Y6.7442 F350.00
G01 X21.1486 Y6.6890 F350.00
G01 X21.1133 Y6.6301 F350.00
G01 X21.0839 Y6.5680 F350.00
G01 X21.0608 Y6.5033 F350.00
G01 X21.0441 Y6.4366 F350.00
G01 X21.0340 Y6.3686 F350.00
G01 X21.0307 Y6.3049 F350.00
G01 X21.0306 Y0.6756 F350.00
G00 Z0.5000
G00 X25.8215 Y-1.9004
G01 F250.00
G01 Z-0.0500
G01 F350.00
G01 X25.9167 Y-2.0285 F350.00
G01 X26.0288 Y-2.1521 F350.00
G01 X26.1524 Y-2.2641 F350.00
G01 X26.2864 Y-2.3635 F350.00
G01 X26.4295 Y-2.4493 F350.00
G01 X26.5803 Y-2.5206 F350.00
G01 X26.7374 Y-2.5768 F350.00
G01 X26.8992 Y-2.6173 F350.00
G01 X27.0642 Y-2.6418 F350.00
G01 X27.2309 Y-2.6500 F350.00
G01 X27.3975 Y-2.6418 F350.00
G01 X27.5625 Y-2.6173 F350.00
G01 X27.7243 Y-2.5768 F350.00
G01 X27.8814 Y-2.5206 F350.00
G01 X28.0322 Y-2.4493 F350.00
G01 X28.1753 Y-2.3635 F350.00
G01 X28.3093 Y-2.2641 F350.00
G01 X28.4329 Y-2.1521 F350.00
G01 X28.5450 Y-2.0285 F350.00
G01 X28.6444 Y-1.8945 F350.00
G01 X28.7301 Y-1.7514 F350.00
G01 X28.8015 Y-1.6006 F350.00
G01 X28.8577 Y-1.4435 F350.00
G01 X28.8982 Y-1.2817 F350.00
G01 X28.9227 Y-1.1166 F350.00
G01 X28.9309 Y-0.9500 F350.00
G01 X28.9227 Y-0.7834 F350.00
G01 X28.8982 Y-0.6183 F350.00
G01 X28.8577 Y-0.4565 F350.00
G01 X28.8015 Y-0.2994 F350.00
G01 X28.7301 Y-0.1486 F350.00
G01 X28.6444 Y-0.0055 F350.00
G01 X28.5450 Y0.1285 F350.00
G01 X28.4397 Y0.2450 F350.00
G01 X28.4258 Y0.2589 F350.00
G01 X28.3093 Y0.3641 F350.00
G01 X28.1834 Y0.4578 F350.00
G01 X28.1670 Y0.4688 F350.00
G01 X28.0408 Y0.5444 F350.00
G01 X28.0235 Y0.5537 F350.00
G01 X27.8814 Y0.6206 F350.00
G01 X27.7243 Y0.6768 F350.00
G01 X27.5625 Y0.7173 F350.00
G01 X27.3975 Y0.7418 F350.00
G01 X27.2407 Y0.7498 F350.00
G01 X27.2210 Y0.7498 F350.00
G01 X27.0642 Y0.7418 F350.00
G01 X26.9089 Y0.7190 F350.00
G01 X26.8896 Y0.7152 F350.00
G01 X26.7374 Y0.6768 F350.00
G01 X26.5895 Y0.6241 F350.00
G01 X26.5713 Y0.6166 F350.00
G01 X26.4295 Y0.5493 F350.00
G01 X26.2947 Y0.4688 F350.00
G01 X26.2784 Y0.4578 F350.00
G01 X26.1524 Y0.3641 F350.00
G01 X26.0359 Y0.2589 F350.00
G01 X26.0220 Y0.2450 F350.00
G01 X25.9167 Y0.1285 F350.00
G01 X25.8215 Y0.0004 F350.00
G01 X24.9309 Y0.0004 F350.00
G01 X24.9309 Y0.4875 F350.00
G01 X24.9306 Y0.4973 F350.00
G01 X24.9294 Y0.5120 F350.00
G01 X24.9260 Y0.5313 F350.00
G01 X24.9222 Y0.5456 F350.00
G01 X24.9175 Y0.5595 F350.00
G01 X24.9117 Y0.5730 F350.00
G01 X24.9049 Y0.5861 F350.00
G01 X24.8972 Y0.5986 F350.00
G01 X24.8885 Y0.6105 F350.00
G01 X24.8791 Y0.6218 F350.00
G01 X24.8688 Y0.6323 F350.00
G01 X24.8577 Y0.6421 F350.00
G01 X24.8460 Y0.6510 F350.00
G01 X24.8337 Y0.6590 F350.00
G01 X24.8208 Y0.6661 F350.00
G01 X24.8074 Y0.6723 F350.00
G01 X24.7936 Y0.6774 F350.00
G01 X24.7842 Y0.6803 F350.00
G01 X24.7699 Y0.6837 F350.00
G01 X24.7505 Y0.6865 F350.00
G01 X24.7309 Y0.6875 F350.00
G01 X22.7260 Y0.6874 F350.00
G01 X22.7064 Y0.6860 F350.00
G01 X22.6967 Y0.6846 F350.00
G01 X22.6823 Y0.6815 F350.00
G01 X22.6728 Y0.6789 F350.00
G01 X22.6589 Y0.6741 F350.00
G01 X22.6409 Y0.6661 F350.00
G01 X22.6239 Y0.6565 F350.00
G01 X22.6117 Y0.6481 F350.00
G01 X22.6040 Y0.6421 F350.00
G01 X22.5894 Y0.6289 F350.00
G01 X22.5794 Y0.6181 F350.00
G01 X22.5732 Y0.6105 F350.00
G01 X22.5646 Y0.5986 F350.00
G01 X22.5545 Y0.5818 F350.00
G01 X22.5480 Y0.5685 F350.00
G01 X22.5426 Y0.5549 F350.00
G01 X22.5381 Y0.5408 F350.00
G01 X22.5338 Y0.5217 F350.00
G01 X22.5318 Y0.5071 F350.00
G01 X22.5309 Y0.4924 F350.00
G01 X22.5309 Y-2.5125 F350.00
G01 X22.5318 Y-2.5321 F350.00
G01 X22.5330 Y-2.5418 F350.00
G01 X22.5357 Y-2.5563 F350.00
G01 X22.5395 Y-2.5706 F350.00
G01 X22.5426 Y-2.5799 F350.00
G01 X22.5501 Y-2.5980 F350.00
G01 X22.5568 Y-2.6111 F350.00
G01 X22.5619 Y-2.6195 F350.00
G01 X22.5702 Y-2.6316 F350.00
G01 X22.5763 Y-2.6394 F350.00
G01 X22.5860 Y-2.6504 F350.00
G01 X22.5930 Y-2.6573 F350.00
G01 X22.6078 Y-2.6702 F350.00
G01 X22.6197 Y-2.6788 F350.00
G01 X22.6323 Y-2.6865 F350.00
G01 X22.6454 Y-2.6933 F350.00
G01 X22.6635 Y-2.7008 F350.00
G01 X22.6775 Y-2.7053 F350.00
G01 X22.6918 Y-2.7087 F350.00
G01 X22.7064 Y-2.7110 F350.00
G01 X22.7260 Y-2.7124 F350.00
G01 X24.7309 Y-2.7125 F350.00
G01 X24.7407 Y-2.7123 F350.00
G01 X24.7553 Y-2.7110 F350.00
G01 X24.7651 Y-2.7096 F350.00
G01 X24.7795 Y-2.7065 F350.00
G01 X24.7936 Y-2.7024 F350.00
G01 X24.8074 Y-2.6973 F350.00
G01 X24.8208 Y-2.6911 F350.00
G01 X24.8337 Y-2.6840 F350.00
G01 X24.8460 Y-2.6760 F350.00
G01 X24.8577 Y-2.6671 F350.00
G01 X24.8652 Y-2.6607 F350.00
G01 X24.8757 Y-2.6504 F350.00
G01 X24.8855 Y-2.6394 F350.00
G01 X24.8944 Y-2.6277 F350.00
G01 X24.9024 Y-2.6153 F350.00
G01 X24.9095 Y-2.6024 F350.00
G01 X24.9156 Y-2.5890 F350.00
G01 X24.9208 Y-2.5752 F350.00
G01 X24.9236 Y-2.5658 F350.00
G01 X24.9270 Y-2.5515 F350.00
G01 X24.9299 Y-2.5321 F350.00
G01 X24.9309 Y-2.5125 F350.00
G01 X24.9309 Y-1.9004 F350.00
G01 X25.8215 Y-1.9004 F350.00
G00 Z0.5000
G00 X25.8215 Y26.8496
G01 F250.00
G01 Z-0.0500
G01 F350.00
G01 X25.9167 Y26.7215 F350.00
G01 X26.0288 Y26.5979 F350.00
G01 X26.1524 Y26.4859 F350.00
G01 X26.2864 Y26.3865 F350.00
G01 X26.4295 Y26.3007 F350.00
G01 X26.5803 Y26.2294 F350.00
G01 X26.7374 Y26.1732 F350.00
G01 X26.8992 Y26.1327 F350.00
G01 X27.0642 Y26.1082 F350.00
G01 X27.2309 Y26.1000 F350.00
G01 X27.3975 Y26.1082 F350.00
G01 X27.5625 Y26.1327 F350.00
G01 X27.7243 Y26.1732 F350.00
G01 X27.8814 Y26.2294 F350.00
G01 X28.0322 Y26.3007 F350.00
G01 X28.1753 Y26.3865 F350.00
G01 X28.3093 Y26.4859 F350.00
G01 X28.4329 Y26.5979 F350.00
G01 X28.5450 Y26.7215 F350.00
G01 X28.6444 Y26.8555 F350.00
G01 X28.7301 Y26.9986 F350.00
G01 X28.8015 Y27.1494 F350.00
G01 X28.8577 Y27.3065 F350.00
G01 X28.8982 Y27.4683 F350.00
G01 X28.9227 Y27.6334 F350.00
G01 X28.9309 Y27.8000 F350.00
G01 X28.9227 Y27.9666 F350.00
G01 X28.8982 Y28.1317 F350.00
G01 X28.8577 Y28.2935 F350.00
G01 X28.8015 Y28.4506 F350.00
G01 X28.7301 Y28.6014 F350.00
G01 X28.6444 Y28.7445 F350.00
G01 X28.5450 Y28.8785 F350.00
G01 X28.4397 Y28.9950 F350.00
G01 X28.4258 Y29.0089 F350.00
G01 X28.3093 Y29.1141 F350.00
G01 X28.1834 Y29.2078 F350.00
G01 X28.1670 Y29.2188 F350.00
G01 X28.0408 Y29.2944 F350.00
G01 X28.0235 Y29.3037 F350.00
G01 X27.8814 Y29.3706 F350.00
G01 X27.7243 Y29.4268 F350.00
G01 X27.5625 Y29.4673 F350.00
G01 X27.3975 Y29.4918 F350.00
G01 X27.2407 Y29.4998 F350.00
G01 X27.2210 Y29.4998 F350.00
G01 X27.0642 Y29.4918 F350.00
G01 X26.9089 Y29.4690 F350.00
G01 X26.8896 Y29.4652 F350.00
G01 X26.7374 Y29.4268 F350.00
G01 X26.5895 Y29.3741 F350.00
G01 X26.5713 Y29.3666 F350.00
G01 X26.4295 Y29.2993 F350.00
G01 X26.2947 Y29.2188 F350.00
G01 X26.2784 Y29.2078 F350.00
G01 X26.1524 Y29.1141 F350.00
G01 X26.0359 Y29.0089 F350.00
G01 X26.0220 Y28.9950 F350.00
G01 X25.9167 Y28.8785 F350.00
G01 X25.8215 Y28.7504 F350.00
G01 X24.9309 Y28.7504 F350.00
G01 X24.9308 Y29.1799 F350.00
G01 X24.9299 Y29.1946 F350.00
G01 X24.9287 Y29.2043 F350.00
G01 X24.9260 Y29.2188 F350.00
G01 X24.9236 Y29.2283 F350.00
G01 X24.9192 Y29.2424 F350.00
G01 X24.9137 Y29.2560 F350.00
G01 X24.9072 Y29.2693 F350.00
G01 X24.9024 Y29.2778 F350.00
G01 X24.8944 Y29.2902 F350.00
G01 X24.8855 Y29.3019 F350.00
G01 X24.8757 Y29.3129 F350.00
G01 X24.8652 Y29.3232 F350.00
G01 X24.8539 Y29.3327 F350.00
G01 X24.8420 Y29.3413 F350.00
G01 X24.8294 Y29.3490 F350.00
G01 X24.8208 Y29.3536 F350.00
G01 X24.8074 Y29.3598 F350.00
G01 X24.7936 Y29.3649 F350.00
G01 X24.7795 Y29.3690 F350.00
G01 X24.7651 Y29.3721 F350.00
G01 X24.7456 Y29.3745 F350.00
G01 X24.7309 Y29.3750 F350.00
G01 X22.7260 Y29.3749 F350.00
G01 X22.7064 Y29.3735 F350.00
G01 X22.6967 Y29.3721 F350.00
G01 X22.6823 Y29.3690 F350.00
G01 X22.6728 Y29.3664 F350.00
G01 X22.6589 Y29.3616 F350.00
G01 X22.6498 Y29.3578 F350.00
G01 X22.6366 Y29.3514 F350.00
G01 X22.6197 Y29.3413 F350.00
G01 X22.6078 Y29.3327 F350.00
G01 X22.6002 Y29.3264 F350.00
G01 X22.5860 Y29.3129 F350.00
G01 X22.5794 Y29.3056 F350.00
G01 X22.5702 Y29.2941 F350.00
G01 X22.5619 Y29.2820 F350.00
G01 X22.5545 Y29.2693 F350.00
G01 X22.5480 Y29.2560 F350.00
G01 X22.5426 Y29.2424 F350.00
G01 X22.5381 Y29.2283 F350.00
G01 X22.5338 Y29.2092 F350.00
G01 X22.5318 Y29.1946 F350.00
G01 X22.5309 Y29.1799 F350.00
G01 X22.5309 Y26.1701 F350.00
G01 X22.5318 Y26.1554 F350.00
G01 X22.5330 Y26.1457 F350.00
G01 X22.5369 Y26.1264 F350.00
G01 X22.5426 Y26.1076 F350.00
G01 X22.5461 Y26.0985 F350.00
G01 X22.5522 Y26.0851 F350.00
G01 X22.5593 Y26.0722 F350.00
G01 X22.5646 Y26.0639 F350.00
G01 X22.5702 Y26.0559 F350.00
G01 X22.5794 Y26.0444 F350.00
G01 X22.5894 Y26.0336 F350.00
G01 X22.5965 Y26.0268 F350.00
G01 X22.6117 Y26.0144 F350.00
G01 X22.6280 Y26.0035 F350.00
G01 X22.6409 Y25.9964 F350.00
G01 X22.6543 Y25.9902 F350.00
G01 X22.6681 Y25.9851 F350.00
G01 X22.6823 Y25.9810 F350.00
G01 X22.6967 Y25.9779 F350.00
G01 X22.7113 Y25.9760 F350.00
G01 X22.7260 Y25.9751 F350.00
G01 X24.7309 Y25.9750 F350.00
G01 X24.7456 Y25.9755 F350.00
G01 X24.7553 Y25.9765 F350.00
G01 X24.7651 Y25.9779 F350.00
G01 X24.7795 Y25.9810 F350.00
G01 X24.7936 Y25.9851 F350.00
G01 X24.8074 Y25.9902 F350.00
G01 X24.8164 Y25.9942 F350.00
G01 X24.8294 Y26.0010 F350.00
G01 X24.8420 Y26.0087 F350.00
G01 X24.8539 Y26.0173 F350.00
G01 X24.8652 Y26.0268 F350.00
G01 X24.8757 Y26.0371 F350.00
G01 X24.8855 Y26.0481 F350.00
G01 X24.8944 Y26.0598 F350.00
G01 X24.9024 Y26.0722 F350.00
G01 X24.9095 Y26.0851 F350.00
G01 X24.9156 Y26.0985 F350.00
G01 X24.9208 Y26.1123 F350.00
G01 X24.9249 Y26.1264 F350.00
G01 X24.9279 Y26.1408 F350.00
G01 X24.9303 Y26.1603 F350.00
G01 X24.9309 Y26.1750 F350.00
G01 X24.9309 Y26.8496 F350.00
G01 X25.8215 Y26.8496 F350.00
G00 Z0.5000
G00 X20.4906 Y29.1482
G01 F250.00
G01 Z-0.0500
G01 F350.00
G01 X20.4373 Y29.1087 F350.00
G01 X20.4258 Y29.0995 F350.00
G01 X20.3494 Y29.0303 F350.00
G01 X20.3389 Y29.0200 F350.00
G01 X20.2632 Y28.9363 F350.00
G01 X20.1987 Y28.8497 F350.00
G01 X20.1904 Y28.8376 F350.00
G01 X20.1326 Y28.7407 F350.00
G01 X20.0822 Y28.6342 F350.00
G01 X20.0425 Y28.5233 F350.00
G01 X20.0139 Y28.4091 F350.00
G01 X19.9966 Y28.2926 F350.00
G01 X19.9909 Y28.1799 F350.00
G01 X19.9909 Y27.1701 F350.00
G01 X19.9966 Y27.0574 F350.00
G01 X20.0122 Y26.9506 F350.00
G01 X20.0161 Y26.9313 F350.00
G01 X20.0399 Y26.8361 F350.00
G01 X20.0440 Y26.8220 F350.00
G01 X20.0822 Y26.7158 F350.00
G01 X20.1326 Y26.6093 F350.00
G01 X20.1931 Y26.5083 F350.00
G01 X20.2632 Y26.4137 F350.00
G01 X20.3423 Y26.3265 F350.00
G01 X20.4296 Y26.2474 F350.00
G01 X20.5242 Y26.1772 F350.00
G01 X20.6252 Y26.1167 F350.00
G01 X20.7316 Y26.0663 F350.00
G01 X20.8425 Y26.0267 F350.00
G01 X20.9568 Y25.9981 F350.00
G01 X21.0732 Y25.9808 F350.00
G01 X21.1909 Y25.9750 F350.00
G01 X21.3085 Y25.9808 F350.00
G01 X21.4250 Y25.9981 F350.00
G01 X21.5297 Y26.0241 F350.00
G01 X21.5439 Y26.0282 F350.00
G01 X21.6501 Y26.0663 F350.00
G01 X21.7478 Y26.1123 F350.00
G01 X21.7651 Y26.1215 F350.00
G01 X21.8493 Y26.1720 F350.00
G01 X21.8656 Y26.1829 F350.00
G01 X21.9521 Y26.2474 F350.00
G01 X22.0394 Y26.3265 F350.00
G01 X22.1185 Y26.4137 F350.00
G01 X22.1830 Y26.5003 F350.00
G01 X22.1939 Y26.5166 F350.00
G01 X22.2443 Y26.6008 F350.00
G01 X22.2536 Y26.6181 F350.00
G01 X22.2995 Y26.7158 F350.00
G01 X22.3392 Y26.8267 F350.00
G01 X22.3657 Y26.9313 F350.00
G01 X22.3695 Y26.9506 F350.00
G01 X22.3851 Y27.0574 F350.00
G01 X22.3908 Y27.1701 F350.00
G01 X22.3908 Y28.1799 F350.00
G01 X22.3858 Y28.2828 F350.00
G01 X22.3839 Y28.3024 F350.00
G01 X22.3678 Y28.4091 F350.00
G01 X22.3418 Y28.5139 F350.00
G01 X22.3361 Y28.5327 F350.00
G01 X22.3030 Y28.6251 F350.00
G01 X22.2955 Y28.6432 F350.00
G01 X22.2492 Y28.7407 F350.00
G01 X22.1939 Y28.8334 F350.00
G01 X22.1858 Y28.8457 F350.00
G01 X22.1185 Y28.9363 F350.00
G01 X22.0428 Y29.0200 F350.00
G01 X22.0323 Y29.0303 F350.00
G01 X21.9559 Y29.0995 F350.00
G01 X21.9444 Y29.1087 F350.00
G01 X21.8911 Y29.1482 F350.00
G01 X21.8911 Y40.2199 F350.00
G01 X29.7260 Y48.0548 F350.00
G01 X29.7722 Y48.1058 F350.00
G01 X29.8131 Y48.1610 F350.00
G01 X29.8484 Y48.2199 F350.00
G01 X29.8778 Y48.2820 F350.00
G01 X29.9010 Y48.3467 F350.00
G01 X29.9177 Y48.4134 F350.00
G01 X29.9277 Y48.4814 F350.00
G01 X29.9311 Y48.5500 F350.00
G01 X29.9311 Y59.3497 F350.00
G01 X34.4277 Y59.3497 F350.00
G01 X34.4672 Y59.2965 F350.00
G01 X34.4764 Y59.2850 F350.00
G01 X34.5456 Y59.2086 F350.00
G01 X34.5558 Y59.1980 F350.00
G01 X34.6396 Y59.1224 F350.00
G01 X34.7301 Y59.0550 F350.00
G01 X34.7425 Y59.0470 F350.00
G01 X34.8266 Y58.9965 F350.00
G01 X34.8440 Y58.9873 F350.00
G01 X34.9416 Y58.9413 F350.00
G01 X35.0525 Y58.9017 F350.00
G01 X35.1572 Y58.8752 F350.00
G01 X35.1764 Y58.8714 F350.00
G01 X35.2832 Y58.8558 F350.00
G01 X35.3910 Y58.8502 F350.00
G01 X36.1106 Y58.8500 F350.00
G01 X39.1592 Y55.8014 F350.00
G01 X39.2066 Y55.7587 F350.00
G01 X39.2538 Y55.7234 F350.00
G01 X39.2701 Y55.7125 F350.00
G01 X39.3165 Y55.6848 F350.00
G01 X39.3295 Y55.6780 F350.00
G01 X39.3829 Y55.6531 F350.00
G01 X39.4476 Y55.6299 F350.00
G01 X39.5142 Y55.6132 F350.00
G01 X39.5725 Y55.6043 F350.00
G01 X39.5920 Y55.6024 F350.00
G01 X39.6509 Y55.5997 F350.00
G01 X56.4408 Y55.5997 F350.00
G01 X59.7392 Y52.3014 F350.00
G01 X59.7866 Y52.2587 F350.00
G01 X59.8338 Y52.2234 F350.00
G01 X59.8501 Y52.2125 F350.00
G01 X59.8965 Y52.1848 F350.00
G01 X59.9095 Y52.1780 F350.00
G01 X59.9629 Y52.1531 F350.00
G01 X60.0276 Y52.1299 F350.00
G01 X60.0942 Y52.1132 F350.00
G01 X60.1525 Y52.1043 F350.00
G01 X60.1720 Y52.1024 F350.00
G01 X60.2309 Y52.0997 F350.00
G01 X68.4277 Y52.0997 F350.00
G01 X68.4672 Y52.0465 F350.00
G01 X68.4764 Y52.0350 F350.00
G01 X68.5456 Y51.9586 F350.00
G01 X68.5558 Y51.9480 F350.00
G01 X68.6396 Y51.8724 F350.00
G01 X68.7262 Y51.8079 F350.00
G01 X68.7383 Y51.7996 F350.00
G01 X68.8352 Y51.7417 F350.00
G01 X68.9416 Y51.6913 F350.00
G01 X69.0525 Y51.6517 F350.00
G01 X69.1620 Y51.6241 F350.00
G01 X69.1764 Y51.6214 F350.00
G01 X69.2832 Y51.6058 F350.00
G01 X69.3960 Y51.6001 F350.00
G01 X70.4009 Y51.6000 F350.00
G01 X70.5185 Y51.6058 F350.00
G01 X70.6253 Y51.6214 F350.00
G01 X70.6445 Y51.6252 F350.00
G01 X70.7492 Y51.6517 F350.00
G01 X70.8509 Y51.6878 F350.00
G01 X70.8691 Y51.6953 F350.00
G01 X70.9665 Y51.7417 F350.00
G01 X71.0675 Y51.8022 F350.00
G01 X71.1621 Y51.8724 F350.00
G01 X71.2423 Y51.9447 F350.00
G01 X71.2562 Y51.9586 F350.00
G01 X71.3285 Y52.0387 F350.00
G01 X71.3930 Y52.1253 F350.00
G01 X71.4039 Y52.1416 F350.00
G01 X71.4592 Y52.2343 F350.00
G01 X71.5095 Y52.3408 F350.00
G01 X71.5461 Y52.4423 F350.00
G01 X71.5518 Y52.4611 F350.00
G01 X71.5778 Y52.5659 F350.00
G01 X71.5939 Y52.6726 F350.00
G01 X71.5958 Y52.6922 F350.00
G01 X71.6009 Y52.8000 F350.00
G01 X71.5951 Y52.9176 F350.00
G01 X71.5795 Y53.0244 F350.00
G01 X71.5757 Y53.0437 F350.00
G01 X71.5492 Y53.1483 F350.00
G01 X71.5130 Y53.2501 F350.00
G01 X71.5055 Y53.2682 F350.00
G01 X71.4636 Y53.3569 F350.00
G01 X71.4543 Y53.3742 F350.00
G01 X71.4039 Y53.4584 F350.00
G01 X71.3930 Y53.4747 F350.00
G01 X71.3285 Y53.5613 F350.00
G01 X71.2562 Y53.6414 F350.00
G01 X71.2423 Y53.6553 F350.00
G01 X71.1621 Y53.7276 F350.00
G01 X71.0756 Y53.7921 F350.00
G01 X71.0593 Y53.8030 F350.00
G01 X70.9665 Y53.8583 F350.00
G01 X70.8691 Y53.9047 F350.00
G01 X70.8509 Y53.9122 F350.00
G01 X70.7492 Y53.9483 F350.00
G01 X70.6445 Y53.9748 F350.00
G01 X70.6253 Y53.9786 F350.00
G01 X70.5185 Y53.9942 F350.00
G01 X70.4058 Y53.9999 F350.00
G01 X69.3960 Y53.9999 F350.00
G01 X69.2930 Y53.9949 F350.00
G01 X69.2735 Y53.9930 F350.00
G01 X69.1668 Y53.9769 F350.00
G01 X69.0620 Y53.9509 F350.00
G01 X69.0432 Y53.9452 F350.00
G01 X68.9508 Y53.9122 F350.00
G01 X68.9327 Y53.9047 F350.00
G01 X68.8352 Y53.8583 F350.00
G01 X68.7425 Y53.8030 F350.00
G01 X68.7301 Y53.7950 F350.00
G01 X68.6396 Y53.7276 F350.00
G01 X68.5558 Y53.6520 F350.00
G01 X68.5456 Y53.6414 F350.00
G01 X68.4764 Y53.5650 F350.00
G01 X68.4672 Y53.5535 F350.00
G01 X68.4277 Y53.5003 F350.00
G01 X60.5209 Y53.5003 F350.00
G01 X57.2225 Y56.7986 F350.00
G01 X57.1751 Y56.8413 F350.00
G01 X57.1279 Y56.8766 F350.00
G01 X57.1116 Y56.8875 F350.00
G01 X57.0653 Y56.9152 F350.00
G01 X57.0522 Y56.9220 F350.00
G01 X56.9988 Y56.9469 F350.00
G01 X56.9341 Y56.9701 F350.00
G01 X56.8675 Y56.9868 F350.00
G01 X56.8044 Y56.9963 F350.00
G01 X56.7897 Y56.9976 F350.00
G01 X56.7309 Y57.0003 F350.00
G01 X39.9409 Y57.0003 F350.00
G01 X37.4583 Y59.4828 F350.00
G01 X37.4636 Y59.4931 F350.00
G01 X37.5095 Y59.5908 F350.00
G01 X37.5461 Y59.6923 F350.00
G01 X37.5518 Y59.7111 F350.00
G01 X37.5778 Y59.8159 F350.00
G01 X37.5939 Y59.9226 F350.00
G01 X37.5958 Y59.9422 F350.00
G01 X37.6009 Y60.0500 F350.00
G01 X37.5951 Y60.1676 F350.00
G01 X37.5795 Y60.2744 F350.00
G01 X37.5757 Y60.2937 F350.00
G01 X37.5492 Y60.3983 F350.00
G01 X37.5130 Y60.5001 F350.00
G01 X37.5055 Y60.5182 F350.00
G01 X37.4636 Y60.6069 F350.00
G01 X37.4543 Y60.6242 F350.00
G01 X37.3986 Y60.7167 F350.00
G01 X37.3285 Y60.8113 F350.00
G01 X37.2494 Y60.8985 F350.00
G01 X37.1696 Y60.9712 F350.00
G01 X37.1544 Y60.9837 F350.00
G01 X37.0675 Y61.0478 F350.00
G01 X36.9751 Y61.1035 F350.00
G01 X36.9578 Y61.1127 F350.00
G01 X36.8691 Y61.1547 F350.00
G01 X36.8509 Y61.1622 F350.00
G01 X36.7492 Y61.1983 F350.00
G01 X36.6445 Y61.2248 F350.00
G01 X36.6301 Y61.2278 F350.00
G01 X36.5185 Y61.2442 F350.00
G01 X36.4058 Y61.2499 F350.00
G01 X35.4009 Y61.2500 F350.00
G01 X35.2832 Y61.2442 F350.00
G01 X35.1764 Y61.2286 F350.00
G01 X35.1620 Y61.2259 F350.00
G01 X35.0525 Y61.1983 F350.00
G01 X34.9416 Y61.1587 F350.00
G01 X34.8352 Y61.1083 F350.00
G01 X34.7383 Y61.0504 F350.00
G01 X34.7262 Y61.0421 F350.00
G01 X34.6396 Y60.9776 F350.00
G01 X34.5558 Y60.9020 F350.00
G01 X34.5456 Y60.8914 F350.00
G01 X34.4764 Y60.8150 F350.00
G01 X34.4672 Y60.8035 F350.00
G01 X34.4277 Y60.7503 F350.00
G01 X29.2260 Y60.7502 F350.00
G01 X29.1622 Y60.7469 F350.00
G01 X29.1039 Y60.7385 F350.00
G01 X29.0847 Y60.7346 F350.00
G01 X29.0323 Y60.7215 F350.00
G01 X29.0183 Y60.7170 F350.00
G01 X28.9629 Y60.6969 F350.00
G01 X28.9095 Y60.6720 F350.00
G01 X28.8922 Y60.6627 F350.00
G01 X28.8501 Y60.6375 F350.00
G01 X28.8378 Y60.6295 F350.00
G01 X28.7866 Y60.5913 F350.00
G01 X28.7428 Y60.5519 F350.00
G01 X28.7289 Y60.5380 F350.00
G01 X28.6896 Y60.4942 F350.00
G01 X28.6543 Y60.4471 F350.00
G01 X28.6434 Y60.4307 F350.00
G01 X28.6133 Y60.3801 F350.00
G01 X28.5879 Y60.3269 F350.00
G01 X28.5804 Y60.3088 F350.00
G01 X28.5608 Y60.2533 F350.00
G01 X28.5462 Y60.1962 F350.00
G01 X28.5424 Y60.1769 F350.00
G01 X28.5340 Y60.1186 F350.00
G01 X28.5307 Y60.0549 F350.00
G01 X28.5306 Y48.8401 F350.00
G01 X20.6957 Y41.0052 F350.00
G01 X20.6560 Y40.9617 F350.00
G01 X20.6435 Y40.9465 F350.00
G01 X20.6086 Y40.8990 F350.00
G01 X20.5781 Y40.8486 F350.00
G01 X20.5689 Y40.8313 F350.00
G01 X20.5439 Y40.7780 F350.00
G01 X20.5238 Y40.7226 F350.00
G01 X20.5194 Y40.7086 F350.00
G01 X20.5041 Y40.6466 F350.00
G01 X20.4952 Y40.5884 F350.00
G01 X20.4933 Y40.5688 F350.00
G01 X20.4906 Y40.5100 F350.00
G01 X20.4906 Y29.1482 F350.00
G00 Z0.5000
G00 X8.5207 Y32.2504
G01 F250.00
G01 Z-0.0500
G01 F350.00
G01 X8.5028 Y32.2700 F350.00
G01 X8.4959 Y32.2770 F350.00
G01 X8.4159 Y32.3495 F350.00
G01 X8.4044 Y32.3587 F350.00
G01 X8.3175 Y32.4228 F350.00
G01 X8.2165 Y32.4833 F350.00
G01 X8.1191 Y32.5297 F350.00
G01 X8.1009 Y32.5372 F350.00
G01 X8.0085 Y32.5702 F350.00
G01 X7.9897 Y32.5759 F350.00
G01 X7.8850 Y32.6019 F350.00
G01 X7.7782 Y32.6180 F350.00
G01 X7.7587 Y32.6199 F350.00
G01 X7.6509 Y32.6250 F350.00
G01 X7.5430 Y32.6199 F350.00
G01 X7.5235 Y32.6180 F350.00
G01 X7.4168 Y32.6019 F350.00
G01 X7.3120 Y32.5759 F350.00
G01 X7.2932 Y32.5702 F350.00
G01 X7.2008 Y32.5372 F350.00
G01 X7.1827 Y32.5297 F350.00
G01 X7.0852 Y32.4833 F350.00
G01 X6.9842 Y32.4228 F350.00
G01 X6.8973 Y32.3587 F350.00
G01 X6.8822 Y32.3462 F350.00
G01 X6.8023 Y32.2735 F350.00
G01 X6.7297 Y32.1937 F350.00
G01 X6.7172 Y32.1785 F350.00
G01 X6.6531 Y32.0917 F350.00
G01 X6.5974 Y31.9992 F350.00
G01 X6.5903 Y31.9863 F350.00
G01 X6.5422 Y31.8842 F350.00
G01 X6.5025 Y31.7733 F350.00
G01 X6.4739 Y31.6591 F350.00
G01 X6.4578 Y31.5524 F350.00
G01 X6.4562 Y31.5377 F350.00
G01 X6.4509 Y31.4250 F350.00
G01 X6.4509 Y30.4201 F350.00
G01 X6.4566 Y30.3074 F350.00
G01 X6.4739 Y30.1909 F350.00
G01 X6.5025 Y30.0767 F350.00
G01 X6.5387 Y29.9749 F350.00
G01 X6.5462 Y29.9568 F350.00
G01 X6.5926 Y29.8593 F350.00
G01 X6.6478 Y29.7666 F350.00
G01 X6.6587 Y29.7503 F350.00
G01 X6.7172 Y29.6715 F350.00
G01 X6.7297 Y29.6563 F350.00
G01 X6.8023 Y29.5765 F350.00
G01 X6.8896 Y29.4974 F350.00
G01 X6.9842 Y29.4272 F350.00
G01 X7.0766 Y29.3715 F350.00
G01 X7.0895 Y29.3644 F350.00
G01 X7.1827 Y29.3203 F350.00
G01 X7.2008 Y29.3128 F350.00
G01 X7.3025 Y29.2767 F350.00
G01 X7.4072 Y29.2502 F350.00
G01 X7.4264 Y29.2464 F350.00
G01 X7.5332 Y29.2308 F350.00
G01 X7.6509 Y29.2250 F350.00
G01 X7.7587 Y29.2301 F350.00
G01 X7.7782 Y29.2320 F350.00
G01 X7.8850 Y29.2481 F350.00
G01 X7.9897 Y29.2741 F350.00
G01 X8.0085 Y29.2798 F350.00
G01 X8.1101 Y29.3163 F350.00
G01 X8.2078 Y29.3623 F350.00
G01 X8.2208 Y29.3691 F350.00
G01 X8.3093 Y29.4220 F350.00
G01 X8.3256 Y29.4329 F350.00
G01 X8.4121 Y29.4974 F350.00
G01 X8.4923 Y29.5697 F350.00
G01 X8.5062 Y29.5836 F350.00
G01 X8.5785 Y29.6637 F350.00
G01 X8.6430 Y29.7503 F350.00
G01 X8.6513 Y29.7624 F350.00
G01 X8.7092 Y29.8593 F350.00
G01 X8.7555 Y29.9568 F350.00
G01 X8.7630 Y29.9749 F350.00
G01 X8.7977 Y30.0720 F350.00
G01 X8.8018 Y30.0861 F350.00
G01 X8.8257 Y30.1813 F350.00
G01 X8.8287 Y30.1957 F350.00
G01 X8.8445 Y30.3025 F350.00
G01 X8.8458 Y30.3172 F350.00
G01 X8.8474 Y30.3496 F350.00
G01 X13.6657 Y30.3496 F350.00
G01 X13.7374 Y30.2305 F350.00
G01 X13.8307 Y30.1043 F350.00
G01 X13.8432 Y30.0891 F350.00
G01 X13.9488 Y29.9729 F350.00
G01 X14.0724 Y29.8609 F350.00
G01 X14.1984 Y29.7672 F350.00
G01 X14.2147 Y29.7562 F350.00
G01 X14.3409 Y29.6806 F350.00
G01 X14.3538 Y29.6735 F350.00
G01 X14.5003 Y29.6044 F350.00
G01 X14.6481 Y29.5513 F350.00
G01 X14.6668 Y29.5456 F350.00
G01 X14.8096 Y29.5098 F350.00
G01 X14.8240 Y29.5068 F350.00
G01 X14.9842 Y29.4832 F350.00
G01 X15.1460 Y29.4751 F350.00
G01 X15.1607 Y29.4752 F350.00
G01 X15.3126 Y29.4828 F350.00
G01 X15.3272 Y29.4844 F350.00
G01 X15.3666 Y29.4902 F350.00
G01 X17.4509 Y27.4060 F350.00
G01 X17.4509 Y27.1701 F350.00
G01 X17.4559 Y27.0672 F350.00
G01 X17.4572 Y27.0525 F350.00
G01 X17.4739 Y26.9409 F350.00
G01 X17.4999 Y26.8361 F350.00
G01 X17.5056 Y26.8173 F350.00
G01 X17.5387 Y26.7249 F350.00
G01 X17.5441 Y26.7113 F350.00
G01 X17.5926 Y26.6093 F350.00
G01 X17.6478 Y26.5166 F350.00
G01 X17.6587 Y26.5003 F350.00
G01 X17.7232 Y26.4137 F350.00
G01 X17.8023 Y26.3265 F350.00
G01 X17.8822 Y26.2538 F350.00
G01 X17.8973 Y26.2413 F350.00
G01 X17.9762 Y26.1829 F350.00
G01 X17.9883 Y26.1746 F350.00
G01 X18.0852 Y26.1167 F350.00
G01 X18.1916 Y26.0663 F350.00
G01 X18.3025 Y26.0267 F350.00
G01 X18.4072 Y26.0002 F350.00
G01 X18.4264 Y25.9964 F350.00
G01 X18.5332 Y25.9808 F350.00
G01 X18.6410 Y25.9752 F350.00
G01 X18.6607 Y25.9752 F350.00
G01 X18.7587 Y25.9801 F350.00
G01 X18.7782 Y25.9820 F350.00
G01 X18.8850 Y25.9981 F350.00
G01 X18.9897 Y26.0241 F350.00
G01 X19.0085 Y26.0298 F350.00
G01 X19.1101 Y26.0663 F350.00
G01 X19.2165 Y26.1167 F350.00
G01 X19.3175 Y26.1772 F350.00
G01 X19.4121 Y26.2474 F350.00
G01 X19.4994 Y26.3265 F350.00
G01 X19.5785 Y26.4137 F350.00
G01 X19.6486 Y26.5083 F350.00
G01 X19.7043 Y26.6008 F350.00
G01 X19.7114 Y26.6137 F350.00
G01 X19.7595 Y26.7158 F350.00
G01 X19.7992 Y26.8267 F350.00
G01 X19.8278 Y26.9409 F350.00
G01 X19.8451 Y27.0574 F350.00
G01 X19.8509 Y27.1750 F350.00
G01 X19.8508 Y28.1799 F350.00
G01 X19.8451 Y28.2926 F350.00
G01 X19.8295 Y28.3994 F350.00
G01 X19.8257 Y28.4187 F350.00
G01 X19.7992 Y28.5233 F350.00
G01 X19.7630 Y28.6251 F350.00
G01 X19.7555 Y28.6432 F350.00
G01 X19.7092 Y28.7407 F350.00
G01 X19.6513 Y28.8376 F350.00
G01 X19.6430 Y28.8497 F350.00
G01 X19.5785 Y28.9363 F350.00
G01 X19.5062 Y29.0164 F350.00
G01 X19.4923 Y29.0303 F350.00
G01 X19.4196 Y29.0962 F350.00
G01 X19.4044 Y29.1087 F350.00
G01 X19.3175 Y29.1728 F350.00
G01 X19.2165 Y29.2333 F350.00
G01 X19.1101 Y29.2837 F350.00
G01 X19.0039 Y29.3218 F350.00
G01 X18.9897 Y29.3259 F350.00
G01 X18.8850 Y29.3519 F350.00
G01 X18.7782 Y29.3680 F350.00
G01 X18.7587 Y29.3699 F350.00
G01 X18.6607 Y29.3748 F350.00
G01 X18.6460 Y29.3749 F350.00
G01 X18.5332 Y29.3692 F350.00
G01 X18.4216 Y29.3528 F350.00
G01 X18.4072 Y29.3498 F350.00
G01 X18.3072 Y29.3247 F350.00
G01 X18.2932 Y29.3202 F350.00
G01 X18.2427 Y29.3022 F350.00
G01 X16.7950 Y30.7499 F350.00
G01 X16.8160 Y30.8338 F350.00
G01 X16.8191 Y30.8482 F350.00
G01 X16.8415 Y30.9986 F350.00
G01 X16.8431 Y31.0133 F350.00
G01 X16.8509 Y31.1750 F350.00
G01 X16.8431 Y31.3367 F350.00
G01 X16.8415 Y31.3514 F350.00
G01 X16.8182 Y31.5067 F350.00
G01 X16.7803 Y31.6590 F350.00
G01 X16.7746 Y31.6778 F350.00
G01 X16.7250 Y31.8164 F350.00
G01 X16.7195 Y31.8301 F350.00
G01 X16.6501 Y31.9764 F350.00
G01 X16.5644 Y32.1195 F350.00
G01 X16.4650 Y32.2535 F350.00
G01 X16.3597 Y32.3700 F350.00
G01 X16.3458 Y32.3839 F350.00
G01 X16.2368 Y32.4827 F350.00
G01 X16.2216 Y32.4952 F350.00
G01 X16.0953 Y32.5885 F350.00
G01 X15.9608 Y32.6694 F350.00
G01 X15.9479 Y32.6765 F350.00
G01 X15.8014 Y32.7456 F350.00
G01 X15.6443 Y32.8018 F350.00
G01 X15.4825 Y32.8423 F350.00
G01 X15.3272 Y32.8656 F350.00
G01 X15.3077 Y32.8675 F350.00
G01 X15.1607 Y32.8748 F350.00
G01 X15.1410 Y32.8748 F350.00
G01 X14.9842 Y32.8668 F350.00
G01 X14.8192 Y32.8423 F350.00
G01 X14.6574 Y32.8018 F350.00
G01 X14.5003 Y32.7456 F350.00
G01 X14.3495 Y32.6743 F350.00
G01 X14.2147 Y32.5938 F350.00
G01 X14.1984 Y32.5828 F350.00
G01 X14.0801 Y32.4952 F350.00
G01 X14.0650 Y32.4827 F350.00
G01 X13.9488 Y32.3771 F350.00
G01 X13.8432 Y32.2609 F350.00
G01 X13.8343 Y32.2504 F350.00
G01 X8.5207 Y32.2504 F350.00
G00 Z0.5000
G00 X25.0406 Y58.8678
G01 F250.00
G01 Z-0.0500
G01 F350.00
G01 X25.0406 Y57.4822 F350.00
G01 X25.0116 Y57.4778 F350.00
G01 X25.0020 Y57.4759 F350.00
G01 X24.9020 Y57.4509 F350.00
G01 X24.8878 Y57.4468 F350.00
G01 X24.7816 Y57.4087 F350.00
G01 X24.6840 Y57.3627 F350.00
G01 X24.6709 Y57.3559 F350.00
G01 X24.5742 Y57.2978 F350.00
G01 X24.4796 Y57.2276 F350.00
G01 X24.3923 Y57.1485 F350.00
G01 X24.3164 Y57.0650 F350.00
G01 X24.3072 Y57.0535 F350.00
G01 X24.2431 Y56.9667 F350.00
G01 X24.1874 Y56.8742 F350.00
G01 X24.1781 Y56.8569 F350.00
G01 X24.1362 Y56.7682 F350.00
G01 X24.1287 Y56.7501 F350.00
G01 X24.0925 Y56.6483 F350.00
G01 X24.0639 Y56.5341 F350.00
G01 X24.0466 Y56.4176 F350.00
G01 X24.0409 Y56.3000 F350.00
G01 X24.0466 Y56.1824 F350.00
G01 X24.0639 Y56.0659 F350.00
G01 X24.0925 Y55.9517 F350.00
G01 X24.1287 Y55.8499 F350.00
G01 X24.1362 Y55.8318 F350.00
G01 X24.1781 Y55.7431 F350.00
G01 X24.1874 Y55.7258 F350.00
G01 X24.2431 Y55.6333 F350.00
G01 X24.3072 Y55.5465 F350.00
G01 X24.3164 Y55.5350 F350.00
G01 X24.3923 Y55.4515 F350.00
G01 X24.4796 Y55.3724 F350.00
G01 X24.5742 Y55.3022 F350.00
G01 X24.6709 Y55.2441 F350.00
G01 X24.6840 Y55.2373 F350.00
G01 X24.7816 Y55.1913 F350.00
G01 X24.8878 Y55.1532 F350.00
G01 X24.9020 Y55.1491 F350.00
G01 X25.0020 Y55.1241 F350.00
G01 X25.0116 Y55.1222 F350.00
G01 X25.0406 Y55.1178 F350.00
G01 X25.0406 Y53.7337 F350.00
G01 X25.0064 Y53.7286 F350.00
G01 X24.9920 Y53.7259 F350.00
G01 X24.8872 Y53.6997 F350.00
G01 X24.8732 Y53.6952 F350.00
G01 X24.7762 Y53.6605 F350.00
G01 X24.7627 Y53.6547 F350.00
G01 X24.6652 Y53.6083 F350.00
G01 X24.5683 Y53.5504 F350.00
G01 X24.5562 Y53.5421 F350.00
G01 X24.4696 Y53.4776 F350.00
G01 X24.3823 Y53.3985 F350.00
G01 X24.3032 Y53.3113 F350.00
G01 X24.2359 Y53.2207 F350.00
G01 X24.2278 Y53.2084 F350.00
G01 X24.1726 Y53.1157 F350.00
G01 X24.1222 Y53.0092 F350.00
G01 X24.0825 Y52.8983 F350.00
G01 X24.0539 Y52.7841 F350.00
G01 X24.0366 Y52.6676 F350.00
G01 X24.0309 Y52.5500 F350.00
G01 X24.0366 Y52.4324 F350.00
G01 X24.0539 Y52.3159 F350.00
G01 X24.0825 Y52.2017 F350.00
G01 X24.1187 Y52.0999 F350.00
G01 X24.1262 Y52.0818 F350.00
G01 X24.1726 Y51.9843 F350.00
G01 X24.2278 Y51.8916 F350.00
G01 X24.2387 Y51.8753 F350.00
G01 X24.3032 Y51.7887 F350.00
G01 X24.3756 Y51.7086 F350.00
G01 X24.3894 Y51.6947 F350.00
G01 X24.4696 Y51.6224 F350.00
G01 X24.5562 Y51.5579 F350.00
G01 X24.5725 Y51.5470 F350.00
G01 X24.6652 Y51.4917 F350.00
G01 X24.7627 Y51.4453 F350.00
G01 X24.7762 Y51.4395 F350.00
G01 X24.8825 Y51.4017 F350.00
G01 X24.9968 Y51.3731 F350.00
G01 X25.1132 Y51.3558 F350.00
G01 X25.2210 Y51.3502 F350.00
G01 X26.2358 Y51.3501 F350.00
G01 X26.3485 Y51.3558 F350.00
G01 X26.4650 Y51.3731 F350.00
G01 X26.5792 Y51.4017 F350.00
G01 X26.6809 Y51.4378 F350.00
G01 X26.6991 Y51.4453 F350.00
G01 X26.7878 Y51.4873 F350.00
G01 X26.8051 Y51.4965 F350.00
G01 X26.8975 Y51.5522 F350.00
G01 X26.9921 Y51.6224 F350.00
G01 X27.0794 Y51.7015 F350.00
G01 X27.1521 Y51.7813 F350.00
G01 X27.1645 Y51.7965 F350.00
G01 X27.2230 Y51.8753 F350.00
G01 X27.2339 Y51.8916 F350.00
G01 X27.2892 Y51.9843 F350.00
G01 X27.3395 Y52.0908 F350.00
G01 X27.3792 Y52.2017 F350.00
G01 X27.4057 Y52.3063 F350.00
G01 X27.4095 Y52.3256 F350.00
G01 X27.4239 Y52.4226 F350.00
G01 X27.4255 Y52.4373 F350.00
G01 X27.4309 Y52.5500 F350.00
G01 X27.4251 Y52.6676 F350.00
G01 X27.4078 Y52.7841 F350.00
G01 X27.3792 Y52.8983 F350.00
G01 X27.3395 Y53.0092 F350.00
G01 X27.2892 Y53.1157 F350.00
G01 X27.2286 Y53.2167 F350.00
G01 X27.1615 Y53.3074 F350.00
G01 X27.1521 Y53.3187 F350.00
G01 X27.0794 Y53.3985 F350.00
G01 X26.9921 Y53.4776 F350.00
G01 X26.8975 Y53.5478 F350.00
G01 X26.8051 Y53.6035 F350.00
G01 X26.7878 Y53.6127 F350.00
G01 X26.6901 Y53.6587 F350.00
G01 X26.5885 Y53.6952 F350.00
G01 X26.5697 Y53.7009 F350.00
G01 X26.4745 Y53.7248 F350.00
G01 X26.4601 Y53.7278 F350.00
G01 X26.4411 Y53.7307 F350.00
G01 X26.4411 Y55.1178 F350.00
G01 X26.4701 Y55.1222 F350.00
G01 X26.4798 Y55.1241 F350.00
G01 X26.5797 Y55.1491 F350.00
G01 X26.5939 Y55.1532 F350.00
G01 X26.7001 Y55.1913 F350.00
G01 X26.8022 Y55.2394 F350.00
G01 X26.8151 Y55.2465 F350.00
G01 X26.9075 Y55.3022 F350.00
G01 X26.9944 Y55.3663 F350.00
G01 X27.0096 Y55.3788 F350.00
G01 X27.0823 Y55.4447 F350.00
G01 X27.0928 Y55.4550 F350.00
G01 X27.1685 Y55.5387 F350.00
G01 X27.2386 Y55.6333 F350.00
G01 X27.2992 Y55.7343 F350.00
G01 X27.3455 Y55.8318 F350.00
G01 X27.3530 Y55.8499 F350.00
G01 X27.3861 Y55.9423 F350.00
G01 X27.3918 Y55.9611 F350.00
G01 X27.4178 Y56.0659 F350.00
G01 X27.4351 Y56.1824 F350.00
G01 X27.4409 Y56.3000 F350.00
G01 X27.4351 Y56.4176 F350.00
G01 X27.4178 Y56.5341 F350.00
G01 X27.3892 Y56.6483 F350.00
G01 X27.3495 Y56.7592 F350.00
G01 X27.2992 Y56.8657 F350.00
G01 X27.2386 Y56.9667 F350.00
G01 X27.1715 Y57.0574 F350.00
G01 X27.1621 Y57.0687 F350.00
G01 X27.0894 Y57.1485 F350.00
G01 X27.0021 Y57.2276 F350.00
G01 X26.9075 Y57.2978 F350.00
G01 X26.8108 Y57.3559 F350.00
G01 X26.7978 Y57.3627 F350.00
G01 X26.7001 Y57.4087 F350.00
G01 X26.5939 Y57.4468 F350.00
G01 X26.5797 Y57.4509 F350.00
G01 X26.4798 Y57.4759 F350.00
G01 X26.4701 Y57.4778 F350.00
G01 X26.4411 Y57.4822 F350.00
G01 X26.4411 Y58.8678 F350.00
G01 X26.4701 Y58.8722 F350.00
G01 X26.4798 Y58.8741 F350.00
G01 X26.5797 Y58.8991 F350.00
G01 X26.5939 Y58.9032 F350.00
G01 X26.7001 Y58.9413 F350.00
G01 X26.8022 Y58.9894 F350.00
G01 X26.8151 Y58.9965 F350.00
G01 X26.8993 Y59.0470 F350.00
G01 X26.9156 Y59.0579 F350.00
G01 X27.0021 Y59.1224 F350.00
G01 X27.0859 Y59.1980 F350.00
G01 X27.0962 Y59.2086 F350.00
G01 X27.1621 Y59.2813 F350.00
G01 X27.1745 Y59.2965 F350.00
G01 X27.2386 Y59.3833 F350.00
G01 X27.2992 Y59.4843 F350.00
G01 X27.3455 Y59.5818 F350.00
G01 X27.3530 Y59.5999 F350.00
G01 X27.3892 Y59.7017 F350.00
G01 X27.4178 Y59.8159 F350.00
G01 X27.4351 Y59.9324 F350.00
G01 X27.4406 Y60.0402 F350.00
G01 X27.4406 Y60.0598 F350.00
G01 X27.4351 Y60.1676 F350.00
G01 X27.4195 Y60.2744 F350.00
G01 X27.4157 Y60.2937 F350.00
G01 X27.3892 Y60.3983 F350.00
G01 X27.3495 Y60.5092 F350.00
G01 X27.3036 Y60.6069 F350.00
G01 X27.2943 Y60.6242 F350.00
G01 X27.2386 Y60.7167 F350.00
G01 X27.1745 Y60.8035 F350.00
G01 X27.1621 Y60.8187 F350.00
G01 X27.0894 Y60.8985 F350.00
G01 X27.0021 Y60.9776 F350.00
G01 X26.9075 Y61.0478 F350.00
G01 X26.8065 Y61.1083 F350.00
G01 X26.7001 Y61.1587 F350.00
G01 X26.5892 Y61.1983 F350.00
G01 X26.4750 Y61.2269 F350.00
G01 X26.3585 Y61.2442 F350.00
G01 X26.2409 Y61.2500 F350.00
G01 X25.2360 Y61.2499 F350.00
G01 X25.1232 Y61.2442 F350.00
G01 X25.0068 Y61.2269 F350.00
G01 X24.8925 Y61.1983 F350.00
G01 X24.7908 Y61.1622 F350.00
G01 X24.7727 Y61.1547 F350.00
G01 X24.6752 Y61.1083 F350.00
G01 X24.5742 Y61.0478 F350.00
G01 X24.4873 Y60.9837 F350.00
G01 X24.4722 Y60.9712 F350.00
G01 X24.3923 Y60.8985 F350.00
G01 X24.3197 Y60.8187 F350.00
G01 X24.3072 Y60.8035 F350.00
G01 X24.2431 Y60.7167 F350.00
G01 X24.1826 Y60.6157 F350.00
G01 X24.1362 Y60.5182 F350.00
G01 X24.1287 Y60.5001 F350.00
G01 X24.0925 Y60.3983 F350.00
G01 X24.0661 Y60.2937 F350.00
G01 X24.0622 Y60.2744 F350.00
G01 X24.0466 Y60.1676 F350.00
G01 X24.0411 Y60.0598 F350.00
G01 X24.0411 Y60.0402 F350.00
G01 X24.0466 Y59.9324 F350.00
G01 X24.0622 Y59.8256 F350.00
G01 X24.0661 Y59.8063 F350.00
G01 X24.0899 Y59.7111 F350.00
G01 X24.0940 Y59.6970 F350.00
G01 X24.1322 Y59.5908 F350.00
G01 X24.1781 Y59.4931 F350.00
G01 X24.1874 Y59.4758 F350.00
G01 X24.2431 Y59.3833 F350.00
G01 X24.3072 Y59.2965 F350.00
G01 X24.3197 Y59.2813 F350.00
G01 X24.3923 Y59.2015 F350.00
G01 X24.4758 Y59.1255 F350.00
G01 X24.4873 Y59.1163 F350.00
G01 X24.5662 Y59.0579 F350.00
G01 X24.5825 Y59.0470 F350.00
G01 X24.6752 Y58.9917 F350.00
G01 X24.7771 Y58.9433 F350.00
G01 X24.7908 Y58.9378 F350.00
G01 X24.8832 Y58.9048 F350.00
G01 X24.8972 Y58.9003 F350.00
G01 X25.0020 Y58.8741 F350.00
G01 X25.0116 Y58.8722 F350.00
G01 X25.0406 Y58.8678 F350.00
G00 Z0.5000
G00 X41.9009 Y57.6000
G01 F250.00
G01 Z-0.0500
G01 F350.00
G01 X41.9205 Y57.6010 F350.00
G01 X41.9399 Y57.6038 F350.00
G01 X41.9589 Y57.6086 F350.00
G01 X41.9774 Y57.6152 F350.00
G01 X41.9951 Y57.6236 F350.00
G01 X42.0120 Y57.6337 F350.00
G01 X42.0277 Y57.6454 F350.00
G01 X42.0388 Y57.6552 F350.00
G01 X42.0523 Y57.6694 F350.00
G01 X42.0615 Y57.6809 F350.00
G01 X42.0724 Y57.6972 F350.00
G01 X42.0817 Y57.7145 F350.00
G01 X42.0892 Y57.7326 F350.00
G01 X42.0949 Y57.7514 F350.00
G01 X42.0987 Y57.7707 F350.00
G01 X42.1006 Y57.7902 F350.00
G01 X42.1009 Y61.8000 F350.00
G01 X42.0999 Y61.8196 F350.00
G01 X42.0979 Y61.8342 F350.00
G01 X42.0936 Y61.8533 F350.00
G01 X42.0875 Y61.8720 F350.00
G01 X42.0817 Y61.8855 F350.00
G01 X42.0749 Y61.8986 F350.00
G01 X42.0698 Y61.9070 F350.00
G01 X42.0615 Y61.9191 F350.00
G01 X42.0523 Y61.9306 F350.00
G01 X42.0423 Y61.9414 F350.00
G01 X42.0315 Y61.9514 F350.00
G01 X42.0200 Y61.9606 F350.00
G01 X42.0079 Y61.9690 F350.00
G01 X41.9994 Y61.9740 F350.00
G01 X41.9864 Y61.9808 F350.00
G01 X41.9728 Y61.9866 F350.00
G01 X41.9589 Y61.9914 F350.00
G01 X41.9447 Y61.9951 F350.00
G01 X41.9302 Y61.9978 F350.00
G01 X41.9156 Y61.9995 F350.00
G01 X41.9009 Y62.0000 F350.00
G01 X40.1811 Y62.0000 F350.00
G01 X40.1811 Y62.2500 F350.00
G01 X40.3681 Y62.2501 F350.00
G01 X40.4189 Y62.2527 F350.00
G01 X40.4691 Y62.2600 F350.00
G01 X40.4835 Y62.2631 F350.00
G01 X40.5280 Y62.2744 F350.00
G01 X40.5759 Y62.2914 F350.00
G01 X40.5894 Y62.2972 F350.00
G01 X40.6308 Y62.3170 F350.00
G01 X40.6703 Y62.3404 F350.00
G01 X40.6826 Y62.3484 F350.00
G01 X40.7195 Y62.3758 F350.00
G01 X40.7308 Y62.3853 F350.00
G01 X40.7611 Y62.4128 F350.00
G01 X40.7714 Y62.4234 F350.00
G01 X40.8020 Y62.4575 F350.00
G01 X40.8324 Y62.4982 F350.00
G01 X40.8404 Y62.5106 F350.00
G01 X40.8638 Y62.5501 F350.00
G01 X40.8857 Y62.5959 F350.00
G01 X40.8912 Y62.6096 F350.00
G01 X40.9064 Y62.6529 F350.00
G01 X40.9178 Y62.6973 F350.00
G01 X40.9216 Y62.7166 F350.00
G01 X40.9281 Y62.7620 F350.00
G01 X40.9309 Y62.8176 F350.00
G01 X40.9308 Y64.5873 F350.00
G01 X40.9281 Y64.6380 F350.00
G01 X40.9216 Y64.6834 F350.00
G01 X40.9189 Y64.6979 F350.00
G01 X40.9090 Y64.7377 F350.00
G01 X40.9049 Y64.7518 F350.00
G01 X40.8895 Y64.7950 F350.00
G01 X40.8837 Y64.8086 F350.00
G01 X40.8638 Y64.8499 F350.00
G01 X40.8404 Y64.8894 F350.00
G01 X40.8295 Y64.9057 F350.00
G01 X40.8020 Y64.9425 F350.00
G01 X40.7714 Y64.9766 F350.00
G01 X40.7575 Y64.9905 F350.00
G01 X40.7233 Y65.0211 F350.00
G01 X40.6866 Y65.0487 F350.00
G01 X40.6703 Y65.0596 F350.00
G01 X40.6308 Y65.0830 F350.00
G01 X40.5894 Y65.1028 F350.00
G01 X40.5759 Y65.1086 F350.00
G01 X40.5280 Y65.1256 F350.00
G01 X40.4835 Y65.1369 F350.00
G01 X40.4691 Y65.1400 F350.00
G01 X40.4237 Y65.1467 F350.00
G01 X40.4091 Y65.1480 F350.00
G01 X40.3632 Y65.1500 F350.00
G01 X38.5936 Y65.1499 F350.00
G01 X38.5429 Y65.1473 F350.00
G01 X38.4974 Y65.1408 F350.00
G01 X38.4830 Y65.1381 F350.00
G01 X38.4432 Y65.1282 F350.00
G01 X38.4291 Y65.1241 F350.00
G01 X38.3858 Y65.1086 F350.00
G01 X38.3723 Y65.1028 F350.00
G01 X38.3309 Y65.0830 F350.00
G01 X38.2914 Y65.0596 F350.00
G01 X38.2751 Y65.0487 F350.00
G01 X38.2384 Y65.0211 F350.00
G01 X38.2042 Y64.9905 F350.00
G01 X38.1904 Y64.9766 F350.00
G01 X38.1597 Y64.9425 F350.00
G01 X38.1322 Y64.9057 F350.00
G01 X38.1213 Y64.8894 F350.00
G01 X38.0979 Y64.8499 F350.00
G01 X38.0780 Y64.8086 F350.00
G01 X38.0722 Y64.7950 F350.00
G01 X38.0568 Y64.7518 F350.00
G01 X38.0527 Y64.7377 F350.00
G01 X38.0418 Y64.6931 F350.00
G01 X38.0348 Y64.6477 F350.00
G01 X38.0329 Y64.6282 F350.00
G01 X38.0309 Y64.5824 F350.00
G01 X38.0309 Y62.8176 F350.00
G01 X38.0336 Y62.7620 F350.00
G01 X38.0409 Y62.7117 F350.00
G01 X38.0439 Y62.6973 F350.00
G01 X38.0553 Y62.6529 F350.00
G01 X38.0741 Y62.6004 F350.00
G01 X38.0979 Y62.5501 F350.00
G01 X38.1265 Y62.5023 F350.00
G01 X38.1597 Y62.4575 F350.00
G01 X38.1971 Y62.4163 F350.00
G01 X38.2384 Y62.3789 F350.00
G01 X38.2751 Y62.3513 F350.00
G01 X38.2873 Y62.3430 F350.00
G01 X38.3309 Y62.3170 F350.00
G01 X38.3813 Y62.2932 F350.00
G01 X38.4337 Y62.2744 F350.00
G01 X38.4878 Y62.2609 F350.00
G01 X38.5429 Y62.2527 F350.00
G01 X38.5887 Y62.2502 F350.00
G01 X38.7806 Y62.2500 F350.00
G01 X38.7809 Y61.2102 F350.00
G01 X38.7840 Y61.1514 F350.00
G01 X38.7941 Y61.0834 F350.00
G01 X38.8108 Y61.0167 F350.00
G01 X38.8339 Y60.9520 F350.00
G01 X38.8633 Y60.8899 F350.00
G01 X38.8986 Y60.8310 F350.00
G01 X38.9396 Y60.7758 F350.00
G01 X38.9789 Y60.7320 F350.00
G01 X39.7009 Y60.0097 F350.00
G01 X39.7009 Y57.8000 F350.00
G01 X39.7018 Y57.7804 F350.00
G01 X39.7030 Y57.7707 F350.00
G01 X39.7057 Y57.7562 F350.00
G01 X39.7095 Y57.7419 F350.00
G01 X39.7126 Y57.7326 F350.00
G01 X39.7201 Y57.7145 F350.00
G01 X39.7268 Y57.7014 F350.00
G01 X39.7319 Y57.6930 F350.00
G01 X39.7402 Y57.6809 F350.00
G01 X39.7494 Y57.6694 F350.00
G01 X39.7594 Y57.6586 F350.00
G01 X39.7702 Y57.6486 F350.00
G01 X39.7817 Y57.6394 F350.00
G01 X39.7897 Y57.6337 F350.00
G01 X39.7980 Y57.6285 F350.00
G01 X39.8109 Y57.6214 F350.00
G01 X39.8243 Y57.6152 F350.00
G01 X39.8381 Y57.6101 F350.00
G01 X39.8523 Y57.6060 F350.00
G01 X39.8667 Y57.6029 F350.00
G01 X39.8764 Y57.6015 F350.00
G01 X39.8910 Y57.6002 F350.00
G01 X41.9009 Y57.6000 F350.00
G00 Z0.5000
G00 X42.8431 Y61.8394
G01 F250.00
G01 Z-0.0500
G01 F350.00
G01 X42.7742 Y61.7978 F350.00
G01 X42.6873 Y61.7337 F350.00
G01 X42.6722 Y61.7212 F350.00
G01 X42.5994 Y61.6553 F350.00
G01 X42.5856 Y61.6414 F350.00
G01 X42.5132 Y61.5613 F350.00
G01 X42.4459 Y61.4707 F350.00
G01 X42.4378 Y61.4584 F350.00
G01 X42.3826 Y61.3657 F350.00
G01 X42.3322 Y61.2592 F350.00
G01 X42.2925 Y61.1483 F350.00
G01 X42.2661 Y61.0437 F350.00
G01 X42.2630 Y61.0293 F350.00
G01 X42.2466 Y60.9176 F350.00
G01 X42.2409 Y60.8000 F350.00
G01 X42.2409 Y58.8000 F350.00
G01 X42.2466 Y58.6824 F350.00
G01 X42.2639 Y58.5659 F350.00
G01 X42.2925 Y58.4517 F350.00
G01 X42.3322 Y58.3408 F350.00
G01 X42.3826 Y58.2343 F350.00
G01 X42.4431 Y58.1333 F350.00
G01 X42.5132 Y58.0387 F350.00
G01 X42.5923 Y57.9515 F350.00
G01 X42.6796 Y57.8724 F350.00
G01 X42.7742 Y57.8022 F350.00
G01 X42.8752 Y57.7417 F350.00
G01 X42.9816 Y57.6913 F350.00
G01 X43.0925 Y57.6517 F350.00
G01 X43.2068 Y57.6231 F350.00
G01 X43.3232 Y57.6058 F350.00
G01 X43.4409 Y57.6000 F350.00
G01 X43.5585 Y57.6058 F350.00
G01 X43.6750 Y57.6231 F350.00
G01 X43.7892 Y57.6517 F350.00
G01 X43.8909 Y57.6878 F350.00
G01 X43.9091 Y57.6953 F350.00
G01 X44.0065 Y57.7417 F350.00
G01 X44.1075 Y57.8022 F350.00
G01 X44.1944 Y57.8663 F350.00
G01 X44.2096 Y57.8788 F350.00
G01 X44.2823 Y57.9447 F350.00
G01 X44.2962 Y57.9586 F350.00
G01 X44.3685 Y58.0387 F350.00
G01 X44.4386 Y58.1333 F350.00
G01 X44.4992 Y58.2343 F350.00
G01 X44.5455 Y58.3318 F350.00
G01 X44.5530 Y58.3499 F350.00
G01 X44.5861 Y58.4423 F350.00
G01 X44.5918 Y58.4611 F350.00
G01 X44.6178 Y58.5659 F350.00
G01 X44.6339 Y58.6726 F350.00
G01 X44.6358 Y58.6922 F350.00
G01 X44.6409 Y58.8000 F350.00
G01 X44.6409 Y60.8000 F350.00
G01 X44.6351 Y60.9176 F350.00
G01 X44.6178 Y61.0341 F350.00
G01 X44.5892 Y61.1483 F350.00
G01 X44.5495 Y61.2592 F350.00
G01 X44.5014 Y61.3613 F350.00
G01 X44.4943 Y61.3742 F350.00
G01 X44.4386 Y61.4667 F350.00
G01 X44.3715 Y61.5574 F350.00
G01 X44.3621 Y61.5687 F350.00
G01 X44.2928 Y61.6450 F350.00
G01 X44.2823 Y61.6553 F350.00
G01 X44.2436 Y61.6903 F350.00
G01 X44.2436 Y62.2500 F350.00
G01 X44.4355 Y62.2502 F350.00
G01 X44.4814 Y62.2527 F350.00
G01 X44.5365 Y62.2609 F350.00
G01 X44.5905 Y62.2744 F350.00
G01 X44.6429 Y62.2932 F350.00
G01 X44.6933 Y62.3170 F350.00
G01 X44.7370 Y62.3430 F350.00
G01 X44.7491 Y62.3513 F350.00
G01 X44.7858 Y62.3789 F350.00
G01 X44.8271 Y62.4163 F350.00
G01 X44.8645 Y62.4575 F350.00
G01 X44.8977 Y62.5023 F350.00
G01 X44.9263 Y62.5501 F350.00
G01 X44.9502 Y62.6004 F350.00
G01 X44.9689 Y62.6529 F350.00
G01 X44.9803 Y62.6973 F350.00
G01 X44.9841 Y62.7166 F350.00
G01 X44.9906 Y62.7620 F350.00
G01 X44.9934 Y62.8176 F350.00
G01 X44.9934 Y64.5824 F350.00
G01 X44.9913 Y64.6282 F350.00
G01 X44.9901 Y64.6429 F350.00
G01 X44.9834 Y64.6883 F350.00
G01 X44.9803 Y64.7027 F350.00
G01 X44.9689 Y64.7471 F350.00
G01 X44.9537 Y64.7904 F350.00
G01 X44.9462 Y64.8086 F350.00
G01 X44.9263 Y64.8499 F350.00
G01 X44.8977 Y64.8977 F350.00
G01 X44.8645 Y64.9425 F350.00
G01 X44.8339 Y64.9766 F350.00
G01 X44.8200 Y64.9905 F350.00
G01 X44.7858 Y65.0211 F350.00
G01 X44.7491 Y65.0487 F350.00
G01 X44.7370 Y65.0570 F350.00
G01 X44.6976 Y65.0806 F350.00
G01 X44.6845 Y65.0874 F350.00
G01 X44.6429 Y65.1068 F350.00
G01 X44.5998 Y65.1225 F350.00
G01 X44.5810 Y65.1282 F350.00
G01 X44.5365 Y65.1391 F350.00
G01 X44.4911 Y65.1461 F350.00
G01 X44.4765 Y65.1477 F350.00
G01 X44.4306 Y65.1499 F350.00
G01 X42.6610 Y65.1500 F350.00
G01 X42.6054 Y65.1473 F350.00
G01 X42.5503 Y65.1391 F350.00
G01 X42.5057 Y65.1282 F350.00
G01 X42.4869 Y65.1225 F350.00
G01 X42.4438 Y65.1068 F350.00
G01 X42.4022 Y65.0874 F350.00
G01 X42.3849 Y65.0781 F350.00
G01 X42.3456 Y65.0543 F350.00
G01 X42.3009 Y65.0211 F350.00
G01 X42.2667 Y64.9905 F350.00
G01 X42.2529 Y64.9766 F350.00
G01 X42.2222 Y64.9425 F350.00
G01 X42.1947 Y64.9057 F350.00
G01 X42.1864 Y64.8936 F350.00
G01 X42.1628 Y64.8542 F350.00
G01 X42.1560 Y64.8412 F350.00
G01 X42.1366 Y64.7996 F350.00
G01 X42.1209 Y64.7565 F350.00
G01 X42.1152 Y64.7377 F350.00
G01 X42.1043 Y64.6931 F350.00
G01 X42.0973 Y64.6477 F350.00
G01 X42.0957 Y64.6331 F350.00
G01 X42.0934 Y64.5873 F350.00
G01 X42.0934 Y62.8176 F350.00
G01 X42.0961 Y62.7620 F350.00
G01 X42.1026 Y62.7166 F350.00
G01 X42.1053 Y62.7021 F350.00
G01 X42.1178 Y62.6529 F350.00
G01 X42.1366 Y62.6004 F350.00
G01 X42.1604 Y62.5501 F350.00
G01 X42.1838 Y62.5106 F350.00
G01 X42.1918 Y62.4982 F350.00
G01 X42.2222 Y62.4575 F350.00
G01 X42.2529 Y62.4234 F350.00
G01 X42.2631 Y62.4128 F350.00
G01 X42.2935 Y62.3853 F350.00
G01 X42.3047 Y62.3758 F350.00
