%
(; SHAPEOKO POSTPROCESSED v1)
( Source: BACK_2mm_ISOLATION_cnc.nc )
( Stripped: M30 only - kept T#/M6/M0/M1/MSG for Shapeoko/Carbide Motion )
( Wrapped with Shapeoko start/end blocks - mirrors 1001.nc structure )
G90        ( absolute positioning )
G17        ( XY plane select )
G21        ( mm units )
G94        ( feedrate units/min )
G28 G91 Z0 ( safe Z home - assumes machine has been homed )
G90        ( back to absolute )
G54        ( work coordinate system 1 )
M5         ( ensure spindle off at start )

(G-CODE GENERATED BY FLATCAM v8.994 - www.flatcam.org - Version Date: 2020/11/7)

(Name: BACK_2mm_ISOLATION_cnc)
(Type: G-code from Geometry)
(Units: MM)

(Created on Saturday, 27 June 2026 at 20:08)

(This preprocessor is used with a motion controller loaded with GRBL firmware.)
(It is configured to be compatible with almost any version of GRBL firmware.)

(TOOL DIAMETER: 2.0 mm)
(Feedrate_XY: 350.0 mm/min)
(Feedrate_Z: 250.0 mm/min)
(Feedrate rapids 1500.0 mm/min)

(Z_Cut: -0.05 mm)
(Z_Move: 0.5 mm)
(Z Start: None mm)
(Z End: 40.0 mm)
(X,Y End: None mm)
(Steps per circle: 64)
(Steps per circle: 64)
(Preprocessor Geometry: grbl_11)

(X range:   -0.1195 ...  135.9309  mm)
(Y range:   -5.1125 ...   71.1502  mm)

(Spindle Speed: 0.0 RPM)
G21
G90
G17
G94


G01 F350.00

M5             
G00 Z40.0000
G00 X0.0000 Y0.0000                
T1 M6
(MSG, Change to Tool Dia = 2.0000)
M0
G00 Z40.0000

M03
G01 F350.00
G00 X8.5172 Y6.3555
G01 F250.00
G01 Z-0.0500
G01 F350.00
G01 X8.5729 Y6.3415 F350.00
G01 X8.6346 Y6.3253 F350.00
G01 X8.6959 Y6.3075 F350.00
G01 X8.7567 Y6.2882 F350.00
G01 X8.8171 Y6.2675 F350.00
G01 X8.9095 Y6.2344 F350.00
G01 X8.9693 Y6.2122 F350.00
G01 X9.0285 Y6.1885 F350.00
G01 X9.0872 Y6.1633 F350.00
G01 X9.1452 Y6.1368 F350.00
G01 X9.2339 Y6.0948 F350.00
G01 X9.2912 Y6.0668 F350.00
G01 X9.3479 Y6.0374 F350.00
G01 X9.4038 Y6.0066 F350.00
G01 X9.4589 Y5.9745 F350.00
G01 X9.5431 Y5.9241 F350.00
G01 X9.5754 Y5.9041 F350.00
G01 X12.7249 Y5.9156 F350.00
G01 X12.7687 Y5.9480 F350.00
G01 X12.8204 Y5.9854 F350.00
G01 X12.8730 Y6.0215 F350.00
G01 X12.9265 Y6.0563 F350.00
G01 X12.9808 Y6.0898 F350.00
G01 X13.0187 Y6.1125 F350.00
G01 X12.9808 Y6.1352 F350.00
G01 X12.9265 Y6.1687 F350.00
G01 X12.8730 Y6.2035 F350.00
G01 X12.8204 Y6.2396 F350.00
G01 X12.7687 Y6.2770 F350.00
G01 X12.6505 Y6.3646 F350.00
G01 X12.5997 Y6.4033 F350.00
G01 X12.5498 Y6.4432 F350.00
G01 X12.5010 Y6.4842 F350.00
G01 X12.4532 Y6.5265 F350.00
G01 X12.3441 Y6.6254 F350.00
G01 X12.2974 Y6.6688 F350.00
G01 X12.2517 Y6.7134 F350.00
G01 X12.2072 Y6.7590 F350.00
G01 X12.1637 Y6.8058 F350.00
G01 X12.0649 Y6.9149 F350.00
G01 X12.0403 Y6.9427 F350.00
G01 X9.8979 Y6.9334 F350.00
G01 X9.8752 Y6.9187 F350.00
G01 X9.8209 Y6.8852 F350.00
G01 X9.6946 Y6.8095 F350.00
G01 X9.6395 Y6.7774 F350.00
G01 X9.5836 Y6.7466 F350.00
G01 X9.5269 Y6.7172 F350.00
G01 X9.4696 Y6.6892 F350.00
G01 X9.3365 Y6.6263 F350.00
G01 X9.2785 Y6.5997 F350.00
G01 X9.2199 Y6.5746 F350.00
G01 X9.1606 Y6.5509 F350.00
G01 X9.1008 Y6.5287 F350.00
G01 X8.9622 Y6.4791 F350.00
G01 X8.9019 Y6.4583 F350.00
G01 X8.8410 Y6.4390 F350.00
G01 X8.7797 Y6.4213 F350.00
G01 X8.7180 Y6.4050 F350.00
G01 X8.5752 Y6.3692 F350.00
G01 X8.5172 Y6.3555 F350.00
G00 Z0.5000
G00 X17.2830 Y6.1125
G01 F250.00
G01 Z-0.0500
G01 F350.00
G01 X17.3209 Y6.0898 F350.00
G01 X17.3752 Y6.0563 F350.00
G01 X17.4287 Y6.0215 F350.00
G01 X17.4813 Y5.9854 F350.00
G01 X17.5330 Y5.9480 F350.00
G01 X17.6513 Y5.8604 F350.00
G01 X17.7021 Y5.8217 F350.00
G01 X17.7519 Y5.7818 F350.00
G01 X17.8007 Y5.7408 F350.00
G01 X17.8485 Y5.6985 F350.00
G01 X17.9576 Y5.5996 F350.00
G01 X18.0043 Y5.5562 F350.00
G01 X18.0500 Y5.5116 F350.00
G01 X18.0946 Y5.4660 F350.00
G01 X18.1380 Y5.4192 F350.00
G01 X18.2368 Y5.3101 F350.00
G01 X18.2791 Y5.2623 F350.00
G01 X18.3202 Y5.2135 F350.00
G01 X18.3601 Y5.1637 F350.00
G01 X18.3987 Y5.1129 F350.00
G01 X18.4864 Y4.9947 F350.00
G01 X18.5238 Y4.9430 F350.00
G01 X18.5599 Y4.8903 F350.00
G01 X18.5947 Y4.8368 F350.00
G01 X18.6306 Y4.7784 F350.00
G01 X18.6306 Y6.3000 F350.00
G01 X18.6314 Y6.3638 F350.00
G01 X18.6337 Y6.4276 F350.00
G01 X18.6362 Y6.4766 F350.00
G01 X18.6401 Y6.5403 F350.00
G01 X18.6455 Y6.6039 F350.00
G01 X18.6526 Y6.6673 F350.00
G01 X18.6612 Y6.7305 F350.00
G01 X18.6684 Y6.7791 F350.00
G01 X18.6785 Y6.8421 F350.00
G01 X18.6902 Y6.9048 F350.00
G01 X18.7034 Y6.9673 F350.00
G01 X18.7181 Y7.0293 F350.00
G01 X18.7301 Y7.0770 F350.00
G01 X18.7463 Y7.1387 F350.00
G01 X18.7641 Y7.2000 F350.00
G01 X18.7834 Y7.2608 F350.00
G01 X18.8041 Y7.3211 F350.00
G01 X18.8207 Y7.3674 F350.00
G01 X18.8429 Y7.4272 F350.00
G01 X18.8666 Y7.4864 F350.00
G01 X18.8917 Y7.5451 F350.00
G01 X18.9183 Y7.6031 F350.00
G01 X18.9393 Y7.6475 F350.00
G01 X18.9673 Y7.7048 F350.00
G01 X18.9967 Y7.7614 F350.00
G01 X19.0275 Y7.8174 F350.00
G01 X19.0596 Y7.8725 F350.00
G01 X19.0848 Y7.9146 F350.00
G01 X19.1183 Y7.9689 F350.00
G01 X19.1531 Y8.0224 F350.00
G01 X19.1892 Y8.0750 F350.00
G01 X19.2266 Y8.1267 F350.00
G01 X19.2558 Y8.1662 F350.00
G01 X19.2945 Y8.2170 F350.00
G01 X19.3343 Y8.2668 F350.00
G01 X19.3754 Y8.3156 F350.00
G01 X19.4177 Y8.3634 F350.00
G01 X19.4507 Y8.3998 F350.00
G01 X19.4941 Y8.4465 F350.00
G01 X19.5387 Y8.4922 F350.00
G01 X19.5843 Y8.5368 F350.00
G01 X19.6311 Y8.5802 F350.00
G01 X19.6675 Y8.6132 F350.00
G01 X19.7153 Y8.6554 F350.00
G01 X19.7641 Y8.6965 F350.00
G01 X19.8139 Y8.7364 F350.00
G01 X19.8647 Y8.7750 F350.00
G01 X19.9041 Y8.8043 F350.00
G01 X19.9558 Y8.8417 F350.00
G01 X20.0085 Y8.8778 F350.00
G01 X20.0619 Y8.9126 F350.00
G01 X20.1163 Y8.9460 F350.00
G01 X20.1584 Y8.9713 F350.00
G01 X20.2135 Y9.0034 F350.00
G01 X20.2694 Y9.0342 F350.00
G01 X20.3261 Y9.0636 F350.00
G01 X20.3834 Y9.0916 F350.00
G01 X20.4278 Y9.1125 F350.00
G01 X20.4858 Y9.1391 F350.00
G01 X20.5444 Y9.1643 F350.00
G01 X20.6012 Y9.1870 F350.00
G01 X20.5513 Y9.1950 F350.00
G01 X20.4885 Y9.2067 F350.00
G01 X20.4261 Y9.2199 F350.00
G01 X20.3640 Y9.2346 F350.00
G01 X20.2688 Y9.2585 F350.00
G01 X20.2071 Y9.2747 F350.00
G01 X20.1458 Y9.2925 F350.00
G01 X20.0850 Y9.3118 F350.00
G01 X20.0247 Y9.3325 F350.00
G01 X19.9209 Y9.3698 F350.00
G01 X19.8171 Y9.3325 F350.00
G01 X19.7567 Y9.3118 F350.00
G01 X19.6959 Y9.2925 F350.00
G01 X19.6346 Y9.2747 F350.00
G01 X19.5729 Y9.2585 F350.00
G01 X19.4777 Y9.2346 F350.00
G01 X19.4156 Y9.2199 F350.00
G01 X19.3532 Y9.2067 F350.00
G01 X19.2905 Y9.1950 F350.00
G01 X19.2283 Y9.1850 F350.00
G01 X19.2241 Y9.1472 F350.00
G01 X19.2155 Y9.0840 F350.00
G01 X19.1939 Y8.9384 F350.00
G01 X19.1838 Y8.8754 F350.00
G01 X19.1721 Y8.8126 F350.00
G01 X19.1589 Y8.7502 F350.00
G01 X19.1441 Y8.6881 F350.00
G01 X19.1084 Y8.5453 F350.00
G01 X19.0921 Y8.4836 F350.00
G01 X19.0743 Y8.4223 F350.00
G01 X19.0550 Y8.3615 F350.00
G01 X19.0343 Y8.3012 F350.00
G01 X18.9847 Y8.1626 F350.00
G01 X18.9625 Y8.1027 F350.00
G01 X18.9388 Y8.0435 F350.00
G01 X18.9136 Y7.9848 F350.00
G01 X18.8871 Y7.9268 F350.00
G01 X18.8241 Y7.7938 F350.00
G01 X18.7961 Y7.7364 F350.00
G01 X18.7667 Y7.6798 F350.00
G01 X18.7360 Y7.6239 F350.00
G01 X18.7038 Y7.5687 F350.00
G01 X18.6282 Y7.4425 F350.00
G01 X18.5947 Y7.3882 F350.00
G01 X18.5599 Y7.3347 F350.00
G01 X18.5238 Y7.2820 F350.00
G01 X18.4864 Y7.2303 F350.00
G01 X18.3987 Y7.1121 F350.00
G01 X18.3601 Y7.0613 F350.00
G01 X18.3202 Y7.0115 F350.00
G01 X18.2791 Y6.9627 F350.00
G01 X18.2368 Y6.9149 F350.00
G01 X18.1380 Y6.8058 F350.00
G01 X18.0946 Y6.7590 F350.00
G01 X18.0500 Y6.7134 F350.00
G01 X18.0043 Y6.6688 F350.00
G01 X17.9576 Y6.6254 F350.00
G01 X17.8485 Y6.5265 F350.00
G01 X17.8007 Y6.4842 F350.00
G01 X17.7519 Y6.4432 F350.00
G01 X17.7021 Y6.4033 F350.00
G01 X17.6513 Y6.3646 F350.00
G01 X17.5330 Y6.2770 F350.00
G01 X17.4813 Y6.2396 F350.00
G01 X17.4287 Y6.2035 F350.00
G01 X17.3752 Y6.1687 F350.00
G01 X17.3209 Y6.1352 F350.00
G01 X17.2830 Y6.1125 F350.00
G00 Z0.5000
G00 X25.7586 Y2.8755
G01 F250.00
G01 Z-0.0500
G01 F350.00
G01 X25.7258 Y2.8896 F350.00
G01 X25.6666 Y2.9133 F350.00
G01 X25.6068 Y2.9355 F350.00
G01 X25.5464 Y2.9563 F350.00
G01 X25.4856 Y2.9755 F350.00
G01 X25.4243 Y2.9933 F350.00
G01 X25.3626 Y3.0096 F350.00
G01 X25.3005 Y3.0243 F350.00
G01 X25.2381 Y3.0375 F350.00
G01 X25.1754 Y3.0492 F350.00
G01 X25.1124 Y3.0594 F350.00
G01 X25.0491 Y3.0679 F350.00
G01 X24.9857 Y3.0750 F350.00
G01 X24.9221 Y3.0805 F350.00
G01 X24.8584 Y3.0844 F350.00
G01 X24.8311 Y3.0854 F350.00
G01 X24.8311 Y3.1998 F350.00
G01 X29.7309 Y3.1998 F350.00
G01 X29.7947 Y3.2005 F350.00
G01 X29.8584 Y3.2029 F350.00
G01 X29.9075 Y3.2053 F350.00
G01 X29.9712 Y3.2092 F350.00
G01 X30.0347 Y3.2147 F350.00
G01 X30.0982 Y3.2217 F350.00
G01 X30.1614 Y3.2303 F350.00
G01 X30.2100 Y3.2375 F350.00
G01 X30.2730 Y3.2476 F350.00
G01 X30.3357 Y3.2593 F350.00
G01 X30.3981 Y3.2725 F350.00
G01 X30.4602 Y3.2873 F350.00
G01 X30.5078 Y3.2992 F350.00
G01 X30.5695 Y3.3155 F350.00
G01 X30.6308 Y3.3332 F350.00
G01 X30.6916 Y3.3525 F350.00
G01 X30.7520 Y3.3733 F350.00
G01 X30.7982 Y3.3898 F350.00
G01 X30.8580 Y3.4120 F350.00
G01 X30.9173 Y3.4357 F350.00
G01 X30.9759 Y3.4609 F350.00
G01 X31.0339 Y3.4875 F350.00
G01 X31.0783 Y3.5084 F350.00
G01 X31.1357 Y3.5364 F350.00
G01 X31.1923 Y3.5658 F350.00
G01 X31.2482 Y3.5966 F350.00
G01 X31.3033 Y3.6287 F350.00
G01 X31.3455 Y3.6540 F350.00
G01 X31.3998 Y3.6874 F350.00
G01 X31.4533 Y3.7222 F350.00
G01 X31.5059 Y3.7583 F350.00
G01 X31.5576 Y3.7957 F350.00
G01 X31.5970 Y3.8250 F350.00
G01 X31.6478 Y3.8636 F350.00
G01 X31.6976 Y3.9035 F350.00
G01 X31.7465 Y3.9446 F350.00
G01 X31.7943 Y3.9868 F350.00
G01 X31.8306 Y4.0198 F350.00
G01 X31.8774 Y4.0632 F350.00
G01 X31.9231 Y4.1078 F350.00
G01 X31.9676 Y4.1535 F350.00
G01 X32.0111 Y4.2002 F350.00
G01 X32.0440 Y4.2366 F350.00
G01 X32.0863 Y4.2844 F350.00
G01 X32.1274 Y4.3332 F350.00
G01 X32.1673 Y4.3830 F350.00
G01 X32.2059 Y4.4338 F350.00
G01 X32.2351 Y4.4733 F350.00
G01 X32.2725 Y4.5250 F350.00
G01 X32.3086 Y4.5776 F350.00
G01 X32.3434 Y4.6311 F350.00
G01 X32.3769 Y4.6854 F350.00
G01 X32.4021 Y4.7275 F350.00
G01 X32.4343 Y4.7826 F350.00
G01 X32.4650 Y4.8386 F350.00
G01 X32.4944 Y4.8952 F350.00
G01 X32.5224 Y4.9525 F350.00
G01 X32.5434 Y4.9969 F350.00
G01 X32.5700 Y5.0549 F350.00
G01 X32.5951 Y5.1136 F350.00
G01 X32.6188 Y5.1728 F350.00
G01 X32.6410 Y5.2326 F350.00
G01 X32.6576 Y5.2789 F350.00
G01 X32.6783 Y5.3392 F350.00
G01 X32.6976 Y5.4000 F350.00
G01 X32.7154 Y5.4613 F350.00
G01 X32.7317 Y5.5230 F350.00
G01 X32.7436 Y5.5707 F350.00
G01 X32.7583 Y5.6327 F350.00
G01 X32.7715 Y5.6952 F350.00
G01 X32.7832 Y5.7579 F350.00
G01 X32.7934 Y5.8209 F350.00
G01 X32.8006 Y5.8695 F350.00
G01 X32.8091 Y5.9327 F350.00
G01 X32.8162 Y5.9961 F350.00
G01 X32.8217 Y6.0597 F350.00
G01 X32.8256 Y6.1234 F350.00
G01 X32.8280 Y6.1724 F350.00
G01 X32.8303 Y6.2362 F350.00
G01 X32.8311 Y6.3000 F350.00
G01 X32.8311 Y8.5158 F350.00
G01 X44.6731 Y20.3578 F350.00
G01 X44.7176 Y20.4035 F350.00
G01 X44.7611 Y20.4502 F350.00
G01 X44.7940 Y20.4866 F350.00
G01 X44.8363 Y20.5344 F350.00
G01 X44.8774 Y20.5832 F350.00
G01 X44.9173 Y20.6330 F350.00
G01 X44.9559 Y20.6838 F350.00
G01 X44.9851 Y20.7233 F350.00
G01 X45.0225 Y20.7750 F350.00
G01 X45.0586 Y20.8276 F350.00
G01 X45.0934 Y20.8811 F350.00
G01 X45.1269 Y20.9354 F350.00
G01 X45.1521 Y20.9775 F350.00
G01 X45.1843 Y21.0326 F350.00
G01 X45.2150 Y21.0886 F350.00
G01 X45.2444 Y21.1452 F350.00
G01 X45.2724 Y21.2025 F350.00
G01 X45.2934 Y21.2469 F350.00
G01 X45.3200 Y21.3049 F350.00
G01 X45.3451 Y21.3636 F350.00
G01 X45.3688 Y21.4228 F350.00
G01 X45.3910 Y21.4826 F350.00
G01 X45.4076 Y21.5289 F350.00
G01 X45.4283 Y21.5892 F350.00
G01 X45.4476 Y21.6500 F350.00
G01 X45.4654 Y21.7113 F350.00
G01 X45.4817 Y21.7730 F350.00
G01 X45.4936 Y21.8207 F350.00
G01 X45.5083 Y21.8827 F350.00
G01 X45.5215 Y21.9452 F350.00
G01 X45.5332 Y22.0079 F350.00
G01 X45.5434 Y22.0709 F350.00
G01 X45.5506 Y22.1195 F350.00
G01 X45.5591 Y22.1827 F350.00
G01 X45.5662 Y22.2461 F350.00
G01 X45.5717 Y22.3097 F350.00
G01 X45.5756 Y22.3734 F350.00
G01 X45.5780 Y22.4224 F350.00
G01 X45.5803 Y22.4862 F350.00
G01 X45.5811 Y22.5500 F350.00
G01 X45.5811 Y35.2659 F350.00
G01 X45.6865 Y35.2157 F350.00
G01 X45.7446 Y35.1892 F350.00
G01 X45.8032 Y35.1640 F350.00
G01 X45.8625 Y35.1403 F350.00
G01 X45.9223 Y35.1181 F350.00
G01 X46.0147 Y35.0850 F350.00
G01 X46.0750 Y35.0643 F350.00
G01 X46.1358 Y35.0450 F350.00
G01 X46.1971 Y35.0272 F350.00
G01 X46.2588 Y35.0110 F350.00
G01 X46.3540 Y34.9871 F350.00
G01 X46.4161 Y34.9724 F350.00
G01 X46.4785 Y34.9592 F350.00
G01 X46.5413 Y34.9475 F350.00
G01 X46.6043 Y34.9374 F350.00
G01 X46.7013 Y34.9230 F350.00
G01 X46.7646 Y34.9144 F350.00
G01 X46.8280 Y34.9073 F350.00
G01 X46.8916 Y34.9019 F350.00
G01 X46.9553 Y34.8979 F350.00
G01 X47.0533 Y34.8931 F350.00
G01 X47.1171 Y34.8908 F350.00
G01 X47.1809 Y34.8900 F350.00
G01 X47.2447 Y34.8908 F350.00
G01 X47.3084 Y34.8931 F350.00
G01 X47.4065 Y34.8979 F350.00
G01 X47.4701 Y34.9019 F350.00
G01 X47.5337 Y34.9073 F350.00
G01 X47.5971 Y34.9144 F350.00
G01 X47.6604 Y34.9230 F350.00
G01 X47.7575 Y34.9374 F350.00
G01 X47.8205 Y34.9475 F350.00
G01 X47.8832 Y34.9592 F350.00
G01 X47.9456 Y34.9724 F350.00
G01 X48.0077 Y34.9871 F350.00
G01 X48.1029 Y35.0110 F350.00
G01 X48.1646 Y35.0272 F350.00
G01 X48.2259 Y35.0450 F350.00
G01 X48.2867 Y35.0643 F350.00
G01 X48.3471 Y35.0850 F350.00
G01 X48.4395 Y35.1181 F350.00
G01 X48.4993 Y35.1403 F350.00
G01 X48.5585 Y35.1640 F350.00
G01 X48.6172 Y35.1892 F350.00
G01 X48.6752 Y35.2157 F350.00
G01 X48.7639 Y35.2577 F350.00
G01 X48.8212 Y35.2857 F350.00
G01 X48.8779 Y35.3151 F350.00
G01 X48.9338 Y35.3459 F350.00
G01 X48.9889 Y35.3780 F350.00
G01 X49.0731 Y35.4284 F350.00
G01 X49.1274 Y35.4619 F350.00
G01 X49.1809 Y35.4967 F350.00
G01 X49.2335 Y35.5328 F350.00
G01 X49.2852 Y35.5702 F350.00
G01 X49.3641 Y35.6287 F350.00
G01 X49.4149 Y35.6673 F350.00
G01 X49.4647 Y35.7072 F350.00
G01 X49.5135 Y35.7482 F350.00
G01 X49.5613 Y35.7905 F350.00
G01 X49.6340 Y35.8564 F350.00
G01 X49.6808 Y35.8999 F350.00
G01 X49.7264 Y35.9444 F350.00
G01 X49.7710 Y35.9901 F350.00
G01 X49.8144 Y36.0368 F350.00
G01 X49.8803 Y36.1096 F350.00
G01 X49.9226 Y36.1574 F350.00
G01 X49.9637 Y36.2062 F350.00
G01 X50.0036 Y36.2560 F350.00
G01 X50.0422 Y36.3068 F350.00
G01 X50.1007 Y36.3856 F350.00
G01 X50.1381 Y36.4373 F350.00
G01 X50.1742 Y36.4899 F350.00
G01 X50.2089 Y36.5434 F350.00
G01 X50.2424 Y36.5978 F350.00
G01 X50.2929 Y36.6819 F350.00
G01 X50.3250 Y36.7371 F350.00
G01 X50.3558 Y36.7930 F350.00
G01 X50.3852 Y36.8496 F350.00
G01 X50.4132 Y36.9070 F350.00
G01 X50.4551 Y36.9957 F350.00
G01 X50.4817 Y37.0537 F350.00
G01 X50.5068 Y37.1123 F350.00
G01 X50.5305 Y37.1716 F350.00
G01 X50.5528 Y37.2314 F350.00
G01 X50.5858 Y37.3238 F350.00
G01 X50.6066 Y37.3841 F350.00
G01 X50.6258 Y37.4450 F350.00
G01 X50.6436 Y37.5063 F350.00
G01 X50.6599 Y37.5680 F350.00
G01 X50.6837 Y37.6632 F350.00
G01 X50.6985 Y37.7252 F350.00
G01 X50.7117 Y37.7877 F350.00
G01 X50.7234 Y37.8504 F350.00
G01 X50.7335 Y37.9134 F350.00
G01 X50.7479 Y38.0105 F350.00
G01 X50.7565 Y38.0737 F350.00
G01 X50.7635 Y38.1371 F350.00
G01 X50.7690 Y38.2007 F350.00
G01 X50.7729 Y38.2644 F350.00
G01 X50.7777 Y38.3624 F350.00
G01 X50.7801 Y38.4262 F350.00
G01 X50.7809 Y38.4900 F350.00
G01 X50.7801 Y38.5538 F350.00
G01 X50.7777 Y38.6176 F350.00
G01 X50.7729 Y38.7156 F350.00
G01 X50.7690 Y38.7793 F350.00
G01 X50.7635 Y38.8429 F350.00
G01 X50.7565 Y38.9063 F350.00
G01 X50.7479 Y38.9695 F350.00
G01 X50.7335 Y39.0666 F350.00
G01 X50.7234 Y39.1296 F350.00
G01 X50.7117 Y39.1923 F350.00
G01 X50.6985 Y39.2548 F350.00
G01 X50.6837 Y39.3168 F350.00
G01 X50.6599 Y39.4120 F350.00
G01 X50.6436 Y39.4737 F350.00
G01 X50.6258 Y39.5350 F350.00
G01 X50.6066 Y39.5959 F350.00
G01 X50.5858 Y39.6562 F350.00
G01 X50.5485 Y39.7600 F350.00
G01 X50.5858 Y39.8638 F350.00
G01 X50.6066 Y39.9241 F350.00
G01 X50.6258 Y39.9850 F350.00
G01 X50.6436 Y40.0463 F350.00
G01 X50.6599 Y40.1080 F350.00
G01 X50.6837 Y40.2032 F350.00
G01 X50.6985 Y40.2652 F350.00
G01 X50.7117 Y40.3277 F350.00
G01 X50.7234 Y40.3904 F350.00
G01 X50.7335 Y40.4534 F350.00
G01 X50.7479 Y40.5505 F350.00
G01 X50.7565 Y40.6137 F350.00
G01 X50.7635 Y40.6771 F350.00
G01 X50.7690 Y40.7407 F350.00
G01 X50.7729 Y40.8044 F350.00
G01 X50.7777 Y40.9024 F350.00
G01 X50.7801 Y40.9662 F350.00
G01 X50.7809 Y41.0300 F350.00
G01 X50.7801 Y41.0938 F350.00
G01 X50.7777 Y41.1576 F350.00
G01 X50.7729 Y41.2556 F350.00
G01 X50.7690 Y41.3193 F350.00
G01 X50.7635 Y41.3829 F350.00
G01 X50.7565 Y41.4463 F350.00
G01 X50.7479 Y41.5095 F350.00
G01 X50.7335 Y41.6066 F350.00
G01 X50.7234 Y41.6696 F350.00
G01 X50.7117 Y41.7323 F350.00
G01 X50.6985 Y41.7948 F350.00
G01 X50.6837 Y41.8568 F350.00
G01 X50.6599 Y41.9520 F350.00
G01 X50.6436 Y42.0137 F350.00
G01 X50.6258 Y42.0750 F350.00
G01 X50.6066 Y42.1359 F350.00
G01 X50.5858 Y42.1962 F350.00
G01 X50.5485 Y42.3000 F350.00
G01 X50.5858 Y42.4038 F350.00
G01 X50.6066 Y42.4641 F350.00
G01 X50.6258 Y42.5250 F350.00
G01 X50.6436 Y42.5863 F350.00
G01 X50.6599 Y42.6480 F350.00
G01 X50.6837 Y42.7432 F350.00
G01 X50.6985 Y42.8052 F350.00
G01 X50.7117 Y42.8677 F350.00
G01 X50.7234 Y42.9304 F350.00
G01 X50.7335 Y42.9934 F350.00
G01 X50.7479 Y43.0905 F350.00
G01 X50.7565 Y43.1537 F350.00
G01 X50.7635 Y43.2171 F350.00
G01 X50.7690 Y43.2807 F350.00
G01 X50.7729 Y43.3444 F350.00
G01 X50.7777 Y43.4424 F350.00
G01 X50.7801 Y43.5062 F350.00
G01 X50.7809 Y43.5700 F350.00
G01 X50.7801 Y43.6338 F350.00
G01 X50.7777 Y43.6976 F350.00
G01 X50.7729 Y43.7956 F350.00
G01 X50.7690 Y43.8593 F350.00
G01 X50.7635 Y43.9229 F350.00
G01 X50.7565 Y43.9863 F350.00
G01 X50.7479 Y44.0495 F350.00
G01 X50.7335 Y44.1466 F350.00
G01 X50.7234 Y44.2096 F350.00
G01 X50.7117 Y44.2723 F350.00
G01 X50.6985 Y44.3348 F350.00
G01 X50.6837 Y44.3968 F350.00
G01 X50.6599 Y44.4920 F350.00
G01 X50.6436 Y44.5537 F350.00
G01 X50.6258 Y44.6150 F350.00
G01 X50.6066 Y44.6759 F350.00
G01 X50.5858 Y44.7362 F350.00
G01 X50.5485 Y44.8400 F350.00
G01 X50.5858 Y44.9438 F350.00
G01 X50.6066 Y45.0041 F350.00
G01 X50.6258 Y45.0650 F350.00
G01 X50.6436 Y45.1263 F350.00
G01 X50.6628 Y45.1998 F350.00
G01 X67.2462 Y45.1998 F350.00
G01 X66.2887 Y44.2422 F350.00
G01 X66.2441 Y44.1965 F350.00
G01 X66.2007 Y44.1498 F350.00
G01 X66.1677 Y44.1134 F350.00
G01 X66.1254 Y44.0656 F350.00
G01 X66.0843 Y44.0168 F350.00
G01 X66.0445 Y43.9670 F350.00
G01 X66.0058 Y43.9162 F350.00
G01 X65.9766 Y43.8767 F350.00
G01 X65.9344 Y43.8180 F350.00
G01 X65.8809 Y43.8350 F350.00
G01 X65.8196 Y43.8528 F350.00
G01 X65.7579 Y43.8690 F350.00
G01 X65.6627 Y43.8929 F350.00
G01 X65.6006 Y43.9076 F350.00
G01 X65.5382 Y43.9208 F350.00
G01 X65.4755 Y43.9325 F350.00
G01 X65.4125 Y43.9426 F350.00
G01 X65.3154 Y43.9570 F350.00
G01 X65.2521 Y43.9656 F350.00
G01 X65.1887 Y43.9727 F350.00
G01 X65.1251 Y43.9781 F350.00
G01 X65.0615 Y43.9821 F350.00
G01 X64.9634 Y43.9869 F350.00
G01 X64.8997 Y43.9892 F350.00
G01 X64.8359 Y43.9900 F350.00
G01 X64.7721 Y43.9892 F350.00
G01 X64.7083 Y43.9869 F350.00
G01 X64.6103 Y43.9821 F350.00
G01 X64.5466 Y43.9781 F350.00
G01 X64.4830 Y43.9727 F350.00
G01 X64.4196 Y43.9656 F350.00
G01 X64.3563 Y43.9570 F350.00
G01 X64.2593 Y43.9426 F350.00
G01 X64.1963 Y43.9325 F350.00
G01 X64.1335 Y43.9208 F350.00
G01 X64.0711 Y43.9076 F350.00
G01 X64.0090 Y43.8929 F350.00
G01 X63.9138 Y43.8690 F350.00
G01 X63.8521 Y43.8528 F350.00
G01 X63.7908 Y43.8350 F350.00
G01 X63.7300 Y43.8157 F350.00
G01 X63.6697 Y43.7950 F350.00
G01 X63.5659 Y43.7577 F350.00
G01 X63.4621 Y43.7950 F350.00
G01 X63.4017 Y43.8157 F350.00
G01 X63.3409 Y43.8350 F350.00
G01 X63.2796 Y43.8528 F350.00
G01 X63.2179 Y43.8690 F350.00
G01 X63.1227 Y43.8929 F350.00
G01 X63.0606 Y43.9076 F350.00
G01 X62.9982 Y43.9208 F350.00
G01 X62.9355 Y43.9325 F350.00
G01 X62.8725 Y43.9426 F350.00
G01 X62.7754 Y43.9570 F350.00
G01 X62.7121 Y43.9656 F350.00
G01 X62.6487 Y43.9727 F350.00
G01 X62.5851 Y43.9781 F350.00
G01 X62.5215 Y43.9821 F350.00
G01 X62.4234 Y43.9869 F350.00
G01 X62.3597 Y43.9892 F350.00
G01 X62.2959 Y43.9900 F350.00
G01 X62.2321 Y43.9892 F350.00
G01 X62.1683 Y43.9869 F350.00
G01 X62.0703 Y43.9821 F350.00
G01 X62.0066 Y43.9781 F350.00
G01 X61.9430 Y43.9727 F350.00
G01 X61.8796 Y43.9656 F350.00
G01 X61.8163 Y43.9570 F350.00
G01 X61.7193 Y43.9426 F350.00
G01 X61.6563 Y43.9325 F350.00
G01 X61.5935 Y43.9208 F350.00
G01 X61.5311 Y43.9076 F350.00
G01 X61.4690 Y43.8929 F350.00
G01 X61.3738 Y43.8690 F350.00
G01 X61.3121 Y43.8528 F350.00
G01 X61.2508 Y43.8350 F350.00
G01 X61.1900 Y43.8157 F350.00
G01 X61.1297 Y43.7950 F350.00
G01 X61.0259 Y43.7577 F350.00
G01 X60.9221 Y43.7950 F350.00
G01 X60.8617 Y43.8157 F350.00
G01 X60.8009 Y43.8350 F350.00
G01 X60.7396 Y43.8528 F350.00
G01 X60.6779 Y43.8690 F350.00
G01 X60.5827 Y43.8929 F350.00
G01 X60.5206 Y43.9076 F350.00
G01 X60.4582 Y43.9208 F350.00
G01 X60.3955 Y43.9325 F350.00
G01 X60.3325 Y43.9426 F350.00
G01 X60.2354 Y43.9570 F350.00
G01 X60.1721 Y43.9656 F350.00
G01 X60.1087 Y43.9727 F350.00
G01 X60.0451 Y43.9781 F350.00
G01 X59.9815 Y43.9821 F350.00
G01 X59.8834 Y43.9869 F350.00
G01 X59.8197 Y43.9892 F350.00
G01 X59.7559 Y43.9900 F350.00
G01 X59.6921 Y43.9892 F350.00
G01 X59.6283 Y43.9869 F350.00
G01 X59.5303 Y43.9821 F350.00
G01 X59.4666 Y43.9781 F350.00
G01 X59.4030 Y43.9727 F350.00
G01 X59.3396 Y43.9656 F350.00
G01 X59.2763 Y43.9570 F350.00
G01 X59.1793 Y43.9426 F350.00
G01 X59.1163 Y43.9325 F350.00
G01 X59.0535 Y43.9208 F350.00
G01 X58.9911 Y43.9076 F350.00
G01 X58.9290 Y43.8929 F350.00
G01 X58.8338 Y43.8690 F350.00
G01 X58.7721 Y43.8528 F350.00
G01 X58.7108 Y43.8350 F350.00
G01 X58.6500 Y43.8157 F350.00
G01 X58.5897 Y43.7950 F350.00
G01 X58.4973 Y43.7619 F350.00
G01 X58.4375 Y43.7397 F350.00
G01 X58.3782 Y43.7160 F350.00
G01 X58.3196 Y43.6908 F350.00
G01 X58.2615 Y43.6643 F350.00
G01 X58.1728 Y43.6223 F350.00
G01 X58.1155 Y43.5943 F350.00
G01 X58.0588 Y43.5649 F350.00
G01 X58.0029 Y43.5341 F350.00
G01 X57.9478 Y43.5020 F350.00
G01 X57.8636 Y43.4516 F350.00
G01 X57.8093 Y43.4181 F350.00
G01 X57.7558 Y43.3833 F350.00
G01 X57.7032 Y43.3472 F350.00
G01 X57.6515 Y43.3098 F350.00
G01 X57.5726 Y43.2513 F350.00
G01 X57.5219 Y43.2127 F350.00
G01 X57.4720 Y43.1728 F350.00
G01 X57.4232 Y43.1318 F350.00
G01 X57.3754 Y43.0895 F350.00
G01 X57.3027 Y43.0236 F350.00
G01 X57.2559 Y42.9801 F350.00
G01 X57.2103 Y42.9356 F350.00
G01 X57.1657 Y42.8899 F350.00
G01 X57.1223 Y42.8432 F350.00
G01 X57.0564 Y42.7704 F350.00
G01 X57.0141 Y42.7226 F350.00
G01 X56.9730 Y42.6738 F350.00
G01 X56.9332 Y42.6240 F350.00
G01 X56.8945 Y42.5732 F350.00
G01 X56.8361 Y42.4944 F350.00
G01 X56.7987 Y42.4427 F350.00
G01 X56.7626 Y42.3901 F350.00
G01 X56.7278 Y42.3366 F350.00
G01 X56.6943 Y42.2822 F350.00
G01 X56.6438 Y42.1981 F350.00
G01 X56.6117 Y42.1429 F350.00
G01 X56.5809 Y42.0870 F350.00
G01 X56.5516 Y42.0304 F350.00
G01 X56.5236 Y41.9730 F350.00
G01 X56.4816 Y41.8843 F350.00
G01 X56.4550 Y41.8263 F350.00
G01 X56.4299 Y41.7677 F350.00
G01 X56.4062 Y41.7084 F350.00
G01 X56.3840 Y41.6486 F350.00
G01 X56.3509 Y41.5562 F350.00
G01 X56.3301 Y41.4959 F350.00
G01 X56.3109 Y41.4350 F350.00
G01 X56.2931 Y41.3737 F350.00
G01 X56.2768 Y41.3120 F350.00
G01 X56.2530 Y41.2168 F350.00
G01 X56.2383 Y41.1548 F350.00
G01 X56.2250 Y41.0923 F350.00
G01 X56.2134 Y41.0296 F350.00
G01 X56.2032 Y40.9666 F350.00
G01 X56.1888 Y40.8695 F350.00
G01 X56.1802 Y40.8063 F350.00
G01 X56.1732 Y40.7429 F350.00
G01 X56.1677 Y40.6793 F350.00
G01 X56.1638 Y40.6156 F350.00
G01 X56.1590 Y40.5176 F350.00
G01 X56.1566 Y40.4538 F350.00
G01 X56.1559 Y40.3900 F350.00
G01 X56.1559 Y40.2896 F350.00
G01 X56.1477 Y40.2179 F350.00
G01 X56.1422 Y40.1543 F350.00
G01 X56.1383 Y40.0906 F350.00
G01 X56.1335 Y39.9926 F350.00
G01 X56.1311 Y39.9288 F350.00
G01 X56.1304 Y39.8650 F350.00
G01 X56.1304 Y38.3731 F350.00
G01 X56.1068 Y38.3180 F350.00
G01 X56.0831 Y38.2588 F350.00
G01 X56.0608 Y38.1990 F350.00
G01 X56.0487 Y38.1650 F350.00
G01 X56.0279 Y38.1046 F350.00
G01 X56.0086 Y38.0438 F350.00
G01 X55.9909 Y37.9825 F350.00
G01 X55.9746 Y37.9208 F350.00
G01 X55.9658 Y37.8858 F350.00
G01 X55.9511 Y37.8237 F350.00
G01 X55.9379 Y37.7613 F350.00
G01 X55.9262 Y37.6986 F350.00
G01 X55.9161 Y37.6356 F350.00
G01 X55.9108 Y37.5999 F350.00
G01 X55.9022 Y37.5367 F350.00
G01 X55.8952 Y37.4732 F350.00
G01 X55.8897 Y37.4097 F350.00
G01 X55.8858 Y37.3460 F350.00
G01 X55.8840 Y37.3099 F350.00
G01 X55.8816 Y37.2462 F350.00
G01 X55.8809 Y37.1824 F350.00
G01 X55.8809 Y35.4176 F350.00
G01 X55.8816 Y35.3538 F350.00
G01 X55.8840 Y35.2901 F350.00
G01 X55.8858 Y35.2540 F350.00
G01 X55.8897 Y35.1903 F350.00
G01 X55.8952 Y35.1268 F350.00
G01 X55.9022 Y35.0633 F350.00
G01 X55.9108 Y35.0001 F350.00
G01 X55.9161 Y34.9644 F350.00
G01 X55.9262 Y34.9014 F350.00
G01 X55.9379 Y34.8387 F350.00
G01 X55.9511 Y34.7763 F350.00
G01 X55.9658 Y34.7142 F350.00
G01 X55.9746 Y34.6792 F350.00
G01 X55.9909 Y34.6175 F350.00
G01 X56.0086 Y34.5562 F350.00
G01 X56.0279 Y34.4954 F350.00
G01 X56.0487 Y34.4350 F350.00
G01 X56.0608 Y34.4010 F350.00
G01 X56.0831 Y34.3412 F350.00
G01 X56.1068 Y34.2820 F350.00
G01 X56.1319 Y34.2233 F350.00
G01 X56.1585 Y34.1653 F350.00
G01 X56.1739 Y34.1327 F350.00
G01 X56.2019 Y34.0754 F350.00
G01 X56.2313 Y34.0187 F350.00
G01 X56.2620 Y33.9628 F350.00
G01 X56.2942 Y33.9077 F350.00
G01 X56.3127 Y33.8767 F350.00
G01 X56.3462 Y33.8224 F350.00
G01 X56.3810 Y33.7689 F350.00
G01 X56.4171 Y33.7163 F350.00
G01 X56.4545 Y33.6646 F350.00
G01 X56.4760 Y33.6356 F350.00
G01 X56.5146 Y33.5848 F350.00
G01 X56.5545 Y33.5350 F350.00
G01 X56.5956 Y33.4862 F350.00
G01 X56.6378 Y33.4384 F350.00
G01 X56.6621 Y33.4116 F350.00
G01 X56.7055 Y33.3649 F350.00
G01 X56.7501 Y33.3192 F350.00
G01 X56.7957 Y33.2746 F350.00
G01 X56.8425 Y33.2312 F350.00
G01 X56.8692 Y33.2070 F350.00
G01 X56.9170 Y33.1647 F350.00
G01 X56.9659 Y33.1236 F350.00
G01 X57.0157 Y33.0838 F350.00
G01 X57.0665 Y33.0451 F350.00
G01 X57.0954 Y33.0236 F350.00
G01 X57.1472 Y32.9862 F350.00
G01 X57.1998 Y32.9501 F350.00
G01 X57.2533 Y32.9153 F350.00
G01 X57.3076 Y32.8819 F350.00
G01 X57.3385 Y32.8633 F350.00
G01 X57.3937 Y32.8312 F350.00
G01 X57.4496 Y32.8004 F350.00
G01 X57.5062 Y32.7710 F350.00
G01 X57.5636 Y32.7430 F350.00
G01 X57.5962 Y32.7276 F350.00
G01 X57.6542 Y32.7010 F350.00
G01 X57.7128 Y32.6759 F350.00
G01 X57.7721 Y32.6522 F350.00
G01 X57.8319 Y32.6300 F350.00
G01 X57.8659 Y32.6178 F350.00
G01 X57.9262 Y32.5971 F350.00
G01 X57.9870 Y32.5778 F350.00
G01 X58.0483 Y32.5600 F350.00
G01 X58.1100 Y32.5437 F350.00
G01 X58.1450 Y32.5350 F350.00
G01 X58.2071 Y32.5202 F350.00
G01 X58.2695 Y32.5070 F350.00
G01 X58.3323 Y32.4953 F350.00
G01 X58.3953 Y32.4852 F350.00
G01 X58.4310 Y32.4799 F350.00
G01 X58.4942 Y32.4713 F350.00
G01 X58.5576 Y32.4643 F350.00
G01 X58.6212 Y32.4588 F350.00
G01 X58.6849 Y32.4549 F350.00
G01 X58.7209 Y32.4531 F350.00
G01 X58.7847 Y32.4508 F350.00
G01 X58.8485 Y32.4500 F350.00
G01 X60.6132 Y32.4500 F350.00
G01 X60.6770 Y32.4508 F350.00
G01 X60.7408 Y32.4531 F350.00
G01 X60.7768 Y32.4549 F350.00
G01 X60.8405 Y32.4588 F350.00
G01 X60.9041 Y32.4643 F350.00
G01 X60.9675 Y32.4713 F350.00
G01 X61.0307 Y32.4799 F350.00
G01 X61.0664 Y32.4852 F350.00
G01 X61.1294 Y32.4953 F350.00
G01 X61.1922 Y32.5070 F350.00
G01 X61.2546 Y32.5202 F350.00
G01 X61.3167 Y32.5350 F350.00
G01 X61.3517 Y32.5437 F350.00
G01 X61.4134 Y32.5600 F350.00
G01 X61.4747 Y32.5778 F350.00
G01 X61.5355 Y32.5971 F350.00
G01 X61.5958 Y32.6178 F350.00
G01 X61.6298 Y32.6300 F350.00
G01 X61.6896 Y32.6522 F350.00
G01 X61.7489 Y32.6759 F350.00
G01 X61.8075 Y32.7010 F350.00
G01 X61.8655 Y32.7276 F350.00
G01 X61.8982 Y32.7430 F350.00
G01 X61.9555 Y32.7710 F350.00
G01 X62.0122 Y32.8004 F350.00
G01 X62.0681 Y32.8312 F350.00
G01 X62.1232 Y32.8633 F350.00
G01 X62.1541 Y32.8819 F350.00
G01 X62.2085 Y32.9153 F350.00
G01 X62.2619 Y32.9501 F350.00
G01 X62.3146 Y32.9862 F350.00
G01 X62.3663 Y33.0236 F350.00
G01 X62.3953 Y33.0451 F350.00
G01 X62.4460 Y33.0838 F350.00
G01 X62.4959 Y33.1236 F350.00
G01 X62.5447 Y33.1647 F350.00
G01 X62.5925 Y33.2070 F350.00
G01 X62.6192 Y33.2312 F350.00
G01 X62.6660 Y33.2746 F350.00
G01 X62.7117 Y33.3192 F350.00
G01 X62.7562 Y33.3649 F350.00
G01 X62.7997 Y33.4116 F350.00
G01 X62.8239 Y33.4384 F350.00
G01 X62.8662 Y33.4862 F350.00
G01 X62.9072 Y33.5350 F350.00
G01 X62.9471 Y33.5848 F350.00
G01 X62.9857 Y33.6356 F350.00
G01 X63.0072 Y33.6646 F350.00
G01 X63.0446 Y33.7163 F350.00
G01 X63.0807 Y33.7689 F350.00
G01 X63.1155 Y33.8224 F350.00
G01 X63.1490 Y33.8767 F350.00
G01 X63.1675 Y33.9077 F350.00
G01 X63.1997 Y33.9628 F350.00
G01 X63.2304 Y34.0187 F350.00
G01 X63.2598 Y34.0754 F350.00
G01 X63.2878 Y34.1327 F350.00
G01 X63.3032 Y34.1653 F350.00
G01 X63.3298 Y34.2233 F350.00
G01 X63.3550 Y34.2820 F350.00
G01 X63.3787 Y34.3412 F350.00
G01 X63.4009 Y34.4010 F350.00
G01 X63.4130 Y34.4350 F350.00
G01 X63.4338 Y34.4954 F350.00
G01 X63.4531 Y34.5562 F350.00
G01 X63.4708 Y34.6175 F350.00
G01 X63.4871 Y34.6792 F350.00
G01 X63.4959 Y34.7142 F350.00
G01 X63.5106 Y34.7763 F350.00
G01 X63.5238 Y34.8387 F350.00
G01 X63.5355 Y34.9014 F350.00
G01 X63.5457 Y34.9644 F350.00
G01 X63.5509 Y35.0001 F350.00
G01 X63.5595 Y35.0633 F350.00
G01 X63.5666 Y35.1268 F350.00
G01 X63.5720 Y35.1903 F350.00
G01 X63.5760 Y35.2540 F350.00
G01 X63.5777 Y35.2901 F350.00
G01 X63.5801 Y35.3538 F350.00
G01 X63.5809 Y35.4176 F350.00
G01 X63.5809 Y36.0168 F350.00
G01 X63.6697 Y35.9850 F350.00
G01 X63.7300 Y35.9643 F350.00
G01 X63.7908 Y35.9450 F350.00
G01 X63.8521 Y35.9272 F350.00
G01 X63.9138 Y35.9110 F350.00
G01 X64.0090 Y35.8871 F350.00
G01 X64.0711 Y35.8724 F350.00
G01 X64.1335 Y35.8592 F350.00
G01 X64.1963 Y35.8475 F350.00
G01 X64.2593 Y35.8374 F350.00
G01 X64.3563 Y35.8230 F350.00
G01 X64.4196 Y35.8144 F350.00
G01 X64.4830 Y35.8073 F350.00
G01 X64.5466 Y35.8019 F350.00
G01 X64.6103 Y35.7979 F350.00
G01 X64.7083 Y35.7931 F350.00
G01 X64.7721 Y35.7908 F350.00
G01 X64.8359 Y35.7900 F350.00
G01 X64.8997 Y35.7908 F350.00
G01 X64.9634 Y35.7931 F350.00
G01 X65.0615 Y35.7979 F350.00
G01 X65.1251 Y35.8019 F350.00
G01 X65.1887 Y35.8073 F350.00
G01 X65.2521 Y35.8144 F350.00
G01 X65.3154 Y35.8230 F350.00
G01 X65.3806 Y35.8326 F350.00
G01 X65.3806 Y35.8000 F350.00
G01 X65.3814 Y35.7362 F350.00
G01 X65.3837 Y35.6724 F350.00
G01 X65.3862 Y35.6234 F350.00
G01 X65.3901 Y35.5597 F350.00
G01 X65.3955 Y35.4961 F350.00
G01 X65.4026 Y35.4327 F350.00
G01 X65.4112 Y35.3695 F350.00
G01 X65.4184 Y35.3209 F350.00
G01 X65.4285 Y35.2579 F350.00
G01 X65.4402 Y35.1952 F350.00
G01 X65.4534 Y35.1327 F350.00
G01 X65.4681 Y35.0707 F350.00
G01 X65.4801 Y35.0230 F350.00
G01 X65.4963 Y34.9613 F350.00
G01 X65.5141 Y34.9000 F350.00
G01 X65.5334 Y34.8392 F350.00
G01 X65.5541 Y34.7789 F350.00
G01 X65.5707 Y34.7326 F350.00
G01 X65.5929 Y34.6728 F350.00
G01 X65.6166 Y34.6136 F350.00
G01 X65.6417 Y34.5549 F350.00
G01 X65.6683 Y34.4969 F350.00
G01 X65.6893 Y34.4525 F350.00
G01 X65.7173 Y34.3952 F350.00
G01 X65.7467 Y34.3386 F350.00
G01 X65.7775 Y34.2826 F350.00
G01 X65.8096 Y34.2275 F350.00
G01 X65.8348 Y34.1854 F350.00
G01 X65.8683 Y34.1311 F350.00
G01 X65.9031 Y34.0776 F350.00
G01 X65.9392 Y34.0250 F350.00
G01 X65.9766 Y33.9733 F350.00
G01 X66.0058 Y33.9338 F350.00
G01 X66.0445 Y33.8830 F350.00
G01 X66.0843 Y33.8332 F350.00
G01 X66.1254 Y33.7844 F350.00
G01 X66.1677 Y33.7366 F350.00
G01 X66.2007 Y33.7002 F350.00
G01 X66.2441 Y33.6535 F350.00
G01 X66.2887 Y33.6078 F350.00
G01 X69.5964 Y30.3000 F350.00
G01 X69.3835 Y30.0871 F350.00
G01 X69.3538 Y30.1305 F350.00
G01 X69.3164 Y30.1822 F350.00
G01 X69.2287 Y30.3004 F350.00
G01 X69.1901 Y30.3512 F350.00
G01 X69.1502 Y30.4010 F350.00
G01 X69.1091 Y30.4498 F350.00
G01 X69.0668 Y30.4976 F350.00
G01 X68.9680 Y30.6067 F350.00
G01 X68.9246 Y30.6535 F350.00
G01 X68.8800 Y30.6991 F350.00
G01 X68.8343 Y30.7437 F350.00
G01 X68.7876 Y30.7871 F350.00
G01 X68.6785 Y30.8860 F350.00
G01 X68.6307 Y30.9283 F350.00
G01 X68.5819 Y30.9693 F350.00
G01 X68.5321 Y31.0092 F350.00
G01 X68.4813 Y31.0479 F350.00
G01 X68.3630 Y31.1355 F350.00
G01 X68.3113 Y31.1729 F350.00
G01 X68.2587 Y31.2090 F350.00
G01 X68.2052 Y31.2438 F350.00
G01 X68.1509 Y31.2773 F350.00
G01 X68.0246 Y31.3530 F350.00
G01 X67.9695 Y31.3851 F350.00
G01 X67.9136 Y31.4159 F350.00
G01 X67.8569 Y31.4453 F350.00
G01 X67.7996 Y31.4733 F350.00
G01 X67.6665 Y31.5362 F350.00
G01 X67.6085 Y31.5628 F350.00
G01 X67.5499 Y31.5879 F350.00
G01 X67.4906 Y31.6116 F350.00
G01 X67.4308 Y31.6338 F350.00
G01 X67.2922 Y31.6834 F350.00
G01 X67.2319 Y31.7042 F350.00
G01 X67.1710 Y31.7235 F350.00
G01 X67.1097 Y31.7412 F350.00
G01 X67.0480 Y31.7575 F350.00
G01 X66.9052 Y31.7933 F350.00
G01 X66.8432 Y31.8080 F350.00
G01 X66.7807 Y31.8212 F350.00
G01 X66.7180 Y31.8329 F350.00
G01 X66.6550 Y31.8430 F350.00
G01 X66.5094 Y31.8646 F350.00
G01 X66.4462 Y31.8732 F350.00
G01 X66.3827 Y31.8803 F350.00
G01 X66.3192 Y31.8857 F350.00
G01 X66.2555 Y31.8896 F350.00
G01 X66.1084 Y31.8969 F350.00
G01 X66.0447 Y31.8992 F350.00
G01 X65.9809 Y31.9000 F350.00
G01 X65.9171 Y31.8992 F350.00
G01 X65.8533 Y31.8969 F350.00
G01 X65.7063 Y31.8896 F350.00
G01 X65.6426 Y31.8857 F350.00
G01 X65.5790 Y31.8803 F350.00
G01 X65.5156 Y31.8732 F350.00
G01 X65.4523 Y31.8646 F350.00
G01 X65.3067 Y31.8430 F350.00
G01 X65.2437 Y31.8329 F350.00
G01 X65.1810 Y31.8212 F350.00
G01 X65.1186 Y31.8080 F350.00
G01 X65.0565 Y31.7933 F350.00
G01 X64.9137 Y31.7575 F350.00
G01 X64.8520 Y31.7412 F350.00
G01 X64.7907 Y31.7235 F350.00
G01 X64.7299 Y31.7042 F350.00
G01 X64.6695 Y31.6834 F350.00
G01 X64.5309 Y31.6338 F350.00
G01 X64.4711 Y31.6116 F350.00
G01 X64.4119 Y31.5879 F350.00
G01 X64.3532 Y31.5628 F350.00
G01 X64.2952 Y31.5362 F350.00
G01 X64.1621 Y31.4733 F350.00
G01 X64.1048 Y31.4453 F350.00
G01 X64.0481 Y31.4159 F350.00
G01 X63.9922 Y31.3851 F350.00
G01 X63.9371 Y31.3530 F350.00
G01 X63.8108 Y31.2773 F350.00
G01 X63.7565 Y31.2438 F350.00
G01 X63.7030 Y31.2090 F350.00
G01 X63.6504 Y31.1729 F350.00
G01 X63.5987 Y31.1355 F350.00
G01 X63.4809 Y31.0482 F350.00
G01 X63.3630 Y31.1355 F350.00
G01 X63.3113 Y31.1729 F350.00
G01 X63.2587 Y31.2090 F350.00
G01 X63.2052 Y31.2438 F350.00
G01 X63.1509 Y31.2773 F350.00
G01 X63.0246 Y31.3530 F350.00
G01 X62.9695 Y31.3851 F350.00
G01 X62.9136 Y31.4159 F350.00
G01 X62.8569 Y31.4453 F350.00
G01 X62.7996 Y31.4733 F350.00
G01 X62.6665 Y31.5362 F350.00
G01 X62.6085 Y31.5628 F350.00
G01 X62.5499 Y31.5879 F350.00
G01 X62.4906 Y31.6116 F350.00
G01 X62.4308 Y31.6338 F350.00
G01 X62.2922 Y31.6834 F350.00
G01 X62.2319 Y31.7042 F350.00
G01 X62.1710 Y31.7235 F350.00
G01 X62.1097 Y31.7412 F350.00
G01 X62.0480 Y31.7575 F350.00
G01 X61.9052 Y31.7933 F350.00
G01 X61.8432 Y31.8080 F350.00
G01 X61.7807 Y31.8212 F350.00
G01 X61.7180 Y31.8329 F350.00
G01 X61.6550 Y31.8430 F350.00
G01 X61.5094 Y31.8646 F350.00
G01 X61.4462 Y31.8732 F350.00
G01 X61.3827 Y31.8803 F350.00
G01 X61.3192 Y31.8857 F350.00
G01 X61.2555 Y31.8896 F350.00
G01 X61.1084 Y31.8969 F350.00
G01 X61.0447 Y31.8992 F350.00
G01 X60.9809 Y31.9000 F350.00
G01 X60.9171 Y31.8992 F350.00
G01 X60.8533 Y31.8969 F350.00
G01 X60.7063 Y31.8896 F350.00
G01 X60.6426 Y31.8857 F350.00
G01 X60.5790 Y31.8803 F350.00
G01 X60.5156 Y31.8732 F350.00
G01 X60.4523 Y31.8646 F350.00
G01 X60.3067 Y31.8430 F350.00
G01 X60.2437 Y31.8329 F350.00
G01 X60.1810 Y31.8212 F350.00
G01 X60.1186 Y31.8080 F350.00
G01 X60.0565 Y31.7933 F350.00
G01 X59.9137 Y31.7575 F350.00
G01 X59.8520 Y31.7412 F350.00
G01 X59.7907 Y31.7235 F350.00
G01 X59.7299 Y31.7042 F350.00
G01 X59.6695 Y31.6834 F350.00
G01 X59.5309 Y31.6338 F350.00
G01 X59.4711 Y31.6116 F350.00
G01 X59.4119 Y31.5879 F350.00
G01 X59.3532 Y31.5628 F350.00
G01 X59.2952 Y31.5362 F350.00
G01 X59.1621 Y31.4733 F350.00
G01 X59.1048 Y31.4453 F350.00
G01 X59.0481 Y31.4159 F350.00
G01 X58.9922 Y31.3851 F350.00
G01 X58.9371 Y31.3530 F350.00
G01 X58.8108 Y31.2773 F350.00
G01 X58.7565 Y31.2438 F350.00
G01 X58.7030 Y31.2090 F350.00
G01 X58.6504 Y31.1729 F350.00
G01 X58.5987 Y31.1355 F350.00
G01 X58.4805 Y31.0479 F350.00
G01 X58.4297 Y31.0092 F350.00
G01 X58.3798 Y30.9693 F350.00
G01 X58.3310 Y30.9283 F350.00
G01 X58.2832 Y30.8860 F350.00
G01 X58.1741 Y30.7871 F350.00
G01 X58.1274 Y30.7437 F350.00
G01 X58.0817 Y30.6991 F350.00
G01 X58.0372 Y30.6535 F350.00
G01 X57.9937 Y30.6067 F350.00
G01 X57.8949 Y30.4976 F350.00
G01 X57.8526 Y30.4498 F350.00
G01 X57.8115 Y30.4010 F350.00
G01 X57.7716 Y30.3512 F350.00
G01 X57.7330 Y30.3004 F350.00
G01 X57.6453 Y30.1822 F350.00
G01 X57.6079 Y30.1305 F350.00
G01 X57.5718 Y30.0778 F350.00
G01 X57.5370 Y30.0243 F350.00
G01 X57.5036 Y29.9700 F350.00
G01 X57.4279 Y29.8438 F350.00
G01 X57.3958 Y29.7886 F350.00
G01 X57.3650 Y29.7327 F350.00
G01 X57.3356 Y29.6761 F350.00
G01 X57.3076 Y29.6187 F350.00
G01 X57.2447 Y29.4857 F350.00
G01 X57.2181 Y29.4277 F350.00
G01 X57.1930 Y29.3690 F350.00
G01 X57.1693 Y29.3098 F350.00
G01 X57.1470 Y29.2499 F350.00
G01 X57.0974 Y29.1113 F350.00
G01 X57.0767 Y29.0510 F350.00
G01 X57.0574 Y28.9902 F350.00
G01 X57.0396 Y28.9289 F350.00
G01 X57.0234 Y28.8672 F350.00
G01 X56.9876 Y28.7244 F350.00
G01 X56.9729 Y28.6623 F350.00
G01 X56.9596 Y28.5999 F350.00
G01 X56.9480 Y28.5371 F350.00
G01 X56.9378 Y28.4741 F350.00
G01 X56.9162 Y28.3285 F350.00
G01 X56.9076 Y28.2653 F350.00
G01 X56.9006 Y28.2019 F350.00
G01 X56.8951 Y28.1383 F350.00
G01 X56.8912 Y28.0746 F350.00
G01 X56.8840 Y27.9276 F350.00
G01 X56.8816 Y27.8638 F350.00
G01 X56.8809 Y27.8000 F350.00
G01 X56.8816 Y27.7362 F350.00
G01 X56.8840 Y27.6724 F350.00
G01 X56.8912 Y27.5254 F350.00
G01 X56.8951 Y27.4617 F350.00
G01 X56.9006 Y27.3981 F350.00
G01 X56.9076 Y27.3347 F350.00
G01 X56.9162 Y27.2715 F350.00
G01 X56.9378 Y27.1259 F350.00
G01 X56.9480 Y27.0629 F350.00
G01 X56.9596 Y27.0001 F350.00
G01 X56.9729 Y26.9377 F350.00
G01 X56.9876 Y26.8756 F350.00
G01 X57.0234 Y26.7328 F350.00
G01 X57.0396 Y26.6711 F350.00
G01 X57.0574 Y26.6098 F350.00
G01 X57.0767 Y26.5490 F350.00
G01 X57.0974 Y26.4887 F350.00
G01 X57.1470 Y26.3501 F350.00
G01 X57.1693 Y26.2902 F350.00
G01 X57.1930 Y26.2310 F350.00
G01 X57.2181 Y26.1723 F350.00
G01 X57.2447 Y26.1143 F350.00
G01 X57.3076 Y25.9813 F350.00
G01 X57.3356 Y25.9239 F350.00
G01 X57.3650 Y25.8673 F350.00
G01 X57.3958 Y25.8114 F350.00
G01 X57.4279 Y25.7562 F350.00
G01 X57.5036 Y25.6300 F350.00
G01 X57.5370 Y25.5757 F350.00
G01 X57.5718 Y25.5222 F350.00
G01 X57.6079 Y25.4695 F350.00
G01 X57.6305 Y25.4383 F350.00
G01 X57.6305 Y23.6873 F350.00
G01 X57.6049 Y23.6277 F350.00
G01 X57.5812 Y23.5684 F350.00
G01 X57.5590 Y23.5086 F350.00
G01 X57.5259 Y23.4162 F350.00
G01 X57.5051 Y23.3559 F350.00
G01 X57.4859 Y23.2950 F350.00
G01 X57.4681 Y23.2337 F350.00
G01 X57.4518 Y23.1720 F350.00
G01 X57.4280 Y23.0768 F350.00
G01 X57.4133 Y23.0148 F350.00
G01 X57.4000 Y22.9523 F350.00
G01 X57.3884 Y22.8896 F350.00
G01 X57.3782 Y22.8266 F350.00
G01 X57.3638 Y22.7295 F350.00
G01 X57.3552 Y22.6663 F350.00
G01 X57.3482 Y22.6029 F350.00
G01 X57.3427 Y22.5393 F350.00
G01 X57.3388 Y22.4756 F350.00
G01 X57.3340 Y22.3776 F350.00
G01 X57.3316 Y22.3138 F350.00
G01 X57.3309 Y22.2500 F350.00
G01 X57.3309 Y20.2500 F350.00
G01 X57.3316 Y20.1862 F350.00
G01 X57.3340 Y20.1224 F350.00
G01 X57.3388 Y20.0244 F350.00
G01 X57.3427 Y19.9607 F350.00
G01 X57.3482 Y19.8971 F350.00
G01 X57.3552 Y19.8337 F350.00
G01 X57.3638 Y19.7705 F350.00
G01 X57.3782 Y19.6734 F350.00
G01 X57.3884 Y19.6104 F350.00
G01 X57.4000 Y19.5477 F350.00
G01 X57.4133 Y19.4852 F350.00
G01 X57.4280 Y19.4232 F350.00
G01 X57.4518 Y19.3280 F350.00
G01 X57.4681 Y19.2663 F350.00
G01 X57.4859 Y19.2050 F350.00
G01 X57.5051 Y19.1441 F350.00
G01 X57.5259 Y19.0838 F350.00
G01 X57.5590 Y18.9914 F350.00
G01 X57.5812 Y18.9316 F350.00
G01 X57.6049 Y18.8723 F350.00
G01 X57.6300 Y18.8137 F350.00
G01 X57.6566 Y18.7557 F350.00
G01 X57.6986 Y18.6670 F350.00
G01 X57.7266 Y18.6096 F350.00
G01 X57.7559 Y18.5530 F350.00
G01 X57.7867 Y18.4971 F350.00
G01 X57.8188 Y18.4419 F350.00
G01 X57.8693 Y18.3578 F350.00
G01 X57.9028 Y18.3034 F350.00
G01 X57.9376 Y18.2499 F350.00
G01 X57.9737 Y18.1973 F350.00
G01 X58.0111 Y18.1456 F350.00
G01 X58.0695 Y18.0668 F350.00
G01 X58.1082 Y18.0160 F350.00
G01 X58.1480 Y17.9662 F350.00
G01 X58.1891 Y17.9174 F350.00
G01 X58.2314 Y17.8696 F350.00
G01 X58.2973 Y17.7968 F350.00
G01 X58.3407 Y17.7501 F350.00
G01 X58.3853 Y17.7044 F350.00
G01 X58.4309 Y17.6599 F350.00
G01 X58.4777 Y17.6164 F350.00
G01 X58.5504 Y17.5505 F350.00
G01 X58.5982 Y17.5082 F350.00
G01 X58.6470 Y17.4672 F350.00
G01 X58.6969 Y17.4273 F350.00
G01 X58.7476 Y17.3887 F350.00
G01 X58.8265 Y17.3302 F350.00
G01 X58.8782 Y17.2928 F350.00
G01 X58.9308 Y17.2567 F350.00
G01 X58.9843 Y17.2219 F350.00
G01 X59.0386 Y17.1884 F350.00
G01 X59.1228 Y17.1380 F350.00
G01 X59.1779 Y17.1059 F350.00
G01 X59.2338 Y17.0751 F350.00
G01 X59.2905 Y17.0457 F350.00
G01 X59.3478 Y17.0177 F350.00
G01 X59.4365 Y16.9757 F350.00
G01 X59.4946 Y16.9492 F350.00
G01 X59.5532 Y16.9240 F350.00
G01 X59.6125 Y16.9003 F350.00
G01 X59.6723 Y16.8781 F350.00
G01 X59.7647 Y16.8450 F350.00
G01 X59.8250 Y16.8243 F350.00
G01 X59.8858 Y16.8050 F350.00
G01 X59.9471 Y16.7872 F350.00
G01 X60.0088 Y16.7710 F350.00
G01 X60.1040 Y16.7471 F350.00
G01 X60.1661 Y16.7324 F350.00
G01 X60.2285 Y16.7192 F350.00
G01 X60.2913 Y16.7075 F350.00
G01 X60.3543 Y16.6974 F350.00
G01 X60.4513 Y16.6830 F350.00
G01 X60.5146 Y16.6744 F350.00
G01 X60.5780 Y16.6673 F350.00
G01 X60.6416 Y16.6619 F350.00
G01 X60.7053 Y16.6579 F350.00
G01 X60.8033 Y16.6531 F350.00
G01 X60.8671 Y16.6508 F350.00
G01 X60.9309 Y16.6500 F350.00
G01 X60.9947 Y16.6508 F350.00
G01 X61.0584 Y16.6531 F350.00
G01 X61.1565 Y16.6579 F350.00
G01 X61.2201 Y16.6619 F350.00
G01 X61.2837 Y16.6673 F350.00
G01 X61.3471 Y16.6744 F350.00
G01 X61.4104 Y16.6830 F350.00
G01 X61.5075 Y16.6974 F350.00
G01 X61.5705 Y16.7075 F350.00
G01 X61.6332 Y16.7192 F350.00
G01 X61.6956 Y16.7324 F350.00
G01 X61.7577 Y16.7471 F350.00
G01 X61.8529 Y16.7710 F350.00
G01 X61.9146 Y16.7872 F350.00
G01 X61.9759 Y16.8050 F350.00
G01 X62.0367 Y16.8243 F350.00
G01 X62.0971 Y16.8450 F350.00
G01 X62.2009 Y16.8823 F350.00
G01 X62.3047 Y16.8450 F350.00
G01 X62.3650 Y16.8243 F350.00
G01 X62.4258 Y16.8050 F350.00
G01 X62.4871 Y16.7872 F350.00
G01 X62.5488 Y16.7710 F350.00
G01 X62.6440 Y16.7471 F350.00
G01 X62.7061 Y16.7324 F350.00
G01 X62.7685 Y16.7192 F350.00
G01 X62.8313 Y16.7075 F350.00
G01 X62.8943 Y16.6974 F350.00
G01 X62.9913 Y16.6830 F350.00
G01 X63.0546 Y16.6744 F350.00
G01 X63.1180 Y16.6673 F350.00
G01 X63.1816 Y16.6619 F350.00
G01 X63.2453 Y16.6579 F350.00
G01 X63.3433 Y16.6531 F350.00
G01 X63.4071 Y16.6508 F350.00
G01 X63.4709 Y16.6500 F350.00
G01 X63.5347 Y16.6508 F350.00
G01 X63.5984 Y16.6531 F350.00
G01 X63.6965 Y16.6579 F350.00
G01 X63.7601 Y16.6619 F350.00
G01 X63.8237 Y16.6673 F350.00
G01 X63.8871 Y16.6744 F350.00
G01 X63.9504 Y16.6830 F350.00
G01 X64.0475 Y16.6974 F350.00
G01 X64.1105 Y16.7075 F350.00
G01 X64.1732 Y16.7192 F350.00
G01 X64.2356 Y16.7324 F350.00
G01 X64.2977 Y16.7471 F350.00
G01 X64.3929 Y16.7710 F350.00
G01 X64.4546 Y16.7872 F350.00
G01 X64.5159 Y16.8050 F350.00
G01 X64.5767 Y16.8243 F350.00
G01 X64.6371 Y16.8450 F350.00
G01 X64.7409 Y16.8823 F350.00
G01 X64.8447 Y16.8450 F350.00
G01 X64.9050 Y16.8243 F350.00
G01 X64.9658 Y16.8050 F350.00
G01 X65.0271 Y16.7872 F350.00
G01 X65.0888 Y16.7710 F350.00
G01 X65.1840 Y16.7471 F350.00
G01 X65.2461 Y16.7324 F350.00
G01 X65.3085 Y16.7192 F350.00
G01 X65.3713 Y16.7075 F350.00
G01 X65.4343 Y16.6974 F350.00
G01 X65.5313 Y16.6830 F350.00
G01 X65.5946 Y16.6744 F350.00
G01 X65.6580 Y16.6673 F350.00
G01 X65.7216 Y16.6619 F350.00
G01 X65.7853 Y16.6579 F350.00
G01 X65.8833 Y16.6531 F350.00
G01 X65.9471 Y16.6508 F350.00
G01 X66.0109 Y16.6500 F350.00
G01 X66.0747 Y16.6508 F350.00
G01 X66.1384 Y16.6531 F350.00
G01 X66.2365 Y16.6579 F350.00
G01 X66.3001 Y16.6619 F350.00
G01 X66.3637 Y16.6673 F350.00
G01 X66.4271 Y16.6744 F350.00
G01 X66.4904 Y16.6830 F350.00
G01 X66.5875 Y16.6974 F350.00
G01 X66.6505 Y16.7075 F350.00
G01 X66.7132 Y16.7192 F350.00
G01 X66.7756 Y16.7324 F350.00
G01 X66.8377 Y16.7471 F350.00
G01 X66.9329 Y16.7710 F350.00
G01 X66.9946 Y16.7872 F350.00
G01 X67.0559 Y16.8050 F350.00
G01 X67.1167 Y16.8243 F350.00
G01 X67.1771 Y16.8450 F350.00
G01 X67.2809 Y16.8823 F350.00
G01 X67.3847 Y16.8450 F350.00
G01 X67.4450 Y16.8243 F350.00
G01 X67.5058 Y16.8050 F350.00
G01 X67.5671 Y16.7872 F350.00
G01 X67.6288 Y16.7710 F350.00
G01 X67.7240 Y16.7471 F350.00
G01 X67.7861 Y16.7324 F350.00
G01 X67.8485 Y16.7192 F350.00
G01 X67.9113 Y16.7075 F350.00
G01 X67.9743 Y16.6974 F350.00
G01 X68.0713 Y16.6830 F350.00
G01 X68.1346 Y16.6744 F350.00
G01 X68.1980 Y16.6673 F350.00
G01 X68.2616 Y16.6619 F350.00
G01 X68.3253 Y16.6579 F350.00
G01 X68.4233 Y16.6531 F350.00
G01 X68.4871 Y16.6508 F350.00
G01 X68.5509 Y16.6500 F350.00
G01 X68.6147 Y16.6508 F350.00
G01 X68.6784 Y16.6531 F350.00
G01 X68.7765 Y16.6579 F350.00
G01 X68.8401 Y16.6619 F350.00
G01 X68.9037 Y16.6673 F350.00
G01 X68.9671 Y16.6744 F350.00
G01 X69.0304 Y16.6830 F350.00
G01 X69.1275 Y16.6974 F350.00
G01 X69.1905 Y16.7075 F350.00
G01 X69.2532 Y16.7192 F350.00
G01 X69.3156 Y16.7324 F350.00
G01 X69.3777 Y16.7471 F350.00
G01 X69.4729 Y16.7710 F350.00
G01 X69.5346 Y16.7872 F350.00
G01 X69.5959 Y16.8050 F350.00
G01 X69.6567 Y16.8243 F350.00
G01 X69.7171 Y16.8450 F350.00
G01 X69.8209 Y16.8823 F350.00
G01 X69.9247 Y16.8450 F350.00
G01 X69.9850 Y16.8243 F350.00
G01 X70.0458 Y16.8050 F350.00
G01 X70.1071 Y16.7872 F350.00
G01 X70.1688 Y16.7710 F350.00
G01 X70.2640 Y16.7471 F350.00
G01 X70.3065 Y16.7370 F350.00
G01 X70.3122 Y16.6950 F350.00
G01 X70.3230 Y16.6221 F350.00
G01 X70.3332 Y16.5591 F350.00
G01 X70.3449 Y16.4964 F350.00
G01 X70.3581 Y16.4339 F350.00
G01 X70.3728 Y16.3719 F350.00
G01 X70.3907 Y16.3004 F350.00
G01 X70.4070 Y16.2387 F350.00
G01 X70.4248 Y16.1774 F350.00
G01 X70.4440 Y16.1166 F350.00
G01 X70.4648 Y16.0563 F350.00
G01 X70.4896 Y15.9869 F350.00
G01 X70.5118 Y15.9271 F350.00
G01 X70.5355 Y15.8679 F350.00
G01 X70.5607 Y15.8092 F350.00
G01 X70.5872 Y15.7512 F350.00
G01 X70.6187 Y15.6846 F350.00
G01 X70.6467 Y15.6273 F350.00
G01 X70.6761 Y15.5706 F350.00
G01 X70.7069 Y15.5147 F350.00
G01 X70.7390 Y15.4596 F350.00
G01 X70.7769 Y15.3964 F350.00
G01 X70.8103 Y15.3421 F350.00
G01 X70.8451 Y15.2886 F350.00
G01 X70.8812 Y15.2360 F350.00
G01 X70.9186 Y15.1843 F350.00
G01 X70.9625 Y15.1251 F350.00
G01 X71.0011 Y15.0744 F350.00
G01 X71.0410 Y15.0245 F350.00
G01 X71.0821 Y14.9757 F350.00
G01 X71.1243 Y14.9279 F350.00
G01 X71.1738 Y14.8734 F350.00
G01 X71.2172 Y14.8266 F350.00
G01 X71.2618 Y14.7809 F350.00
G01 X71.3125 Y14.7317 F350.00
G01 X71.3618 Y14.6809 F350.00
G01 X71.4075 Y14.6364 F350.00
G01 X71.4542 Y14.5929 F350.00
G01 X71.5088 Y14.5435 F350.00
G01 X71.5566 Y14.5012 F350.00
G01 X71.6054 Y14.4601 F350.00
G01 X71.6552 Y14.4203 F350.00
G01 X71.7060 Y14.3816 F350.00
G01 X71.7652 Y14.3377 F350.00
G01 X71.8169 Y14.3004 F350.00
G01 X71.8695 Y14.2643 F350.00
G01 X71.9230 Y14.2295 F350.00
G01 X71.9773 Y14.1960 F350.00
G01 X72.0405 Y14.1581 F350.00
G01 X72.0956 Y14.1260 F350.00
G01 X72.1515 Y14.0952 F350.00
G01 X72.2081 Y14.0658 F350.00
G01 X72.2655 Y14.0379 F350.00
G01 X72.3321 Y14.0064 F350.00
G01 X72.3901 Y13.9798 F350.00
G01 X72.4487 Y13.9547 F350.00
G01 X72.5080 Y13.9310 F350.00
G01 X72.5678 Y13.9087 F350.00
G01 X72.6371 Y13.8839 F350.00
G01 X72.6975 Y13.8632 F350.00
G01 X72.7583 Y13.8439 F350.00
G01 X72.8196 Y13.8261 F350.00
G01 X72.8813 Y13.8099 F350.00
G01 X72.9527 Y13.7920 F350.00
G01 X73.0148 Y13.7772 F350.00
G01 X73.0772 Y13.7640 F350.00
G01 X73.1400 Y13.7523 F350.00
G01 X73.2030 Y13.7422 F350.00
G01 X73.2758 Y13.7314 F350.00
G01 X73.3390 Y13.7228 F350.00
G01 X73.4025 Y13.7158 F350.00
G01 X73.4660 Y13.7103 F350.00
G01 X73.5297 Y13.7064 F350.00
G01 X73.6033 Y13.7028 F350.00
G01 X73.6671 Y13.7004 F350.00
G01 X73.7309 Y13.6996 F350.00
G01 X93.7309 Y13.6996 F350.00
G01 X93.7947 Y13.7004 F350.00
G01 X93.8584 Y13.7028 F350.00
G01 X93.9320 Y13.7064 F350.00
G01 X93.9957 Y13.7103 F350.00
G01 X94.0593 Y13.7158 F350.00
G01 X94.1227 Y13.7228 F350.00
G01 X94.1859 Y13.7314 F350.00
G01 X94.2588 Y13.7422 F350.00
G01 X94.3218 Y13.7523 F350.00
G01 X94.3845 Y13.7640 F350.00
G01 X94.4469 Y13.7772 F350.00
G01 X94.5090 Y13.7920 F350.00
G01 X94.5804 Y13.8099 F350.00
G01 X94.6421 Y13.8261 F350.00
G01 X94.7034 Y13.8439 F350.00
G01 X94.7643 Y13.8632 F350.00
G01 X94.8246 Y13.8839 F350.00
G01 X94.8939 Y13.9087 F350.00
G01 X94.9537 Y13.9310 F350.00
G01 X95.0130 Y13.9547 F350.00
G01 X95.0716 Y13.9798 F350.00
G01 X95.1297 Y14.0064 F350.00
G01 X95.1962 Y14.0379 F350.00
G01 X95.2536 Y14.0658 F350.00
G01 X95.3102 Y14.0952 F350.00
G01 X95.3661 Y14.1260 F350.00
G01 X95.4213 Y14.1581 F350.00
G01 X95.4844 Y14.1960 F350.00
G01 X95.5387 Y14.2295 F350.00
G01 X95.5922 Y14.2643 F350.00
G01 X95.6448 Y14.3004 F350.00
G01 X95.6966 Y14.3377 F350.00
G01 X95.7557 Y14.3816 F350.00
G01 X95.8065 Y14.4203 F350.00
G01 X95.8563 Y14.4601 F350.00
G01 X95.9051 Y14.5012 F350.00
G01 X95.9529 Y14.5435 F350.00
G01 X96.0075 Y14.5929 F350.00
G01 X96.0543 Y14.6364 F350.00
G01 X96.0999 Y14.6809 F350.00
G01 X102.6188 Y21.1998 F350.00
G01 X104.2309 Y21.1998 F350.00
G01 X104.2947 Y21.2005 F350.00
G01 X104.3584 Y21.2029 F350.00
G01 X104.4075 Y21.2053 F350.00
G01 X104.4712 Y21.2092 F350.00
G01 X104.5347 Y21.2147 F350.00
G01 X104.5982 Y21.2217 F350.00
G01 X104.6614 Y21.2303 F350.00
G01 X104.7100 Y21.2375 F350.00
G01 X104.7730 Y21.2476 F350.00
G01 X104.8357 Y21.2593 F350.00
G01 X104.8981 Y21.2725 F350.00
G01 X104.9602 Y21.2873 F350.00
G01 X105.0078 Y21.2992 F350.00
G01 X105.0695 Y21.3155 F350.00
G01 X105.1308 Y21.3332 F350.00
G01 X105.1916 Y21.3525 F350.00
G01 X105.2520 Y21.3733 F350.00
G01 X105.2982 Y21.3898 F350.00
G01 X105.3580 Y21.4120 F350.00
G01 X105.4173 Y21.4357 F350.00
G01 X105.4759 Y21.4609 F350.00
G01 X105.5339 Y21.4875 F350.00
G01 X105.5783 Y21.5084 F350.00
G01 X105.6357 Y21.5364 F350.00
G01 X105.6923 Y21.5658 F350.00
G01 X105.7482 Y21.5966 F350.00
G01 X105.8033 Y21.6287 F350.00
G01 X105.8455 Y21.6540 F350.00
G01 X105.8998 Y21.6874 F350.00
G01 X105.9533 Y21.7222 F350.00
G01 X106.0059 Y21.7583 F350.00
G01 X106.0576 Y21.7957 F350.00
G01 X106.0970 Y21.8250 F350.00
G01 X106.1478 Y21.8636 F350.00
G01 X106.1976 Y21.9035 F350.00
G01 X106.2465 Y21.9446 F350.00
G01 X106.2943 Y21.9868 F350.00
G01 X106.3306 Y22.0198 F350.00
G01 X106.3774 Y22.0632 F350.00
G01 X106.4231 Y22.1078 F350.00
G01 X107.9231 Y23.6078 F350.00
G01 X107.9676 Y23.6535 F350.00
G01 X108.0111 Y23.7002 F350.00
G01 X108.0440 Y23.7366 F350.00
G01 X108.0863 Y23.7844 F350.00
G01 X108.1274 Y23.8332 F350.00
G01 X108.1673 Y23.8830 F350.00
G01 X108.2059 Y23.9338 F350.00
G01 X108.2351 Y23.9733 F350.00
G01 X108.2725 Y24.0250 F350.00
G01 X108.3086 Y24.0776 F350.00
G01 X108.3434 Y24.1311 F350.00
G01 X108.3769 Y24.1854 F350.00
G01 X108.4021 Y24.2275 F350.00
G01 X108.4343 Y24.2826 F350.00
G01 X108.4650 Y24.3386 F350.00
G01 X108.4944 Y24.3952 F350.00
G01 X108.5224 Y24.4525 F350.00
G01 X108.5434 Y24.4969 F350.00
G01 X108.5700 Y24.5549 F350.00
G01 X108.5951 Y24.6136 F350.00
G01 X108.6188 Y24.6728 F350.00
G01 X108.6410 Y24.7326 F350.00
G01 X108.6576 Y24.7789 F350.00
G01 X108.6783 Y24.8392 F350.00
G01 X108.6976 Y24.9000 F350.00
G01 X108.7154 Y24.9613 F350.00
G01 X108.7317 Y25.0230 F350.00
G01 X108.7436 Y25.0707 F350.00
G01 X108.7583 Y25.1327 F350.00
G01 X108.7715 Y25.1952 F350.00
G01 X108.7832 Y25.2579 F350.00
G01 X108.7934 Y25.3209 F350.00
G01 X108.8006 Y25.3695 F350.00
G01 X108.8091 Y25.4327 F350.00
G01 X108.8162 Y25.4961 F350.00
G01 X108.8217 Y25.5597 F350.00
G01 X108.8256 Y25.6234 F350.00
G01 X108.8280 Y25.6724 F350.00
G01 X108.8303 Y25.7362 F350.00
G01 X108.8311 Y25.8000 F350.00
G01 X108.8311 Y53.8000 F350.00
G01 X108.8303 Y53.8638 F350.00
G01 X108.8280 Y53.9276 F350.00
G01 X108.8256 Y53.9766 F350.00
G01 X108.8217 Y54.0403 F350.00
G01 X108.8162 Y54.1039 F350.00
G01 X108.8091 Y54.1673 F350.00
G01 X108.8006 Y54.2305 F350.00
G01 X108.7934 Y54.2791 F350.00
G01 X108.7832 Y54.3421 F350.00
G01 X108.7715 Y54.4048 F350.00
G01 X108.7583 Y54.4673 F350.00
G01 X108.7436 Y54.5293 F350.00
G01 X108.7317 Y54.5770 F350.00
G01 X108.7154 Y54.6387 F350.00
G01 X108.6976 Y54.7000 F350.00
G01 X108.6783 Y54.7608 F350.00
G01 X108.6576 Y54.8211 F350.00
G01 X108.6410 Y54.8674 F350.00
G01 X108.6188 Y54.9272 F350.00
G01 X108.5951 Y54.9864 F350.00
G01 X108.5700 Y55.0451 F350.00
G01 X108.5434 Y55.1031 F350.00
G01 X108.5224 Y55.1475 F350.00
G01 X108.4944 Y55.2048 F350.00
G01 X108.4650 Y55.2614 F350.00
G01 X108.4343 Y55.3174 F350.00
G01 X108.4021 Y55.3725 F350.00
G01 X108.3769 Y55.4146 F350.00
G01 X108.3434 Y55.4689 F350.00
G01 X108.3086 Y55.5224 F350.00
G01 X108.2725 Y55.5750 F350.00
G01 X108.2351 Y55.6267 F350.00
G01 X108.2059 Y55.6662 F350.00
G01 X108.1673 Y55.7170 F350.00
G01 X108.1274 Y55.7668 F350.00
G01 X108.0863 Y55.8156 F350.00
G01 X108.0440 Y55.8634 F350.00
G01 X108.0111 Y55.8998 F350.00
G01 X107.9676 Y55.9465 F350.00
G01 X107.9231 Y55.9922 F350.00
G01 X107.8774 Y56.0368 F350.00
G01 X107.8306 Y56.0802 F350.00
G01 X107.7943 Y56.1132 F350.00
G01 X107.7465 Y56.1554 F350.00
G01 X107.6976 Y56.1965 F350.00
G01 X107.6478 Y56.2364 F350.00
G01 X107.5970 Y56.2750 F350.00
G01 X107.5576 Y56.3043 F350.00
G01 X107.5059 Y56.3417 F350.00
G01 X107.4533 Y56.3778 F350.00
G01 X107.3998 Y56.4126 F350.00
G01 X107.3455 Y56.4460 F350.00
G01 X107.3033 Y56.4713 F350.00
G01 X107.2482 Y56.5034 F350.00
G01 X107.1923 Y56.5342 F350.00
G01 X107.1357 Y56.5636 F350.00
G01 X107.0783 Y56.5916 F350.00
G01 X107.0339 Y56.6125 F350.00
G01 X106.9759 Y56.6391 F350.00
G01 X106.9173 Y56.6643 F350.00
G01 X106.8580 Y56.6880 F350.00
G01 X106.7982 Y56.7102 F350.00
G01 X106.7520 Y56.7267 F350.00
G01 X106.6916 Y56.7475 F350.00
G01 X106.6308 Y56.7668 F350.00
G01 X106.5695 Y56.7845 F350.00
G01 X106.5078 Y56.8008 F350.00
G01 X106.4602 Y56.8127 F350.00
G01 X106.3981 Y56.8275 F350.00
G01 X106.3357 Y56.8407 F350.00
G01 X106.2730 Y56.8524 F350.00
G01 X106.2100 Y56.8625 F350.00
G01 X106.1614 Y56.8697 F350.00
G01 X106.0982 Y56.8783 F350.00
G01 X106.0347 Y56.8853 F350.00
G01 X105.9712 Y56.8908 F350.00
G01 X105.9075 Y56.8947 F350.00
G01 X105.8584 Y56.8971 F350.00
G01 X105.7947 Y56.8995 F350.00
G01 X105.7309 Y56.9002 F350.00
G01 X103.2238 Y56.9002 F350.00
G01 X103.2165 Y56.9663 F350.00
G01 X103.2079 Y57.0295 F350.00
G01 X103.1935 Y57.1266 F350.00
G01 X103.1834 Y57.1896 F350.00
G01 X103.1717 Y57.2523 F350.00
G01 X103.1585 Y57.3148 F350.00
G01 X103.1437 Y57.3768 F350.00
G01 X103.1199 Y57.4720 F350.00
G01 X103.1036 Y57.5337 F350.00
G01 X103.0858 Y57.5950 F350.00
G01 X103.0666 Y57.6559 F350.00
G01 X103.0458 Y57.7162 F350.00
G01 X103.0128 Y57.8086 F350.00
G01 X102.9912 Y57.8665 F350.00
G01 X102.9912 Y58.1400 F350.00
G01 X102.9905 Y58.2038 F350.00
G01 X102.9881 Y58.2676 F350.00
G01 X102.9845 Y58.3411 F350.00
G01 X102.9806 Y58.4048 F350.00
G01 X102.9751 Y58.4684 F350.00
G01 X102.9681 Y58.5318 F350.00
G01 X102.9595 Y58.5950 F350.00
G01 X102.9487 Y58.6679 F350.00
G01 X102.9385 Y58.7309 F350.00
G01 X102.9269 Y58.7936 F350.00
G01 X102.9136 Y58.8561 F350.00
G01 X102.8989 Y58.9181 F350.00
G01 X102.8810 Y58.9896 F350.00
G01 X102.8647 Y59.0513 F350.00
G01 X102.8470 Y59.1126 F350.00
G01 X102.8277 Y59.1734 F350.00
G01 X102.8069 Y59.2337 F350.00
G01 X102.7821 Y59.3031 F350.00
G01 X102.7599 Y59.3629 F350.00
G01 X102.7362 Y59.4221 F350.00
G01 X102.7111 Y59.4808 F350.00
G01 X102.6845 Y59.5388 F350.00
G01 X102.6530 Y59.6054 F350.00
G01 X102.6250 Y59.6627 F350.00
G01 X102.5956 Y59.7194 F350.00
G01 X102.5649 Y59.7753 F350.00
G01 X102.5327 Y59.8304 F350.00
G01 X102.4949 Y59.8936 F350.00
G01 X102.4614 Y59.9479 F350.00
G01 X102.4266 Y60.0014 F350.00
G01 X102.3905 Y60.0540 F350.00
G01 X102.3531 Y60.1057 F350.00
G01 X102.3092 Y60.1649 F350.00
G01 X102.2706 Y60.2156 F350.00
G01 X102.2307 Y60.2655 F350.00
G01 X102.1897 Y60.3143 F350.00
G01 X102.1474 Y60.3621 F350.00
G01 X102.0979 Y60.4166 F350.00
G01 X102.0545 Y60.4634 F350.00
G01 X102.0099 Y60.5091 F350.00
G01 X101.7699 Y60.7491 F350.00
G01 X101.7638 Y60.7871 F350.00
G01 X101.7521 Y60.8499 F350.00
G01 X101.7389 Y60.9123 F350.00
G01 X101.7241 Y60.9744 F350.00
G01 X101.6884 Y61.1172 F350.00
G01 X101.6721 Y61.1789 F350.00
G01 X101.6543 Y61.2402 F350.00
G01 X101.6350 Y61.3010 F350.00
G01 X101.6143 Y61.3613 F350.00
G01 X101.5647 Y61.4999 F350.00
G01 X101.5425 Y61.5598 F350.00
G01 X101.5188 Y61.6190 F350.00
G01 X101.4936 Y61.6777 F350.00
G01 X101.4671 Y61.7357 F350.00
G01 X101.4041 Y61.8687 F350.00
G01 X101.3761 Y61.9261 F350.00
G01 X101.3467 Y61.9827 F350.00
G01 X101.3160 Y62.0386 F350.00
G01 X101.2838 Y62.0938 F350.00
G01 X101.2082 Y62.2200 F350.00
G01 X101.1747 Y62.2743 F350.00
G01 X101.1399 Y62.3278 F350.00
G01 X101.1038 Y62.3805 F350.00
G01 X101.0664 Y62.4322 F350.00
G01 X100.9787 Y62.5504 F350.00
G01 X100.9401 Y62.6012 F350.00
G01 X100.9002 Y62.6510 F350.00
G01 X100.8591 Y62.6998 F350.00
G01 X100.8168 Y62.7476 F350.00
G01 X100.7180 Y62.8567 F350.00
G01 X100.6746 Y62.9035 F350.00
G01 X100.6300 Y62.9491 F350.00
G01 X100.5843 Y62.9937 F350.00
G01 X100.5376 Y63.0371 F350.00
G01 X100.4285 Y63.1360 F350.00
G01 X100.3807 Y63.1783 F350.00
G01 X100.3319 Y63.2193 F350.00
G01 X100.2821 Y63.2592 F350.00
G01 X100.2313 Y63.2979 F350.00
G01 X100.1130 Y63.3855 F350.00
G01 X100.0613 Y63.4229 F350.00
G01 X100.0087 Y63.4590 F350.00
G01 X99.9552 Y63.4938 F350.00
G01 X99.9009 Y63.5273 F350.00
G01 X99.7746 Y63.6030 F350.00
G01 X99.7195 Y63.6351 F350.00
G01 X99.6636 Y63.6659 F350.00
G01 X99.6069 Y63.6953 F350.00
G01 X99.5496 Y63.7233 F350.00
G01 X99.4165 Y63.7862 F350.00
G01 X99.3585 Y63.8128 F350.00
G01 X99.2999 Y63.8379 F350.00
G01 X99.2406 Y63.8616 F350.00
G01 X99.1808 Y63.8838 F350.00
G01 X99.0422 Y63.9334 F350.00
G01 X98.9819 Y63.9542 F350.00
G01 X98.9210 Y63.9735 F350.00
G01 X98.8597 Y63.9912 F350.00
G01 X98.7980 Y64.0075 F350.00
G01 X98.6552 Y64.0433 F350.00
G01 X98.5932 Y64.0580 F350.00
G01 X98.5307 Y64.0712 F350.00
G01 X98.4680 Y64.0829 F350.00
G01 X98.4050 Y64.0930 F350.00
G01 X98.2594 Y64.1146 F350.00
G01 X98.1962 Y64.1232 F350.00
G01 X98.1327 Y64.1303 F350.00
G01 X98.0692 Y64.1357 F350.00
G01 X98.0055 Y64.1396 F350.00
G01 X97.8584 Y64.1469 F350.00
G01 X97.7947 Y64.1492 F350.00
G01 X97.7309 Y64.1500 F350.00
G01 X97.6671 Y64.1492 F350.00
G01 X97.6033 Y64.1469 F350.00
G01 X97.4563 Y64.1396 F350.00
G01 X97.3926 Y64.1357 F350.00
G01 X97.3290 Y64.1303 F350.00
G01 X97.2656 Y64.1232 F350.00
G01 X97.2023 Y64.1146 F350.00
G01 X97.0567 Y64.0930 F350.00
G01 X96.9937 Y64.0829 F350.00
G01 X96.9310 Y64.0712 F350.00
G01 X96.8686 Y64.0580 F350.00
G01 X96.8065 Y64.0433 F350.00
G01 X96.6637 Y64.0075 F350.00
G01 X96.6020 Y63.9912 F350.00
G01 X96.5407 Y63.9735 F350.00
G01 X96.4799 Y63.9542 F350.00
G01 X96.4195 Y63.9334 F350.00
G01 X96.2809 Y63.8838 F350.00
G01 X96.2211 Y63.8616 F350.00
G01 X96.1619 Y63.8379 F350.00
G01 X96.1032 Y63.8128 F350.00
G01 X96.0452 Y63.7862 F350.00
G01 X95.9121 Y63.7233 F350.00
G01 X95.8548 Y63.6953 F350.00
G01 X95.7981 Y63.6659 F350.00
G01 X95.7422 Y63.6351 F350.00
G01 X95.6871 Y63.6030 F350.00
G01 X95.5577 Y63.5254 F350.00
G01 X89.9390 Y63.5254 F350.00
G01 X89.8791 Y63.5713 F350.00
G01 X89.8002 Y63.6298 F350.00
G01 X89.7485 Y63.6672 F350.00
G01 X89.6959 Y63.7033 F350.00
G01 X89.6424 Y63.7381 F350.00
G01 X89.5881 Y63.7716 F350.00
G01 X89.5039 Y63.8220 F350.00
G01 X89.4488 Y63.8541 F350.00
G01 X89.3929 Y63.8849 F350.00
G01 X89.3362 Y63.9143 F350.00
G01 X89.2789 Y63.9423 F350.00
G01 X89.1902 Y63.9843 F350.00
G01 X89.1322 Y64.0108 F350.00
G01 X89.0735 Y64.0360 F350.00
G01 X89.0143 Y64.0597 F350.00
G01 X88.9545 Y64.0819 F350.00
G01 X88.8621 Y64.1150 F350.00
G01 X88.8017 Y64.1357 F350.00
G01 X88.7409 Y64.1550 F350.00
G01 X88.6796 Y64.1728 F350.00
G01 X88.6179 Y64.1890 F350.00
G01 X88.5227 Y64.2129 F350.00
G01 X88.4606 Y64.2276 F350.00
G01 X88.3982 Y64.2408 F350.00
G01 X88.3355 Y64.2525 F350.00
G01 X88.2725 Y64.2626 F350.00
G01 X88.1754 Y64.2770 F350.00
G01 X88.1121 Y64.2856 F350.00
G01 X88.0487 Y64.2927 F350.00
G01 X87.9851 Y64.2981 F350.00
G01 X87.9215 Y64.3021 F350.00
G01 X87.8234 Y64.3069 F350.00
G01 X87.7597 Y64.3092 F350.00
G01 X87.6959 Y64.3100 F350.00
G01 X87.6321 Y64.3092 F350.00
G01 X87.5683 Y64.3069 F350.00
G01 X87.4703 Y64.3021 F350.00
G01 X87.4066 Y64.2981 F350.00
G01 X87.3430 Y64.2927 F350.00
G01 X87.2796 Y64.2856 F350.00
G01 X87.2163 Y64.2770 F350.00
G01 X87.1193 Y64.2626 F350.00
G01 X87.0563 Y64.2525 F350.00
G01 X86.9935 Y64.2408 F350.00
G01 X86.9311 Y64.2276 F350.00
G01 X86.8690 Y64.2129 F350.00
G01 X86.7555 Y64.1842 F350.00
G01 X86.6502 Y64.2343 F350.00
G01 X86.5922 Y64.2608 F350.00
G01 X86.5335 Y64.2860 F350.00
G01 X86.4743 Y64.3097 F350.00
G01 X86.4145 Y64.3319 F350.00
G01 X86.3221 Y64.3650 F350.00
G01 X86.2617 Y64.3857 F350.00
G01 X86.2009 Y64.4050 F350.00
G01 X86.1396 Y64.4228 F350.00
G01 X86.0779 Y64.4390 F350.00
G01 X85.9827 Y64.4629 F350.00
G01 X85.9206 Y64.4776 F350.00
G01 X85.8582 Y64.4908 F350.00
G01 X85.7955 Y64.5025 F350.00
G01 X85.7325 Y64.5126 F350.00
G01 X85.6354 Y64.5270 F350.00
G01 X85.5721 Y64.5356 F350.00
G01 X85.5087 Y64.5427 F350.00
G01 X85.4451 Y64.5481 F350.00
G01 X85.3815 Y64.5521 F350.00
G01 X85.2834 Y64.5569 F350.00
G01 X85.2197 Y64.5592 F350.00
G01 X85.1559 Y64.5600 F350.00
G01 X85.0921 Y64.5592 F350.00
G01 X85.0283 Y64.5569 F350.00
G01 X84.9303 Y64.5521 F350.00
G01 X84.8666 Y64.5481 F350.00
G01 X84.8030 Y64.5427 F350.00
G01 X84.7396 Y64.5356 F350.00
G01 X84.6763 Y64.5270 F350.00
G01 X84.5793 Y64.5126 F350.00
G01 X84.5163 Y64.5025 F350.00
G01 X84.4535 Y64.4908 F350.00
G01 X84.3911 Y64.4776 F350.00
G01 X84.3290 Y64.4629 F350.00
G01 X84.2155 Y64.4342 F350.00
G01 X84.1102 Y64.4843 F350.00
G01 X84.0522 Y64.5108 F350.00
G01 X83.9935 Y64.5360 F350.00
G01 X83.9343 Y64.5597 F350.00
G01 X83.8745 Y64.5819 F350.00
G01 X83.7821 Y64.6150 F350.00
G01 X83.7217 Y64.6357 F350.00
G01 X83.6609 Y64.6550 F350.00
G01 X83.5996 Y64.6728 F350.00
G01 X83.5379 Y64.6890 F350.00
G01 X83.4427 Y64.7129 F350.00
G01 X83.3806 Y64.7276 F350.00
G01 X83.3182 Y64.7408 F350.00
G01 X83.2555 Y64.7525 F350.00
G01 X83.1925 Y64.7626 F350.00
G01 X83.0954 Y64.7770 F350.00
G01 X83.0321 Y64.7856 F350.00
G01 X82.9687 Y64.7927 F350.00
G01 X82.9051 Y64.7981 F350.00
G01 X82.8415 Y64.8021 F350.00
G01 X82.7434 Y64.8069 F350.00
G01 X82.6797 Y64.8092 F350.00
G01 X82.6159 Y64.8100 F350.00
G01 X82.5521 Y64.8092 F350.00
G01 X82.4883 Y64.8069 F350.00
G01 X82.3903 Y64.8021 F350.00
G01 X82.3266 Y64.7981 F350.00
G01 X82.2630 Y64.7927 F350.00
G01 X82.1996 Y64.7856 F350.00
G01 X82.1363 Y64.7770 F350.00
G01 X82.0393 Y64.7626 F350.00
G01 X81.9763 Y64.7525 F350.00
G01 X81.9135 Y64.7408 F350.00
G01 X81.8511 Y64.7276 F350.00
G01 X81.7890 Y64.7129 F350.00
G01 X81.6938 Y64.6890 F350.00
G01 X81.6321 Y64.6728 F350.00
G01 X81.5708 Y64.6550 F350.00
G01 X81.5100 Y64.6357 F350.00
G01 X81.4497 Y64.6150 F350.00
G01 X81.3459 Y64.5777 F350.00
G01 X81.2421 Y64.6150 F350.00
G01 X81.1817 Y64.6357 F350.00
G01 X81.1209 Y64.6550 F350.00
G01 X81.0596 Y64.6728 F350.00
G01 X80.9979 Y64.6890 F350.00
G01 X80.9027 Y64.7129 F350.00
G01 X80.8406 Y64.7276 F350.00
G01 X80.7782 Y64.7408 F350.00
G01 X80.7155 Y64.7525 F350.00
G01 X80.6525 Y64.7626 F350.00
G01 X80.5554 Y64.7770 F350.00
G01 X80.4921 Y64.7856 F350.00
G01 X80.4287 Y64.7927 F350.00
G01 X80.3651 Y64.7981 F350.00
G01 X80.3015 Y64.8021 F350.00
G01 X80.2034 Y64.8069 F350.00
G01 X80.1397 Y64.8092 F350.00
G01 X80.0759 Y64.8100 F350.00
G01 X80.0121 Y64.8092 F350.00
G01 X79.9483 Y64.8069 F350.00
G01 X79.8503 Y64.8021 F350.00
G01 X79.7866 Y64.7981 F350.00
G01 X79.7230 Y64.7927 F350.00
G01 X79.6596 Y64.7856 F350.00
G01 X79.5963 Y64.7770 F350.00
G01 X79.4993 Y64.7626 F350.00
G01 X79.4363 Y64.7525 F350.00
G01 X79.3735 Y64.7408 F350.00
G01 X79.3111 Y64.7276 F350.00
G01 X79.2490 Y64.7129 F350.00
G01 X79.1538 Y64.6890 F350.00
G01 X79.0921 Y64.6728 F350.00
G01 X79.0308 Y64.6550 F350.00
G01 X78.9910 Y64.6424 F350.00
G01 X78.9834 Y64.6896 F350.00
G01 X78.9717 Y64.7523 F350.00
G01 X78.9585 Y64.8148 F350.00
G01 X78.9437 Y64.8768 F350.00
G01 X78.9199 Y64.9720 F350.00
G01 X78.9036 Y65.0337 F350.00
G01 X78.8858 Y65.0950 F350.00
G01 X78.8666 Y65.1559 F350.00
G01 X78.8458 Y65.2162 F350.00
G01 X78.8128 Y65.3086 F350.00
G01 X78.7905 Y65.3684 F350.00
G01 X78.7668 Y65.4277 F350.00
G01 X78.7417 Y65.4863 F350.00
G01 X78.7151 Y65.5443 F350.00
G01 X78.6732 Y65.6330 F350.00
G01 X78.6452 Y65.6904 F350.00
G01 X78.6158 Y65.7470 F350.00
G01 X78.5850 Y65.8029 F350.00
G01 X78.5529 Y65.8581 F350.00
G01 X78.5024 Y65.9422 F350.00
G01 X78.4689 Y65.9966 F350.00
G01 X78.4342 Y66.0501 F350.00
G01 X78.3981 Y66.1027 F350.00
G01 X78.3607 Y66.1544 F350.00
G01 X78.3022 Y66.2332 F350.00
G01 X78.2636 Y66.2840 F350.00
G01 X78.2237 Y66.3338 F350.00
G01 X78.1826 Y66.3826 F350.00
G01 X78.1403 Y66.4304 F350.00
G01 X78.0744 Y66.5032 F350.00
G01 X78.0310 Y66.5499 F350.00
G01 X77.9864 Y66.5956 F350.00
G01 X77.9408 Y66.6401 F350.00
G01 X77.8940 Y66.6836 F350.00
G01 X77.8213 Y66.7495 F350.00
G01 X77.7735 Y66.7918 F350.00
G01 X77.7247 Y66.8328 F350.00
G01 X77.6749 Y66.8727 F350.00
G01 X77.6241 Y66.9113 F350.00
G01 X77.5452 Y66.9698 F350.00
G01 X77.4935 Y67.0072 F350.00
G01 X77.4409 Y67.0433 F350.00
G01 X77.3874 Y67.0781 F350.00
G01 X77.3331 Y67.1116 F350.00
G01 X77.2489 Y67.1620 F350.00
G01 X77.1938 Y67.1941 F350.00
G01 X77.1379 Y67.2249 F350.00
G01 X77.0812 Y67.2543 F350.00
G01 X77.0239 Y67.2823 F350.00
G01 X76.9352 Y67.3243 F350.00
G01 X76.8772 Y67.3508 F350.00
G01 X76.8185 Y67.3760 F350.00
G01 X76.7593 Y67.3997 F350.00
G01 X76.6995 Y67.4219 F350.00
G01 X76.6071 Y67.4550 F350.00
G01 X76.5467 Y67.4757 F350.00
G01 X76.4859 Y67.4950 F350.00
G01 X76.4246 Y67.5128 F350.00
G01 X76.3629 Y67.5290 F350.00
G01 X76.2677 Y67.5529 F350.00
G01 X76.2056 Y67.5676 F350.00
G01 X76.1432 Y67.5808 F350.00
G01 X76.0805 Y67.5925 F350.00
G01 X76.0175 Y67.6026 F350.00
G01 X75.9204 Y67.6170 F350.00
G01 X75.8571 Y67.6256 F350.00
G01 X75.7937 Y67.6327 F350.00
G01 X75.7301 Y67.6381 F350.00
G01 X75.6665 Y67.6421 F350.00
G01 X75.5684 Y67.6469 F350.00
G01 X75.5047 Y67.6492 F350.00
G01 X75.4409 Y67.6500 F350.00
G01 X74.4409 Y67.6500 F350.00
G01 X74.3771 Y67.6492 F350.00
G01 X74.3133 Y67.6469 F350.00
G01 X74.2153 Y67.6421 F350.00
G01 X74.1516 Y67.6381 F350.00
G01 X74.0880 Y67.6327 F350.00
G01 X74.0246 Y67.6256 F350.00
G01 X73.9613 Y67.6170 F350.00
G01 X73.8643 Y67.6026 F350.00
G01 X73.8013 Y67.5925 F350.00
G01 X73.7385 Y67.5808 F350.00
G01 X73.6761 Y67.5676 F350.00
G01 X73.6140 Y67.5529 F350.00
G01 X73.5188 Y67.5290 F350.00
G01 X73.4571 Y67.5128 F350.00
G01 X73.3958 Y67.4950 F350.00
G01 X73.3350 Y67.4757 F350.00
G01 X73.2747 Y67.4550 F350.00
G01 X73.1823 Y67.4219 F350.00
G01 X73.1225 Y67.3997 F350.00
G01 X73.0632 Y67.3760 F350.00
G01 X73.0046 Y67.3508 F350.00
G01 X72.9465 Y67.3243 F350.00
G01 X72.8578 Y67.2823 F350.00
G01 X72.8005 Y67.2543 F350.00
G01 X72.7438 Y67.2249 F350.00
G01 X72.6879 Y67.1941 F350.00
G01 X72.6328 Y67.1620 F350.00
G01 X72.5486 Y67.1116 F350.00
G01 X72.4943 Y67.0781 F350.00
G01 X72.4408 Y67.0433 F350.00
G01 X72.3882 Y67.0072 F350.00
G01 X72.3365 Y66.9698 F350.00
G01 X72.2576 Y66.9113 F350.00
G01 X72.2069 Y66.8727 F350.00
G01 X72.1570 Y66.8328 F350.00
G01 X72.1082 Y66.7918 F350.00
G01 X72.0604 Y66.7495 F350.00
G01 X71.9877 Y66.6836 F350.00
G01 X71.9409 Y66.6401 F350.00
G01 X71.8953 Y66.5956 F350.00
G01 X71.8507 Y66.5499 F350.00
G01 X71.8073 Y66.5032 F350.00
G01 X71.7414 Y66.4304 F350.00
G01 X71.6991 Y66.3826 F350.00
G01 X71.6580 Y66.3338 F350.00
G01 X71.6182 Y66.2840 F350.00
G01 X71.5795 Y66.2332 F350.00
G01 X71.5211 Y66.1544 F350.00
G01 X71.4837 Y66.1027 F350.00
G01 X71.4476 Y66.0501 F350.00
G01 X71.4128 Y65.9966 F350.00
G01 X71.3793 Y65.9422 F350.00
G01 X71.3288 Y65.8581 F350.00
G01 X71.2967 Y65.8029 F350.00
G01 X71.2659 Y65.7470 F350.00
G01 X71.2366 Y65.6904 F350.00
G01 X71.2086 Y65.6330 F350.00
G01 X71.1666 Y65.5443 F350.00
G01 X71.1400 Y65.4863 F350.00
G01 X71.1149 Y65.4277 F350.00
G01 X71.0912 Y65.3684 F350.00
G01 X71.0690 Y65.3086 F350.00
G01 X71.0359 Y65.2162 F350.00
G01 X71.0151 Y65.1559 F350.00
G01 X70.9959 Y65.0950 F350.00
G01 X70.9781 Y65.0337 F350.00
G01 X70.9618 Y64.9720 F350.00
G01 X70.9380 Y64.8768 F350.00
G01 X70.9233 Y64.8148 F350.00
G01 X70.9100 Y64.7523 F350.00
G01 X70.8984 Y64.6896 F350.00
G01 X70.8882 Y64.6266 F350.00
G01 X70.8738 Y64.5295 F350.00
G01 X70.8652 Y64.4663 F350.00
G01 X70.8620 Y64.4370 F350.00
G01 X70.8155 Y64.4143 F350.00
G01 X70.7588 Y64.3849 F350.00
G01 X70.7029 Y64.3541 F350.00
G01 X70.6478 Y64.3220 F350.00
G01 X70.5636 Y64.2716 F350.00
G01 X70.5093 Y64.2381 F350.00
G01 X70.4558 Y64.2033 F350.00
G01 X70.4032 Y64.1672 F350.00
G01 X70.3515 Y64.1298 F350.00
G01 X70.2726 Y64.0713 F350.00
G01 X70.2219 Y64.0327 F350.00
G01 X70.1720 Y63.9928 F350.00
G01 X70.1232 Y63.9518 F350.00
G01 X70.0754 Y63.9095 F350.00
G01 X70.0027 Y63.8436 F350.00
G01 X69.9659 Y63.8094 F350.00
G01 X69.9159 Y63.8100 F350.00
G01 X69.8521 Y63.8092 F350.00
G01 X69.7883 Y63.8069 F350.00
G01 X69.6903 Y63.8021 F350.00
G01 X69.6266 Y63.7981 F350.00
G01 X69.5630 Y63.7927 F350.00
G01 X69.4996 Y63.7856 F350.00
G01 X69.4363 Y63.7770 F350.00
G01 X69.3393 Y63.7626 F350.00
G01 X69.2763 Y63.7525 F350.00
G01 X69.2135 Y63.7408 F350.00
G01 X69.1511 Y63.7276 F350.00
G01 X69.0890 Y63.7129 F350.00
G01 X68.9938 Y63.6890 F350.00
G01 X68.9321 Y63.6728 F350.00
G01 X68.8708 Y63.6550 F350.00
G01 X68.8584 Y63.6510 F350.00
G01 X68.8635 Y63.6971 F350.00
G01 X68.8690 Y63.7607 F350.00
G01 X68.8729 Y63.8244 F350.00
G01 X68.8777 Y63.9224 F350.00
G01 X68.8801 Y63.9862 F350.00
G01 X68.8809 Y64.0500 F350.00
G01 X68.8801 Y64.1138 F350.00
G01 X68.8777 Y64.1776 F350.00
G01 X68.8729 Y64.2756 F350.00
G01 X68.8690 Y64.3393 F350.00
G01 X68.8635 Y64.4029 F350.00
G01 X68.8565 Y64.4663 F350.00
G01 X68.8479 Y64.5295 F350.00
G01 X68.8335 Y64.6266 F350.00
G01 X68.8234 Y64.6896 F350.00
G01 X68.8117 Y64.7523 F350.00
G01 X68.7985 Y64.8148 F350.00
G01 X68.7837 Y64.8768 F350.00
G01 X68.7599 Y64.9720 F350.00
G01 X68.7436 Y65.0337 F350.00
G01 X68.7258 Y65.0950 F350.00
G01 X68.7066 Y65.1559 F350.00
G01 X68.6858 Y65.2162 F350.00
G01 X68.6528 Y65.3086 F350.00
G01 X68.6305 Y65.3684 F350.00
G01 X68.6068 Y65.4277 F350.00
G01 X68.5817 Y65.4863 F350.00
G01 X68.5551 Y65.5443 F350.00
G01 X68.5132 Y65.6330 F350.00
G01 X68.4852 Y65.6904 F350.00
G01 X68.4558 Y65.7470 F350.00
G01 X68.4250 Y65.8029 F350.00
G01 X68.3929 Y65.8581 F350.00
G01 X68.3424 Y65.9422 F350.00
G01 X68.3089 Y65.9966 F350.00
G01 X68.2742 Y66.0501 F350.00
G01 X68.2381 Y66.1027 F350.00
G01 X68.2007 Y66.1544 F350.00
G01 X68.1422 Y66.2332 F350.00
G01 X68.1036 Y66.2840 F350.00
G01 X68.0637 Y66.3338 F350.00
G01 X68.0226 Y66.3826 F350.00
G01 X67.9803 Y66.4304 F350.00
G01 X67.9144 Y66.5032 F350.00
G01 X67.8710 Y66.5499 F350.00
G01 X67.8264 Y66.5956 F350.00
G01 X67.7808 Y66.6401 F350.00
G01 X67.7340 Y66.6836 F350.00
G01 X67.6613 Y66.7495 F350.00
G01 X67.6135 Y66.7918 F350.00
G01 X67.5647 Y66.8328 F350.00
G01 X67.5149 Y66.8727 F350.00
G01 X67.4641 Y66.9113 F350.00
G01 X67.3852 Y66.9698 F350.00
G01 X67.3335 Y67.0072 F350.00
G01 X67.2809 Y67.0433 F350.00
G01 X67.2274 Y67.0781 F350.00
G01 X67.1731 Y67.1116 F350.00
G01 X67.0889 Y67.1620 F350.00
G01 X67.0338 Y67.1941 F350.00
G01 X66.9779 Y67.2249 F350.00
G01 X66.9212 Y67.2543 F350.00
G01 X66.8639 Y67.2823 F350.00
G01 X66.7752 Y67.3243 F350.00
G01 X66.7172 Y67.3508 F350.00
G01 X66.6585 Y67.3760 F350.00
G01 X66.5993 Y67.3997 F350.00
G01 X66.5395 Y67.4219 F350.00
G01 X66.4471 Y67.4550 F350.00
G01 X66.3867 Y67.4757 F350.00
G01 X66.3259 Y67.4950 F350.00
G01 X66.2646 Y67.5128 F350.00
G01 X66.2029 Y67.5290 F350.00
G01 X66.1077 Y67.5529 F350.00
G01 X66.0456 Y67.5676 F350.00
G01 X65.9832 Y67.5808 F350.00
G01 X65.9205 Y67.5925 F350.00
G01 X65.8575 Y67.6026 F350.00
G01 X65.7604 Y67.6170 F350.00
G01 X65.6971 Y67.6256 F350.00
G01 X65.6337 Y67.6327 F350.00
G01 X65.5701 Y67.6381 F350.00
G01 X65.5065 Y67.6421 F350.00
G01 X65.4084 Y67.6469 F350.00
G01 X65.3447 Y67.6492 F350.00
G01 X65.2809 Y67.6500 F350.00
G01 X64.8216 Y67.6500 F350.00
G01 X64.7809 Y67.6505 F350.00
G01 X62.0923 Y67.6505 F350.00
G01 X62.0613 Y67.6729 F350.00
G01 X62.0087 Y67.7090 F350.00
G01 X61.9552 Y67.7438 F350.00
G01 X61.9009 Y67.7773 F350.00
G01 X61.7746 Y67.8530 F350.00
G01 X61.7195 Y67.8851 F350.00
G01 X61.6636 Y67.9159 F350.00
G01 X61.6069 Y67.9453 F350.00
G01 X61.5496 Y67.9733 F350.00
G01 X61.4165 Y68.0362 F350.00
G01 X61.3585 Y68.0628 F350.00
G01 X61.2999 Y68.0879 F350.00
G01 X61.2406 Y68.1116 F350.00
G01 X61.1808 Y68.1338 F350.00
G01 X61.0422 Y68.1834 F350.00
G01 X60.9819 Y68.2042 F350.00
G01 X60.9210 Y68.2235 F350.00
G01 X60.8597 Y68.2412 F350.00
G01 X60.7980 Y68.2575 F350.00
G01 X60.6552 Y68.2933 F350.00
G01 X60.5932 Y68.3080 F350.00
G01 X60.5307 Y68.3212 F350.00
G01 X60.4680 Y68.3329 F350.00
G01 X60.4050 Y68.3430 F350.00
G01 X60.2594 Y68.3646 F350.00
G01 X60.1962 Y68.3732 F350.00
G01 X60.1327 Y68.3803 F350.00
G01 X60.0692 Y68.3857 F350.00
G01 X60.0055 Y68.3896 F350.00
G01 X59.8584 Y68.3969 F350.00
G01 X59.7947 Y68.3992 F350.00
G01 X59.7309 Y68.4000 F350.00
G01 X59.6671 Y68.3992 F350.00
G01 X59.6033 Y68.3969 F350.00
G01 X59.4563 Y68.3896 F350.00
G01 X59.3926 Y68.3857 F350.00
G01 X59.3290 Y68.3803 F350.00
G01 X59.2656 Y68.3732 F350.00
G01 X59.2023 Y68.3646 F350.00
G01 X59.0567 Y68.3430 F350.00
G01 X58.9937 Y68.3329 F350.00
G01 X58.9310 Y68.3212 F350.00
G01 X58.8686 Y68.3080 F350.00
G01 X58.8065 Y68.2933 F350.00
G01 X58.6637 Y68.2575 F350.00
G01 X58.6020 Y68.2412 F350.00
G01 X58.5407 Y68.2235 F350.00
G01 X58.4799 Y68.2042 F350.00
G01 X58.4195 Y68.1834 F350.00
G01 X58.2809 Y68.1338 F350.00
G01 X58.2211 Y68.1116 F350.00
G01 X58.1619 Y68.0879 F350.00
G01 X58.1032 Y68.0628 F350.00
G01 X58.0452 Y68.0362 F350.00
G01 X57.9121 Y67.9733 F350.00
G01 X57.8548 Y67.9453 F350.00
G01 X57.7981 Y67.9159 F350.00
G01 X57.7422 Y67.8851 F350.00
G01 X57.6871 Y67.8530 F350.00
G01 X57.5608 Y67.7773 F350.00
G01 X57.5065 Y67.7438 F350.00
G01 X57.4530 Y67.7090 F350.00
G01 X57.4004 Y67.6729 F350.00
G01 X57.3487 Y67.6355 F350.00
G01 X57.2305 Y67.5479 F350.00
G01 X57.1797 Y67.5092 F350.00
G01 X57.1298 Y67.4693 F350.00
G01 X57.0810 Y67.4283 F350.00
G01 X57.0332 Y67.3860 F350.00
G01 X56.9241 Y67.2871 F350.00
G01 X56.8774 Y67.2437 F350.00
G01 X56.8317 Y67.1991 F350.00
G01 X56.7872 Y67.1535 F350.00
G01 X56.7437 Y67.1067 F350.00
G01 X56.6449 Y66.9976 F350.00
G01 X56.6026 Y66.9498 F350.00
G01 X56.5615 Y66.9010 F350.00
G01 X56.5216 Y66.8512 F350.00
G01 X56.4830 Y66.8004 F350.00
G01 X56.3953 Y66.6822 F350.00
G01 X56.3579 Y66.6305 F350.00
G01 X56.3218 Y66.5778 F350.00
G01 X56.2870 Y66.5243 F350.00
G01 X56.2536 Y66.4700 F350.00
G01 X56.1779 Y66.3438 F350.00
G01 X56.1458 Y66.2886 F350.00
G01 X56.1150 Y66.2327 F350.00
G01 X56.0856 Y66.1761 F350.00
G01 X56.0576 Y66.1187 F350.00
G01 X55.9947 Y65.9857 F350.00
G01 X55.9681 Y65.9277 F350.00
G01 X55.9430 Y65.8690 F350.00
G01 X55.9193 Y65.8098 F350.00
G01 X55.8970 Y65.7499 F350.00
G01 X55.8474 Y65.6113 F350.00
G01 X55.8267 Y65.5510 F350.00
G01 X55.8074 Y65.4902 F350.00
G01 X55.7896 Y65.4289 F350.00
G01 X55.7734 Y65.3672 F350.00
G01 X55.7376 Y65.2244 F350.00
G01 X55.7229 Y65.1623 F350.00
G01 X55.7096 Y65.0999 F350.00
G01 X55.6980 Y65.0371 F350.00
G01 X55.6878 Y64.9741 F350.00
G01 X55.6662 Y64.8285 F350.00
G01 X55.6576 Y64.7653 F350.00
G01 X55.6506 Y64.7019 F350.00
G01 X55.6451 Y64.6383 F350.00
G01 X55.6412 Y64.5746 F350.00
G01 X55.6340 Y64.4276 F350.00
G01 X55.6316 Y64.3638 F350.00
G01 X55.6309 Y64.3000 F350.00
G01 X55.6316 Y64.2362 F350.00
G01 X55.6340 Y64.1724 F350.00
G01 X55.6412 Y64.0254 F350.00
G01 X55.6451 Y63.9617 F350.00
G01 X55.6506 Y63.8981 F350.00
G01 X55.6576 Y63.8347 F350.00
G01 X55.6662 Y63.7715 F350.00
G01 X55.6878 Y63.6259 F350.00
G01 X55.6980 Y63.5629 F350.00
G01 X55.7096 Y63.5001 F350.00
G01 X55.7229 Y63.4377 F350.00
G01 X55.7376 Y63.3756 F350.00
G01 X55.7734 Y63.2328 F350.00
G01 X55.7896 Y63.1711 F350.00
G01 X55.8074 Y63.1098 F350.00
G01 X55.8267 Y63.0490 F350.00
G01 X55.8474 Y62.9887 F350.00
G01 X55.8970 Y62.8501 F350.00
G01 X55.9193 Y62.7902 F350.00
G01 X55.9430 Y62.7310 F350.00
G01 X55.9681 Y62.6723 F350.00
G01 X55.9947 Y62.6143 F350.00
G01 X56.0576 Y62.4813 F350.00
G01 X56.0856 Y62.4239 F350.00
G01 X56.1150 Y62.3673 F350.00
G01 X56.1458 Y62.3114 F350.00
G01 X56.1779 Y62.2562 F350.00
G01 X56.2536 Y62.1300 F350.00
G01 X56.2870 Y62.0757 F350.00
G01 X56.3218 Y62.0222 F350.00
G01 X56.3579 Y61.9695 F350.00
G01 X56.3953 Y61.9178 F350.00
G01 X56.4830 Y61.7996 F350.00
G01 X56.5099 Y61.7642 F350.00
G01 X56.4816 Y61.7043 F350.00
G01 X56.4550 Y61.6463 F350.00
G01 X56.4299 Y61.5877 F350.00
G01 X56.4062 Y61.5284 F350.00
G01 X56.3840 Y61.4686 F350.00
G01 X56.3509 Y61.3762 F350.00
G01 X56.3301 Y61.3159 F350.00
G01 X56.3109 Y61.2550 F350.00
G01 X56.2931 Y61.1937 F350.00
G01 X56.2768 Y61.1320 F350.00
G01 X56.2530 Y61.0368 F350.00
G01 X56.2383 Y60.9748 F350.00
G01 X56.2250 Y60.9123 F350.00
G01 X56.2134 Y60.8496 F350.00
G01 X56.2032 Y60.7866 F350.00
G01 X56.1888 Y60.6895 F350.00
G01 X56.1802 Y60.6263 F350.00
G01 X56.1732 Y60.5629 F350.00
G01 X56.1677 Y60.4993 F350.00
G01 X56.1638 Y60.4356 F350.00
G01 X56.1590 Y60.3376 F350.00
G01 X56.1566 Y60.2738 F350.00
G01 X56.1559 Y60.2100 F350.00
G01 X56.1559 Y59.4002 F350.00
G01 X49.9304 Y59.4002 F350.00
G01 X49.9559 Y59.4338 F350.00
G01 X49.9851 Y59.4733 F350.00
G01 X50.0225 Y59.5250 F350.00
G01 X50.0586 Y59.5776 F350.00
G01 X50.0934 Y59.6311 F350.00
G01 X50.1269 Y59.6854 F350.00
G01 X50.1521 Y59.7275 F350.00
G01 X50.1843 Y59.7826 F350.00
G01 X50.2150 Y59.8386 F350.00
G01 X50.2444 Y59.8952 F350.00
G01 X50.2724 Y59.9525 F350.00
G01 X50.2934 Y59.9969 F350.00
G01 X50.3200 Y60.0549 F350.00
G01 X50.3451 Y60.1136 F350.00
G01 X50.3688 Y60.1728 F350.00
G01 X50.3910 Y60.2326 F350.00
G01 X50.4076 Y60.2789 F350.00
G01 X50.4283 Y60.3392 F350.00
G01 X50.4476 Y60.4000 F350.00
G01 X50.4654 Y60.4613 F350.00
G01 X50.4817 Y60.5230 F350.00
G01 X50.4936 Y60.5707 F350.00
G01 X50.5083 Y60.6327 F350.00
G01 X50.5215 Y60.6952 F350.00
G01 X50.5332 Y60.7579 F350.00
G01 X50.5402 Y60.8015 F350.00
G01 X50.5739 Y60.8384 F350.00
G01 X50.6162 Y60.8862 F350.00
G01 X50.6572 Y60.9350 F350.00
G01 X50.6971 Y60.9848 F350.00
G01 X50.7357 Y61.0356 F350.00
G01 X50.7572 Y61.0646 F350.00
G01 X50.7946 Y61.1163 F350.00
G01 X50.8307 Y61.1689 F350.00
G01 X50.8655 Y61.2224 F350.00
G01 X50.8990 Y61.2767 F350.00
G01 X50.9175 Y61.3077 F350.00
G01 X50.9497 Y61.3628 F350.00
G01 X50.9804 Y61.4187 F350.00
G01 X51.0098 Y61.4754 F350.00
G01 X51.0378 Y61.5327 F350.00
G01 X51.0532 Y61.5653 F350.00
G01 X51.0798 Y61.6233 F350.00
G01 X51.1050 Y61.6820 F350.00
G01 X51.1287 Y61.7412 F350.00
G01 X51.1509 Y61.8010 F350.00
G01 X51.1630 Y61.8350 F350.00
G01 X51.1838 Y61.8954 F350.00
G01 X51.2031 Y61.9562 F350.00
G01 X51.2208 Y62.0175 F350.00
G01 X51.2371 Y62.0792 F350.00
G01 X51.2459 Y62.1142 F350.00
G01 X51.2606 Y62.1763 F350.00
G01 X51.2738 Y62.2387 F350.00
G01 X51.2855 Y62.3014 F350.00
G01 X51.2957 Y62.3644 F350.00
G01 X51.3009 Y62.4001 F350.00
G01 X51.3095 Y62.4633 F350.00
G01 X51.3166 Y62.5268 F350.00
G01 X51.3220 Y62.5903 F350.00
G01 X51.3260 Y62.6540 F350.00
G01 X51.3277 Y62.6901 F350.00
G01 X51.3301 Y62.7538 F350.00
G01 X51.3309 Y62.8176 F350.00
G01 X51.3309 Y64.5824 F350.00
G01 X51.3301 Y64.6462 F350.00
G01 X51.3277 Y64.7099 F350.00
G01 X51.3260 Y64.7460 F350.00
G01 X51.3220 Y64.8097 F350.00
G01 X51.3166 Y64.8732 F350.00
G01 X51.3095 Y64.9367 F350.00
G01 X51.3009 Y64.9999 F350.00
G01 X51.2957 Y65.0356 F350.00
G01 X51.2855 Y65.0986 F350.00
G01 X51.2738 Y65.1613 F350.00
G01 X51.2606 Y65.2237 F350.00
G01 X51.2459 Y65.2858 F350.00
G01 X51.2371 Y65.3208 F350.00
G01 X51.2208 Y65.3825 F350.00
G01 X51.2031 Y65.4438 F350.00
G01 X51.1838 Y65.5046 F350.00
G01 X51.1630 Y65.5650 F350.00
G01 X51.1509 Y65.5990 F350.00
G01 X51.1287 Y65.6588 F350.00
G01 X51.1050 Y65.7180 F350.00
G01 X51.0798 Y65.7767 F350.00
G01 X51.0532 Y65.8347 F350.00
G01 X51.0378 Y65.8673 F350.00
G01 X51.0098 Y65.9246 F350.00
G01 X50.9804 Y65.9813 F350.00
G01 X50.9497 Y66.0372 F350.00
G01 X50.9175 Y66.0923 F350.00
G01 X50.8990 Y66.1233 F350.00
G01 X50.8655 Y66.1776 F350.00
G01 X50.8307 Y66.2311 F350.00
G01 X50.7946 Y66.2837 F350.00
G01 X50.7572 Y66.3354 F350.00
G01 X50.7357 Y66.3644 F350.00
G01 X50.6971 Y66.4152 F350.00
G01 X50.6572 Y66.4650 F350.00
G01 X50.6162 Y66.5138 F350.00
G01 X50.5811 Y66.5535 F350.00
G01 X50.5811 Y68.0500 F350.00
G01 X50.5803 Y68.1138 F350.00
G01 X50.5780 Y68.1776 F350.00
G01 X50.5756 Y68.2266 F350.00
G01 X50.5717 Y68.2903 F350.00
G01 X50.5662 Y68.3539 F350.00
G01 X50.5591 Y68.4173 F350.00
G01 X50.5506 Y68.4805 F350.00
G01 X50.5434 Y68.5291 F350.00
G01 X50.5332 Y68.5921 F350.00
G01 X50.5215 Y68.6548 F350.00
G01 X50.5083 Y68.7173 F350.00
G01 X50.4936 Y68.7793 F350.00
G01 X50.4817 Y68.8270 F350.00
G01 X50.4654 Y68.8887 F350.00
G01 X50.4476 Y68.9500 F350.00
G01 X50.4283 Y69.0108 F350.00
G01 X50.4076 Y69.0711 F350.00
G01 X50.3910 Y69.1174 F350.00
G01 X50.3688 Y69.1772 F350.00
G01 X50.3451 Y69.2364 F350.00
G01 X50.3200 Y69.2951 F350.00
G01 X50.2934 Y69.3531 F350.00
G01 X50.2724 Y69.3975 F350.00
G01 X50.2444 Y69.4548 F350.00
G01 X50.2150 Y69.5114 F350.00
G01 X50.1843 Y69.5674 F350.00
G01 X50.1521 Y69.6225 F350.00
G01 X50.1269 Y69.6646 F350.00
G01 X50.0934 Y69.7189 F350.00
G01 X50.0586 Y69.7724 F350.00
G01 X50.0225 Y69.8250 F350.00
G01 X49.9851 Y69.8767 F350.00
G01 X49.9559 Y69.9162 F350.00
G01 X49.9173 Y69.9670 F350.00
G01 X49.8774 Y70.0168 F350.00
G01 X49.8363 Y70.0656 F350.00
G01 X49.7940 Y70.1134 F350.00
G01 X49.7611 Y70.1498 F350.00
G01 X49.7176 Y70.1965 F350.00
G01 X49.6731 Y70.2422 F350.00
G01 X49.6274 Y70.2868 F350.00
G01 X49.5806 Y70.3302 F350.00
G01 X49.5443 Y70.3632 F350.00
G01 X49.4965 Y70.4054 F350.00
G01 X49.4476 Y70.4465 F350.00
G01 X49.3978 Y70.4864 F350.00
G01 X49.3470 Y70.5250 F350.00
G01 X49.3076 Y70.5543 F350.00
G01 X49.2559 Y70.5917 F350.00
G01 X49.2033 Y70.6278 F350.00
G01 X49.1498 Y70.6626 F350.00
G01 X49.0955 Y70.6960 F350.00
G01 X49.0533 Y70.7213 F350.00
G01 X48.9982 Y70.7534 F350.00
G01 X48.9423 Y70.7842 F350.00
G01 X48.8857 Y70.8136 F350.00
G01 X48.8283 Y70.8416 F350.00
G01 X48.7839 Y70.8625 F350.00
G01 X48.7259 Y70.8891 F350.00
G01 X48.6673 Y70.9143 F350.00
G01 X48.6080 Y70.9380 F350.00
G01 X48.5482 Y70.9602 F350.00
G01 X48.5020 Y70.9767 F350.00
G01 X48.4416 Y70.9975 F350.00
G01 X48.3808 Y71.0168 F350.00
G01 X48.3195 Y71.0345 F350.00
G01 X48.2578 Y71.0508 F350.00
G01 X48.2102 Y71.0627 F350.00
G01 X48.1481 Y71.0775 F350.00
G01 X48.0857 Y71.0907 F350.00
G01 X48.0230 Y71.1024 F350.00
G01 X47.9600 Y71.1125 F350.00
G01 X47.9114 Y71.1197 F350.00
G01 X47.8482 Y71.1283 F350.00
G01 X47.7847 Y71.1353 F350.00
G01 X47.7212 Y71.1408 F350.00
G01 X47.6575 Y71.1447 F350.00
G01 X47.6084 Y71.1471 F350.00
G01 X47.5447 Y71.1495 F350.00
G01 X47.4809 Y71.1502 F350.00
G01 X18.2309 Y71.1502 F350.00
G01 X18.1671 Y71.1495 F350.00
G01 X18.1033 Y71.1471 F350.00
G01 X18.0543 Y71.1447 F350.00
G01 X17.9906 Y71.1408 F350.00
G01 X17.9270 Y71.1353 F350.00
G01 X17.8636 Y71.1283 F350.00
G01 X17.8003 Y71.1197 F350.00
G01 X17.7518 Y71.1125 F350.00
G01 X17.6888 Y71.1024 F350.00
G01 X17.6260 Y71.0907 F350.00
G01 X17.5636 Y71.0775 F350.00
G01 X17.5015 Y71.0627 F350.00
G01 X17.4539 Y71.0508 F350.00
G01 X17.3922 Y71.0345 F350.00
G01 X17.3309 Y71.0168 F350.00
G01 X17.2701 Y70.9975 F350.00
G01 X17.2097 Y70.9767 F350.00
G01 X17.1635 Y70.9602 F350.00
G01 X17.1037 Y70.9380 F350.00
G01 X17.0444 Y70.9143 F350.00
G01 X16.9858 Y70.8891 F350.00
G01 X16.9278 Y70.8625 F350.00
G01 X16.8834 Y70.8416 F350.00
G01 X16.8261 Y70.8136 F350.00
G01 X16.7694 Y70.7842 F350.00
G01 X16.7135 Y70.7534 F350.00
G01 X16.6584 Y70.7213 F350.00
G01 X16.6163 Y70.6960 F350.00
G01 X16.5619 Y70.6626 F350.00
G01 X16.5085 Y70.6278 F350.00
G01 X16.4558 Y70.5917 F350.00
G01 X16.4041 Y70.5543 F350.00
G01 X16.3647 Y70.5250 F350.00
G01 X16.3139 Y70.4864 F350.00
G01 X16.2641 Y70.4465 F350.00
G01 X16.2153 Y70.4054 F350.00
G01 X16.1675 Y70.3632 F350.00
G01 X16.1311 Y70.3302 F350.00
G01 X16.0843 Y70.2868 F350.00
G01 X16.0387 Y70.2422 F350.00
G01 X15.9941 Y70.1965 F350.00
G01 X15.9507 Y70.1498 F350.00
G01 X15.9177 Y70.1134 F350.00
G01 X15.8754 Y70.0656 F350.00
G01 X15.8343 Y70.0168 F350.00
G01 X15.7945 Y69.9670 F350.00
G01 X15.7558 Y69.9162 F350.00
G01 X15.7266 Y69.8767 F350.00
G01 X15.6892 Y69.8250 F350.00
G01 X15.6531 Y69.7724 F350.00
G01 X15.6183 Y69.7189 F350.00
G01 X15.5848 Y69.6646 F350.00
G01 X15.5596 Y69.6225 F350.00
G01 X15.5275 Y69.5674 F350.00
G01 X15.4967 Y69.5114 F350.00
G01 X15.4673 Y69.4548 F350.00
G01 X15.4393 Y69.3975 F350.00
G01 X15.4183 Y69.3531 F350.00
G01 X15.3917 Y69.2951 F350.00
G01 X15.3666 Y69.2364 F350.00
G01 X15.3429 Y69.1772 F350.00
G01 X15.3207 Y69.1174 F350.00
G01 X15.3041 Y69.0711 F350.00
G01 X15.2834 Y69.0108 F350.00
G01 X15.2641 Y68.9500 F350.00
G01 X15.2463 Y68.8887 F350.00
G01 X15.2301 Y68.8270 F350.00
G01 X15.2181 Y68.7793 F350.00
G01 X15.2034 Y68.7173 F350.00
G01 X15.1902 Y68.6548 F350.00
G01 X15.1785 Y68.5921 F350.00
G01 X15.1684 Y68.5291 F350.00
G01 X15.1612 Y68.4805 F350.00
G01 X15.1526 Y68.4173 F350.00
G01 X15.1455 Y68.3539 F350.00
G01 X15.1401 Y68.2903 F350.00
G01 X15.1362 Y68.2266 F350.00
G01 X15.1337 Y68.1776 F350.00
G01 X15.1314 Y68.1138 F350.00
G01 X15.1306 Y68.0500 F350.00
G01 X15.1306 Y56.5842 F350.00
G01 X5.5387 Y46.9922 F350.00
G01 X5.4941 Y46.9465 F350.00
G01 X5.4507 Y46.8998 F350.00
G01 X5.4177 Y46.8634 F350.00
G01 X5.3754 Y46.8156 F350.00
G01 X5.3343 Y46.7668 F350.00
G01 X5.2945 Y46.7170 F350.00
G01 X5.2558 Y46.6662 F350.00
G01 X5.2266 Y46.6267 F350.00
G01 X5.1892 Y46.5750 F350.00
G01 X5.1531 Y46.5224 F350.00
G01 X5.1183 Y46.4689 F350.00
G01 X5.0848 Y46.4146 F350.00
G01 X5.0596 Y46.3725 F350.00
G01 X5.0275 Y46.3174 F350.00
G01 X4.9967 Y46.2614 F350.00
G01 X4.9673 Y46.2048 F350.00
G01 X4.9393 Y46.1475 F350.00
G01 X4.9183 Y46.1031 F350.00
G01 X4.8917 Y46.0451 F350.00
G01 X4.8666 Y45.9864 F350.00
G01 X4.8429 Y45.9272 F350.00
G01 X4.8207 Y45.8674 F350.00
G01 X4.8041 Y45.8211 F350.00
G01 X4.7834 Y45.7608 F350.00
G01 X4.7641 Y45.7000 F350.00
G01 X4.7463 Y45.6387 F350.00
G01 X4.7301 Y45.5770 F350.00
G01 X4.7181 Y45.5293 F350.00
G01 X4.7034 Y45.4673 F350.00
G01 X4.6902 Y45.4048 F350.00
G01 X4.6785 Y45.3421 F350.00
G01 X4.6684 Y45.2791 F350.00
G01 X4.6612 Y45.2305 F350.00
G01 X4.6526 Y45.1673 F350.00
G01 X4.6455 Y45.1039 F350.00
G01 X4.6401 Y45.0403 F350.00
G01 X4.6362 Y44.9766 F350.00
G01 X4.6337 Y44.9276 F350.00
G01 X4.6314 Y44.8638 F350.00
G01 X4.6306 Y44.8000 F350.00
G01 X4.6306 Y41.6952 F350.00
G01 X4.5649 Y41.6226 F350.00
G01 X4.5226 Y41.5748 F350.00
G01 X4.4815 Y41.5260 F350.00
G01 X4.4416 Y41.4762 F350.00
G01 X4.4030 Y41.4254 F350.00
G01 X4.3153 Y41.3072 F350.00
G01 X4.2779 Y41.2555 F350.00
G01 X4.2418 Y41.2028 F350.00
G01 X4.2070 Y41.1493 F350.00
G01 X4.1736 Y41.0950 F350.00
G01 X4.0979 Y40.9688 F350.00
G01 X4.0658 Y40.9136 F350.00
G01 X4.0350 Y40.8577 F350.00
G01 X4.0056 Y40.8011 F350.00
G01 X3.9776 Y40.7437 F350.00
G01 X3.9147 Y40.6107 F350.00
G01 X3.8881 Y40.5527 F350.00
G01 X3.8630 Y40.4940 F350.00
G01 X3.8393 Y40.4348 F350.00
G01 X3.8170 Y40.3749 F350.00
G01 X3.7674 Y40.2363 F350.00
G01 X3.7467 Y40.1760 F350.00
G01 X3.7274 Y40.1152 F350.00
G01 X3.7096 Y40.0539 F350.00
G01 X3.6934 Y39.9922 F350.00
G01 X3.6576 Y39.8494 F350.00
G01 X3.6409 Y39.7782 F350.00
G01 X0.8618 Y36.9991 F350.00
G01 X0.8172 Y36.9534 F350.00
G01 X0.7738 Y36.9066 F350.00
G01 X0.7243 Y36.8521 F350.00
G01 X0.6821 Y36.8043 F350.00
G01 X0.6410 Y36.7555 F350.00
G01 X0.6011 Y36.7056 F350.00
G01 X0.5625 Y36.6549 F350.00
G01 X0.5186 Y36.5957 F350.00
G01 X0.4812 Y36.5440 F350.00
G01 X0.4451 Y36.4914 F350.00
G01 X0.4103 Y36.4379 F350.00
G01 X0.3769 Y36.3836 F350.00
G01 X0.3390 Y36.3204 F350.00
G01 X0.3069 Y36.2653 F350.00
G01 X0.2761 Y36.2094 F350.00
G01 X0.2467 Y36.1527 F350.00
G01 X0.2187 Y36.0954 F350.00
G01 X0.1872 Y36.0288 F350.00
G01 X0.1607 Y35.9708 F350.00
G01 X0.1355 Y35.9121 F350.00
G01 X0.1118 Y35.8529 F350.00
G01 X0.0896 Y35.7931 F350.00
G01 X0.0648 Y35.7237 F350.00
G01 X0.0440 Y35.6634 F350.00
G01 X0.0248 Y35.6026 F350.00
G01 X0.0070 Y35.5413 F350.00
G01 X-0.0093 Y35.4796 F350.00
G01 X-0.0272 Y35.4081 F350.00
G01 X-0.0419 Y35.3461 F350.00
G01 X-0.0551 Y35.2836 F350.00
G01 X-0.0668 Y35.2209 F350.00
G01 X-0.0770 Y35.1579 F350.00
G01 X-0.0878 Y35.0850 F350.00
G01 X-0.0963 Y35.0218 F350.00
G01 X-0.1034 Y34.9584 F350.00
G01 X-0.1089 Y34.8948 F350.00
G01 X-0.1128 Y34.8311 F350.00
G01 X-0.1164 Y34.7576 F350.00
G01 X-0.1187 Y34.6938 F350.00
G01 X-0.1195 Y34.6300 F350.00
G01 X-0.1195 Y29.0950 F350.00
G01 X-0.1187 Y29.0312 F350.00
G01 X-0.1164 Y28.9674 F350.00
G01 X-0.1128 Y28.8939 F350.00
G01 X-0.1089 Y28.8302 F350.00
G01 X-0.1034 Y28.7666 F350.00
G01 X-0.0963 Y28.7032 F350.00
G01 X-0.0878 Y28.6400 F350.00
G01 X-0.0770 Y28.5671 F350.00
G01 X-0.0668 Y28.5041 F350.00
G01 X-0.0551 Y28.4414 F350.00
G01 X-0.0419 Y28.3789 F350.00
G01 X-0.0272 Y28.3169 F350.00
G01 X-0.0093 Y28.2454 F350.00
G01 X0.0070 Y28.1837 F350.00
G01 X0.0248 Y28.1224 F350.00
G01 X0.0440 Y28.0616 F350.00
G01 X0.0648 Y28.0013 F350.00
G01 X0.0896 Y27.9319 F350.00
G01 X0.1118 Y27.8721 F350.00
G01 X0.1355 Y27.8129 F350.00
G01 X0.1607 Y27.7542 F350.00
G01 X0.1872 Y27.6962 F350.00
G01 X0.2187 Y27.6296 F350.00
G01 X0.2467 Y27.5723 F350.00
G01 X0.2761 Y27.5156 F350.00
G01 X0.3069 Y27.4597 F350.00
G01 X0.3390 Y27.4046 F350.00
G01 X0.3769 Y27.3414 F350.00
G01 X0.4103 Y27.2871 F350.00
G01 X0.4451 Y27.2336 F350.00
G01 X0.4812 Y27.1810 F350.00
G01 X0.5186 Y27.1293 F350.00
G01 X0.5625 Y27.0701 F350.00
G01 X0.6011 Y27.0194 F350.00
G01 X0.6410 Y26.9695 F350.00
G01 X0.6821 Y26.9207 F350.00
G01 X0.7243 Y26.8729 F350.00
G01 X0.7738 Y26.8184 F350.00
G01 X0.8172 Y26.7716 F350.00
G01 X0.8618 Y26.7259 F350.00
G01 X2.9124 Y24.6753 F350.00
G01 X1.3614 Y23.1237 F350.00
G01 X1.3170 Y23.0782 F350.00
G01 X1.2738 Y23.0316 F350.00
G01 X1.2243 Y22.9771 F350.00
G01 X1.1821 Y22.9293 F350.00
G01 X1.1410 Y22.8805 F350.00
G01 X1.1011 Y22.8306 F350.00
G01 X1.0625 Y22.7799 F350.00
G01 X1.0186 Y22.7207 F350.00
G01 X0.9812 Y22.6690 F350.00
G01 X0.9451 Y22.6164 F350.00
G01 X0.9103 Y22.5629 F350.00
G01 X0.8769 Y22.5086 F350.00
G01 X0.8390 Y22.4454 F350.00
G01 X0.8069 Y22.3903 F350.00
G01 X0.7761 Y22.3344 F350.00
G01 X0.7467 Y22.2777 F350.00
G01 X0.7187 Y22.2204 F350.00
G01 X0.6872 Y22.1538 F350.00
G01 X0.6607 Y22.0958 F350.00
G01 X0.6355 Y22.0371 F350.00
G01 X0.6118 Y21.9779 F350.00
G01 X0.5896 Y21.9181 F350.00
G01 X0.5648 Y21.8487 F350.00
G01 X0.5440 Y21.7884 F350.00
G01 X0.5248 Y21.7276 F350.00
G01 X0.5070 Y21.6663 F350.00
G01 X0.4907 Y21.6046 F350.00
G01 X0.4728 Y21.5331 F350.00
G01 X0.4581 Y21.4711 F350.00
G01 X0.4449 Y21.4086 F350.00
G01 X0.4332 Y21.3459 F350.00
G01 X0.4230 Y21.2829 F350.00
G01 X0.4122 Y21.2100 F350.00
G01 X0.4037 Y21.1468 F350.00
G01 X0.3966 Y21.0834 F350.00
G01 X0.3911 Y21.0198 F350.00
G01 X0.3872 Y20.9561 F350.00
G01 X0.3836 Y20.8826 F350.00
G01 X0.3813 Y20.8188 F350.00
G01 X0.3805 Y20.7550 F350.00
G01 X0.3805 Y14.2200 F350.00
G01 X0.3813 Y14.1562 F350.00
G01 X0.3836 Y14.0924 F350.00
G01 X0.3872 Y14.0189 F350.00
G01 X0.3911 Y13.9552 F350.00
G01 X0.3966 Y13.8916 F350.00
G01 X0.4037 Y13.8282 F350.00
G01 X0.4122 Y13.7650 F350.00
G01 X0.4230 Y13.6921 F350.00
G01 X0.4332 Y13.6291 F350.00
G01 X0.4449 Y13.5664 F350.00
G01 X0.4581 Y13.5039 F350.00
G01 X0.4728 Y13.4419 F350.00
G01 X0.4907 Y13.3704 F350.00
G01 X0.5070 Y13.3087 F350.00
G01 X0.5248 Y13.2474 F350.00
G01 X0.5440 Y13.1866 F350.00
G01 X0.5648 Y13.1263 F350.00
G01 X0.5896 Y13.0569 F350.00
G01 X0.6118 Y12.9971 F350.00
G01 X0.6355 Y12.9379 F350.00
G01 X0.6607 Y12.8792 F350.00
G01 X0.6872 Y12.8212 F350.00
G01 X0.7187 Y12.7546 F350.00
G01 X0.7467 Y12.6973 F350.00
G01 X0.7761 Y12.6406 F350.00
G01 X0.8069 Y12.5847 F350.00
G01 X0.8390 Y12.5296 F350.00
G01 X0.8769 Y12.4664 F350.00
G01 X0.9103 Y12.4121 F350.00
G01 X0.9451 Y12.3586 F350.00
G01 X0.9812 Y12.3060 F350.00
G01 X1.0186 Y12.2543 F350.00
G01 X1.0625 Y12.1951 F350.00
G01 X1.1011 Y12.1444 F350.00
G01 X1.1410 Y12.0945 F350.00
G01 X1.1821 Y12.0457 F350.00
G01 X1.2243 Y11.9979 F350.00
G01 X1.2738 Y11.9434 F350.00
G01 X1.3172 Y11.8966 F350.00
G01 X1.3618 Y11.8509 F350.00
G01 X3.6250 Y9.5878 F350.00
G01 X3.6296 Y9.5626 F350.00
G01 X3.6429 Y9.5002 F350.00
G01 X3.6576 Y9.4381 F350.00
G01 X3.6934 Y9.2953 F350.00
G01 X3.7096 Y9.2336 F350.00
G01 X3.7274 Y9.1723 F350.00
G01 X3.7467 Y9.1115 F350.00
G01 X3.7674 Y9.0512 F350.00
G01 X3.8170 Y8.9126 F350.00
G01 X3.8393 Y8.8527 F350.00
G01 X3.8630 Y8.7935 F350.00
G01 X3.8881 Y8.7348 F350.00
G01 X3.9147 Y8.6768 F350.00
G01 X3.9776 Y8.5438 F350.00
G01 X4.0056 Y8.4864 F350.00
G01 X4.0350 Y8.4298 F350.00
G01 X4.0658 Y8.3739 F350.00
G01 X4.0979 Y8.3187 F350.00
G01 X4.1736 Y8.1925 F350.00
G01 X4.2070 Y8.1382 F350.00
G01 X4.2418 Y8.0847 F350.00
G01 X4.2779 Y8.0320 F350.00
G01 X4.3153 Y7.9803 F350.00
G01 X4.4030 Y7.8621 F350.00
G01 X4.4416 Y7.8113 F350.00
G01 X4.4815 Y7.7615 F350.00
G01 X4.5226 Y7.7127 F350.00
G01 X4.5649 Y7.6649 F350.00
G01 X4.6637 Y7.5558 F350.00
G01 X4.7072 Y7.5090 F350.00
G01 X4.7517 Y7.4634 F350.00
G01 X4.7974 Y7.4188 F350.00
G01 X4.8441 Y7.3754 F350.00
G01 X4.9532 Y7.2765 F350.00
G01 X5.0010 Y7.2342 F350.00
G01 X5.0498 Y7.1932 F350.00
G01 X5.0997 Y7.1533 F350.00
G01 X5.1505 Y7.1146 F350.00
G01 X5.2687 Y7.0270 F350.00
G01 X5.3204 Y6.9896 F350.00
G01 X5.3730 Y6.9535 F350.00
G01 X5.4265 Y6.9187 F350.00
G01 X5.4808 Y6.8852 F350.00
G01 X5.6071 Y6.8095 F350.00
G01 X5.6622 Y6.7774 F350.00
G01 X5.7181 Y6.7466 F350.00
G01 X5.7748 Y6.7172 F350.00
G01 X5.8321 Y6.6892 F350.00
G01 X5.9652 Y6.6263 F350.00
G01 X6.0232 Y6.5997 F350.00
G01 X6.0819 Y6.5746 F350.00
G01 X6.1411 Y6.5509 F350.00
G01 X6.2009 Y6.5287 F350.00
G01 X6.3395 Y6.4791 F350.00
G01 X6.3999 Y6.4583 F350.00
G01 X6.4607 Y6.4390 F350.00
G01 X6.5220 Y6.4213 F350.00
G01 X6.5837 Y6.4050 F350.00
G01 X6.7265 Y6.3692 F350.00
G01 X6.7845 Y6.3555 F350.00
G01 X6.7288 Y6.3415 F350.00
G01 X6.6671 Y6.3253 F350.00
G01 X6.6058 Y6.3075 F350.00
G01 X6.5450 Y6.2882 F350.00
G01 X6.4847 Y6.2675 F350.00
G01 X6.3923 Y6.2344 F350.00
G01 X6.3325 Y6.2122 F350.00
G01 X6.2732 Y6.1885 F350.00
G01 X6.2146 Y6.1633 F350.00
G01 X6.1565 Y6.1368 F350.00
G01 X6.0678 Y6.0948 F350.00
G01 X6.0105 Y6.0668 F350.00
G01 X5.9538 Y6.0374 F350.00
G01 X5.8979 Y6.0066 F350.00
G01 X5.8428 Y5.9745 F350.00
G01 X5.7586 Y5.9241 F350.00
G01 X5.7043 Y5.8906 F350.00
G01 X5.6508 Y5.8558 F350.00
G01 X5.5982 Y5.8197 F350.00
G01 X5.5465 Y5.7823 F350.00
G01 X5.4676 Y5.7238 F350.00
G01 X5.4169 Y5.6852 F350.00
G01 X5.3670 Y5.6453 F350.00
G01 X5.3182 Y5.6043 F350.00
G01 X5.2704 Y5.5620 F350.00
G01 X5.1977 Y5.4961 F350.00
G01 X5.1509 Y5.4526 F350.00
G01 X5.1053 Y5.4081 F350.00
G01 X5.0607 Y5.3624 F350.00
G01 X5.0173 Y5.3157 F350.00
G01 X4.9514 Y5.2429 F350.00
G01 X4.9091 Y5.1951 F350.00
G01 X4.8680 Y5.1463 F350.00
G01 X4.8282 Y5.0965 F350.00
G01 X4.7895 Y5.0457 F350.00
G01 X4.7311 Y4.9669 F350.00
G01 X4.6937 Y4.9152 F350.00
G01 X4.6576 Y4.8626 F350.00
G01 X4.6228 Y4.8091 F350.00
G01 X4.5893 Y4.7547 F350.00
G01 X4.5388 Y4.6706 F350.00
G01 X4.5067 Y4.6154 F350.00
G01 X4.4759 Y4.5595 F350.00
G01 X4.4466 Y4.5029 F350.00
G01 X4.4186 Y4.4455 F350.00
G01 X4.3766 Y4.3568 F350.00
G01 X4.3500 Y4.2988 F350.00
G01 X4.3249 Y4.2402 F350.00
G01 X4.3012 Y4.1809 F350.00
G01 X4.2790 Y4.1211 F350.00
G01 X4.2459 Y4.0287 F350.00
G01 X4.2251 Y3.9684 F350.00
G01 X4.2059 Y3.9075 F350.00
G01 X4.1881 Y3.8462 F350.00
G01 X4.1718 Y3.7845 F350.00
G01 X4.1480 Y3.6893 F350.00
G01 X4.1333 Y3.6273 F350.00
G01 X4.1200 Y3.5648 F350.00
G01 X4.1084 Y3.5021 F350.00
G01 X4.0982 Y3.4391 F350.00
G01 X4.0838 Y3.3420 F350.00
G01 X4.0752 Y3.2788 F350.00
G01 X4.0682 Y3.2154 F350.00
G01 X4.0627 Y3.1518 F350.00
G01 X4.0588 Y3.0881 F350.00
G01 X4.0540 Y2.9901 F350.00
G01 X4.0516 Y2.9263 F350.00
G01 X4.0509 Y2.8625 F350.00
G01 X4.0509 Y1.8625 F350.00
G01 X4.0516 Y1.7987 F350.00
G01 X4.0540 Y1.7349 F350.00
G01 X4.0588 Y1.6369 F350.00
G01 X4.0627 Y1.5732 F350.00
G01 X4.0682 Y1.5096 F350.00
G01 X4.0752 Y1.4462 F350.00
G01 X4.0838 Y1.3830 F350.00
G01 X4.0982 Y1.2859 F350.00
G01 X4.1084 Y1.2229 F350.00
G01 X4.1200 Y1.1602 F350.00
G01 X4.1333 Y1.0977 F350.00
G01 X4.1480 Y1.0357 F350.00
G01 X4.1718 Y0.9405 F350.00
G01 X4.1881 Y0.8788 F350.00
G01 X4.2059 Y0.8175 F350.00
G01 X4.2251 Y0.7566 F350.00
G01 X4.2459 Y0.6963 F350.00
G01 X4.2790 Y0.6039 F350.00
G01 X4.3012 Y0.5441 F350.00
G01 X4.3249 Y0.4848 F350.00
G01 X4.3500 Y0.4262 F350.00
G01 X4.3766 Y0.3682 F350.00
G01 X4.4186 Y0.2795 F350.00
G01 X4.4466 Y0.2221 F350.00
G01 X4.4759 Y0.1655 F350.00
G01 X4.5067 Y0.1096 F350.00
G01 X4.5388 Y0.0544 F350.00
G01 X4.5893 Y-0.0297 F350.00
G01 X4.6228 Y-0.0841 F350.00
G01 X4.6576 Y-0.1376 F350.00
G01 X4.6937 Y-0.1902 F350.00
G01 X4.7311 Y-0.2419 F350.00
G01 X4.7895 Y-0.3207 F350.00
G01 X4.8282 Y-0.3715 F350.00
G01 X4.8680 Y-0.4213 F350.00
G01 X4.9091 Y-0.4701 F350.00
G01 X4.9514 Y-0.5179 F350.00
G01 X5.0173 Y-0.5907 F350.00
G01 X5.0607 Y-0.6374 F350.00
G01 X5.1053 Y-0.6831 F350.00
G01 X5.1509 Y-0.7276 F350.00
G01 X5.1977 Y-0.7711 F350.00
G01 X5.2704 Y-0.8370 F350.00
G01 X5.3182 Y-0.8793 F350.00
G01 X5.3670 Y-0.9203 F350.00
G01 X5.4169 Y-0.9602 F350.00
G01 X5.4676 Y-0.9988 F350.00
G01 X5.5465 Y-1.0573 F350.00
G01 X5.5982 Y-1.0947 F350.00
G01 X5.6508 Y-1.1308 F350.00
G01 X5.7043 Y-1.1656 F350.00
G01 X5.7586 Y-1.1991 F350.00
G01 X5.8428 Y-1.2495 F350.00
G01 X5.8979 Y-1.2816 F350.00
G01 X5.9538 Y-1.3124 F350.00
G01 X6.0105 Y-1.3418 F350.00
G01 X6.0678 Y-1.3698 F350.00
G01 X6.1565 Y-1.4118 F350.00
G01 X6.2146 Y-1.4383 F350.00
G01 X6.2732 Y-1.4635 F350.00
G01 X6.3325 Y-1.4872 F350.00
G01 X6.3923 Y-1.5094 F350.00
G01 X6.4847 Y-1.5425 F350.00
G01 X6.5450 Y-1.5632 F350.00
G01 X6.6058 Y-1.5825 F350.00
G01 X6.6671 Y-1.6003 F350.00
G01 X6.7288 Y-1.6165 F350.00
G01 X6.8240 Y-1.6404 F350.00
G01 X6.8861 Y-1.6551 F350.00
G01 X6.9485 Y-1.6683 F350.00
G01 X7.0113 Y-1.6800 F350.00
G01 X7.0743 Y-1.6901 F350.00
G01 X7.1713 Y-1.7045 F350.00
G01 X7.2346 Y-1.7131 F350.00
G01 X7.2980 Y-1.7202 F350.00
G01 X7.3616 Y-1.7256 F350.00
G01 X7.4253 Y-1.7296 F350.00
G01 X7.5233 Y-1.7344 F350.00
G01 X7.5871 Y-1.7367 F350.00
G01 X7.6509 Y-1.7375 F350.00
G01 X7.7147 Y-1.7367 F350.00
G01 X7.7784 Y-1.7344 F350.00
G01 X7.8765 Y-1.7296 F350.00
G01 X7.9401 Y-1.7256 F350.00
G01 X8.0037 Y-1.7202 F350.00
G01 X8.0671 Y-1.7131 F350.00
G01 X8.1304 Y-1.7045 F350.00
G01 X8.2275 Y-1.6901 F350.00
G01 X8.2905 Y-1.6800 F350.00
G01 X8.3532 Y-1.6683 F350.00
G01 X8.4156 Y-1.6551 F350.00
G01 X8.4777 Y-1.6404 F350.00
G01 X8.5729 Y-1.6165 F350.00
G01 X8.6346 Y-1.6003 F350.00
G01 X8.6959 Y-1.5825 F350.00
G01 X8.7567 Y-1.5632 F350.00
G01 X8.8171 Y-1.5425 F350.00
G01 X8.9095 Y-1.5094 F350.00
G01 X8.9693 Y-1.4872 F350.00
G01 X9.0285 Y-1.4635 F350.00
G01 X9.0872 Y-1.4383 F350.00
G01 X9.1452 Y-1.4118 F350.00
G01 X9.2339 Y-1.3698 F350.00
G01 X9.2912 Y-1.3418 F350.00
G01 X9.3479 Y-1.3124 F350.00
G01 X9.4038 Y-1.2816 F350.00
G01 X9.4589 Y-1.2495 F350.00
G01 X9.5431 Y-1.1991 F350.00
G01 X9.5974 Y-1.1656 F350.00
G01 X9.6509 Y-1.1308 F350.00
G01 X9.7035 Y-1.0947 F350.00
G01 X9.7552 Y-1.0573 F350.00
G01 X9.8341 Y-0.9988 F350.00
G01 X9.8849 Y-0.9602 F350.00
G01 X9.9347 Y-0.9203 F350.00
G01 X9.9835 Y-0.8793 F350.00
G01 X10.0313 Y-0.8370 F350.00
G01 X10.0717 Y-0.8004 F350.00
G01 X12.8789 Y-0.8004 F350.00
G01 X12.9265 Y-0.8313 F350.00
G01 X12.9808 Y-0.8648 F350.00
G01 X13.1071 Y-0.9405 F350.00
G01 X13.1622 Y-0.9726 F350.00
G01 X13.2181 Y-1.0034 F350.00
G01 X13.2748 Y-1.0328 F350.00
G01 X13.3321 Y-1.0608 F350.00
G01 X13.4652 Y-1.1237 F350.00
G01 X13.5232 Y-1.1503 F350.00
G01 X13.5819 Y-1.1754 F350.00
G01 X13.6411 Y-1.1991 F350.00
G01 X13.7009 Y-1.2213 F350.00
G01 X13.8395 Y-1.2709 F350.00
G01 X13.8999 Y-1.2917 F350.00
G01 X13.9607 Y-1.3110 F350.00
G01 X14.0220 Y-1.3287 F350.00
G01 X14.0837 Y-1.3450 F350.00
G01 X14.2265 Y-1.3808 F350.00
G01 X14.2886 Y-1.3955 F350.00
G01 X14.3510 Y-1.4087 F350.00
G01 X14.3761 Y-1.4134 F350.00
G01 X15.1071 Y-2.1444 F350.00
G01 X15.1200 Y-2.2148 F350.00
G01 X15.1333 Y-2.2773 F350.00
G01 X15.1480 Y-2.3393 F350.00
G01 X15.1718 Y-2.4345 F350.00
G01 X15.1881 Y-2.4962 F350.00
G01 X15.2059 Y-2.5575 F350.00
G01 X15.2251 Y-2.6184 F350.00
G01 X15.2459 Y-2.6787 F350.00
G01 X15.2790 Y-2.7711 F350.00
G01 X15.3012 Y-2.8309 F350.00
G01 X15.3249 Y-2.8902 F350.00
G01 X15.3500 Y-2.9488 F350.00
G01 X15.3766 Y-3.0068 F350.00
G01 X15.4186 Y-3.0955 F350.00
G01 X15.4466 Y-3.1529 F350.00
G01 X15.4759 Y-3.2095 F350.00
G01 X15.5067 Y-3.2654 F350.00
G01 X15.5388 Y-3.3206 F350.00
G01 X15.5893 Y-3.4047 F350.00
G01 X15.6228 Y-3.4591 F350.00
G01 X15.6576 Y-3.5126 F350.00
G01 X15.6937 Y-3.5652 F350.00
G01 X15.7311 Y-3.6169 F350.00
G01 X15.7895 Y-3.6957 F350.00
G01 X15.8282 Y-3.7465 F350.00
G01 X15.8680 Y-3.7963 F350.00
G01 X15.9091 Y-3.8451 F350.00
G01 X15.9514 Y-3.8929 F350.00
G01 X16.0173 Y-3.9657 F350.00
G01 X16.0607 Y-4.0124 F350.00
G01 X16.1053 Y-4.0581 F350.00
G01 X16.1509 Y-4.1026 F350.00
G01 X16.1977 Y-4.1461 F350.00
G01 X16.2704 Y-4.2120 F350.00
G01 X16.3182 Y-4.2543 F350.00
