%
(; SHAPEOKO POSTPROCESSED v1)
( Source: FRONT_0.4MM_ISOLATION.nc )
( Stripped: M30 only - kept T#/M6/M0/M1/MSG for Shapeoko/Carbide Motion )
( Wrapped with Shapeoko start/end blocks - mirrors 1001.nc structure )
G90        ( absolute positioning )
G17        ( XY plane select )
G21        ( mm units )
G94        ( feedrate units/min )
G28 G91 Z0 ( safe Z home - assumes machine has been homed )
G90        ( back to absolute )
G54        ( work coordinate system 1 )
M5         ( ensure spindle off at start )

(G-CODE GENERATED BY FLATCAM v8.994 - www.flatcam.org - Version Date: 2020/11/7)

(Name: FRONT_0.4mm_NCC_cnc)
(Type: G-code from Geometry)
(Units: MM)

(Created on Friday, 26 June 2026 at 10:02)

(This preprocessor is used with a motion controller loaded with GRBL firmware.)
(It is configured to be compatible with almost any version of GRBL firmware.)

(TOOL DIAMETER: 0.4 mm)
(Feedrate_XY: 350.0 mm/min)
(Feedrate_Z: 250.0 mm/min)
(Feedrate rapids 1500.0 mm/min)

(Z_Cut: -0.05 mm)
(Z_Move: 0.5 mm)
(Z Start: None mm)
(Z End: 40.0 mm)
(X,Y End: None mm)
(Steps per circle: 64)
(Steps per circle: 64)
(Preprocessor Geometry: grbl_11)

(X range:   -3.5503 ...  133.7003  mm)
(Y range:   -2.4100 ...   68.3003  mm)

(Spindle Speed: 0.0 RPM)
G21
G90
G17
G94


G01 F350.00

M5             
G00 Z40.0000
G00 X0.0000 Y0.0000                
T1 M6
(MSG, Change to Tool Dia = 0.4000)
M0
G00 Z40.0000

M03
G01 F350.00
G00 X3.5830 Y1.8476
G01 F250.00
G01 Z-0.0500
G01 F350.00
G01 X3.5991 Y1.7409 F350.00
G01 X3.6251 Y1.6361 F350.00
G01 X3.6308 Y1.6173 F350.00
G01 X3.6673 Y1.5158 F350.00
G01 X3.7177 Y1.4093 F350.00
G01 X3.7730 Y1.3166 F350.00
G01 X3.7839 Y1.3003 F350.00
G01 X3.8484 Y1.2137 F350.00
G01 X3.9207 Y1.1336 F350.00
G01 X3.9346 Y1.1197 F350.00
G01 X4.0147 Y1.0474 F350.00
G01 X4.1093 Y0.9772 F350.00
G01 X4.2103 Y0.9167 F350.00
G01 X4.3078 Y0.8703 F350.00
G01 X4.3259 Y0.8628 F350.00
G01 X4.4277 Y0.8267 F350.00
G01 X4.5419 Y0.7981 F350.00
G01 X4.6486 Y0.7820 F350.00
G01 X4.6682 Y0.7801 F350.00
G01 X4.7760 Y0.7750 F350.00
G01 X4.8838 Y0.7801 F350.00
G01 X4.9034 Y0.7820 F350.00
G01 X5.0101 Y0.7981 F350.00
G01 X5.1243 Y0.8267 F350.00
G01 X5.2261 Y0.8628 F350.00
G01 X5.2442 Y0.8703 F350.00
G01 X5.3417 Y0.9167 F350.00
G01 X5.4427 Y0.9772 F350.00
G01 X5.5295 Y1.0413 F350.00
G01 X5.5447 Y1.0538 F350.00
G01 X5.6245 Y1.1265 F350.00
G01 X5.7005 Y1.2100 F350.00
G01 X5.7097 Y1.2215 F350.00
G01 X5.7681 Y1.3003 F350.00
G01 X5.7790 Y1.3166 F350.00
G01 X5.8343 Y1.4093 F350.00
G01 X5.8847 Y1.5158 F350.00
G01 X5.9212 Y1.6173 F350.00
G01 X5.9269 Y1.6361 F350.00
G01 X5.9529 Y1.7409 F350.00
G01 X5.9697 Y1.8525 F350.00
G01 X5.9709 Y1.8672 F350.00
G01 X5.9760 Y1.9750 F350.00
G01 X5.9760 Y3.2250 F350.00
G01 X5.9709 Y3.3328 F350.00
G01 X5.9690 Y3.3524 F350.00
G01 X5.9529 Y3.4591 F350.00
G01 X5.9243 Y3.5733 F350.00
G01 X5.8847 Y3.6842 F350.00
G01 X5.8343 Y3.7907 F350.00
G01 X5.7738 Y3.8917 F350.00
G01 X5.7036 Y3.9863 F350.00
G01 X5.6245 Y4.0735 F350.00
G01 X5.5410 Y4.1495 F350.00
G01 X5.5295 Y4.1587 F350.00
G01 X5.4427 Y4.2228 F350.00
G01 X5.3417 Y4.2833 F350.00
G01 X5.2352 Y4.3337 F350.00
G01 X5.1243 Y4.3733 F350.00
G01 X5.0101 Y4.4019 F350.00
G01 X4.8936 Y4.4192 F350.00
G01 X4.7760 Y4.4250 F350.00
G01 X4.6584 Y4.4192 F350.00
G01 X4.5419 Y4.4019 F350.00
G01 X4.4277 Y4.3733 F350.00
G01 X4.3168 Y4.3337 F350.00
G01 X4.2103 Y4.2833 F350.00
G01 X4.1093 Y4.2228 F350.00
G01 X4.0147 Y4.1526 F350.00
G01 X3.9275 Y4.0735 F350.00
G01 X3.8515 Y3.9900 F350.00
G01 X3.8423 Y3.9785 F350.00
G01 X3.7839 Y3.8997 F350.00
G01 X3.7730 Y3.8834 F350.00
G01 X3.7177 Y3.7907 F350.00
G01 X3.6673 Y3.6842 F350.00
G01 X3.6308 Y3.5827 F350.00
G01 X3.6251 Y3.5639 F350.00
G01 X3.5991 Y3.4591 F350.00
G01 X3.5823 Y3.3475 F350.00
G01 X3.5811 Y3.3328 F350.00
G01 X3.5760 Y3.2250 F350.00
G01 X3.5760 Y1.9750 F350.00
G01 X3.5811 Y1.8672 F350.00
G01 X3.5830 Y1.8476 F350.00
G00 Z0.5000
G00 X3.5830 Y10.8476
G01 F250.00
G01 Z-0.0500
G01 F350.00
G01 X3.5991 Y10.7409 F350.00
G01 X3.6251 Y10.6361 F350.00
G01 X3.6308 Y10.6173 F350.00
G01 X3.6673 Y10.5158 F350.00
G01 X3.7177 Y10.4093 F350.00
G01 X3.7730 Y10.3166 F350.00
G01 X3.7839 Y10.3003 F350.00
G01 X3.8484 Y10.2137 F350.00
G01 X3.9207 Y10.1336 F350.00
G01 X3.9346 Y10.1197 F350.00
G01 X4.0147 Y10.0474 F350.00
G01 X4.1093 Y9.9772 F350.00
G01 X4.2103 Y9.9167 F350.00
G01 X4.3078 Y9.8703 F350.00
G01 X4.3259 Y9.8628 F350.00
G01 X4.4277 Y9.8267 F350.00
G01 X4.5419 Y9.7981 F350.00
G01 X4.6486 Y9.7820 F350.00
G01 X4.6682 Y9.7801 F350.00
G01 X4.7760 Y9.7750 F350.00
G01 X4.8838 Y9.7801 F350.00
G01 X4.9034 Y9.7820 F350.00
G01 X5.0101 Y9.7981 F350.00
G01 X5.1243 Y9.8267 F350.00
G01 X5.2261 Y9.8628 F350.00
G01 X5.2442 Y9.8703 F350.00
G01 X5.3417 Y9.9167 F350.00
G01 X5.4427 Y9.9772 F350.00
G01 X5.5295 Y10.0413 F350.00
G01 X5.5447 Y10.0538 F350.00
G01 X5.6245 Y10.1265 F350.00
G01 X5.7005 Y10.2100 F350.00
G01 X5.7097 Y10.2215 F350.00
G01 X5.7681 Y10.3003 F350.00
G01 X5.7790 Y10.3166 F350.00
G01 X5.8343 Y10.4093 F350.00
G01 X5.8847 Y10.5158 F350.00
G01 X5.9212 Y10.6173 F350.00
G01 X5.9269 Y10.6361 F350.00
G01 X5.9529 Y10.7409 F350.00
G01 X5.9697 Y10.8525 F350.00
G01 X5.9709 Y10.8672 F350.00
G01 X5.9760 Y10.9750 F350.00
G01 X5.9760 Y12.2250 F350.00
G01 X5.9709 Y12.3328 F350.00
G01 X5.9690 Y12.3524 F350.00
G01 X5.9529 Y12.4591 F350.00
G01 X5.9243 Y12.5733 F350.00
G01 X5.8847 Y12.6842 F350.00
G01 X5.8343 Y12.7907 F350.00
G01 X5.7738 Y12.8917 F350.00
G01 X5.7036 Y12.9863 F350.00
G01 X5.6245 Y13.0735 F350.00
G01 X5.5410 Y13.1495 F350.00
G01 X5.5295 Y13.1587 F350.00
G01 X5.4427 Y13.2228 F350.00
G01 X5.3417 Y13.2833 F350.00
G01 X5.2352 Y13.3337 F350.00
G01 X5.1243 Y13.3733 F350.00
G01 X5.0101 Y13.4019 F350.00
G01 X4.8936 Y13.4192 F350.00
G01 X4.7760 Y13.4250 F350.00
G01 X4.6584 Y13.4192 F350.00
G01 X4.5419 Y13.4019 F350.00
G01 X4.4277 Y13.3733 F350.00
G01 X4.3168 Y13.3337 F350.00
G01 X4.2103 Y13.2833 F350.00
G01 X4.1093 Y13.2228 F350.00
G01 X4.0147 Y13.1526 F350.00
G01 X3.9275 Y13.0735 F350.00
G01 X3.8515 Y12.9900 F350.00
G01 X3.8423 Y12.9785 F350.00
G01 X3.7839 Y12.8997 F350.00
G01 X3.7730 Y12.8834 F350.00
G01 X3.7177 Y12.7907 F350.00
G01 X3.6673 Y12.6842 F350.00
G01 X3.6308 Y12.5827 F350.00
G01 X3.6251 Y12.5639 F350.00
G01 X3.5991 Y12.4591 F350.00
G01 X3.5823 Y12.3475 F350.00
G01 X3.5811 Y12.3328 F350.00
G01 X3.5760 Y12.2250 F350.00
G01 X3.5760 Y10.9750 F350.00
G01 X3.5811 Y10.8672 F350.00
G01 X3.5830 Y10.8476 F350.00
G00 Z0.5000
G00 X3.8070 Y20.6226
G01 F250.00
G01 Z-0.0500
G01 F350.00
G01 X3.8231 Y20.5159 F350.00
G01 X3.8491 Y20.4111 F350.00
G01 X3.8548 Y20.3923 F350.00
G01 X3.8913 Y20.2908 F350.00
G01 X3.9373 Y20.1931 F350.00
G01 X3.9465 Y20.1758 F350.00
G01 X4.0022 Y20.0833 F350.00
G01 X4.0724 Y19.9887 F350.00
G01 X4.1447 Y19.9086 F350.00
G01 X4.1586 Y19.8947 F350.00
G01 X4.2387 Y19.8224 F350.00
G01 X4.3333 Y19.7522 F350.00
G01 X4.4258 Y19.6965 F350.00
G01 X4.4431 Y19.6873 F350.00
G01 X4.5408 Y19.6413 F350.00
G01 X4.6423 Y19.6048 F350.00
G01 X4.6611 Y19.5991 F350.00
G01 X4.7563 Y19.5752 F350.00
G01 X4.7756 Y19.5714 F350.00
G01 X4.8824 Y19.5558 F350.00
G01 X4.9902 Y19.5502 F350.00
G01 X5.0098 Y19.5502 F350.00
G01 X5.1176 Y19.5558 F350.00
G01 X5.2244 Y19.5714 F350.00
G01 X5.2437 Y19.5752 F350.00
G01 X5.3483 Y19.6017 F350.00
G01 X5.4501 Y19.6378 F350.00
G01 X5.4682 Y19.6453 F350.00
G01 X5.5657 Y19.6917 F350.00
G01 X5.6584 Y19.7470 F350.00
G01 X5.6747 Y19.7579 F350.00
G01 X5.7613 Y19.8224 F350.00
G01 X5.8450 Y19.8980 F350.00
G01 X5.8553 Y19.9086 F350.00
G01 X5.9212 Y19.9813 F350.00
G01 X5.9337 Y19.9965 F350.00
G01 X5.9978 Y20.0833 F350.00
G01 X6.0583 Y20.1843 F350.00
G01 X6.1047 Y20.2818 F350.00
G01 X6.1122 Y20.2999 F350.00
G01 X6.1483 Y20.4017 F350.00
G01 X6.1748 Y20.5063 F350.00
G01 X6.1786 Y20.5256 F350.00
G01 X6.1942 Y20.6324 F350.00
G01 X6.1999 Y20.7451 F350.00
G01 X6.1998 Y21.3598 F350.00
G01 X6.1949 Y21.4578 F350.00
G01 X6.1930 Y21.4774 F350.00
G01 X6.1769 Y21.5841 F350.00
G01 X6.1509 Y21.6889 F350.00
G01 X6.1452 Y21.7077 F350.00
G01 X6.1087 Y21.8092 F350.00
G01 X6.0606 Y21.9113 F350.00
G01 X6.0535 Y21.9242 F350.00
G01 X5.9978 Y22.0167 F350.00
G01 X5.9337 Y22.1035 F350.00
G01 X5.9245 Y22.1150 F350.00
G01 X5.8553 Y22.1914 F350.00
G01 X5.8450 Y22.2020 F350.00
G01 X5.7650 Y22.2745 F350.00
G01 X5.7574 Y22.2807 F350.00
G01 X5.7366 Y22.2962 F350.00
G01 X7.4986 Y24.0584 F350.00
G01 X7.5413 Y24.1058 F350.00
G01 X7.5766 Y24.1529 F350.00
G01 X7.5875 Y24.1693 F350.00
G01 X7.6176 Y24.2199 F350.00
G01 X7.6430 Y24.2731 F350.00
G01 X7.6505 Y24.2912 F350.00
G01 X7.6686 Y24.3420 F350.00
G01 X7.6727 Y24.3562 F350.00
G01 X7.6846 Y24.4038 F350.00
G01 X7.6885 Y24.4231 F350.00
G01 X7.6969 Y24.4814 F350.00
G01 X7.7003 Y24.5500 F350.00
G01 X7.7003 Y32.7099 F350.00
G01 X15.0403 Y40.0500 F350.00
G01 X15.3500 Y40.0500 F350.00
G01 X15.4382 Y40.0542 F350.00
G01 X15.4529 Y40.0558 F350.00
G01 X15.5353 Y40.0683 F350.00
G01 X15.6163 Y40.0883 F350.00
G01 X15.6351 Y40.0940 F350.00
G01 X15.7135 Y40.1223 F350.00
G01 X15.7891 Y40.1578 F350.00
G01 X15.8021 Y40.1645 F350.00
G01 X15.8695 Y40.2049 F350.00
G01 X15.8818 Y40.2129 F350.00
G01 X15.9488 Y40.2626 F350.00
G01 X15.9601 Y40.2721 F350.00
G01 X15.9907 Y40.2997 F350.00
G01 X16.8000 Y40.2997 F350.00
G01 X16.8686 Y40.3031 F350.00
G01 X16.9269 Y40.3115 F350.00
G01 X16.9462 Y40.3154 F350.00
G01 X17.0033 Y40.3299 F350.00
G01 X17.0588 Y40.3495 F350.00
G01 X17.0769 Y40.3570 F350.00
G01 X17.1301 Y40.3824 F350.00
G01 X17.1807 Y40.4125 F350.00
G01 X17.1931 Y40.4205 F350.00
G01 X17.2442 Y40.4587 F350.00
G01 X17.2952 Y40.5048 F350.00
G01 X21.3901 Y44.5997 F350.00
G01 X26.5049 Y44.5998 F350.00
G01 X26.5686 Y44.6031 F350.00
G01 X26.6269 Y44.6115 F350.00
G01 X26.6462 Y44.6154 F350.00
G01 X26.6986 Y44.6285 F350.00
G01 X26.7126 Y44.6330 F350.00
G01 X26.7680 Y44.6531 F350.00
G01 X26.8301 Y44.6824 F350.00
G01 X26.8890 Y44.7178 F350.00
G01 X26.9404 Y44.7556 F350.00
G01 X26.9517 Y44.7651 F350.00
G01 X26.9952 Y44.8048 F350.00
G01 X42.5850 Y60.3947 F350.00
G01 X42.5852 Y59.7002 F350.00
G01 X42.5908 Y59.5924 F350.00
G01 X42.6064 Y59.4856 F350.00
G01 X42.6102 Y59.4663 F350.00
G01 X42.6353 Y59.3664 F350.00
G01 X42.6398 Y59.3523 F350.00
G01 X42.6728 Y59.2599 F350.00
G01 X42.6803 Y59.2418 F350.00
G01 X42.7267 Y59.1443 F350.00
G01 X42.7872 Y59.0433 F350.00
G01 X42.8574 Y58.9487 F350.00
G01 X42.9297 Y58.8686 F350.00
G01 X42.9436 Y58.8547 F350.00
G01 X43.0237 Y58.7824 F350.00
G01 X43.1183 Y58.7122 F350.00
G01 X43.2108 Y58.6565 F350.00
G01 X43.2281 Y58.6473 F350.00
G01 X43.3168 Y58.6053 F350.00
G01 X43.3349 Y58.5978 F350.00
G01 X43.4367 Y58.5617 F350.00
G01 X43.5509 Y58.5331 F350.00
G01 X43.6674 Y58.5158 F350.00
G01 X43.7850 Y58.5100 F350.00
G01 X43.9026 Y58.5158 F350.00
G01 X44.0191 Y58.5331 F350.00
G01 X44.1333 Y58.5617 F350.00
G01 X44.2351 Y58.5978 F350.00
G01 X44.2532 Y58.6053 F350.00
G01 X44.3419 Y58.6473 F350.00
G01 X44.3592 Y58.6565 F350.00
G01 X44.4517 Y58.7122 F350.00
G01 X44.5463 Y58.7824 F350.00
G01 X44.6335 Y58.8615 F350.00
G01 X44.7062 Y58.9413 F350.00
G01 X44.7187 Y58.9565 F350.00
G01 X44.7771 Y59.0353 F350.00
G01 X44.7880 Y59.0516 F350.00
G01 X44.8433 Y59.1443 F350.00
G01 X44.8937 Y59.2508 F350.00
G01 X44.9333 Y59.3617 F350.00
G01 X44.9609 Y59.4711 F350.00
G01 X44.9636 Y59.4856 F350.00
G01 X44.9792 Y59.5924 F350.00
G01 X44.9849 Y59.7051 F350.00
G01 X44.9848 Y60.7198 F350.00
G01 X44.9799 Y60.8178 F350.00
G01 X44.9780 Y60.8374 F350.00
G01 X44.9619 Y60.9441 F350.00
G01 X44.9359 Y61.0489 F350.00
G01 X44.9302 Y61.0677 F350.00
G01 X44.8937 Y61.1692 F350.00
G01 X44.8477 Y61.2669 F350.00
G01 X44.8409 Y61.2800 F350.00
G01 X44.7880 Y61.3684 F350.00
G01 X44.7771 Y61.3847 F350.00
G01 X44.7126 Y61.4713 F350.00
G01 X44.6370 Y61.5550 F350.00
G01 X44.6264 Y61.5653 F350.00
G01 X44.5537 Y61.6312 F350.00
G01 X44.5424 Y61.6407 F350.00
G01 X44.4557 Y61.7050 F350.00
G01 X44.4434 Y61.7130 F350.00
G01 X44.4003 Y61.7389 F350.00
G01 X44.4003 Y62.2099 F350.00
G01 X49.0901 Y66.8997 F350.00
G01 X91.2997 Y66.8997 F350.00
G01 X91.2997 Y65.1500 F350.00
G01 X91.1078 Y65.1498 F350.00
G01 X91.0620 Y65.1473 F350.00
G01 X91.0166 Y65.1408 F350.00
G01 X91.0021 Y65.1381 F350.00
G01 X90.9623 Y65.1282 F350.00
G01 X90.9482 Y65.1241 F350.00
G01 X90.9050 Y65.1086 F350.00
G01 X90.8914 Y65.1028 F350.00
G01 X90.8544 Y65.0852 F350.00
G01 X90.8415 Y65.0781 F350.00
G01 X90.8023 Y65.0543 F350.00
G01 X90.7653 Y65.0272 F350.00
G01 X90.7501 Y65.0147 F350.00
G01 X90.7163 Y64.9837 F350.00
G01 X90.6789 Y64.9425 F350.00
G01 X90.6457 Y64.8977 F350.00
G01 X90.6219 Y64.8585 F350.00
G01 X90.6126 Y64.8412 F350.00
G01 X90.5932 Y64.7996 F350.00
G01 X90.5775 Y64.7565 F350.00
G01 X90.5731 Y64.7424 F350.00
G01 X90.5631 Y64.7027 F350.00
G01 X90.5592 Y64.6834 F350.00
G01 X90.5527 Y64.6380 F350.00
G01 X90.5500 Y64.5824 F350.00
G01 X90.5501 Y62.8127 F350.00
G01 X90.5527 Y62.7620 F350.00
G01 X90.5592 Y62.7166 F350.00
G01 X90.5631 Y62.6973 F350.00
G01 X90.5744 Y62.6529 F350.00
G01 X90.5932 Y62.6004 F350.00
G01 X90.6170 Y62.5501 F350.00
G01 X90.6457 Y62.5023 F350.00
G01 X90.6789 Y62.4575 F350.00
G01 X90.7163 Y62.4163 F350.00
G01 X90.7575 Y62.3789 F350.00
G01 X90.8023 Y62.3457 F350.00
G01 X90.8458 Y62.3194 F350.00
G01 X90.8588 Y62.3126 F350.00
G01 X90.9004 Y62.2932 F350.00
G01 X90.9435 Y62.2775 F350.00
G01 X90.9623 Y62.2718 F350.00
G01 X91.0021 Y62.2619 F350.00
G01 X91.0166 Y62.2592 F350.00
G01 X91.0620 Y62.2527 F350.00
G01 X91.1127 Y62.2501 F350.00
G01 X91.2997 Y62.2500 F350.00
G01 X91.2997 Y62.0000 F350.00
G01 X89.5800 Y62.0000 F350.00
G01 X89.5653 Y61.9995 F350.00
G01 X89.5555 Y61.9985 F350.00
G01 X89.5410 Y61.9962 F350.00
G01 X89.5267 Y61.9928 F350.00
G01 X89.5126 Y61.9883 F350.00
G01 X89.4990 Y61.9828 F350.00
G01 X89.4857 Y61.9764 F350.00
G01 X89.4772 Y61.9715 F350.00
G01 X89.4648 Y61.9635 F350.00
G01 X89.4531 Y61.9546 F350.00
G01 X89.4421 Y61.9448 F350.00
G01 X89.4318 Y61.9343 F350.00
G01 X89.4254 Y61.9269 F350.00
G01 X89.4165 Y61.9152 F350.00
G01 X89.4110 Y61.9070 F350.00
G01 X89.4036 Y61.8943 F350.00
G01 X89.3972 Y61.8810 F350.00
G01 X89.3917 Y61.8674 F350.00
G01 X89.3886 Y61.8581 F350.00
G01 X89.3838 Y61.8390 F350.00
G01 X89.3810 Y61.8196 F350.00
G01 X89.3800 Y61.8000 F350.00
G01 X89.3801 Y57.7951 F350.00
G01 X89.3815 Y57.7755 F350.00
G01 X89.3849 Y57.7562 F350.00
G01 X89.3886 Y57.7419 F350.00
G01 X89.3952 Y57.7235 F350.00
G01 X89.4014 Y57.7101 F350.00
G01 X89.4110 Y57.6930 F350.00
G01 X89.4223 Y57.6770 F350.00
G01 X89.4318 Y57.6657 F350.00
G01 X89.4457 Y57.6518 F350.00
G01 X89.4609 Y57.6394 F350.00
G01 X89.4730 Y57.6310 F350.00
G01 X89.4901 Y57.6214 F350.00
G01 X89.5080 Y57.6134 F350.00
G01 X89.5267 Y57.6072 F350.00
G01 X89.5410 Y57.6038 F350.00
G01 X89.5604 Y57.6010 F350.00
G01 X89.5800 Y57.6000 F350.00
G01 X91.5849 Y57.6001 F350.00
G01 X91.6045 Y57.6015 F350.00
G01 X91.6190 Y57.6038 F350.00
G01 X91.6381 Y57.6086 F350.00
G01 X91.6565 Y57.6152 F350.00
G01 X91.6699 Y57.6214 F350.00
G01 X91.6870 Y57.6310 F350.00
G01 X91.7030 Y57.6423 F350.00
G01 X91.7179 Y57.6552 F350.00
G01 X91.7314 Y57.6694 F350.00
G01 X91.7435 Y57.6848 F350.00
G01 X91.7540 Y57.7014 F350.00
G01 X91.7608 Y57.7145 F350.00
G01 X91.7666 Y57.7280 F350.00
G01 X91.7728 Y57.7467 F350.00
G01 X91.7771 Y57.7658 F350.00
G01 X91.7795 Y57.7853 F350.00
G01 X91.7800 Y57.8000 F350.00
G01 X91.7800 Y60.0097 F350.00
G01 X92.5019 Y60.7320 F350.00
G01 X92.5413 Y60.7758 F350.00
G01 X92.5822 Y60.8310 F350.00
G01 X92.6176 Y60.8899 F350.00
G01 X92.6469 Y60.9520 F350.00
G01 X92.6701 Y61.0167 F350.00
G01 X92.6868 Y61.0834 F350.00
G01 X92.6969 Y61.1514 F350.00
G01 X92.7000 Y61.2102 F350.00
G01 X92.7003 Y62.2500 F350.00
G01 X92.8922 Y62.2502 F350.00
G01 X92.9380 Y62.2527 F350.00
G01 X92.9931 Y62.2609 F350.00
G01 X93.0471 Y62.2744 F350.00
G01 X93.0996 Y62.2932 F350.00
G01 X93.1499 Y62.3170 F350.00
G01 X93.1977 Y62.3457 F350.00
G01 X93.2425 Y62.3789 F350.00
G01 X93.2766 Y62.4095 F350.00
G01 X93.2905 Y62.4234 F350.00
G01 X93.3180 Y62.4538 F350.00
G01 X93.3272 Y62.4653 F350.00
G01 X93.3543 Y62.5023 F350.00
G01 X93.3781 Y62.5415 F350.00
G01 X93.3874 Y62.5588 F350.00
G01 X93.4068 Y62.6004 F350.00
G01 X93.4256 Y62.6529 F350.00
G01 X93.4391 Y62.7069 F350.00
G01 X93.4473 Y62.7620 F350.00
G01 X93.4500 Y62.8176 F350.00
G01 X93.4500 Y64.5824 F350.00
G01 X93.4473 Y64.6380 F350.00
G01 X93.4408 Y64.6834 F350.00
G01 X93.4369 Y64.7027 F350.00
G01 X93.4256 Y64.7471 F350.00
G01 X93.4068 Y64.7996 F350.00
G01 X93.3830 Y64.8499 F350.00
G01 X93.3543 Y64.8977 F350.00
G01 X93.3211 Y64.9425 F350.00
G01 X93.2837 Y64.9837 F350.00
G01 X93.2425 Y65.0211 F350.00
G01 X93.1977 Y65.0543 F350.00
G01 X93.1542 Y65.0806 F350.00
G01 X93.1412 Y65.0874 F350.00
G01 X93.0996 Y65.1068 F350.00
G01 X93.0565 Y65.1225 F350.00
G01 X93.0377 Y65.1282 F350.00
G01 X92.9979 Y65.1381 F350.00
G01 X92.9834 Y65.1408 F350.00
G01 X92.9380 Y65.1473 F350.00
G01 X92.8873 Y65.1499 F350.00
G01 X92.7003 Y65.1500 F350.00
G01 X92.7002 Y67.6049 F350.00
G01 X92.6976 Y67.6588 F350.00
G01 X92.6957 Y67.6784 F350.00
G01 X92.6868 Y67.7366 F350.00
G01 X92.6727 Y67.7938 F350.00
G01 X92.6670 Y67.8126 F350.00
G01 X92.6469 Y67.8680 F350.00
G01 X92.6176 Y67.9301 F350.00
G01 X92.5875 Y67.9807 F350.00
G01 X92.5766 Y67.9971 F350.00
G01 X92.5413 Y68.0442 F350.00
G01 X92.4952 Y68.0952 F350.00
G01 X92.4517 Y68.1349 F350.00
G01 X92.4365 Y68.1473 F350.00
G01 X92.3890 Y68.1822 F350.00
G01 X92.3386 Y68.2127 F350.00
G01 X92.3213 Y68.2220 F350.00
G01 X92.2680 Y68.2469 F350.00
G01 X92.2126 Y68.2670 F350.00
G01 X92.1938 Y68.2727 F350.00
G01 X92.1366 Y68.2868 F350.00
G01 X92.0784 Y68.2957 F350.00
G01 X92.0588 Y68.2976 F350.00
G01 X92.0000 Y68.3003 F350.00
G01 X48.8000 Y68.3003 F350.00
G01 X48.7412 Y68.2976 F350.00
G01 X48.7216 Y68.2957 F350.00
G01 X48.6634 Y68.2868 F350.00
G01 X48.6062 Y68.2727 F350.00
G01 X48.5874 Y68.2670 F350.00
G01 X48.5320 Y68.2469 F350.00
G01 X48.4699 Y68.2176 F350.00
G01 X48.4193 Y68.1875 F350.00
G01 X48.4029 Y68.1766 F350.00
G01 X48.3558 Y68.1413 F350.00
G01 X48.3048 Y68.0952 F350.00
G01 X26.2099 Y46.0003 F350.00
G01 X21.1000 Y46.0003 F350.00
G01 X21.0314 Y45.9969 F350.00
G01 X20.9731 Y45.9885 F350.00
G01 X20.9538 Y45.9846 F350.00
G01 X20.9062 Y45.9727 F350.00
G01 X20.8920 Y45.9686 F350.00
G01 X20.8320 Y45.9469 F350.00
G01 X20.7787 Y45.9220 F350.00
G01 X20.7614 Y45.9127 F350.00
G01 X20.7110 Y45.8822 F350.00
G01 X20.6635 Y45.8473 F350.00
G01 X20.6483 Y45.8349 F350.00
G01 X20.6084 Y45.7986 F350.00
G01 X16.5099 Y41.7003 F350.00
G01 X15.9907 Y41.7003 F350.00
G01 X15.9601 Y41.7279 F350.00
G01 X15.9488 Y41.7374 F350.00
G01 X15.8858 Y41.7842 F350.00
G01 X15.8737 Y41.7926 F350.00
G01 X15.7978 Y41.8378 F350.00
G01 X15.7181 Y41.8758 F350.00
G01 X15.7044 Y41.8812 F350.00
G01 X15.6351 Y41.9060 F350.00
G01 X15.6163 Y41.9117 F350.00
G01 X15.5353 Y41.9317 F350.00
G01 X15.4431 Y41.9454 F350.00
G01 X15.3500 Y41.9500 F350.00
G01 X13.8500 Y41.9500 F350.00
G01 X13.7569 Y41.9454 F350.00
G01 X13.6647 Y41.9317 F350.00
G01 X13.5742 Y41.9091 F350.00
G01 X13.4865 Y41.8777 F350.00
G01 X13.4022 Y41.8378 F350.00
G01 X13.3222 Y41.7899 F350.00
G01 X13.2473 Y41.7344 F350.00
G01 X13.1854 Y41.6785 F350.00
G01 X13.1748 Y41.6682 F350.00
G01 X13.1156 Y41.6027 F350.00
G01 X13.0658 Y41.5358 F350.00
G01 X13.0549 Y41.5195 F350.00
G01 X13.0170 Y41.4564 F350.00
G01 X13.0078 Y41.4391 F350.00
G01 X12.9723 Y41.3635 F350.00
G01 X12.9440 Y41.2851 F350.00
G01 X12.9383 Y41.2663 F350.00
G01 X12.9183 Y41.1853 F350.00
G01 X12.9046 Y41.0931 F350.00
G01 X12.9000 Y41.0000 F350.00
G01 X12.9042 Y40.9118 F350.00
G01 X12.9058 Y40.8971 F350.00
G01 X12.9183 Y40.8147 F350.00
G01 X12.9409 Y40.7242 F350.00
G01 X12.9723 Y40.6365 F350.00
G01 X13.0122 Y40.5522 F350.00
G01 X13.0601 Y40.4722 F350.00
G01 X13.1156 Y40.3973 F350.00
G01 X13.1715 Y40.3354 F350.00
G01 X13.1818 Y40.3248 F350.00
G01 X13.2436 Y40.2688 F350.00
G01 X13.2512 Y40.2626 F350.00
G01 X13.2632 Y40.2535 F350.00
G01 X6.5048 Y33.4952 F350.00
G01 X6.4587 Y33.4442 F350.00
G01 X6.4178 Y33.3890 F350.00
G01 X6.3824 Y33.3301 F350.00
G01 X6.3550 Y33.2725 F350.00
G01 X6.3495 Y33.2588 F350.00
G01 X6.3299 Y33.2033 F350.00
G01 X6.3132 Y33.1366 F350.00
G01 X6.3031 Y33.0686 F350.00
G01 X6.2997 Y33.0000 F350.00
G01 X6.2997 Y24.8401 F350.00
G01 X4.5048 Y23.0452 F350.00
G01 X4.4651 Y23.0017 F350.00
G01 X4.4527 Y22.9865 F350.00
G01 X4.4178 Y22.9390 F350.00
G01 X4.3873 Y22.8886 F350.00
G01 X4.3780 Y22.8713 F350.00
G01 X4.3550 Y22.8225 F350.00
G01 X4.3495 Y22.8088 F350.00
G01 X4.3330 Y22.7626 F350.00
G01 X4.3273 Y22.7438 F350.00
G01 X4.3142 Y22.6914 F350.00
G01 X4.3115 Y22.6769 F350.00
G01 X4.3031 Y22.6186 F350.00
G01 X4.2998 Y22.5549 F350.00
G01 X4.2997 Y22.3232 F350.00
G01 X4.2465 Y22.2837 F350.00
G01 X4.2350 Y22.2745 F350.00
G01 X4.1586 Y22.2053 F350.00
G01 X4.1480 Y22.1950 F350.00
G01 X4.0724 Y22.1113 F350.00
G01 X4.0050 Y22.0207 F350.00
G01 X3.9970 Y22.0084 F350.00
G01 X3.9417 Y21.9157 F350.00
G01 X3.8953 Y21.8182 F350.00
G01 X3.8878 Y21.8001 F350.00
G01 X3.8548 Y21.7077 F350.00
G01 X3.8491 Y21.6889 F350.00
G01 X3.8231 Y21.5841 F350.00
G01 X3.8070 Y21.4774 F350.00
G01 X3.8051 Y21.4578 F350.00
G01 X3.8002 Y21.3598 F350.00
G01 X3.8000 Y20.7500 F350.00
G01 X3.8051 Y20.6422 F350.00
G01 X3.8070 Y20.6226 F350.00
G00 Z0.5000
G00 X1.1553 Y20.9569
G01 F250.00
G01 Z-0.0500
G01 F350.00
G01 X1.1663 Y20.8842 F350.00
G01 X1.1866 Y20.8033 F350.00
G01 X1.2147 Y20.7247 F350.00
G01 X1.2504 Y20.6493 F350.00
G01 X1.2933 Y20.5778 F350.00
G01 X1.3429 Y20.5108 F350.00
G01 X1.3990 Y20.4490 F350.00
G01 X1.4608 Y20.3929 F350.00
G01 X1.5278 Y20.3433 F350.00
G01 X1.5993 Y20.3004 F350.00
G01 X1.6747 Y20.2647 F350.00
G01 X1.7533 Y20.2366 F350.00
G01 X1.8342 Y20.2163 F350.00
G01 X1.9167 Y20.2041 F350.00
G01 X2.0000 Y20.2000 F350.00
G01 X2.0833 Y20.2041 F350.00
G01 X2.1658 Y20.2163 F350.00
G01 X2.2467 Y20.2366 F350.00
G01 X2.3253 Y20.2647 F350.00
G01 X2.4007 Y20.3004 F350.00
G01 X2.4722 Y20.3433 F350.00
G01 X2.5392 Y20.3929 F350.00
G01 X2.6010 Y20.4490 F350.00
G01 X2.6571 Y20.5108 F350.00
G01 X2.7067 Y20.5778 F350.00
G01 X2.7496 Y20.6493 F350.00
G01 X2.7853 Y20.7247 F350.00
G01 X2.8134 Y20.8033 F350.00
G01 X2.8337 Y20.8842 F350.00
G01 X2.8459 Y20.9667 F350.00
G01 X2.8500 Y21.0500 F350.00
G01 X2.8459 Y21.1333 F350.00
G01 X2.8337 Y21.2158 F350.00
G01 X2.8134 Y21.2967 F350.00
G01 X2.7853 Y21.3753 F350.00
G01 X2.7496 Y21.4507 F350.00
G01 X2.7067 Y21.5222 F350.00
G01 X2.6571 Y21.5892 F350.00
G01 X2.6010 Y21.6510 F350.00
G01 X2.5392 Y21.7071 F350.00
G01 X2.4722 Y21.7567 F350.00
G01 X2.4007 Y21.7996 F350.00
G01 X2.3253 Y21.8353 F350.00
G01 X2.2467 Y21.8634 F350.00
G01 X2.1658 Y21.8837 F350.00
G01 X2.0833 Y21.8959 F350.00
G01 X2.0000 Y21.9000 F350.00
G01 X1.9167 Y21.8959 F350.00
G01 X1.8342 Y21.8837 F350.00
G01 X1.7533 Y21.8634 F350.00
G01 X1.6747 Y21.8353 F350.00
G01 X1.5993 Y21.7996 F350.00
G01 X1.5278 Y21.7567 F350.00
G01 X1.4608 Y21.7071 F350.00
G01 X1.3990 Y21.6510 F350.00
G01 X1.3429 Y21.5892 F350.00
G01 X1.2933 Y21.5222 F350.00
G01 X1.2504 Y21.4507 F350.00
G01 X1.2147 Y21.3753 F350.00
G01 X1.1866 Y21.2967 F350.00
G01 X1.1663 Y21.2158 F350.00
G01 X1.1541 Y21.1333 F350.00
G01 X1.1500 Y21.0500 F350.00
G01 X1.1534 Y20.9765 F350.00
G01 X1.1553 Y20.9569 F350.00
G00 Z0.5000
G00 X9.8070 Y20.6226
G01 F250.00
G01 Z-0.0500
G01 F350.00
G01 X9.8231 Y20.5159 F350.00
G01 X9.8491 Y20.4111 F350.00
G01 X9.8548 Y20.3923 F350.00
G01 X9.8878 Y20.2999 F350.00
G01 X9.8953 Y20.2818 F350.00
G01 X9.9417 Y20.1843 F350.00
G01 X9.9970 Y20.0916 F350.00
G01 X10.0079 Y20.0753 F350.00
G01 X10.0724 Y19.9887 F350.00
G01 X10.1447 Y19.9086 F350.00
G01 X10.1586 Y19.8947 F350.00
G01 X10.2387 Y19.8224 F350.00
G01 X10.3253 Y19.7579 F350.00
G01 X10.3416 Y19.7470 F350.00
G01 X10.4343 Y19.6917 F350.00
G01 X10.5318 Y19.6453 F350.00
G01 X10.5499 Y19.6378 F350.00
G01 X10.6517 Y19.6017 F350.00
G01 X10.7563 Y19.5752 F350.00
G01 X10.7756 Y19.5714 F350.00
G01 X10.8824 Y19.5558 F350.00
G01 X10.9902 Y19.5502 F350.00
G01 X11.0098 Y19.5502 F350.00
G01 X11.1176 Y19.5558 F350.00
G01 X11.2341 Y19.5731 F350.00
G01 X11.3389 Y19.5991 F350.00
G01 X11.3577 Y19.6048 F350.00
G01 X11.4592 Y19.6413 F350.00
G01 X11.5569 Y19.6873 F350.00
G01 X11.5742 Y19.6965 F350.00
G01 X11.6626 Y19.7496 F350.00
G01 X11.6747 Y19.7579 F350.00
G01 X11.7613 Y19.8224 F350.00
G01 X11.8485 Y19.9015 F350.00
G01 X11.9276 Y19.9887 F350.00
G01 X11.9978 Y20.0833 F350.00
G01 X12.0583 Y20.1843 F350.00
G01 X12.1087 Y20.2908 F350.00
G01 X12.1483 Y20.4017 F350.00
G01 X12.1748 Y20.5063 F350.00
G01 X12.1786 Y20.5256 F350.00
G01 X12.1942 Y20.6324 F350.00
G01 X12.1999 Y20.7451 F350.00
G01 X12.2000 Y21.3500 F350.00
G01 X12.1949 Y21.4578 F350.00
G01 X12.1937 Y21.4725 F350.00
G01 X12.1786 Y21.5744 F350.00
G01 X12.1748 Y21.5937 F350.00
G01 X12.1483 Y21.6983 F350.00
G01 X12.1122 Y21.8001 F350.00
G01 X12.1047 Y21.8182 F350.00
G01 X12.0583 Y21.9157 F350.00
G01 X12.0004 Y22.0126 F350.00
G01 X11.9921 Y22.0247 F350.00
G01 X11.9276 Y22.1113 F350.00
G01 X11.8485 Y22.1985 F350.00
G01 X11.7613 Y22.2776 F350.00
G01 X11.6667 Y22.3478 F350.00
G01 X11.5657 Y22.4083 F350.00
G01 X11.4592 Y22.4587 F350.00
G01 X11.3483 Y22.4983 F350.00
G01 X11.2341 Y22.5269 F350.00
G01 X11.1176 Y22.5442 F350.00
G01 X11.0000 Y22.5500 F350.00
G01 X10.8824 Y22.5442 F350.00
G01 X10.7659 Y22.5269 F350.00
G01 X10.6517 Y22.4983 F350.00
G01 X10.5408 Y22.4587 F350.00
G01 X10.4343 Y22.4083 F350.00
G01 X10.3374 Y22.3504 F350.00
G01 X10.3253 Y22.3421 F350.00
G01 X10.2387 Y22.2776 F350.00
G01 X10.1586 Y22.2053 F350.00
G01 X10.1447 Y22.1914 F350.00
G01 X10.0788 Y22.1187 F350.00
G01 X10.0663 Y22.1035 F350.00
G01 X10.0022 Y22.0167 F350.00
G01 X9.9417 Y21.9157 F350.00
G01 X9.8913 Y21.8092 F350.00
G01 X9.8517 Y21.6983 F350.00
G01 X9.8252 Y21.5937 F350.00
G01 X9.8214 Y21.5744 F350.00
G01 X9.8058 Y21.4676 F350.00
G01 X9.8002 Y21.3598 F350.00
G01 X9.8000 Y20.7500 F350.00
G01 X9.8051 Y20.6422 F350.00
G01 X9.8070 Y20.6226 F350.00
G00 Z0.5000
G00 X13.1553 Y20.9569
G01 F250.00
G01 Z-0.0500
G01 F350.00
G01 X13.1663 Y20.8842 F350.00
G01 X13.1866 Y20.8033 F350.00
G01 X13.2147 Y20.7247 F350.00
G01 X13.2504 Y20.6493 F350.00
G01 X13.2933 Y20.5778 F350.00
G01 X13.3429 Y20.5108 F350.00
G01 X13.3990 Y20.4490 F350.00
G01 X13.4608 Y20.3929 F350.00
G01 X13.5278 Y20.3433 F350.00
G01 X13.5993 Y20.3004 F350.00
G01 X13.6747 Y20.2647 F350.00
G01 X13.7533 Y20.2366 F350.00
G01 X13.8342 Y20.2163 F350.00
G01 X13.9167 Y20.2041 F350.00
G01 X14.0000 Y20.2000 F350.00
G01 X14.0833 Y20.2041 F350.00
G01 X14.1658 Y20.2163 F350.00
G01 X14.2467 Y20.2366 F350.00
G01 X14.3253 Y20.2647 F350.00
G01 X14.4007 Y20.3004 F350.00
G01 X14.4722 Y20.3433 F350.00
G01 X14.5392 Y20.3929 F350.00
G01 X14.6010 Y20.4490 F350.00
G01 X14.6571 Y20.5108 F350.00
G01 X14.7067 Y20.5778 F350.00
G01 X14.7496 Y20.6493 F350.00
G01 X14.7853 Y20.7247 F350.00
G01 X14.8134 Y20.8033 F350.00
G01 X14.8337 Y20.8842 F350.00
G01 X14.8459 Y20.9667 F350.00
G01 X14.8500 Y21.0500 F350.00
G01 X14.8459 Y21.1333 F350.00
G01 X14.8337 Y21.2158 F350.00
G01 X14.8134 Y21.2967 F350.00
G01 X14.7853 Y21.3753 F350.00
G01 X14.7496 Y21.4507 F350.00
G01 X14.7067 Y21.5222 F350.00
G01 X14.6571 Y21.5892 F350.00
G01 X14.6010 Y21.6510 F350.00
G01 X14.5392 Y21.7071 F350.00
G01 X14.4722 Y21.7567 F350.00
G01 X14.4007 Y21.7996 F350.00
G01 X14.3253 Y21.8353 F350.00
G01 X14.2467 Y21.8634 F350.00
G01 X14.1658 Y21.8837 F350.00
G01 X14.0833 Y21.8959 F350.00
G01 X14.0000 Y21.9000 F350.00
G01 X13.9167 Y21.8959 F350.00
G01 X13.8342 Y21.8837 F350.00
G01 X13.7533 Y21.8634 F350.00
G01 X13.6747 Y21.8353 F350.00
G01 X13.5993 Y21.7996 F350.00
G01 X13.5278 Y21.7567 F350.00
G01 X13.4608 Y21.7071 F350.00
G01 X13.3990 Y21.6510 F350.00
G01 X13.3429 Y21.5892 F350.00
G01 X13.2933 Y21.5222 F350.00
G01 X13.2504 Y21.4507 F350.00
G01 X13.2147 Y21.3753 F350.00
G01 X13.1866 Y21.2967 F350.00
G01 X13.1663 Y21.2158 F350.00
G01 X13.1541 Y21.1333 F350.00
G01 X13.1500 Y21.0500 F350.00
G01 X13.1534 Y20.9765 F350.00
G01 X13.1553 Y20.9569 F350.00
G00 Z0.5000
G00 X11.3070 Y30.6726
G01 F250.00
G01 Z-0.0500
G01 F350.00
G01 X11.3231 Y30.5659 F350.00
G01 X11.3491 Y30.4611 F350.00
G01 X11.3548 Y30.4423 F350.00
G01 X11.3878 Y30.3499 F350.00
G01 X11.3953 Y30.3318 F350.00
G01 X11.4417 Y30.2343 F350.00
G01 X11.5022 Y30.1333 F350.00
G01 X11.5724 Y30.0387 F350.00
G01 X11.6447 Y29.9586 F350.00
G01 X11.6586 Y29.9447 F350.00
G01 X11.7387 Y29.8724 F350.00
G01 X11.8253 Y29.8079 F350.00
G01 X11.8416 Y29.7970 F350.00
G01 X11.9300 Y29.7441 F350.00
G01 X11.9431 Y29.7373 F350.00
G01 X12.0408 Y29.6913 F350.00
G01 X12.1517 Y29.6517 F350.00
G01 X12.2659 Y29.6231 F350.00
G01 X12.3775 Y29.6063 F350.00
G01 X12.3922 Y29.6051 F350.00
G01 X12.5000 Y29.6000 F350.00
G01 X13.2097 Y29.6000 F350.00
G01 X17.5084 Y25.3014 F350.00
G01 X17.5558 Y25.2587 F350.00
G01 X17.6029 Y25.2234 F350.00
G01 X17.6193 Y25.2125 F350.00
G01 X17.6699 Y25.1824 F350.00
G01 X17.7320 Y25.1531 F350.00
G01 X17.7874 Y25.1330 F350.00
G01 X17.8062 Y25.1273 F350.00
G01 X17.8586 Y25.1142 F350.00
G01 X17.8731 Y25.1115 F350.00
G01 X17.9314 Y25.1031 F350.00
G01 X18.0000 Y25.0997 F350.00
G01 X47.7497 Y25.0997 F350.00
G01 X47.7497 Y20.5822 F350.00
G01 X47.7531 Y20.5136 F350.00
G01 X47.7632 Y20.4456 F350.00
G01 X47.7799 Y20.3790 F350.00
G01 X47.7995 Y20.3234 F350.00
G01 X47.8070 Y20.3053 F350.00
G01 X47.8324 Y20.2521 F350.00
G01 X47.8678 Y20.1932 F350.00
G01 X47.9087 Y20.1380 F350.00
G01 X47.9514 Y20.0906 F350.00
G01 X50.0906 Y17.9514 F350.00
G01 X50.1380 Y17.9087 F350.00
G01 X50.1852 Y17.8734 F350.00
G01 X50.2015 Y17.8625 F350.00
G01 X50.2521 Y17.8324 F350.00
G01 X50.3143 Y17.8031 F350.00
G01 X50.3696 Y17.7830 F350.00
G01 X50.3884 Y17.7773 F350.00
G01 X50.4360 Y17.7654 F350.00
G01 X50.4504 Y17.7623 F350.00
G01 X50.5136 Y17.7531 F350.00
G01 X50.5822 Y17.7497 F350.00
G01 X84.9100 Y17.7497 F350.00
G01 X84.9101 Y17.4451 F350.00
G01 X84.9151 Y17.3422 F350.00
G01 X84.9163 Y17.3275 F350.00
G01 X84.9331 Y17.2159 F350.00
G01 X84.9591 Y17.1111 F350.00
G01 X84.9648 Y17.0923 F350.00
G01 X84.9995 Y16.9953 F350.00
G01 X85.0053 Y16.9818 F350.00
G01 X85.0473 Y16.8931 F350.00
G01 X85.0565 Y16.8758 F350.00
G01 X85.1122 Y16.7833 F350.00
G01 X85.1793 Y16.6926 F350.00
G01 X85.1888 Y16.6813 F350.00
G01 X85.2547 Y16.6086 F350.00
G01 X85.2650 Y16.5980 F350.00
G01 X85.3487 Y16.5224 F350.00
G01 X85.4097 Y16.4768 F350.00
G01 X85.4097 Y14.9900 F350.00
G01 X85.4127 Y14.9263 F350.00
G01 X85.4143 Y14.9116 F350.00
G01 X85.4232 Y14.8534 F350.00
G01 X85.4373 Y14.7962 F350.00
G01 X85.4430 Y14.7774 F350.00
G01 X85.4631 Y14.7220 F350.00
G01 X85.4880 Y14.6687 F350.00
G01 X85.4973 Y14.6514 F350.00
G01 X85.5251 Y14.6051 F350.00
G01 X85.5334 Y14.5929 F350.00
G01 X85.5687 Y14.5458 F350.00
G01 X85.6148 Y14.4948 F350.00
G01 X89.2197 Y10.8899 F350.00
G01 X89.2197 Y1.7632 F350.00
G01 X89.1587 Y1.7176 F350.00
G01 X89.0786 Y1.6453 F350.00
G01 X89.0647 Y1.6314 F350.00
G01 X88.9955 Y1.5550 F350.00
G01 X88.9863 Y1.5435 F350.00
G01 X88.9222 Y1.4567 F350.00
G01 X88.8641 Y1.3600 F350.00
G01 X88.8573 Y1.3469 F350.00
G01 X88.8113 Y1.2492 F350.00
G01 X88.7717 Y1.1383 F350.00
G01 X88.7431 Y1.0241 F350.00
G01 X88.7263 Y0.9125 F350.00
G01 X88.7251 Y0.8978 F350.00
G01 X88.7200 Y0.7900 F350.00
G01 X88.7201 Y-1.2149 F350.00
G01 X88.7258 Y-1.3276 F350.00
G01 X88.7414 Y-1.4344 F350.00
G01 X88.7452 Y-1.4537 F350.00
G01 X88.7717 Y-1.5583 F350.00
G01 X88.8078 Y-1.6601 F350.00
G01 X88.8153 Y-1.6782 F350.00
G01 X88.8617 Y-1.7757 F350.00
G01 X88.9222 Y-1.8767 F350.00
G01 X88.9924 Y-1.9713 F350.00
G01 X89.0647 Y-2.0514 F350.00
G01 X89.0786 Y-2.0653 F350.00
G01 X89.1587 Y-2.1376 F350.00
G01 X89.2453 Y-2.2021 F350.00
G01 X89.2616 Y-2.2130 F350.00
G01 X89.3543 Y-2.2683 F350.00
G01 X89.4608 Y-2.3187 F350.00
G01 X89.5717 Y-2.3583 F350.00
G01 X89.6763 Y-2.3848 F350.00
G01 X89.6956 Y-2.3886 F350.00
G01 X89.7926 Y-2.4030 F350.00
G01 X89.8122 Y-2.4049 F350.00
G01 X89.9200 Y-2.4100 F350.00
G01 X90.0376 Y-2.4042 F350.00
G01 X90.1541 Y-2.3869 F350.00
G01 X90.2589 Y-2.3609 F350.00
G01 X90.2777 Y-2.3552 F350.00
G01 X90.3701 Y-2.3222 F350.00
G01 X90.3882 Y-2.3147 F350.00
G01 X90.4857 Y-2.2683 F350.00
G01 X90.5784 Y-2.2130 F350.00
G01 X90.5947 Y-2.2021 F350.00
G01 X90.6735 Y-2.1437 F350.00
G01 X90.6887 Y-2.1312 F350.00
G01 X90.7685 Y-2.0585 F350.00
G01 X90.8476 Y-1.9713 F350.00
G01 X90.9121 Y-1.8847 F350.00
G01 X90.9230 Y-1.8684 F350.00
G01 X90.9783 Y-1.7757 F350.00
G01 X91.0287 Y-1.6692 F350.00
G01 X91.0683 Y-1.5583 F350.00
G01 X91.0969 Y-1.4441 F350.00
G01 X91.1142 Y-1.3276 F350.00
G01 X91.1199 Y-1.2149 F350.00
G01 X91.1200 Y0.7900 F350.00
G01 X91.1149 Y0.8978 F350.00
G01 X91.1137 Y0.9125 F350.00
G01 X91.0969 Y1.0241 F350.00
G01 X91.0683 Y1.1383 F350.00
G01 X91.0287 Y1.2492 F350.00
G01 X90.9827 Y1.3469 F350.00
G01 X90.9759 Y1.3600 F350.00
G01 X90.9178 Y1.4567 F350.00
G01 X90.8537 Y1.5435 F350.00
G01 X90.8445 Y1.5550 F350.00
G01 X90.7753 Y1.6314 F350.00
G01 X90.7614 Y1.6453 F350.00
G01 X90.6813 Y1.7176 F350.00
G01 X90.6203 Y1.7632 F350.00
G01 X90.6203 Y11.1800 F350.00
G01 X90.6169 Y11.2486 F350.00
G01 X90.6068 Y11.3166 F350.00
G01 X90.5901 Y11.3833 F350.00
G01 X90.5705 Y11.4388 F350.00
G01 X90.5630 Y11.4569 F350.00
G01 X90.5376 Y11.5101 F350.00
G01 X90.5075 Y11.5607 F350.00
G01 X90.4966 Y11.5771 F350.00
G01 X90.4613 Y11.6242 F350.00
G01 X90.4186 Y11.6716 F350.00
G01 X86.8103 Y15.2801 F350.00
G01 X86.8103 Y16.4768 F350.00
G01 X86.8713 Y16.5224 F350.00
G01 X86.9514 Y16.5947 F350.00
G01 X86.9653 Y16.6086 F350.00
G01 X87.0345 Y16.6850 F350.00
G01 X87.0437 Y16.6965 F350.00
G01 X87.1078 Y16.7833 F350.00
G01 X87.1659 Y16.8800 F350.00
G01 X87.1727 Y16.8931 F350.00
G01 X87.2187 Y16.9908 F350.00
G01 X87.2583 Y17.1017 F350.00
G01 X87.2869 Y17.2159 F350.00
G01 X87.3037 Y17.3275 F350.00
G01 X87.3049 Y17.3422 F350.00
G01 X87.3100 Y17.4500 F350.00
G01 X87.3098 Y19.4598 F350.00
G01 X87.3042 Y19.5676 F350.00
G01 X87.2886 Y19.6744 F350.00
G01 X87.2848 Y19.6937 F350.00
G01 X87.2583 Y19.7983 F350.00
G01 X87.2222 Y19.9001 F350.00
G01 X87.2147 Y19.9182 F350.00
G01 X87.1683 Y20.0157 F350.00
G01 X87.1078 Y20.1167 F350.00
G01 X87.0376 Y20.2113 F350.00
G01 X86.9653 Y20.2914 F350.00
G01 X86.9514 Y20.3053 F350.00
G01 X86.8713 Y20.3776 F350.00
G01 X86.7847 Y20.4421 F350.00
G01 X86.7684 Y20.4530 F350.00
G01 X86.6757 Y20.5083 F350.00
G01 X86.5737 Y20.5567 F350.00
G01 X86.5601 Y20.5622 F350.00
G01 X86.4677 Y20.5952 F350.00
G01 X86.4489 Y20.6009 F350.00
G01 X86.3441 Y20.6269 F350.00
G01 X86.2374 Y20.6430 F350.00
G01 X86.2178 Y20.6449 F350.00
G01 X86.1100 Y20.6500 F350.00
G01 X86.0022 Y20.6449 F350.00
G01 X85.9826 Y20.6430 F350.00
G01 X85.8759 Y20.6269 F350.00
G01 X85.7711 Y20.6009 F350.00
G01 X85.7523 Y20.5952 F350.00
G01 X85.6508 Y20.5587 F350.00
G01 X85.5443 Y20.5083 F350.00
G01 X85.4516 Y20.4530 F350.00
G01 X85.4353 Y20.4421 F350.00
G01 X85.3565 Y20.3837 F350.00
G01 X85.3450 Y20.3745 F350.00
G01 X85.2615 Y20.2985 F350.00
G01 X85.1888 Y20.2187 F350.00
G01 X85.1763 Y20.2035 F350.00
G01 X85.1122 Y20.1167 F350.00
G01 X85.0565 Y20.0242 F350.00
G01 X85.0473 Y20.0069 F350.00
G01 X85.0013 Y19.9092 F350.00
G01 X84.9648 Y19.8077 F350.00
G01 X84.9591 Y19.7889 F350.00
G01 X84.9331 Y19.6841 F350.00
G01 X84.9170 Y19.5774 F350.00
G01 X84.9154 Y19.5627 F350.00
G01 X84.9101 Y19.4549 F350.00
G01 X84.9100 Y19.1503 F350.00
G01 X50.8723 Y19.1503 F350.00
G01 X49.1503 Y20.8723 F350.00
G01 X49.1503 Y28.8268 F350.00
G01 X49.2035 Y28.8663 F350.00
G01 X49.2150 Y28.8755 F350.00
G01 X49.2914 Y28.9447 F350.00
G01 X49.3020 Y28.9550 F350.00
G01 X49.3776 Y29.0387 F350.00
G01 X49.4421 Y29.1253 F350.00
G01 X49.4504 Y29.1374 F350.00
G01 X49.5083 Y29.2343 F350.00
G01 X49.5587 Y29.3408 F350.00
G01 X49.5983 Y29.4517 F350.00
G01 X49.6269 Y29.5659 F350.00
G01 X49.6442 Y29.6824 F350.00
G01 X49.6500 Y29.8000 F350.00
G01 X49.6500 Y31.3000 F350.00
G01 X49.6449 Y31.4078 F350.00
G01 X49.6430 Y31.4274 F350.00
G01 X49.6269 Y31.5341 F350.00
G01 X49.6009 Y31.6389 F350.00
G01 X49.5952 Y31.6577 F350.00
G01 X49.5622 Y31.7501 F350.00
G01 X49.5547 Y31.7682 F350.00
G01 X49.5083 Y31.8657 F350.00
G01 X49.4478 Y31.9667 F350.00
G01 X49.3776 Y32.0613 F350.00
G01 X49.2985 Y32.1485 F350.00
G01 X49.2113 Y32.2276 F350.00
G01 X49.1167 Y32.2978 F350.00
G01 X49.0157 Y32.3583 F350.00
G01 X48.9182 Y32.4047 F350.00
G01 X48.9001 Y32.4122 F350.00
G01 X48.8077 Y32.4452 F350.00
G01 X48.7889 Y32.4509 F350.00
G01 X48.6841 Y32.4769 F350.00
G01 X48.5676 Y32.4942 F350.00
G01 X48.4500 Y32.5000 F350.00
G01 X48.3324 Y32.4942 F350.00
G01 X48.2159 Y32.4769 F350.00
G01 X48.1017 Y32.4483 F350.00
G01 X47.9908 Y32.4087 F350.00
G01 X47.8843 Y32.3583 F350.00
G01 X47.7833 Y32.2978 F350.00
G01 X47.6887 Y32.2276 F350.00
G01 X47.6015 Y32.1485 F350.00
G01 X47.5224 Y32.0613 F350.00
G01 X47.4522 Y31.9667 F350.00
G01 X47.3917 Y31.8657 F350.00
G01 X47.3413 Y31.7592 F350.00
G01 X47.3017 Y31.6483 F350.00
G01 X47.2731 Y31.5341 F350.00
G01 X47.2570 Y31.4274 F350.00
G01 X47.2551 Y31.4078 F350.00
G01 X47.2500 Y31.3000 F350.00
G01 X47.2500 Y29.8000 F350.00
G01 X47.2558 Y29.6824 F350.00
G01 X47.2731 Y29.5659 F350.00
G01 X47.3017 Y29.4517 F350.00
G01 X47.3413 Y29.3408 F350.00
G01 X47.3917 Y29.2343 F350.00
G01 X47.4496 Y29.1374 F350.00
G01 X47.4579 Y29.1253 F350.00
G01 X47.5224 Y29.0387 F350.00
G01 X47.5980 Y28.9550 F350.00
G01 X47.6086 Y28.9447 F350.00
G01 X47.6850 Y28.8755 F350.00
G01 X47.6965 Y28.8663 F350.00
G01 X47.7497 Y28.8268 F350.00
G01 X47.7497 Y26.5003 F350.00
G01 X25.4503 Y26.5003 F350.00
G01 X25.4503 Y34.5099 F350.00
G01 X26.7401 Y35.7997 F350.00
G01 X30.8500 Y35.7997 F350.00
G01 X30.8501 Y35.6127 F350.00
G01 X30.8527 Y35.5620 F350.00
G01 X30.8592 Y35.5166 F350.00
G01 X30.8631 Y35.4973 F350.00
G01 X30.8731 Y35.4576 F350.00
G01 X30.8775 Y35.4435 F350.00
G01 X30.8932 Y35.4004 F350.00
G01 X30.9170 Y35.3501 F350.00
G01 X30.9457 Y35.3023 F350.00
G01 X30.9789 Y35.2575 F350.00
G01 X31.0163 Y35.2163 F350.00
G01 X31.0575 Y35.1789 F350.00
G01 X31.1023 Y35.1457 F350.00
G01 X31.1501 Y35.1170 F350.00
G01 X31.2004 Y35.0932 F350.00
G01 X31.2482 Y35.0759 F350.00
G01 X31.2623 Y35.0718 F350.00
G01 X31.2973 Y35.0631 F350.00
G01 X31.3166 Y35.0592 F350.00
G01 X31.3620 Y35.0527 F350.00
G01 X31.4127 Y35.0501 F350.00
G01 X33.1873 Y35.0501 F350.00
G01 X33.2282 Y35.0520 F350.00
G01 X33.2429 Y35.0533 F350.00
G01 X33.2883 Y35.0600 F350.00
G01 X33.3027 Y35.0631 F350.00
G01 X33.3471 Y35.0744 F350.00
G01 X33.3904 Y35.0897 F350.00
G01 X33.4041 Y35.0951 F350.00
G01 X33.4456 Y35.1148 F350.00
G01 X33.4585 Y35.1219 F350.00
G01 X33.4977 Y35.1457 F350.00
G01 X33.5425 Y35.1789 F350.00
G01 X33.5837 Y35.2163 F350.00
G01 X33.6147 Y35.2501 F350.00
G01 X33.6272 Y35.2653 F350.00
G01 X33.6543 Y35.3023 F350.00
G01 X33.6781 Y35.3415 F350.00
G01 X33.6852 Y35.3544 F350.00
G01 X33.7028 Y35.3914 F350.00
G01 X33.7086 Y35.4050 F350.00
G01 X33.7241 Y35.4482 F350.00
G01 X33.7282 Y35.4623 F350.00
G01 X33.7381 Y35.5021 F350.00
G01 X33.7408 Y35.5166 F350.00
G01 X33.7473 Y35.5620 F350.00
G01 X33.7498 Y35.6078 F350.00
G01 X33.7500 Y35.7997 F350.00
G01 X35.2000 Y35.7997 F350.00
G01 X35.2637 Y35.8027 F350.00
G01 X35.2784 Y35.8043 F350.00
G01 X35.3366 Y35.8132 F350.00
G01 X35.3938 Y35.8273 F350.00
G01 X35.4126 Y35.8330 F350.00
G01 X35.4680 Y35.8531 F350.00
G01 X35.5213 Y35.8780 F350.00
G01 X35.5386 Y35.8873 F350.00
G01 X35.5849 Y35.9151 F350.00
G01 X35.5971 Y35.9234 F350.00
G01 X35.6442 Y35.9587 F350.00
G01 X35.6952 Y36.0048 F350.00
G01 X36.6602 Y36.9698 F350.00
G01 X36.7063 Y37.0208 F350.00
G01 X36.7416 Y37.0679 F350.00
G01 X36.7525 Y37.0843 F350.00
G01 X36.7826 Y37.1349 F350.00
G01 X36.8119 Y37.1970 F350.00
G01 X36.8351 Y37.2617 F350.00
G01 X36.8518 Y37.3284 F350.00
G01 X36.8607 Y37.3866 F350.00
G01 X36.8623 Y37.4013 F350.00
G01 X36.8653 Y37.4650 F350.00
G01 X36.8653 Y38.4168 F350.00
G01 X36.9185 Y38.4563 F350.00
G01 X36.9300 Y38.4655 F350.00
G01 X37.0064 Y38.5347 F350.00
G01 X37.0170 Y38.5450 F350.00
G01 X37.0926 Y38.6287 F350.00
G01 X37.1571 Y38.7153 F350.00
G01 X37.1654 Y38.7274 F350.00
G01 X37.2233 Y38.8243 F350.00
G01 X37.2737 Y38.9308 F350.00
G01 X37.3133 Y39.0417 F350.00
G01 X37.3398 Y39.1463 F350.00
G01 X37.3428 Y39.1607 F350.00
G01 X37.3592 Y39.2724 F350.00
G01 X37.3649 Y39.3851 F350.00
G01 X37.3649 Y40.3949 F350.00
G01 X37.3592 Y40.5076 F350.00
G01 X37.3436 Y40.6144 F350.00
G01 X37.3398 Y40.6337 F350.00
G01 X37.3133 Y40.7383 F350.00
G01 X37.2737 Y40.8492 F350.00
G01 X37.2277 Y40.9469 F350.00
G01 X37.2185 Y40.9642 F350.00
G01 X37.1680 Y41.0484 F350.00
G01 X37.1571 Y41.0647 F350.00
G01 X37.0926 Y41.1513 F350.00
G01 X37.0203 Y41.2314 F350.00
G01 X37.0064 Y41.2453 F350.00
G01 X36.9263 Y41.3176 F350.00
G01 X36.8317 Y41.3878 F350.00
G01 X36.7307 Y41.4483 F350.00
G01 X36.6242 Y41.4987 F350.00
G01 X36.5133 Y41.5383 F350.00
G01 X36.3991 Y41.5669 F350.00
G01 X36.2826 Y41.5842 F350.00
G01 X36.1650 Y41.5900 F350.00
G01 X36.0474 Y41.5842 F350.00
G01 X35.9309 Y41.5669 F350.00
G01 X35.8167 Y41.5383 F350.00
G01 X35.7058 Y41.4987 F350.00
G01 X35.5993 Y41.4483 F350.00
G01 X35.4983 Y41.3878 F350.00
G01 X35.4037 Y41.3176 F350.00
G01 X35.3165 Y41.2385 F350.00
G01 X35.2374 Y41.1513 F350.00
G01 X35.1672 Y41.0567 F350.00
G01 X35.1067 Y40.9557 F350.00
G01 X35.0603 Y40.8582 F350.00
G01 X35.0545 Y40.8447 F350.00
G01 X35.0167 Y40.7383 F350.00
G01 X34.9902 Y40.6337 F350.00
G01 X34.9864 Y40.6144 F350.00
G01 X34.9720 Y40.5174 F350.00
G01 X34.9701 Y40.4978 F350.00
G01 X34.9650 Y40.3900 F350.00
G01 X34.9650 Y39.3900 F350.00
G01 X34.9701 Y39.2822 F350.00
G01 X34.9713 Y39.2675 F350.00
G01 X34.9881 Y39.1559 F350.00
G01 X35.0167 Y39.0417 F350.00
G01 X35.0563 Y38.9308 F350.00
G01 X35.1023 Y38.8331 F350.00
G01 X35.1091 Y38.8200 F350.00
G01 X35.1672 Y38.7233 F350.00
G01 X35.2313 Y38.6365 F350.00
G01 X35.2405 Y38.6250 F350.00
G01 X35.3097 Y38.5486 F350.00
G01 X35.3236 Y38.5347 F350.00
G01 X35.4037 Y38.4624 F350.00
G01 X35.4647 Y38.4168 F350.00
G01 X35.4647 Y37.7551 F350.00
G01 X34.9099 Y37.2003 F350.00
G01 X33.7500 Y37.2003 F350.00
G01 X33.7499 Y37.3873 F350.00
G01 X33.7473 Y37.4380 F350.00
G01 X33.7400 Y37.4883 F350.00
G01 X33.7369 Y37.5027 F350.00
G01 X33.7256 Y37.5471 F350.00
G01 X33.7086 Y37.5950 F350.00
G01 X33.7028 Y37.6086 F350.00
G01 X33.6830 Y37.6499 F350.00
G01 X33.6596 Y37.6894 F350.00
G01 X33.6516 Y37.7018 F350.00
G01 X33.6242 Y37.7386 F350.00
G01 X33.6147 Y37.7499 F350.00
G01 X33.5872 Y37.7802 F350.00
G01 X33.5766 Y37.7905 F350.00
G01 X33.5425 Y37.8211 F350.00
G01 X33.5018 Y37.8516 F350.00
G01 X33.4894 Y37.8596 F350.00
G01 X33.4499 Y37.8830 F350.00
G01 X33.3996 Y37.9068 F350.00
G01 X33.3471 Y37.9256 F350.00
G01 X33.2979 Y37.9381 F350.00
G01 X33.2834 Y37.9408 F350.00
G01 X33.2380 Y37.9473 F350.00
G01 X33.1824 Y37.9500 F350.00
G01 X31.4176 Y37.9500 F350.00
G01 X31.3620 Y37.9473 F350.00
G01 X31.3166 Y37.9408 F350.00
G01 X31.2973 Y37.9369 F350.00
G01 X31.2576 Y37.9269 F350.00
G01 X31.2435 Y37.9225 F350.00
G01 X31.2004 Y37.9068 F350.00
G01 X31.1588 Y37.8874 F350.00
G01 X31.1415 Y37.8781 F350.00
G01 X31.1023 Y37.8543 F350.00
G01 X31.0575 Y37.8211 F350.00
G01 X31.0163 Y37.7837 F350.00
G01 X30.9853 Y37.7499 F350.00
G01 X30.9728 Y37.7347 F350.00
G01 X30.9457 Y37.6977 F350.00
G01 X30.9219 Y37.6585 F350.00
G01 X30.9148 Y37.6456 F350.00
G01 X30.8972 Y37.6086 F350.00
G01 X30.8914 Y37.5950 F350.00
G01 X30.8759 Y37.5518 F350.00
G01 X30.8718 Y37.5377 F350.00
G01 X30.8619 Y37.4979 F350.00
G01 X30.8592 Y37.4834 F350.00
G01 X30.8527 Y37.4380 F350.00
G01 X30.8502 Y37.3922 F350.00
G01 X30.8500 Y37.2003 F350.00
G01 X26.4500 Y37.2003 F350.00
G01 X26.3814 Y37.1969 F350.00
G01 X26.3182 Y37.1877 F350.00
G01 X26.3038 Y37.1846 F350.00
G01 X26.2562 Y37.1727 F350.00
G01 X26.2374 Y37.1670 F350.00
G01 X26.1820 Y37.1469 F350.00
G01 X26.1199 Y37.1176 F350.00
G01 X26.0693 Y37.0875 F350.00
G01 X26.0529 Y37.0766 F350.00
G01 X26.0058 Y37.0413 F350.00
G01 X25.9620 Y37.0019 F350.00
G01 X24.2548 Y35.2952 F350.00
G01 X24.2087 Y35.2442 F350.00
G01 X24.1678 Y35.1890 F350.00
G01 X24.1373 Y35.1386 F350.00
G01 X24.1280 Y35.1213 F350.00
G01 X24.1050 Y35.0725 F350.00
G01 X24.0995 Y35.0588 F350.00
G01 X24.0799 Y35.0033 F350.00
G01 X24.0632 Y34.9366 F350.00
G01 X24.0531 Y34.8686 F350.00
G01 X24.0498 Y34.8049 F350.00
G01 X24.0497 Y26.5003 F350.00
G01 X18.2901 Y26.5003 F350.00
G01 X14.5575 Y30.2328 F350.00
G01 X14.5627 Y30.2431 F350.00
G01 X14.6087 Y30.3408 F350.00
G01 X14.6483 Y30.4517 F350.00
G01 X14.6769 Y30.5659 F350.00
G01 X14.6930 Y30.6726 F350.00
G01 X14.6949 Y30.6922 F350.00
G01 X14.7000 Y30.8000 F350.00
G01 X14.6949 Y30.9078 F350.00
G01 X14.6930 Y30.9274 F350.00
G01 X14.6786 Y31.0244 F350.00
G01 X14.6748 Y31.0437 F350.00
G01 X14.6483 Y31.1483 F350.00
G01 X14.6087 Y31.2592 F350.00
G01 X14.5583 Y31.3657 F350.00
G01 X14.4978 Y31.4667 F350.00
G01 X14.4276 Y31.5613 F350.00
G01 X14.3553 Y31.6414 F350.00
G01 X14.3414 Y31.6553 F350.00
G01 X14.2687 Y31.7212 F350.00
G01 X14.2535 Y31.7337 F350.00
G01 X14.1667 Y31.7978 F350.00
G01 X14.0742 Y31.8535 F350.00
G01 X14.0569 Y31.8627 F350.00
G01 X13.9592 Y31.9087 F350.00
G01 X13.8530 Y31.9468 F350.00
G01 X13.8389 Y31.9509 F350.00
G01 X13.7437 Y31.9748 F350.00
G01 X13.7244 Y31.9786 F350.00
G01 X13.6176 Y31.9942 F350.00
G01 X13.5098 Y31.9998 F350.00
G01 X12.4902 Y31.9998 F350.00
G01 X12.3922 Y31.9949 F350.00
G01 X12.3726 Y31.9930 F350.00
G01 X12.2659 Y31.9769 F350.00
G01 X12.1611 Y31.9509 F350.00
G01 X12.1423 Y31.9452 F350.00
G01 X12.0408 Y31.9087 F350.00
G01 X11.9387 Y31.8606 F350.00
G01 X11.9258 Y31.8535 F350.00
G01 X11.8416 Y31.8030 F350.00
G01 X11.8253 Y31.7921 F350.00
G01 X11.7387 Y31.7276 F350.00
G01 X11.6515 Y31.6485 F350.00
G01 X11.5724 Y31.5613 F350.00
G01 X11.5079 Y31.4747 F350.00
G01 X11.4970 Y31.4584 F350.00
G01 X11.4417 Y31.3657 F350.00
G01 X11.3953 Y31.2682 F350.00
G01 X11.3878 Y31.2501 F350.00
G01 X11.3517 Y31.1483 F350.00
G01 X11.3231 Y31.0341 F350.00
G01 X11.3058 Y30.9176 F350.00
G01 X11.3002 Y30.8098 F350.00
G01 X11.3002 Y30.7902 F350.00
G01 X11.3051 Y30.6922 F350.00
G01 X11.3070 Y30.6726 F350.00
G00 Z0.5000
G00 X-2.0443 Y36.4996
G01 F250.00
G01 Z-0.0500
G01 F350.00
G01 X-2.0322 Y36.4195 F350.00
G01 X-2.0128 Y36.3409 F350.00
G01 X-2.0071 Y36.3222 F350.00
G01 X-1.9796 Y36.2460 F350.00
G01 X-1.9452 Y36.1727 F350.00
G01 X-1.9359 Y36.1554 F350.00
G01 X-1.8941 Y36.0861 F350.00
G01 X-1.8400 Y36.0132 F350.00
G01 X-1.7791 Y35.9459 F350.00
G01 X-1.7192 Y35.8914 F350.00
G01 X-1.7041 Y35.8789 F350.00
G01 X-1.6389 Y35.8309 F350.00
G01 X-1.5696 Y35.7891 F350.00
G01 X-1.5523 Y35.7798 F350.00
G01 X-1.4790 Y35.7454 F350.00
G01 X-1.3982 Y35.7163 F350.00
G01 X-1.3841 Y35.7122 F350.00
G01 X-1.3150 Y35.6949 F350.00
G01 X-1.2958 Y35.6911 F350.00
G01 X-1.2157 Y35.6795 F350.00
G01 X-1.1299 Y35.6751 F350.00
G01 X1.4250 Y35.6750 F350.00
G01 X1.5157 Y35.6795 F350.00
G01 X1.6006 Y35.6919 F350.00
G01 X1.6150 Y35.6949 F350.00
G01 X1.6888 Y35.7135 F350.00
G01 X1.7028 Y35.7179 F350.00
G01 X1.7422 Y35.7320 F350.00
G01 X2.4497 Y35.0245 F350.00
G01 X2.4497 Y28.7401 F350.00
G01 X-0.1519 Y26.1380 F350.00
G01 X-0.1913 Y26.0942 F350.00
G01 X-0.2295 Y26.0431 F350.00
G01 X-0.2375 Y26.0307 F350.00
G01 X-0.2627 Y25.9886 F350.00
G01 X-0.2720 Y25.9713 F350.00
G01 X-0.2969 Y25.9180 F350.00
G01 X-0.3201 Y25.8533 F350.00
G01 X-0.3368 Y25.7866 F350.00
G01 X-0.3457 Y25.7284 F350.00
G01 X-0.3476 Y25.7088 F350.00
G01 X-0.3503 Y25.6500 F350.00
G01 X-0.3503 Y16.7000 F350.00
G01 X-0.3469 Y16.6314 F350.00
G01 X-0.3368 Y16.5634 F350.00
G01 X-0.3201 Y16.4967 F350.00
G01 X-0.3005 Y16.4412 F350.00
G01 X-0.2950 Y16.4275 F350.00
G01 X-0.2720 Y16.3787 F350.00
G01 X-0.2627 Y16.3614 F350.00
G01 X-0.2322 Y16.3110 F350.00
G01 X-0.1944 Y16.2596 F350.00
G01 X-0.1849 Y16.2483 F350.00
G01 X-0.1519 Y16.2120 F350.00
G01 X-0.1380 Y16.1981 F350.00
G01 X-0.0942 Y16.1587 F350.00
G01 X-0.0471 Y16.1234 F350.00
G01 X-0.0307 Y16.1125 F350.00
G01 X0.0114 Y16.0873 F350.00
G01 X0.0243 Y16.0802 F350.00
G01 X0.0820 Y16.0531 F350.00
G01 X0.1374 Y16.0330 F350.00
G01 X0.1562 Y16.0273 F350.00
G01 X0.2134 Y16.0132 F350.00
G01 X0.2716 Y16.0043 F350.00
G01 X0.2912 Y16.0024 F350.00
G01 X0.3500 Y15.9997 F350.00
G01 X6.8997 Y15.9997 F350.00
G01 X6.8997 Y13.3493 F350.00
G01 X6.8659 Y13.3372 F350.00
G01 X6.8523 Y13.3317 F350.00
G01 X6.7547 Y13.2856 F350.00
G01 X6.7418 Y13.2785 F350.00
G01 X6.6534 Y13.2254 F350.00
G01 X6.6413 Y13.2171 F350.00
G01 X6.5547 Y13.1526 F350.00
G01 X6.4746 Y13.0803 F350.00
G01 X6.4640 Y13.0700 F350.00
G01 X6.3948 Y12.9937 F350.00
G01 X6.3823 Y12.9785 F350.00
G01 X6.3182 Y12.8917 F350.00
G01 X6.2625 Y12.7992 F350.00
G01 X6.2533 Y12.7819 F350.00
G01 X6.2073 Y12.6842 F350.00
G01 X6.1677 Y12.5733 F350.00
G01 X6.1412 Y12.4687 F350.00
G01 X6.1374 Y12.4494 F350.00
G01 X6.1218 Y12.3426 F350.00
G01 X6.1161 Y12.2299 F350.00
G01 X6.1160 Y10.9750 F350.00
G01 X6.1211 Y10.8672 F350.00
G01 X6.1230 Y10.8476 F350.00
G01 X6.1391 Y10.7409 F350.00
G01 X6.1651 Y10.6361 F350.00
G01 X6.1708 Y10.6173 F350.00
G01 X6.2038 Y10.5249 F350.00
G01 X6.2113 Y10.5068 F350.00
G01 X6.2577 Y10.4093 F350.00
G01 X6.3182 Y10.3083 F350.00
G01 X6.3884 Y10.2137 F350.00
G01 X6.4607 Y10.1336 F350.00
G01 X6.4746 Y10.1197 F350.00
G01 X6.5473 Y10.0538 F350.00
G01 X6.5625 Y10.0413 F350.00
G01 X6.6493 Y9.9772 F350.00
G01 X6.7418 Y9.9215 F350.00
G01 X6.7591 Y9.9123 F350.00
G01 X6.8568 Y9.8663 F350.00
G01 X6.9677 Y9.8267 F350.00
G01 X7.0819 Y9.7981 F350.00
G01 X7.1886 Y9.7820 F350.00
G01 X7.2082 Y9.7801 F350.00
G01 X7.3160 Y9.7750 F350.00
G01 X7.4238 Y9.7801 F350.00
G01 X7.4434 Y9.7820 F350.00
G01 X7.5501 Y9.7981 F350.00
G01 X7.6549 Y9.8241 F350.00
G01 X7.6737 Y9.8298 F350.00
G01 X7.7661 Y9.8628 F350.00
G01 X7.7842 Y9.8703 F350.00
G01 X7.8817 Y9.9167 F350.00
G01 X7.9744 Y9.9720 F350.00
G01 X7.9907 Y9.9829 F350.00
G01 X8.0773 Y10.0474 F350.00
G01 X8.1574 Y10.1197 F350.00
G01 X8.1713 Y10.1336 F350.00
G01 X8.2372 Y10.2063 F350.00
G01 X8.2497 Y10.2215 F350.00
G01 X8.3138 Y10.3083 F350.00
G01 X8.3695 Y10.4008 F350.00
G01 X8.3787 Y10.4181 F350.00
G01 X8.4247 Y10.5158 F350.00
G01 X8.4612 Y10.6173 F350.00
G01 X8.4669 Y10.6361 F350.00
G01 X8.4929 Y10.7409 F350.00
G01 X8.5097 Y10.8525 F350.00
G01 X8.5109 Y10.8672 F350.00
G01 X8.5160 Y10.9750 F350.00
G01 X8.5160 Y12.2250 F350.00
G01 X8.5102 Y12.3426 F350.00
G01 X8.4946 Y12.4494 F350.00
G01 X8.4908 Y12.4687 F350.00
G01 X8.4643 Y12.5733 F350.00
G01 X8.4282 Y12.6751 F350.00
G01 X8.4207 Y12.6932 F350.00
G01 X8.3743 Y12.7907 F350.00
G01 X8.3164 Y12.8876 F350.00
G01 X8.3110 Y12.8957 F350.00
G01 X8.3003 Y12.9103 F350.00
G01 X8.3003 Y19.5894 F350.00
G01 X8.3389 Y19.5991 F350.00
G01 X8.3530 Y19.6032 F350.00
G01 X8.4547 Y19.6395 F350.00
G01 X8.4682 Y19.6453 F350.00
G01 X8.5613 Y19.6894 F350.00
G01 X8.5742 Y19.6965 F350.00
G01 X8.6667 Y19.7522 F350.00
G01 X8.7535 Y19.8163 F350.00
G01 X8.7650 Y19.8255 F350.00
G01 X8.8414 Y19.8947 F350.00
G01 X8.8553 Y19.9086 F350.00
G01 X8.9276 Y19.9887 F350.00
G01 X8.9921 Y20.0753 F350.00
G01 X9.0030 Y20.0916 F350.00
G01 X9.0583 Y20.1843 F350.00
G01 X9.1047 Y20.2818 F350.00
G01 X9.1122 Y20.2999 F350.00
G01 X9.1483 Y20.4017 F350.00
G01 X9.1748 Y20.5063 F350.00
G01 X9.1786 Y20.5256 F350.00
G01 X9.1930 Y20.6226 F350.00
G01 X9.1946 Y20.6373 F350.00
G01 X9.2000 Y20.7500 F350.00
G01 X9.2000 Y21.3500 F350.00
G01 X9.1942 Y21.4676 F350.00
G01 X9.1769 Y21.5841 F350.00
G01 X9.1483 Y21.6983 F350.00
G01 X9.1122 Y21.8001 F350.00
G01 X9.1047 Y21.8182 F350.00
G01 X9.0627 Y21.9069 F350.00
G01 X9.0535 Y21.9242 F350.00
G01 X8.9978 Y22.0167 F350.00
G01 X8.9276 Y22.1113 F350.00
G01 X8.8553 Y22.1914 F350.00
G01 X8.8414 Y22.2053 F350.00
G01 X8.7613 Y22.2776 F350.00
G01 X8.6747 Y22.3421 F350.00
G01 X8.6584 Y22.3530 F350.00
G01 X8.5657 Y22.4083 F350.00
G01 X8.4682 Y22.4547 F350.00
G01 X8.4501 Y22.4622 F350.00
G01 X8.3483 Y22.4983 F350.00
G01 X8.2437 Y22.5248 F350.00
G01 X8.2244 Y22.5286 F350.00
G01 X8.1274 Y22.5430 F350.00
G01 X8.1078 Y22.5449 F350.00
G01 X8.0000 Y22.5500 F350.00
G01 X7.8922 Y22.5449 F350.00
G01 X7.8726 Y22.5430 F350.00
G01 X7.7659 Y22.5269 F350.00
G01 X7.6517 Y22.4983 F350.00
G01 X7.5499 Y22.4622 F350.00
G01 X7.5318 Y22.4547 F350.00
G01 X7.4343 Y22.4083 F350.00
G01 X7.3416 Y22.3530 F350.00
G01 X7.3253 Y22.3421 F350.00
G01 X7.2387 Y22.2776 F350.00
G01 X7.1515 Y22.1985 F350.00
G01 X7.0724 Y22.1113 F350.00
G01 X7.0079 Y22.0247 F350.00
G01 X6.9970 Y22.0084 F350.00
G01 X6.9465 Y21.9242 F350.00
G01 X6.9394 Y21.9113 F350.00
G01 X6.8953 Y21.8182 F350.00
G01 X6.8878 Y21.8001 F350.00
G01 X6.8517 Y21.6983 F350.00
G01 X6.8252 Y21.5937 F350.00
G01 X6.8214 Y21.5744 F350.00
G01 X6.8058 Y21.4676 F350.00
G01 X6.8000 Y21.3500 F350.00
G01 X6.8000 Y20.7500 F350.00
G01 X6.8058 Y20.6324 F350.00
G01 X6.8231 Y20.5159 F350.00
G01 X6.8491 Y20.4111 F350.00
G01 X6.8548 Y20.3923 F350.00
G01 X6.8878 Y20.2999 F350.00
G01 X6.8933 Y20.2863 F350.00
G01 X6.8997 Y20.2724 F350.00
G01 X6.8997 Y17.4003 F350.00
G01 X1.0503 Y17.4003 F350.00
G01 X1.0503 Y25.3599 F350.00
G01 X3.6486 Y27.9584 F350.00
G01 X3.6849 Y27.9983 F350.00
G01 X3.6973 Y28.0135 F350.00
G01 X3.7322 Y28.0610 F350.00
G01 X3.7627 Y28.1114 F350.00
G01 X3.7720 Y28.1287 F350.00
G01 X3.7969 Y28.1820 F350.00
G01 X3.8170 Y28.2374 F350.00
G01 X3.8215 Y28.2514 F350.00
G01 X3.8368 Y28.3134 F350.00
G01 X3.8457 Y28.3716 F350.00
G01 X3.8476 Y28.3912 F350.00
G01 X3.8503 Y28.4500 F350.00
G01 X3.8503 Y35.3145 F350.00
G01 X3.8469 Y35.3832 F350.00
G01 X3.8377 Y35.4463 F350.00
G01 X3.8346 Y35.4607 F350.00
G01 X3.8227 Y35.5083 F350.00
G01 X3.8170 Y35.5271 F350.00
G01 X3.7969 Y35.5825 F350.00
G01 X3.7720 Y35.6358 F350.00
G01 X3.7627 Y35.6532 F350.00
G01 X3.7322 Y35.7036 F350.00
G01 X3.6973 Y35.7510 F350.00
G01 X3.6849 Y35.7662 F350.00
G01 X3.6452 Y35.8097 F350.00
G01 X2.3526 Y37.1019 F350.00
G01 X2.3088 Y37.1413 F350.00
G01 X2.2616 Y37.1766 F350.00
G01 X2.2494 Y37.1849 F350.00
G01 X2.1946 Y37.2176 F350.00
G01 X2.1415 Y37.2430 F350.00
G01 X2.1233 Y37.2505 F350.00
G01 X2.0725 Y37.2686 F350.00
G01 X2.0591 Y37.2725 F350.00
G01 X2.0118 Y37.3150 F350.00
G01 X1.9469 Y37.3635 F350.00
G01 X1.9306 Y37.3744 F350.00
G01 X1.8610 Y37.4158 F350.00
G01 X1.7790 Y37.4546 F350.00
G01 X1.7028 Y37.4821 F350.00
G01 X1.6841 Y37.4878 F350.00
G01 X1.6150 Y37.5051 F350.00
G01 X1.6006 Y37.5081 F350.00
G01 X1.5157 Y37.5205 F350.00
G01 X1.4250 Y37.5250 F350.00
G01 X-1.1250 Y37.5250 F350.00
G01 X-1.2059 Y37.5213 F350.00
G01 X-1.2254 Y37.5193 F350.00
G01 X-1.3055 Y37.5072 F350.00
G01 X-1.3888 Y37.4865 F350.00
G01 X-1.4028 Y37.4821 F350.00
G01 X-1.4790 Y37.4546 F350.00
G01 X-1.5523 Y37.4202 F350.00
G01 X-1.5696 Y37.4109 F350.00
G01 X-1.6306 Y37.3744 F350.00
G01 X-1.6469 Y37.3635 F350.00
G01 X-1.7118 Y37.3150 F350.00
G01 X-1.7791 Y37.2541 F350.00
G01 X-1.8400 Y37.1868 F350.00
G01 X-1.8941 Y37.1139 F350.00
G01 X-1.9408 Y37.0360 F350.00
G01 X-1.9796 Y36.9540 F350.00
G01 X-2.0102 Y36.8685 F350.00
G01 X-2.0301 Y36.7900 F350.00
G01 X-2.0339 Y36.7708 F350.00
G01 X-2.0443 Y36.7004 F350.00
G01 X-2.0463 Y36.6809 F350.00
G01 X-2.0500 Y36.6000 F350.00
G01 X-2.0463 Y36.5191 F350.00
G01 X-2.0443 Y36.4996 F350.00
G00 Z0.5000
G00 X-3.5500 Y34.5902
G01 F250.00
G01 Z-0.0500
G01 F350.00
G01 X-3.5469 Y34.5314 F350.00
G01 X-3.5385 Y34.4731 F350.00
G01 X-3.5346 Y34.4538 F350.00
G01 X-3.5201 Y34.3967 F350.00
G01 X-3.5005 Y34.3412 F350.00
G01 X-3.4930 Y34.3231 F350.00
G01 X-3.4676 Y34.2699 F350.00
G01 X-3.4322 Y34.2110 F350.00
G01 X-3.3913 Y34.1558 F350.00
G01 X-3.3519 Y34.1120 F350.00
G01 X-3.3380 Y34.0981 F350.00
G01 X-3.2942 Y34.0587 F350.00
G01 X-3.2390 Y34.0178 F350.00
G01 X-3.1886 Y33.9873 F350.00
G01 X-3.1713 Y33.9780 F350.00
G01 X-3.1269 Y33.9570 F350.00
G01 X-3.1134 Y33.9512 F350.00
G01 X-3.0533 Y33.9299 F350.00
G01 X-2.9866 Y33.9132 F350.00
G01 X-2.9186 Y33.9031 F350.00
G01 X-2.8598 Y33.9000 F350.00
G01 X-1.7285 Y33.8997 F350.00
G01 X-1.7156 Y33.8881 F350.00
G01 X-1.7041 Y33.8789 F350.00
G01 X-1.6429 Y33.8337 F350.00
G01 X-1.6348 Y33.8282 F350.00
G01 X-1.6206 Y33.8197 F350.00
G01 X-1.7952 Y33.6452 F350.00
G01 X-1.8381 Y33.5980 F350.00
G01 X-1.8473 Y33.5865 F350.00
G01 X-1.8822 Y33.5390 F350.00
G01 X-1.9152 Y33.4844 F350.00
G01 X-1.9220 Y33.4713 F350.00
G01 X-1.9469 Y33.4180 F350.00
G01 X-1.9670 Y33.3626 F350.00
G01 X-1.9727 Y33.3438 F350.00
G01 X-1.9868 Y33.2866 F350.00
G01 X-1.9957 Y33.2284 F350.00
G01 X-1.9976 Y33.2088 F350.00
G01 X-2.0003 Y33.1500 F350.00
G01 X-2.0003 Y7.8000 F350.00
G01 X-1.9969 Y7.7314 F350.00
G01 X-1.9885 Y7.6731 F350.00
G01 X-1.9846 Y7.6538 F350.00
G01 X-1.9701 Y7.5967 F350.00
G01 X-1.9505 Y7.5412 F350.00
G01 X-1.9430 Y7.5231 F350.00
G01 X-1.9198 Y7.4743 F350.00
G01 X-1.9127 Y7.4614 F350.00
G01 X-1.8875 Y7.4193 F350.00
G01 X-1.8766 Y7.4029 F350.00
G01 X-1.8413 Y7.3558 F350.00
G01 X-1.8019 Y7.3120 F350.00
G01 X-1.7880 Y7.2981 F350.00
G01 X-1.7442 Y7.2587 F350.00
G01 X-1.6971 Y7.2234 F350.00
G01 X-1.6807 Y7.2125 F350.00
G01 X-1.6301 Y7.1824 F350.00
G01 X-1.5769 Y7.1570 F350.00
G01 X-1.5588 Y7.1495 F350.00
G01 X-1.5033 Y7.1299 F350.00
G01 X-1.4462 Y7.1154 F350.00
G01 X-1.4269 Y7.1115 F350.00
G01 X-1.3686 Y7.1031 F350.00
G01 X-1.3049 Y7.0998 F350.00
G01 X10.5000 Y7.0997 F350.00
G01 X10.5588 Y7.1024 F350.00
G01 X10.5735 Y7.1037 F350.00
G01 X10.6366 Y7.1132 F350.00
G01 X10.7033 Y7.1299 F350.00
G01 X10.7680 Y7.1531 F350.00
G01 X10.8213 Y7.1780 F350.00
G01 X10.8344 Y7.1848 F350.00
G01 X10.8807 Y7.2125 F350.00
G01 X10.8971 Y7.2234 F350.00
G01 X10.9442 Y7.2587 F350.00
G01 X10.9952 Y7.3048 F350.00
G01 X13.1859 Y9.4960 F350.00
G01 X13.2253 Y9.5398 F350.00
G01 X13.2635 Y9.5909 F350.00
G01 X13.2715 Y9.6033 F350.00
G01 X13.2967 Y9.6454 F350.00
G01 X13.3060 Y9.6627 F350.00
G01 X13.3309 Y9.7160 F350.00
G01 X13.3541 Y9.7807 F350.00
G01 X13.3708 Y9.8474 F350.00
G01 X13.3788 Y9.9000 F350.00
G01 X13.6840 Y9.9000 F350.00
G01 X13.7036 Y9.9010 F350.00
G01 X13.7230 Y9.9038 F350.00
G01 X13.7421 Y9.9086 F350.00
G01 X13.7605 Y9.9152 F350.00
G01 X13.7739 Y9.9214 F350.00
G01 X13.7826 Y9.9260 F350.00
G01 X13.7992 Y9.9365 F350.00
G01 X13.8146 Y9.9486 F350.00
G01 X13.8288 Y9.9621 F350.00
G01 X13.8354 Y9.9694 F350.00
G01 X13.8446 Y9.9809 F350.00
G01 X13.8555 Y9.9972 F350.00
G01 X13.8626 Y10.0101 F350.00
G01 X13.8688 Y10.0235 F350.00
G01 X13.8723 Y10.0326 F350.00
G01 X13.8768 Y10.0467 F350.00
G01 X13.8802 Y10.0610 F350.00
G01 X13.8825 Y10.0755 F350.00
G01 X13.8838 Y10.0902 F350.00
G01 X13.8840 Y10.1000 F350.00
G01 X13.8840 Y13.1000 F350.00
G01 X13.8835 Y13.1147 F350.00
G01 X13.8818 Y13.1293 F350.00
G01 X13.8791 Y13.1438 F350.00
G01 X13.8754 Y13.1581 F350.00
G01 X13.8723 Y13.1674 F350.00
G01 X13.8668 Y13.1810 F350.00
G01 X13.8604 Y13.1943 F350.00
G01 X13.8555 Y13.2028 F350.00
G01 X13.8475 Y13.2152 F350.00
G01 X13.8386 Y13.2269 F350.00
G01 X13.8288 Y13.2379 F350.00
G01 X13.8183 Y13.2482 F350.00
G01 X13.8070 Y13.2577 F350.00
G01 X13.7992 Y13.2635 F350.00
G01 X13.7868 Y13.2715 F350.00
G01 X13.7783 Y13.2764 F350.00
G01 X13.7650 Y13.2828 F350.00
G01 X13.7514 Y13.2883 F350.00
G01 X13.7373 Y13.2928 F350.00
G01 X13.7230 Y13.2962 F350.00
G01 X13.7036 Y13.2990 F350.00
G01 X13.6889 Y13.2999 F350.00
G01 X13.3903 Y13.3000 F350.00
G01 X16.1519 Y16.0620 F350.00
G01 X16.1913 Y16.1058 F350.00
G01 X16.2322 Y16.1610 F350.00
G01 X16.2676 Y16.2199 F350.00
G01 X16.2969 Y16.2820 F350.00
G01 X16.3201 Y16.3467 F350.00
G01 X16.3368 Y16.4134 F350.00
G01 X16.3469 Y16.4814 F350.00
G01 X16.3502 Y16.5451 F350.00
G01 X16.3503 Y23.1500 F350.00
G01 X16.3469 Y23.2186 F350.00
G01 X16.3385 Y23.2769 F350.00
G01 X16.3346 Y23.2962 F350.00
G01 X16.3215 Y23.3486 F350.00
G01 X16.3170 Y23.3626 F350.00
G01 X16.2988 Y23.4134 F350.00
G01 X16.2930 Y23.4269 F350.00
G01 X16.2676 Y23.4801 F350.00
G01 X16.2375 Y23.5307 F350.00
G01 X16.2266 Y23.5471 F350.00
G01 X16.1913 Y23.5942 F350.00
G01 X16.1486 Y23.6416 F350.00
G01 X14.5575 Y25.2328 F350.00
G01 X14.5627 Y25.2431 F350.00
G01 X14.6047 Y25.3318 F350.00
G01 X14.6122 Y25.3499 F350.00
G01 X14.6483 Y25.4517 F350.00
G01 X14.6769 Y25.5659 F350.00
G01 X14.6942 Y25.6824 F350.00
G01 X14.6998 Y25.7902 F350.00
G01 X14.6998 Y25.8098 F350.00
G01 X14.6949 Y25.9078 F350.00
G01 X14.6930 Y25.9274 F350.00
G01 X14.6769 Y26.0341 F350.00
G01 X14.6483 Y26.1483 F350.00
G01 X14.6087 Y26.2592 F350.00
G01 X14.5627 Y26.3569 F350.00
G01 X14.5535 Y26.3742 F350.00
G01 X14.5030 Y26.4584 F350.00
G01 X14.4921 Y26.4747 F350.00
G01 X14.4276 Y26.5613 F350.00
G01 X14.3485 Y26.6485 F350.00
G01 X14.2687 Y26.7212 F350.00
G01 X14.2535 Y26.7337 F350.00
G01 X14.1667 Y26.7978 F350.00
G01 X14.0657 Y26.8583 F350.00
G01 X13.9682 Y26.9047 F350.00
G01 X13.9501 Y26.9122 F350.00
G01 X13.8483 Y26.9483 F350.00
G01 X13.7389 Y26.9759 F350.00
G01 X13.7244 Y26.9786 F350.00
G01 X13.6176 Y26.9942 F350.00
G01 X13.5049 Y26.9999 F350.00
G01 X12.7903 Y27.0000 F350.00
G01 X10.9003 Y28.8901 F350.00
G01 X10.9003 Y32.1099 F350.00
G01 X16.0901 Y37.2997 F350.00
G01 X26.4000 Y37.2997 F350.00
G01 X26.4686 Y37.3031 F350.00
G01 X26.5366 Y37.3132 F350.00
G01 X26.6033 Y37.3299 F350.00
G01 X26.6588 Y37.3495 F350.00
G01 X26.6725 Y37.3550 F350.00
G01 X26.7301 Y37.3824 F350.00
G01 X26.7890 Y37.4178 F350.00
G01 X26.8442 Y37.4587 F350.00
G01 X26.8952 Y37.5048 F350.00
G01 X34.8001 Y45.4097 F350.00
G01 X76.7997 Y45.4097 F350.00
G01 X76.7997 Y34.7503 F350.00
G01 X42.0045 Y34.7503 F350.00
G01 X41.9453 Y34.8095 F350.00
G01 X41.9453 Y38.4168 F350.00
G01 X41.9985 Y38.4563 F350.00
G01 X42.0100 Y38.4655 F350.00
G01 X42.0864 Y38.5347 F350.00
G01 X42.0970 Y38.5450 F350.00
G01 X42.1726 Y38.6287 F350.00
G01 X42.2371 Y38.7153 F350.00
G01 X42.2454 Y38.7274 F350.00
G01 X42.3033 Y38.8243 F350.00
G01 X42.3537 Y38.9308 F350.00
G01 X42.3933 Y39.0417 F350.00
G01 X42.4209 Y39.1511 F350.00
G01 X42.4236 Y39.1656 F350.00
G01 X42.4392 Y39.2724 F350.00
G01 X42.4449 Y39.3851 F350.00
G01 X42.4450 Y40.3900 F350.00
G01 X42.4399 Y40.4978 F350.00
G01 X42.4387 Y40.5125 F350.00
G01 X42.4219 Y40.6241 F350.00
G01 X42.3933 Y40.7383 F350.00
G01 X42.3537 Y40.8492 F350.00
G01 X42.3033 Y40.9557 F350.00
G01 X42.2428 Y41.0567 F350.00
G01 X42.1726 Y41.1513 F350.00
G01 X42.0935 Y41.2385 F350.00
G01 X42.0137 Y41.3112 F350.00
G01 X41.9985 Y41.3237 F350.00
G01 X41.9197 Y41.3821 F350.00
G01 X41.9034 Y41.3930 F350.00
G01 X41.8107 Y41.4483 F350.00
G01 X41.7132 Y41.4947 F350.00
G01 X41.6951 Y41.5022 F350.00
G01 X41.5933 Y41.5383 F350.00
G01 X41.4791 Y41.5669 F350.00
G01 X41.3626 Y41.5842 F350.00
G01 X41.2450 Y41.5900 F350.00
G01 X41.1274 Y41.5842 F350.00
G01 X41.0109 Y41.5669 F350.00
G01 X40.8967 Y41.5383 F350.00
G01 X40.7858 Y41.4987 F350.00
G01 X40.6793 Y41.4483 F350.00
G01 X40.5783 Y41.3878 F350.00
G01 X40.4837 Y41.3176 F350.00
G01 X40.4036 Y41.2453 F350.00
G01 X40.3897 Y41.2314 F350.00
G01 X40.3238 Y41.1587 F350.00
G01 X40.3113 Y41.1435 F350.00
G01 X40.2472 Y41.0567 F350.00
G01 X40.1915 Y40.9642 F350.00
G01 X40.1823 Y40.9469 F350.00
G01 X40.1363 Y40.8492 F350.00
G01 X40.0967 Y40.7383 F350.00
G01 X40.0681 Y40.6241 F350.00
G01 X40.0508 Y40.5076 F350.00
G01 X40.0450 Y40.3900 F350.00
G01 X40.0451 Y39.3851 F350.00
G01 X40.0508 Y39.2724 F350.00
G01 X40.0664 Y39.1656 F350.00
G01 X40.0691 Y39.1511 F350.00
G01 X40.0967 Y39.0417 F350.00
G01 X40.1363 Y38.9308 F350.00
G01 X40.1867 Y38.8243 F350.00
G01 X40.2446 Y38.7274 F350.00
G01 X40.2529 Y38.7153 F350.00
G01 X40.3174 Y38.6287 F350.00
G01 X40.3930 Y38.5450 F350.00
G01 X40.4036 Y38.5347 F350.00
G01 X40.4800 Y38.4655 F350.00
G01 X40.4915 Y38.4563 F350.00
G01 X40.5447 Y38.4168 F350.00
G01 X40.5447 Y34.5195 F350.00
G01 X40.5474 Y34.4606 F350.00
G01 X40.5493 Y34.4411 F350.00
G01 X40.5582 Y34.3829 F350.00
G01 X40.5749 Y34.3162 F350.00
G01 X40.5981 Y34.2515 F350.00
G01 X40.6274 Y34.1894 F350.00
G01 X40.6628 Y34.1304 F350.00
G01 X40.6977 Y34.0830 F350.00
G01 X40.7069 Y34.0715 F350.00
G01 X40.7498 Y34.0243 F350.00
G01 X41.2228 Y33.5514 F350.00
G01 X41.2702 Y33.5087 F350.00
G01 X41.3174 Y33.4734 F350.00
G01 X41.3337 Y33.4625 F350.00
G01 X41.3844 Y33.4324 F350.00
G01 X41.4465 Y33.4031 F350.00
G01 X41.5019 Y33.3830 F350.00
G01 X41.5207 Y33.3773 F350.00
G01 X41.5779 Y33.3632 F350.00
G01 X41.6458 Y33.3531 F350.00
G01 X41.7145 Y33.3497 F350.00
G01 X45.2097 Y33.3497 F350.00
G01 X45.2097 Y32.0232 F350.00
G01 X45.1487 Y31.9776 F350.00
G01 X45.0686 Y31.9053 F350.00
G01 X45.0547 Y31.8914 F350.00
G01 X44.9855 Y31.8150 F350.00
G01 X44.9763 Y31.8035 F350.00
G01 X44.9122 Y31.7167 F350.00
G01 X44.8541 Y31.6200 F350.00
G01 X44.8473 Y31.6069 F350.00
G01 X44.8013 Y31.5092 F350.00
G01 X44.7617 Y31.3983 F350.00
G01 X44.7331 Y31.2841 F350.00
G01 X44.7163 Y31.1725 F350.00
G01 X44.7151 Y31.1578 F350.00
G01 X44.7100 Y31.0500 F350.00
G01 X44.7100 Y30.0500 F350.00
G01 X44.7158 Y29.9324 F350.00
G01 X44.7314 Y29.8256 F350.00
G01 X44.7352 Y29.8063 F350.00
G01 X44.7617 Y29.7017 F350.00
G01 X44.7978 Y29.5999 F350.00
G01 X44.8053 Y29.5818 F350.00
G01 X44.8473 Y29.4931 F350.00
G01 X44.8565 Y29.4758 F350.00
G01 X44.9122 Y29.3833 F350.00
G01 X44.9824 Y29.2887 F350.00
G01 X45.0615 Y29.2015 F350.00
G01 X45.1487 Y29.1224 F350.00
G01 X45.2433 Y29.0522 F350.00
G01 X45.3358 Y28.9965 F350.00
G01 X45.3531 Y28.9873 F350.00
G01 X45.4418 Y28.9453 F350.00
G01 X45.4599 Y28.9378 F350.00
G01 X45.5617 Y28.9017 F350.00
G01 X45.6759 Y28.8731 F350.00
G01 X45.7924 Y28.8558 F350.00
G01 X45.9051 Y28.8501 F350.00
G01 X45.9198 Y28.8502 F350.00
G01 X46.0276 Y28.8558 F350.00
G01 X46.1344 Y28.8714 F350.00
G01 X46.1537 Y28.8752 F350.00
G01 X46.2489 Y28.8991 F350.00
G01 X46.2677 Y28.9048 F350.00
G01 X46.3692 Y28.9413 F350.00
G01 X46.4757 Y28.9917 F350.00
G01 X46.5767 Y29.0522 F350.00
G01 X46.6713 Y29.1224 F350.00
G01 X46.7585 Y29.2015 F350.00
G01 X46.8376 Y29.2887 F350.00
G01 X46.9078 Y29.3833 F350.00
G01 X46.9635 Y29.4758 F350.00
G01 X46.9727 Y29.4931 F350.00
G01 X47.0147 Y29.5818 F350.00
G01 X47.0222 Y29.5999 F350.00
G01 X47.0583 Y29.7017 F350.00
G01 X47.0848 Y29.8063 F350.00
G01 X47.0886 Y29.8256 F350.00
G01 X47.1042 Y29.9324 F350.00
G01 X47.1100 Y30.0500 F350.00
G01 X47.1100 Y31.0500 F350.00
G01 X47.1049 Y31.1578 F350.00
G01 X47.1037 Y31.1725 F350.00
G01 X47.0869 Y31.2841 F350.00
G01 X47.0583 Y31.3983 F350.00
G01 X47.0187 Y31.5092 F350.00
G01 X46.9727 Y31.6069 F350.00
G01 X46.9659 Y31.6200 F350.00
G01 X46.9078 Y31.7167 F350.00
G01 X46.8437 Y31.8035 F350.00
G01 X46.8345 Y31.8150 F350.00
G01 X46.7653 Y31.8914 F350.00
G01 X46.7514 Y31.9053 F350.00
G01 X46.6713 Y31.9776 F350.00
G01 X46.6103 Y32.0232 F350.00
G01 X46.6103 Y33.3497 F350.00
G01 X77.2406 Y33.3497 F350.00
G01 X77.2967 Y33.3299 F350.00
G01 X77.3634 Y33.3132 F350.00
G01 X77.4314 Y33.3031 F350.00
G01 X77.5000 Y33.2997 F350.00
G01 X86.8099 Y33.2997 F350.00
G01 X90.4897 Y29.6199 F350.00
G01 X90.4897 Y20.4232 F350.00
G01 X90.4365 Y20.3837 F350.00
G01 X90.4250 Y20.3745 F350.00
G01 X90.3486 Y20.3053 F350.00
G01 X90.3380 Y20.2950 F350.00
G01 X90.2624 Y20.2113 F350.00
G01 X90.1979 Y20.1247 F350.00
G01 X90.1896 Y20.1126 F350.00
G01 X90.1317 Y20.0157 F350.00
G01 X90.0813 Y19.9092 F350.00
G01 X90.0417 Y19.7983 F350.00
G01 X90.0152 Y19.6937 F350.00
G01 X90.0114 Y19.6744 F350.00
G01 X89.9958 Y19.5676 F350.00
G01 X89.9900 Y19.4500 F350.00
G01 X89.9900 Y17.4500 F350.00
G01 X89.9951 Y17.3422 F350.00
G01 X89.9970 Y17.3226 F350.00
G01 X90.0131 Y17.2159 F350.00
G01 X90.0417 Y17.1017 F350.00
G01 X90.0813 Y16.9908 F350.00
G01 X90.1273 Y16.8931 F350.00
G01 X90.1341 Y16.8800 F350.00
G01 X90.1922 Y16.7833 F350.00
G01 X90.2563 Y16.6965 F350.00
G01 X90.2655 Y16.6850 F350.00
G01 X90.3347 Y16.6086 F350.00
G01 X90.3486 Y16.5947 F350.00
G01 X90.4287 Y16.5224 F350.00
G01 X90.4897 Y16.4768 F350.00
G01 X90.4898 Y16.0767 F350.00
G01 X90.4931 Y16.0129 F350.00
G01 X90.5032 Y15.9450 F350.00
G01 X90.5173 Y15.8878 F350.00
G01 X90.5230 Y15.8690 F350.00
G01 X90.5431 Y15.8136 F350.00
G01 X90.5680 Y15.7602 F350.00
G01 X90.5773 Y15.7429 F350.00
G01 X90.6078 Y15.6925 F350.00
G01 X90.6487 Y15.6373 F350.00
G01 X90.6948 Y15.5864 F350.00
G01 X94.2997 Y11.9815 F350.00
G01 X94.2997 Y1.7632 F350.00
G01 X94.2465 Y1.7237 F350.00
G01 X94.2350 Y1.7145 F350.00
G01 X94.1586 Y1.6453 F350.00
G01 X94.1480 Y1.6350 F350.00
G01 X94.0724 Y1.5513 F350.00
G01 X94.0079 Y1.4647 F350.00
G01 X93.9996 Y1.4526 F350.00
G01 X93.9417 Y1.3557 F350.00
G01 X93.8913 Y1.2492 F350.00
G01 X93.8517 Y1.1383 F350.00
G01 X93.8252 Y1.0337 F350.00
G01 X93.8214 Y1.0144 F350.00
G01 X93.8058 Y0.9076 F350.00
G01 X93.8000 Y0.7900 F350.00
G01 X93.8000 Y-1.2100 F350.00
G01 X93.8051 Y-1.3178 F350.00
G01 X93.8070 Y-1.3374 F350.00
G01 X93.8231 Y-1.4441 F350.00
G01 X93.8517 Y-1.5583 F350.00
G01 X93.8913 Y-1.6692 F350.00
G01 X93.9417 Y-1.7757 F350.00
G01 X94.0022 Y-1.8767 F350.00
G01 X94.0724 Y-1.9713 F350.00
G01 X94.1515 Y-2.0585 F350.00
G01 X94.2387 Y-2.1376 F350.00
G01 X94.3333 Y-2.2078 F350.00
G01 X94.4343 Y-2.2683 F350.00
G01 X94.5408 Y-2.3187 F350.00
G01 X94.6517 Y-2.3583 F350.00
G01 X94.7659 Y-2.3869 F350.00
G01 X94.8824 Y-2.4042 F350.00
G01 X95.0000 Y-2.4100 F350.00
G01 X95.1176 Y-2.4042 F350.00
G01 X95.2341 Y-2.3869 F350.00
G01 X95.3483 Y-2.3583 F350.00
G01 X95.4592 Y-2.3187 F350.00
G01 X95.5569 Y-2.2727 F350.00
G01 X95.5742 Y-2.2635 F350.00
G01 X95.6667 Y-2.2078 F350.00
G01 X95.7535 Y-2.1437 F350.00
G01 X95.7687 Y-2.1312 F350.00
G01 X95.8414 Y-2.0653 F350.00
G01 X95.8553 Y-2.0514 F350.00
G01 X95.9276 Y-1.9713 F350.00
G01 X95.9978 Y-1.8767 F350.00
G01 X96.0583 Y-1.7757 F350.00
G01 X96.1087 Y-1.6692 F350.00
G01 X96.1483 Y-1.5583 F350.00
G01 X96.1769 Y-1.4441 F350.00
G01 X96.1942 Y-1.3276 F350.00
G01 X96.1998 Y-1.2198 F350.00
G01 X96.2000 Y0.7900 F350.00
G01 X96.1942 Y0.9076 F350.00
G01 X96.1778 Y1.0193 F350.00
G01 X96.1748 Y1.0337 F350.00
G01 X96.1483 Y1.1383 F350.00
G01 X96.1087 Y1.2492 F350.00
G01 X96.0583 Y1.3557 F350.00
G01 X96.0004 Y1.4526 F350.00
G01 X95.9921 Y1.4647 F350.00
G01 X95.9276 Y1.5513 F350.00
G01 X95.8520 Y1.6350 F350.00
G01 X95.8414 Y1.6453 F350.00
G01 X95.7650 Y1.7145 F350.00
G01 X95.7535 Y1.7237 F350.00
G01 X95.7003 Y1.7632 F350.00
G01 X95.7003 Y12.2716 F350.00
G01 X95.6976 Y12.3304 F350.00
G01 X95.6963 Y12.3451 F350.00
G01 X95.6868 Y12.4082 F350.00
G01 X95.6701 Y12.4748 F350.00
G01 X95.6469 Y12.5395 F350.00
G01 X95.6220 Y12.5929 F350.00
G01 X95.6152 Y12.6060 F350.00
G01 X95.5875 Y12.6523 F350.00
G01 X95.5766 Y12.6686 F350.00
G01 X95.5413 Y12.7158 F350.00
G01 X95.4986 Y12.7632 F350.00
G01 X91.8903 Y16.3716 F350.00
G01 X91.8903 Y16.4768 F350.00
G01 X91.9513 Y16.5224 F350.00
G01 X92.0350 Y16.5980 F350.00
G01 X92.0453 Y16.6086 F350.00
G01 X92.1176 Y16.6887 F350.00
G01 X92.1821 Y16.7753 F350.00
G01 X92.1930 Y16.7916 F350.00
G01 X92.2483 Y16.8843 F350.00
G01 X92.2947 Y16.9818 F350.00
G01 X92.3022 Y16.9999 F350.00
G01 X92.3383 Y17.1017 F350.00
G01 X92.3669 Y17.2159 F350.00
G01 X92.3842 Y17.3324 F350.00
G01 X92.3900 Y17.4500 F350.00
G01 X92.3900 Y19.4500 F350.00
G01 X92.3842 Y19.5676 F350.00
G01 X92.3678 Y19.6793 F350.00
G01 X92.3648 Y19.6937 F350.00
G01 X92.3383 Y19.7983 F350.00
G01 X92.2987 Y19.9092 F350.00
G01 X92.2483 Y20.0157 F350.00
G01 X92.1904 Y20.1126 F350.00
G01 X92.1821 Y20.1247 F350.00
G01 X92.1176 Y20.2113 F350.00
G01 X92.0420 Y20.2950 F350.00
G01 X92.0314 Y20.3053 F350.00
G01 X91.9550 Y20.3745 F350.00
G01 X91.9435 Y20.3837 F350.00
G01 X91.8903 Y20.4232 F350.00
G01 X91.8903 Y24.6897 F350.00
G01 X98.8199 Y24.6897 F350.00
G01 X101.7148 Y21.7948 F350.00
G01 X101.7658 Y21.7487 F350.00
G01 X101.8210 Y21.7078 F350.00
G01 X101.8799 Y21.6724 F350.00
G01 X101.9420 Y21.6431 F350.00
G01 X102.0067 Y21.6199 F350.00
G01 X102.0734 Y21.6032 F350.00
G01 X102.1414 Y21.5931 F350.00
G01 X102.2100 Y21.5897 F350.00
G01 X106.4299 Y21.5897 F350.00
G01 X108.5100 Y19.5097 F350.00
G01 X108.5100 Y17.8000 F350.00
G01 X108.5105 Y17.7853 F350.00
G01 X108.5115 Y17.7755 F350.00
G01 X108.5138 Y17.7610 F350.00
G01 X108.5160 Y17.7514 F350.00
G01 X108.5201 Y17.7373 F350.00
G01 X108.5252 Y17.7235 F350.00
G01 X108.5292 Y17.7145 F350.00
G01 X108.5360 Y17.7014 F350.00
G01 X108.5410 Y17.6930 F350.00
G01 X108.5494 Y17.6809 F350.00
G01 X108.5586 Y17.6694 F350.00
G01 X108.5652 Y17.6621 F350.00
G01 X108.5721 Y17.6552 F350.00
G01 X108.5831 Y17.6454 F350.00
G01 X108.5948 Y17.6365 F350.00
G01 X108.6030 Y17.6310 F350.00
G01 X108.6114 Y17.6260 F350.00
G01 X108.6245 Y17.6192 F350.00
G01 X108.6380 Y17.6134 F350.00
G01 X108.6519 Y17.6086 F350.00
G01 X108.6662 Y17.6049 F350.00
G01 X108.6758 Y17.6029 F350.00
G01 X108.6904 Y17.6010 F350.00
G01 X108.7051 Y17.6001 F350.00
G01 X109.0097 Y17.6000 F350.00
G01 X109.0097 Y15.5000 F350.00
G01 X109.0131 Y15.4314 F350.00
G01 X109.0215 Y15.3731 F350.00
G01 X109.0242 Y15.3586 F350.00
G01 X109.0399 Y15.2967 F350.00
G01 X109.0595 Y15.2412 F350.00
G01 X109.0670 Y15.2231 F350.00
G01 X109.0924 Y15.1699 F350.00
G01 X109.1225 Y15.1193 F350.00
G01 X109.1334 Y15.1029 F350.00
G01 X109.1687 Y15.0558 F350.00
G01 X109.2081 Y15.0120 F350.00
G01 X109.2220 Y14.9981 F350.00
G01 X109.2658 Y14.9587 F350.00
G01 X109.3129 Y14.9234 F350.00
G01 X109.3293 Y14.9125 F350.00
G01 X109.3799 Y14.8824 F350.00
G01 X109.4331 Y14.8570 F350.00
G01 X109.4512 Y14.8495 F350.00
G01 X109.4974 Y14.8330 F350.00
G01 X109.5114 Y14.8285 F350.00
G01 X109.5734 Y14.8132 F350.00
G01 X109.6316 Y14.8043 F350.00
G01 X109.6512 Y14.8024 F350.00
G01 X109.7100 Y14.7997 F350.00
G01 X125.4600 Y14.7997 F350.00
G01 X125.5188 Y14.8024 F350.00
G01 X125.5384 Y14.8043 F350.00
G01 X125.5966 Y14.8132 F350.00
G01 X125.6538 Y14.8273 F350.00
G01 X125.6726 Y14.8330 F350.00
G01 X125.7280 Y14.8531 F350.00
G01 X125.7813 Y14.8780 F350.00
G01 X125.7944 Y14.8848 F350.00
G01 X125.8407 Y14.9125 F350.00
G01 X125.8571 Y14.9234 F350.00
G01 X125.9042 Y14.9587 F350.00
G01 X125.9480 Y14.9981 F350.00
G01 X125.9619 Y15.0120 F350.00
G01 X126.0013 Y15.0558 F350.00
G01 X126.0422 Y15.1110 F350.00
G01 X126.0776 Y15.1699 F350.00
G01 X126.1030 Y15.2231 F350.00
G01 X126.1105 Y15.2412 F350.00
G01 X126.1301 Y15.2967 F350.00
G01 X126.1446 Y15.3538 F350.00
G01 X126.1485 Y15.3731 F350.00
G01 X126.1563 Y15.4265 F350.00
G01 X126.1576 Y15.4412 F350.00
G01 X126.1603 Y15.5000 F350.00
G01 X126.1603 Y17.6000 F350.00
G01 X126.4649 Y17.6001 F350.00
G01 X126.4845 Y17.6015 F350.00
G01 X126.4990 Y17.6038 F350.00
G01 X126.5133 Y17.6072 F350.00
G01 X126.5320 Y17.6134 F350.00
G01 X126.5455 Y17.6192 F350.00
G01 X126.5586 Y17.6260 F350.00
G01 X126.5711 Y17.6337 F350.00
G01 X126.5830 Y17.6423 F350.00
G01 X126.5943 Y17.6518 F350.00
G01 X126.6048 Y17.6621 F350.00
G01 X126.6146 Y17.6731 F350.00
G01 X126.6235 Y17.6848 F350.00
G01 X126.6290 Y17.6930 F350.00
G01 X126.6364 Y17.7057 F350.00
G01 X126.6428 Y17.7190 F350.00
G01 X126.6483 Y17.7326 F350.00
G01 X126.6528 Y17.7467 F350.00
G01 X126.6562 Y17.7610 F350.00
G01 X126.6585 Y17.7755 F350.00
G01 X126.6598 Y17.7902 F350.00
G01 X126.6600 Y20.8000 F350.00
G01 X126.6590 Y20.8196 F350.00
G01 X126.6571 Y20.8342 F350.00
G01 X126.6540 Y20.8486 F350.00
G01 X126.6499 Y20.8627 F350.00
G01 X126.6448 Y20.8765 F350.00
G01 X126.6408 Y20.8855 F350.00
G01 X126.6340 Y20.8986 F350.00
G01 X126.6263 Y20.9111 F350.00
G01 X126.6177 Y20.9230 F350.00
G01 X126.6082 Y20.9343 F350.00
G01 X126.5979 Y20.9448 F350.00
G01 X126.5869 Y20.9546 F350.00
G01 X126.5752 Y20.9635 F350.00
G01 X126.5628 Y20.9715 F350.00
G01 X126.5499 Y20.9786 F350.00
G01 X126.5365 Y20.9848 F350.00
G01 X126.5274 Y20.9883 F350.00
G01 X126.5133 Y20.9928 F350.00
G01 X126.4990 Y20.9962 F350.00
G01 X126.4845 Y20.9985 F350.00
G01 X126.4649 Y20.9999 F350.00
G01 X126.1603 Y21.0000 F350.00
G01 X126.1603 Y23.0997 F350.00
G01 X131.5000 Y23.0997 F350.00
G01 X131.5588 Y23.1024 F350.00
G01 X131.5784 Y23.1043 F350.00
G01 X131.6366 Y23.1132 F350.00
G01 X131.6986 Y23.1285 F350.00
G01 X131.7126 Y23.1330 F350.00
G01 X131.7680 Y23.1531 F350.00
G01 X131.8213 Y23.1780 F350.00
G01 X131.8386 Y23.1873 F350.00
G01 X131.8890 Y23.2178 F350.00
G01 X131.9365 Y23.2527 F350.00
G01 X131.9517 Y23.2651 F350.00
G01 X131.9916 Y23.3014 F350.00
G01 X133.4952 Y24.8048 F350.00
G01 X133.5413 Y24.8558 F350.00
G01 X133.5766 Y24.9029 F350.00
G01 X133.5875 Y24.9193 F350.00
G01 X133.6176 Y24.9699 F350.00
G01 X133.6430 Y25.0231 F350.00
G01 X133.6505 Y25.0412 F350.00
G01 X133.6701 Y25.0967 F350.00
G01 X133.6846 Y25.1538 F350.00
G01 X133.6885 Y25.1731 F350.00
G01 X133.6969 Y25.2314 F350.00
G01 X133.7003 Y25.3000 F350.00
G01 X133.7003 Y48.0500 F350.00
G01 X133.6969 Y48.1186 F350.00
G01 X133.6868 Y48.1866 F350.00
G01 X133.6701 Y48.2533 F350.00
G01 X133.6469 Y48.3180 F350.00
G01 X133.6220 Y48.3713 F350.00
G01 X133.6152 Y48.3844 F350.00
G01 X133.5875 Y48.4307 F350.00
G01 X133.5766 Y48.4471 F350.00
G01 X133.5413 Y48.4942 F350.00
G01 X133.4952 Y48.5452 F350.00
G01 X128.9916 Y53.0486 F350.00
G01 X128.9442 Y53.0913 F350.00
G01 X128.8971 Y53.1266 F350.00
G01 X128.8807 Y53.1375 F350.00
G01 X128.8301 Y53.1676 F350.00
G01 X128.7680 Y53.1969 F350.00
G01 X128.7126 Y53.2170 F350.00
G01 X128.6938 Y53.2227 F350.00
G01 X128.6366 Y53.2368 F350.00
G01 X128.5686 Y53.2469 F350.00
G01 X128.5000 Y53.2503 F350.00
G01 X107.2232 Y53.2503 F350.00
G01 X107.1776 Y53.3113 F350.00
G01 X107.1020 Y53.3950 F350.00
G01 X107.0914 Y53.4053 F350.00
G01 X107.0187 Y53.4712 F350.00
G01 X107.0074 Y53.4807 F350.00
G01 X106.9167 Y53.5478 F350.00
G01 X106.8242 Y53.6035 F350.00
G01 X106.8069 Y53.6127 F350.00
G01 X106.7182 Y53.6547 F350.00
G01 X106.7047 Y53.6605 F350.00
G01 X106.6904 Y53.6657 F350.00
G01 X106.6904 Y55.1879 F350.00
G01 X106.7082 Y55.1953 F350.00
G01 X106.7969 Y55.2373 F350.00
G01 X106.8142 Y55.2465 F350.00
G01 X106.9067 Y55.3022 F350.00
G01 X107.0013 Y55.3724 F350.00
G01 X107.0885 Y55.4515 F350.00
G01 X107.1612 Y55.5313 F350.00
G01 X107.1737 Y55.5465 F350.00
G01 X107.2321 Y55.6253 F350.00
G01 X107.2430 Y55.6416 F350.00
G01 X107.2983 Y55.7343 F350.00
G01 X107.3487 Y55.8408 F350.00
G01 X107.3883 Y55.9517 F350.00
G01 X107.4148 Y56.0563 F350.00
G01 X107.4186 Y56.0756 F350.00
G01 X107.4330 Y56.1726 F350.00
G01 X107.4349 Y56.1922 F350.00
G01 X107.4400 Y56.3000 F350.00
G01 X107.4342 Y56.4176 F350.00
G01 X107.4169 Y56.5341 F350.00
G01 X107.3909 Y56.6389 F350.00
G01 X107.3852 Y56.6577 F350.00
G01 X107.3487 Y56.7592 F350.00
G01 X107.3027 Y56.8569 F350.00
G01 X107.2935 Y56.8742 F350.00
G01 X107.2378 Y56.9667 F350.00
G01 X107.1737 Y57.0535 F350.00
G01 X107.1612 Y57.0687 F350.00
G01 X107.0885 Y57.1485 F350.00
G01 X107.0087 Y57.2212 F350.00
G01 X106.9935 Y57.2337 F350.00
G01 X106.9067 Y57.2978 F350.00
G01 X106.8142 Y57.3535 F350.00
G01 X106.7969 Y57.3627 F350.00
G01 X106.7082 Y57.4047 F350.00
G01 X106.6904 Y57.4121 F350.00
G01 X106.6904 Y58.9379 F350.00
G01 X106.7082 Y58.9453 F350.00
G01 X106.7969 Y58.9873 F350.00
G01 X106.8142 Y58.9965 F350.00
G01 X106.9067 Y59.0522 F350.00
G01 X107.0013 Y59.1224 F350.00
G01 X107.0885 Y59.2015 F350.00
G01 X107.1612 Y59.2813 F350.00
G01 X107.1737 Y59.2965 F350.00
G01 X107.2321 Y59.3753 F350.00
G01 X107.2430 Y59.3916 F350.00
G01 X107.2983 Y59.4843 F350.00
G01 X107.3487 Y59.5908 F350.00
G01 X107.3883 Y59.7017 F350.00
G01 X107.4148 Y59.8063 F350.00
G01 X107.4186 Y59.8256 F350.00
G01 X107.4330 Y59.9226 F350.00
G01 X107.4349 Y59.9422 F350.00
G01 X107.4400 Y60.0500 F350.00
G01 X107.4349 Y60.1578 F350.00
G01 X107.4337 Y60.1725 F350.00
G01 X107.4169 Y60.2841 F350.00
G01 X107.3883 Y60.3983 F350.00
G01 X107.3487 Y60.5092 F350.00
G01 X107.3027 Y60.6069 F350.00
G01 X107.2935 Y60.6242 F350.00
G01 X107.2378 Y60.7167 F350.00
G01 X107.1737 Y60.8035 F350.00
G01 X107.1612 Y60.8187 F350.00
G01 X107.0953 Y60.8914 F350.00
G01 X107.0814 Y60.9053 F350.00
G01 X107.0013 Y60.9776 F350.00
G01 X106.9067 Y61.0478 F350.00
G01 X106.8057 Y61.1083 F350.00
G01 X106.6992 Y61.1587 F350.00
G01 X106.5883 Y61.1983 F350.00
G01 X106.4741 Y61.2269 F350.00
G01 X106.3576 Y61.2442 F350.00
G01 X106.2498 Y61.2498 F350.00
G01 X105.2400 Y61.2500 F350.00
G01 X105.1322 Y61.2449 F350.00
G01 X105.1126 Y61.2430 F350.00
G01 X105.0156 Y61.2286 F350.00
G01 X104.9963 Y61.2248 F350.00
G01 X104.8917 Y61.1983 F350.00
G01 X104.7853 Y61.1605 F350.00
G01 X104.7718 Y61.1547 F350.00
G01 X104.6743 Y61.1083 F350.00
G01 X104.5733 Y61.0478 F350.00
G01 X104.4787 Y60.9776 F350.00
G01 X104.3986 Y60.9053 F350.00
G01 X104.3847 Y60.8914 F350.00
G01 X104.3188 Y60.8187 F350.00
G01 X104.3063 Y60.8035 F350.00
G01 X104.2422 Y60.7167 F350.00
G01 X104.1865 Y60.6242 F350.00
G01 X104.1773 Y60.6069 F350.00
G01 X104.1313 Y60.5092 F350.00
G01 X104.0948 Y60.4077 F350.00
G01 X104.0891 Y60.3889 F350.00
G01 X104.0631 Y60.2841 F350.00
G01 X104.0458 Y60.1676 F350.00
G01 X104.0400 Y60.0500 F350.00
G01 X104.0451 Y59.9422 F350.00
G01 X104.0470 Y59.9226 F350.00
G01 X104.0631 Y59.8159 F350.00
G01 X104.0891 Y59.7111 F350.00
G01 X104.0948 Y59.6923 F350.00
G01 X104.1278 Y59.5999 F350.00
G01 X104.1353 Y59.5818 F350.00
G01 X104.1817 Y59.4843 F350.00
G01 X104.2422 Y59.3833 F350.00
G01 X104.3124 Y59.2887 F350.00
G01 X104.3915 Y59.2015 F350.00
G01 X104.4787 Y59.1224 F350.00
G01 X104.5733 Y59.0522 F350.00
G01 X104.6743 Y58.9917 F350.00
G01 X104.7718 Y58.9453 F350.00
G01 X104.7896 Y58.9379 F350.00
G01 X104.7896 Y57.4121 F350.00
G01 X104.7718 Y57.4047 F350.00
G01 X104.6831 Y57.3627 F350.00
G01 X104.6658 Y57.3535 F350.00
G01 X104.5733 Y57.2978 F350.00
G01 X104.4787 Y57.2276 F350.00
G01 X104.3986 Y57.1553 F350.00
G01 X104.3847 Y57.1414 F350.00
G01 X104.3124 Y57.0613 F350.00
G01 X104.2422 Y56.9667 F350.00
G01 X104.1817 Y56.8657 F350.00
G01 X104.1353 Y56.7682 F350.00
G01 X104.1278 Y56.7501 F350.00
G01 X104.0917 Y56.6483 F350.00
G01 X104.0631 Y56.5341 F350.00
G01 X104.0470 Y56.4274 F350.00
G01 X104.0451 Y56.4078 F350.00
G01 X104.0400 Y56.3000 F350.00
G01 X104.0451 Y56.1922 F350.00
G01 X104.0470 Y56.1726 F350.00
G01 X104.0631 Y56.0659 F350.00
G01 X104.0917 Y55.9517 F350.00
G01 X104.1278 Y55.8499 F350.00
G01 X104.1353 Y55.8318 F350.00
G01 X104.1817 Y55.7343 F350.00
G01 X104.2422 Y55.6333 F350.00
G01 X104.3124 Y55.5387 F350.00
G01 X104.3847 Y55.4586 F350.00
G01 X104.3986 Y55.4447 F350.00
G01 X104.4787 Y55.3724 F350.00
G01 X104.5733 Y55.3022 F350.00
G01 X104.6658 Y55.2465 F350.00
G01 X104.6831 Y55.2373 F350.00
G01 X104.7718 Y55.1953 F350.00
G01 X104.7896 Y55.1879 F350.00
G01 X104.7896 Y53.6582 F350.00
G01 X104.6843 Y53.6083 F350.00
G01 X104.5833 Y53.5478 F350.00
G01 X104.4887 Y53.4776 F350.00
G01 X104.4086 Y53.4053 F350.00
G01 X104.3947 Y53.3914 F350.00
G01 X104.3288 Y53.3187 F350.00
G01 X104.3163 Y53.3035 F350.00
G01 X104.2522 Y53.2167 F350.00
G01 X104.1965 Y53.1242 F350.00
G01 X104.1873 Y53.1069 F350.00
G01 X104.1413 Y53.0092 F350.00
G01 X104.1048 Y52.9077 F350.00
G01 X104.0991 Y52.8889 F350.00
G01 X104.0731 Y52.7841 F350.00
G01 X104.0558 Y52.6676 F350.00
G01 X104.0500 Y52.5500 F350.00
G01 X104.0558 Y52.4324 F350.00
G01 X104.0731 Y52.3159 F350.00
G01 X104.1017 Y52.2017 F350.00
G01 X104.1413 Y52.0908 F350.00
G01 X104.1873 Y51.9931 F350.00
G01 X104.1925 Y51.9828 F350.00
G01 X102.4099 Y50.2003 F350.00
G01 X82.5901 Y50.2003 F350.00
G01 X82.5853 Y50.2050 F350.00
G01 X88.5352 Y56.1548 F350.00
G01 X88.5749 Y56.1983 F350.00
G01 X88.5873 Y56.2135 F350.00
G01 X88.6222 Y56.2610 F350.00
G01 X88.6527 Y56.3114 F350.00
G01 X88.6620 Y56.3287 F350.00
G01 X88.6869 Y56.3820 F350.00
G01 X88.7070 Y56.4374 F350.00
G01 X88.7115 Y56.4514 F350.00
G01 X88.7268 Y56.5134 F350.00
G01 X88.7357 Y56.5716 F350.00
G01 X88.7376 Y56.5912 F350.00
G01 X88.7402 Y56.6451 F350.00
G01 X88.7403 Y57.8268 F350.00
G01 X88.8013 Y57.8724 F350.00
G01 X88.8814 Y57.9447 F350.00
G01 X88.8953 Y57.9586 F350.00
G01 X88.9645 Y58.0350 F350.00
G01 X88.9737 Y58.0465 F350.00
G01 X89.0378 Y58.1333 F350.00
G01 X89.0959 Y58.2300 F350.00
G01 X89.1027 Y58.2431 F350.00
G01 X89.1487 Y58.3408 F350.00
G01 X89.1883 Y58.4517 F350.00
G01 X89.2169 Y58.5659 F350.00
G01 X89.2337 Y58.6775 F350.00
G01 X89.2349 Y58.6922 F350.00
G01 X89.2400 Y58.8000 F350.00
G01 X89.2399 Y60.8049 F350.00
G01 X89.2349 Y60.9078 F350.00
G01 X89.2330 Y60.9274 F350.00
G01 X89.2169 Y61.0341 F350.00
G01 X89.1909 Y61.1389 F350.00
G01 X89.1852 Y61.1577 F350.00
G01 X89.1487 Y61.2592 F350.00
G01 X89.1027 Y61.3569 F350.00
G01 X89.0959 Y61.3700 F350.00
G01 X89.0378 Y61.4667 F350.00
G01 X88.9737 Y61.5535 F350.00
G01 X88.9612 Y61.5687 F350.00
G01 X88.8885 Y61.6485 F350.00
G01 X88.8087 Y61.7212 F350.00
G01 X88.7974 Y61.7307 F350.00
G01 X88.7067 Y61.7978 F350.00
G01 X88.6378 Y61.8394 F350.00
G01 X88.6378 Y62.2500 F350.00
G01 X88.8248 Y62.2501 F350.00
G01 X88.8755 Y62.2527 F350.00
G01 X88.9209 Y62.2592 F350.00
G01 X88.9402 Y62.2631 F350.00
G01 X88.9799 Y62.2731 F350.00
G01 X88.9940 Y62.2775 F350.00
G01 X89.0371 Y62.2932 F350.00
G01 X89.0787 Y62.3126 F350.00
G01 X89.0917 Y62.3194 F350.00
G01 X89.1352 Y62.3457 F350.00
G01 X89.1800 Y62.3789 F350.00
G01 X89.2212 Y62.4163 F350.00
G01 X89.2586 Y62.4575 F350.00
G01 X89.2918 Y62.5023 F350.00
G01 X89.3205 Y62.5501 F350.00
G01 X89.3443 Y62.6004 F350.00
G01 X89.3631 Y62.6529 F350.00
G01 X89.3744 Y62.6973 F350.00
G01 X89.3783 Y62.7166 F350.00
G01 X89.3848 Y62.7620 F350.00
G01 X89.3875 Y62.8176 F350.00
G01 X89.3875 Y64.5824 F350.00
G01 X89.3848 Y64.6380 F350.00
G01 X89.3766 Y64.6931 F350.00
G01 X89.3657 Y64.7377 F350.00
G01 X89.3600 Y64.7565 F350.00
G01 X89.3443 Y64.7996 F350.00
G01 X89.3205 Y64.8499 F350.00
G01 X89.2971 Y64.8894 F350.00
G01 X89.2862 Y64.9057 F350.00
G01 X89.2586 Y64.9425 F350.00
G01 X89.2212 Y64.9837 F350.00
G01 X89.1874 Y65.0147 F350.00
G01 X89.1722 Y65.0272 F350.00
G01 X89.1352 Y65.0543 F350.00
G01 X89.0874 Y65.0830 F350.00
G01 X89.0371 Y65.1068 F350.00
G01 X88.9940 Y65.1225 F350.00
G01 X88.9752 Y65.1282 F350.00
G01 X88.9402 Y65.1369 F350.00
G01 X88.9258 Y65.1400 F350.00
G01 X88.8755 Y65.1473 F350.00
G01 X88.8199 Y65.1500 F350.00
G01 X87.0551 Y65.1500 F350.00
G01 X86.9995 Y65.1473 F350.00
G01 X86.9541 Y65.1408 F350.00
G01 X86.9348 Y65.1369 F350.00
G01 X86.8998 Y65.1282 F350.00
G01 X86.8857 Y65.1241 F350.00
G01 X86.8379 Y65.1068 F350.00
G01 X86.7963 Y65.0874 F350.00
G01 X86.7790 Y65.0781 F350.00
G01 X86.7398 Y65.0543 F350.00
G01 X86.7028 Y65.0272 F350.00
G01 X86.6876 Y65.0147 F350.00
G01 X86.6538 Y64.9837 F350.00
G01 X86.6228 Y64.9499 F350.00
G01 X86.6103 Y64.9347 F350.00
G01 X86.5832 Y64.8977 F350.00
G01 X86.5594 Y64.8585 F350.00
G01 X86.5501 Y64.8412 F350.00
G01 X86.5307 Y64.7996 F350.00
G01 X86.5150 Y64.7565 F350.00
G01 X86.5093 Y64.7377 F350.00
G01 X86.5006 Y64.7027 F350.00
G01 X86.4975 Y64.6883 F350.00
G01 X86.4902 Y64.6380 F350.00
G01 X86.4875 Y64.5824 F350.00
G01 X86.4875 Y62.8176 F350.00
G01 X86.4895 Y62.7718 F350.00
G01 X86.4914 Y62.7523 F350.00
G01 X86.4984 Y62.7069 F350.00
G01 X86.5119 Y62.6529 F350.00
G01 X86.5307 Y62.6004 F350.00
G01 X86.5501 Y62.5588 F350.00
G01 X86.5569 Y62.5458 F350.00
G01 X86.5805 Y62.5064 F350.00
G01 X86.5888 Y62.4943 F350.00
G01 X86.6164 Y62.4575 F350.00
G01 X86.6470 Y62.4234 F350.00
G01 X86.6573 Y62.4128 F350.00
G01 X86.6913 Y62.3820 F350.00
G01 X86.7028 Y62.3728 F350.00
G01 X86.7357 Y62.3484 F350.00
G01 X86.7481 Y62.3404 F350.00
G01 X86.7876 Y62.3170 F350.00
G01 X86.8379 Y62.2932 F350.00
G01 X86.8904 Y62.2744 F350.00
G01 X86.9444 Y62.2609 F350.00
G01 X86.9995 Y62.2527 F350.00
G01 X87.0453 Y62.2502 F350.00
G01 X87.2372 Y62.2500 F350.00
G01 X87.2372 Y61.6903 F350.00
G01 X87.1986 Y61.6553 F350.00
G01 X87.1880 Y61.6450 F350.00
G01 X87.1188 Y61.5687 F350.00
G01 X87.1093 Y61.5574 F350.00
G01 X87.0422 Y61.4667 F350.00
G01 X86.9865 Y61.3742 F350.00
G01 X86.9794 Y61.3613 F350.00
G01 X86.9313 Y61.2592 F350.00
G01 X86.8917 Y61.1483 F350.00
G01 X86.8631 Y61.0341 F350.00
G01 X86.8463 Y60.9225 F350.00
G01 X86.8451 Y60.9078 F350.00
G01 X86.8400 Y60.8000 F350.00
G01 X86.8401 Y58.7951 F350.00
G01 X86.8451 Y58.6922 F350.00
G01 X86.8470 Y58.6726 F350.00
G01 X86.8631 Y58.5659 F350.00
G01 X86.8891 Y58.4611 F350.00
G01 X86.8948 Y58.4423 F350.00
G01 X86.9313 Y58.3408 F350.00
G01 X86.9794 Y58.2387 F350.00
G01 X86.9865 Y58.2258 F350.00
G01 X87.0422 Y58.1333 F350.00
G01 X87.1063 Y58.0465 F350.00
G01 X87.1155 Y58.0350 F350.00
G01 X87.1847 Y57.9586 F350.00
G01 X87.1986 Y57.9447 F350.00
G01 X87.2787 Y57.8724 F350.00
G01 X87.3397 Y57.8268 F350.00
G01 X87.3397 Y56.9401 F350.00
G01 X77.2099 Y46.8103 F350.00
G01 X34.5100 Y46.8103 F350.00
G01 X34.4512 Y46.8076 F350.00
G01 X34.4365 Y46.8063 F350.00
G01 X34.3734 Y46.7968 F350.00
G01 X34.3067 Y46.7801 F350.00
G01 X34.2420 Y46.7569 F350.00
G01 X34.1887 Y46.7320 F350.00
G01 X34.1756 Y46.7252 F350.00
G01 X34.1293 Y46.6975 F350.00
G01 X34.1129 Y46.6866 F350.00
G01 X34.0658 Y46.6513 F350.00
G01 X34.0184 Y46.6086 F350.00
G01 X26.1099 Y38.7003 F350.00
G01 X15.8000 Y38.7003 F350.00
G01 X15.7412 Y38.6976 F350.00
G01 X15.7216 Y38.6957 F350.00
G01 X15.6634 Y38.6868 F350.00
G01 X15.5967 Y38.6701 F350.00
G01 X15.5320 Y38.6469 F350.00
G01 X15.4787 Y38.6220 F350.00
G01 X15.4656 Y38.6152 F350.00
G01 X15.4193 Y38.5875 F350.00
G01 X15.4029 Y38.5766 F350.00
G01 X15.3558 Y38.5413 F350.00
G01 X15.3048 Y38.4952 F350.00
G01 X9.7014 Y32.8916 F350.00
G01 X9.6587 Y32.8442 F350.00
G01 X9.6234 Y32.7971 F350.00
G01 X9.6125 Y32.7807 F350.00
G01 X9.5824 Y32.7301 F350.00
G01 X9.5531 Y32.6680 F350.00
G01 X9.5330 Y32.6126 F350.00
G01 X9.5273 Y32.5938 F350.00
G01 X9.5154 Y32.5462 F350.00
G01 X9.5123 Y32.5318 F350.00
G01 X9.5031 Y32.4686 F350.00
G01 X9.4997 Y32.4000 F350.00
G01 X9.4998 Y28.5951 F350.00
G01 X9.5024 Y28.5412 F350.00
G01 X9.5043 Y28.5216 F350.00
G01 X9.5132 Y28.4634 F350.00
G01 X9.5273 Y28.4062 F350.00
G01 X9.5330 Y28.3874 F350.00
G01 X9.5531 Y28.3320 F350.00
G01 X9.5780 Y28.2787 F350.00
G01 X9.5848 Y28.2656 F350.00
G01 X9.6178 Y28.2110 F350.00
G01 X9.6527 Y28.1635 F350.00
G01 X9.6651 Y28.1483 F350.00
G01 X9.7048 Y28.1048 F350.00
G01 X11.4425 Y26.3672 F350.00
G01 X11.4373 Y26.3569 F350.00
G01 X11.3953 Y26.2682 F350.00
G01 X11.3878 Y26.2501 F350.00
G01 X11.3517 Y26.1483 F350.00
G01 X11.3231 Y26.0341 F350.00
G01 X11.3058 Y25.9176 F350.00
G01 X11.3002 Y25.8098 F350.00
G01 X11.3002 Y25.7902 F350.00
G01 X11.3051 Y25.6922 F350.00
G01 X11.3070 Y25.6726 F350.00
G01 X11.3231 Y25.5659 F350.00
G01 X11.3517 Y25.4517 F350.00
G01 X11.3913 Y25.3408 F350.00
G01 X11.4373 Y25.2431 F350.00
G01 X11.4465 Y25.2258 F350.00
G01 X11.4970 Y25.1416 F350.00
G01 X11.5079 Y25.1253 F350.00
G01 X11.5724 Y25.0387 F350.00
G01 X11.6515 Y24.9515 F350.00
G01 X11.7313 Y24.8788 F350.00
G01 X11.7465 Y24.8663 F350.00
G01 X11.8333 Y24.8022 F350.00
G01 X11.9343 Y24.7417 F350.00
G01 X12.0318 Y24.6953 F350.00
G01 X12.0499 Y24.6878 F350.00
G01 X12.1517 Y24.6517 F350.00
G01 X12.2611 Y24.6241 F350.00
G01 X12.2756 Y24.6214 F350.00
G01 X12.3824 Y24.6058 F350.00
G01 X12.4951 Y24.6001 F350.00
G01 X13.2097 Y24.6000 F350.00
G01 X14.9497 Y22.8599 F350.00
G01 X14.9497 Y16.8401 F350.00
G01 X12.1888 Y14.0792 F350.00
G01 X12.1427 Y14.0282 F350.00
G01 X12.1018 Y13.9730 F350.00
G01 X12.0713 Y13.9226 F350.00
G01 X12.0620 Y13.9053 F350.00
G01 X12.0371 Y13.8520 F350.00
G01 X12.0170 Y13.7966 F350.00
G01 X12.0113 Y13.7778 F350.00
G01 X11.9982 Y13.7254 F350.00
G01 X11.9955 Y13.7109 F350.00
G01 X11.9871 Y13.6526 F350.00
G01 X11.9838 Y13.5889 F350.00
G01 X11.9837 Y13.3000 F350.00
G01 X11.6791 Y13.2999 F350.00
G01 X11.6595 Y13.2985 F350.00
G01 X11.6402 Y13.2951 F350.00
G01 X11.6307 Y13.2928 F350.00
G01 X11.6166 Y13.2883 F350.00
G01 X11.5985 Y13.2808 F350.00
G01 X11.5812 Y13.2715 F350.00
G01 X11.5649 Y13.2606 F350.00
G01 X11.5534 Y13.2514 F350.00
G01 X11.5461 Y13.2448 F350.00
G01 X11.5326 Y13.2306 F350.00
G01 X11.5205 Y13.2152 F350.00
G01 X11.5100 Y13.1986 F350.00
G01 X11.5032 Y13.1855 F350.00
G01 X11.4992 Y13.1765 F350.00
G01 X11.4941 Y13.1627 F350.00
G01 X11.4912 Y13.1533 F350.00
G01 X11.4878 Y13.1390 F350.00
G01 X11.4855 Y13.1245 F350.00
G01 X11.4842 Y13.1098 F350.00
G01 X11.4840 Y13.1000 F350.00
G01 X11.4841 Y10.0951 F350.00
G01 X11.4850 Y10.0804 F350.00
G01 X11.4869 Y10.0658 F350.00
G01 X11.4912 Y10.0467 F350.00
G01 X11.4957 Y10.0326 F350.00
G01 X11.5012 Y10.0190 F350.00
G01 X11.5076 Y10.0057 F350.00
G01 X11.5150 Y9.9930 F350.00
G01 X11.5234 Y9.9809 F350.00
G01 X11.5326 Y9.9694 F350.00
G01 X11.5426 Y9.9586 F350.00
G01 X11.5534 Y9.9486 F350.00
G01 X11.5649 Y9.9394 F350.00
G01 X11.5770 Y9.9310 F350.00
G01 X11.5897 Y9.9236 F350.00
G01 X11.6030 Y9.9172 F350.00
G01 X11.6202 Y9.9105 F350.00
G01 X10.2099 Y8.5003 F350.00
G01 X-0.5997 Y8.5003 F350.00
G01 X-0.5997 Y32.8599 F350.00
G01 X0.2153 Y33.6750 F350.00
G01 X1.4250 Y33.6750 F350.00
G01 X1.5157 Y33.6795 F350.00
G01 X1.6055 Y33.6928 F350.00
G01 X1.6841 Y33.7122 F350.00
G01 X1.7028 Y33.7179 F350.00
G01 X1.7790 Y33.7454 F350.00
G01 X1.8523 Y33.7798 F350.00
G01 X1.8696 Y33.7891 F350.00
G01 X1.9348 Y33.8282 F350.00
G01 X1.9469 Y33.8365 F350.00
G01 X2.0041 Y33.8789 F350.00
G01 X2.0192 Y33.8914 F350.00
G01 X2.0791 Y33.9459 F350.00
G01 X2.1336 Y34.0058 F350.00
G01 X2.1461 Y34.0209 F350.00
G01 X2.1941 Y34.0861 F350.00
G01 X2.2359 Y34.1554 F350.00
G01 X2.2452 Y34.1727 F350.00
G01 X2.2796 Y34.2460 F350.00
G01 X2.3071 Y34.3222 F350.00
G01 X2.3128 Y34.3409 F350.00
G01 X2.3322 Y34.4195 F350.00
G01 X2.3443 Y34.4996 F350.00
G01 X2.3463 Y34.5191 F350.00
G01 X2.3500 Y34.6000 F350.00
G01 X2.3463 Y34.6809 F350.00
G01 X2.3443 Y34.7004 F350.00
G01 X2.3339 Y34.7708 F350.00
G01 X2.3301 Y34.7900 F350.00
G01 X2.3102 Y34.8685 F350.00
G01 X2.2831 Y34.9448 F350.00
G01 X2.2756 Y34.9630 F350.00
G01 X2.2408 Y35.0360 F350.00
G01 X2.1941 Y35.1139 F350.00
G01 X2.1400 Y35.1868 F350.00
G01 X2.0791 Y35.2541 F350.00
G01 X2.0118 Y35.3150 F350.00
G01 X1.9469 Y35.3635 F350.00
G01 X1.9306 Y35.3744 F350.00
G01 X1.8696 Y35.4109 F350.00
G01 X1.8523 Y35.4202 F350.00
G01 X1.7790 Y35.4546 F350.00
G01 X1.6935 Y35.4852 F350.00
G01 X1.6055 Y35.5072 F350.00
G01 X1.5254 Y35.5193 F350.00
G01 X1.5059 Y35.5213 F350.00
G01 X1.4250 Y35.5250 F350.00
G01 X-1.1250 Y35.5250 F350.00
G01 X-1.2059 Y35.5213 F350.00
G01 X-1.2254 Y35.5193 F350.00
G01 X-1.2958 Y35.5089 F350.00
G01 X-1.3150 Y35.5051 F350.00
G01 X-1.3935 Y35.4852 F350.00
G01 X-1.4790 Y35.4546 F350.00
G01 X-1.5610 Y35.4158 F350.00
G01 X-1.6348 Y35.3718 F350.00
G01 X-1.6469 Y35.3635 F350.00
G01 X-1.7080 Y35.3181 F350.00
G01 X-1.7156 Y35.3119 F350.00
G01 X-1.7285 Y35.3003 F350.00
G01 X-2.1497 Y35.3003 F350.00
G01 X-2.1497 Y38.4599 F350.00
G01 X1.6901 Y42.2997 F350.00
G01 X13.2093 Y42.2997 F350.00
G01 X13.2399 Y42.2721 F350.00
G01 X13.2512 Y42.2626 F350.00
G01 X13.3142 Y42.2158 F350.00
G01 X13.3263 Y42.2074 F350.00
G01 X13.4022 Y42.1622 F350.00
G01 X13.4819 Y42.1242 F350.00
G01 X13.4956 Y42.1188 F350.00
G01 X13.5649 Y42.0940 F350.00
G01 X13.5837 Y42.0883 F350.00
G01 X13.6647 Y42.0683 F350.00
G01 X13.7569 Y42.0546 F350.00
G01 X13.8500 Y42.0500 F350.00
G01 X15.3500 Y42.0500 F350.00
G01 X15.4382 Y42.0542 F350.00
G01 X15.4529 Y42.0558 F350.00
G01 X15.5353 Y42.0683 F350.00
G01 X15.6163 Y42.0883 F350.00
G01 X15.6351 Y42.0940 F350.00
G01 X15.7135 Y42.1223 F350.00
G01 X15.7891 Y42.1578 F350.00
G01 X15.8064 Y42.1670 F350.00
G01 X15.8778 Y42.2101 F350.00
G01 X15.9527 Y42.2656 F350.00
G01 X16.0146 Y42.3215 F350.00
G01 X16.0285 Y42.3354 F350.00
G01 X16.0844 Y42.3973 F350.00
G01 X16.1342 Y42.4642 F350.00
G01 X16.1451 Y42.4805 F350.00
G01 X16.1878 Y42.5522 F350.00
G01 X16.2277 Y42.6365 F350.00
G01 X16.2560 Y42.7149 F350.00
G01 X16.2617 Y42.7337 F350.00
G01 X16.2817 Y42.8147 F350.00
G01 X16.2942 Y42.8971 F350.00
G01 X16.2961 Y42.9167 F350.00
G01 X16.3000 Y43.0000 F350.00
G01 X16.2954 Y43.0931 F350.00
G01 X16.2834 Y43.1757 F350.00
G01 X16.2796 Y43.1949 F350.00
G01 X16.2591 Y43.2758 F350.00
G01 X16.2312 Y43.3544 F350.00
G01 X16.2237 Y43.3725 F350.00
G01 X16.1878 Y43.4478 F350.00
G01 X16.1451 Y43.5195 F350.00
G01 X16.1342 Y43.5358 F350.00
G01 X16.0844 Y43.6027 F350.00
G01 X16.0285 Y43.6646 F350.00
G01 X16.0146 Y43.6785 F350.00
G01 X15.9527 Y43.7344 F350.00
G01 X15.8858 Y43.7842 F350.00
G01 X15.8695 Y43.7951 F350.00
G01 X15.7978 Y43.8378 F350.00
G01 X15.7225 Y43.8737 F350.00
G01 X15.7044 Y43.8812 F350.00
G01 X15.6258 Y43.9091 F350.00
G01 X15.5449 Y43.9296 F350.00
G01 X15.5257 Y43.9334 F350.00
G01 X15.4431 Y43.9454 F350.00
G01 X15.3549 Y43.9499 F350.00
G01 X13.8500 Y43.9500 F350.00
G01 X13.7667 Y43.9461 F350.00
G01 X13.7520 Y43.9449 F350.00
G01 X13.6647 Y43.9317 F350.00
G01 X13.5837 Y43.9117 F350.00
G01 X13.5649 Y43.9060 F350.00
G01 X13.4956 Y43.8812 F350.00
G01 X13.4819 Y43.8758 F350.00
G01 X13.4022 Y43.8378 F350.00
G01 X13.3263 Y43.7926 F350.00
G01 X13.3142 Y43.7842 F350.00
G01 X13.2512 Y43.7374 F350.00
G01 X13.2399 Y43.7279 F350.00
G01 X13.2093 Y43.7003 F350.00
G01 X1.4000 Y43.7003 F350.00
G01 X1.3314 Y43.6969 F350.00
G01 X1.2634 Y43.6868 F350.00
G01 X1.1967 Y43.6701 F350.00
G01 X1.1412 Y43.6505 F350.00
G01 X1.1275 Y43.6450 F350.00
G01 X1.0699 Y43.6176 F350.00
G01 X1.0110 Y43.5822 F350.00
G01 X0.9558 Y43.5413 F350.00
G01 X0.9048 Y43.4952 F350.00
G01 X-3.3452 Y39.2452 F350.00
G01 X-3.3913 Y39.1942 F350.00
G01 X-3.4266 Y39.1471 F350.00
G01 X-3.4375 Y39.1307 F350.00
G01 X-3.4627 Y39.0886 F350.00
G01 X-3.4698 Y39.0757 F350.00
G01 X-3.4969 Y39.0180 F350.00
G01 X-3.5170 Y38.9626 F350.00
G01 X-3.5227 Y38.9438 F350.00
G01 X-3.5368 Y38.8866 F350.00
G01 X-3.5457 Y38.8284 F350.00
G01 X-3.5476 Y38.8088 F350.00
G01 X-3.5502 Y38.7549 F350.00
G01 X-3.5500 Y34.5902 F350.00
G00 Z0.5000
G00 X14.0310 Y10.8476
G01 F250.00
G01 Z-0.0500
G01 F350.00
G01 X14.0471 Y10.7409 F350.00
G01 X14.0731 Y10.6361 F350.00
G01 X14.0788 Y10.6173 F350.00
G01 X14.1153 Y10.5158 F350.00
G01 X14.1657 Y10.4093 F350.00
G01 X14.2210 Y10.3166 F350.00
G01 X14.2319 Y10.3003 F350.00
G01 X14.2964 Y10.2137 F350.00
G01 X14.3687 Y10.1336 F350.00
G01 X14.3826 Y10.1197 F350.00
G01 X14.4627 Y10.0474 F350.00
G01 X14.5573 Y9.9772 F350.00
G01 X14.6583 Y9.9167 F350.00
G01 X14.7558 Y9.8703 F350.00
G01 X14.7739 Y9.8628 F350.00
G01 X14.8757 Y9.8267 F350.00
G01 X14.9899 Y9.7981 F350.00
G01 X15.0966 Y9.7820 F350.00
G01 X15.1162 Y9.7801 F350.00
G01 X15.2240 Y9.7750 F350.00
G01 X15.3318 Y9.7801 F350.00
G01 X15.3514 Y9.7820 F350.00
G01 X15.4581 Y9.7981 F350.00
G01 X15.5723 Y9.8267 F350.00
G01 X15.6741 Y9.8628 F350.00
G01 X15.6922 Y9.8703 F350.00
G01 X15.7897 Y9.9167 F350.00
G01 X15.8907 Y9.9772 F350.00
G01 X15.9775 Y10.0413 F350.00
G01 X15.9927 Y10.0538 F350.00
G01 X16.0725 Y10.1265 F350.00
G01 X16.1485 Y10.2100 F350.00
G01 X16.1577 Y10.2215 F350.00
G01 X16.2161 Y10.3003 F350.00
G01 X16.2270 Y10.3166 F350.00
G01 X16.2823 Y10.4093 F350.00
G01 X16.3327 Y10.5158 F350.00
G01 X16.3692 Y10.6173 F350.00
G01 X16.3749 Y10.6361 F350.00
G01 X16.4009 Y10.7409 F350.00
G01 X16.4177 Y10.8525 F350.00
G01 X16.4189 Y10.8672 F350.00
G01 X16.4240 Y10.9750 F350.00
G01 X16.4240 Y12.2250 F350.00
G01 X16.4189 Y12.3328 F350.00
G01 X16.4170 Y12.3524 F350.00
G01 X16.4009 Y12.4591 F350.00
G01 X16.3723 Y12.5733 F350.00
G01 X16.3327 Y12.6842 F350.00
G01 X16.2823 Y12.7907 F350.00
G01 X16.2218 Y12.8917 F350.00
G01 X16.1516 Y12.9863 F350.00
G01 X16.0725 Y13.0735 F350.00
G01 X15.9890 Y13.1495 F350.00
G01 X15.9775 Y13.1587 F350.00
G01 X15.8907 Y13.2228 F350.00
G01 X15.7897 Y13.2833 F350.00
G01 X15.6832 Y13.3337 F350.00
G01 X15.5723 Y13.3733 F350.00
G01 X15.4581 Y13.4019 F350.00
G01 X15.3416 Y13.4192 F350.00
G01 X15.2240 Y13.4250 F350.00
G01 X15.1064 Y13.4192 F350.00
G01 X14.9899 Y13.4019 F350.00
G01 X14.8757 Y13.3733 F350.00
G01 X14.7648 Y13.3337 F350.00
G01 X14.6583 Y13.2833 F350.00
G01 X14.5573 Y13.2228 F350.00
G01 X14.4627 Y13.1526 F350.00
G01 X14.3755 Y13.0735 F350.00
G01 X14.2995 Y12.9900 F350.00
G01 X14.2903 Y12.9785 F350.00
G01 X14.2319 Y12.8997 F350.00
G01 X14.2210 Y12.8834 F350.00
G01 X14.1657 Y12.7907 F350.00
G01 X14.1153 Y12.6842 F350.00
G01 X14.0788 Y12.5827 F350.00
G01 X14.0731 Y12.5639 F350.00
G01 X14.0471 Y12.4591 F350.00
G01 X14.0303 Y12.3475 F350.00
G01 X14.0291 Y12.3328 F350.00
G01 X14.0240 Y12.2250 F350.00
G01 X14.0240 Y10.9750 F350.00
G01 X14.0291 Y10.8672 F350.00
G01 X14.0310 Y10.8476 F350.00
G00 Z0.5000
G00 X14.0310 Y1.8476
G01 F250.00
G01 Z-0.0500
G01 F350.00
G01 X14.0471 Y1.7409 F350.00
G01 X14.0731 Y1.6361 F350.00
G01 X14.0788 Y1.6173 F350.00
G01 X14.1153 Y1.5158 F350.00
G01 X14.1657 Y1.4093 F350.00
G01 X14.2210 Y1.3166 F350.00
G01 X14.2319 Y1.3003 F350.00
G01 X14.2964 Y1.2137 F350.00
G01 X14.3687 Y1.1336 F350.00
G01 X14.3826 Y1.1197 F350.00
G01 X14.4627 Y1.0474 F350.00
G01 X14.5573 Y0.9772 F350.00
G01 X14.6583 Y0.9167 F350.00
G01 X14.7558 Y0.8703 F350.00
G01 X14.7739 Y0.8628 F350.00
G01 X14.8757 Y0.8267 F350.00
G01 X14.9899 Y0.7981 F350.00
G01 X15.0966 Y0.7820 F350.00
G01 X15.1162 Y0.7801 F350.00
G01 X15.2240 Y0.7750 F350.00
G01 X15.3318 Y0.7801 F350.00
G01 X15.3514 Y0.7820 F350.00
G01 X15.4581 Y0.7981 F350.00
G01 X15.5723 Y0.8267 F350.00
G01 X15.6741 Y0.8628 F350.00
G01 X15.6922 Y0.8703 F350.00
G01 X15.7897 Y0.9167 F350.00
G01 X15.8907 Y0.9772 F350.00
G01 X15.9775 Y1.0413 F350.00
G01 X15.9927 Y1.0538 F350.00
G01 X16.0725 Y1.1265 F350.00
G01 X16.1485 Y1.2100 F350.00
G01 X16.1577 Y1.2215 F350.00
G01 X16.2161 Y1.3003 F350.00
G01 X16.2270 Y1.3166 F350.00
G01 X16.2823 Y1.4093 F350.00
G01 X16.3327 Y1.5158 F350.00
G01 X16.3692 Y1.6173 F350.00
G01 X16.3749 Y1.6361 F350.00
G01 X16.4009 Y1.7409 F350.00
G01 X16.4177 Y1.8525 F350.00
G01 X16.4189 Y1.8672 F350.00
G01 X16.4240 Y1.9750 F350.00
G01 X16.4240 Y3.2250 F350.00
G01 X16.4189 Y3.3328 F350.00
G01 X16.4170 Y3.3524 F350.00
G01 X16.4009 Y3.4591 F350.00
G01 X16.3723 Y3.5733 F350.00
G01 X16.3327 Y3.6842 F350.00
G01 X16.2823 Y3.7907 F350.00
G01 X16.2218 Y3.8917 F350.00
G01 X16.1516 Y3.9863 F350.00
G01 X16.0725 Y4.0735 F350.00
G01 X15.9890 Y4.1495 F350.00
G01 X15.9775 Y4.1587 F350.00
G01 X15.8907 Y4.2228 F350.00
G01 X15.7897 Y4.2833 F350.00
G01 X15.6832 Y4.3337 F350.00
G01 X15.5723 Y4.3733 F350.00
G01 X15.4581 Y4.4019 F350.00
