%
(; SHAPEOKO POSTPROCESSED v1)
( Source: BACK_1MM_ISOLATION_cnc.nc )
( Stripped: M30 only - kept T#/M6/M0/M1/MSG for Shapeoko/Carbide Motion )
( Wrapped with Shapeoko start/end blocks - mirrors 1001.nc structure )
G90        ( absolute positioning )
G17        ( XY plane select )
G21        ( mm units )
G94        ( feedrate units/min )
G28 G91 Z0 ( safe Z home - assumes machine has been homed )
G90        ( back to absolute )
G54        ( work coordinate system 1 )
M5         ( ensure spindle off at start )

(G-CODE GENERATED BY FLATCAM v8.994 - www.flatcam.org - Version Date: 2020/11/7)

(Name: BACK_1MM_ISOLATION_cnc)
(Type: G-code from Geometry)
(Units: MM)

(Created on Friday, 26 June 2026 at 10:12)

(This preprocessor is used with a motion controller loaded with GRBL firmware.)
(It is configured to be compatible with almost any version of GRBL firmware.)

(TOOL DIAMETER: 1.0 mm)
(Feedrate_XY: 350.0 mm/min)
(Feedrate_Z: 250.0 mm/min)
(Feedrate rapids 1500.0 mm/min)

(Z_Cut: -0.05 mm)
(Z_Move: 0.5 mm)
(Z Start: None mm)
(Z End: 40.0 mm)
(X,Y End: None mm)
(Steps per circle: 64)
(Steps per circle: 64)
(Preprocessor Geometry: grbl_11)

(X range:   -2.3093 ...  134.5809  mm)
(Y range:   -4.4601 ...   70.7002  mm)

(Spindle Speed: 0.0 RPM)
G21
G90
G17
G94


G01 F350.00

M5             
G00 Z40.0000
G00 X0.0000 Y0.0000                
T1 M6
(MSG, Change to Tool Dia = 1.0000)
M0
G00 Z40.0000

M03
G01 F350.00
G00 X1.9807 Y16.8049
G01 F250.00
G01 Z-0.0500
G01 F350.00
G01 X1.9467 Y16.7881 F350.00
G01 X1.8580 Y16.7461 F350.00
G01 X1.8301 Y16.7334 F350.00
G01 X1.8019 Y16.7213 F350.00
G01 X1.7734 Y16.7099 F350.00
G01 X1.7447 Y16.6992 F350.00
G01 X1.6523 Y16.6661 F350.00
G01 X1.6232 Y16.6561 F350.00
G01 X1.5940 Y16.6469 F350.00
G01 X1.5645 Y16.6383 F350.00
G01 X1.5349 Y16.6305 F350.00
G01 X1.4397 Y16.6067 F350.00
G01 X1.4098 Y16.5996 F350.00
G01 X1.3798 Y16.5932 F350.00
G01 X1.3497 Y16.5876 F350.00
G01 X1.3194 Y16.5827 F350.00
G01 X1.2223 Y16.5683 F350.00
G01 X1.1919 Y16.5642 F350.00
G01 X1.1614 Y16.5608 F350.00
G01 X1.1308 Y16.5582 F350.00
G01 X1.1002 Y16.5563 F350.00
G01 X1.0022 Y16.5515 F350.00
G01 X0.9715 Y16.5504 F350.00
G01 X0.9409 Y16.5500 F350.00
G01 X0.9102 Y16.5504 F350.00
G01 X0.8795 Y16.5515 F350.00
G01 X0.7815 Y16.5563 F350.00
G01 X0.7509 Y16.5582 F350.00
G01 X0.7203 Y16.5608 F350.00
G01 X0.6910 Y16.5641 F350.00
G01 X0.6910 Y16.3114 F350.00
G01 X1.9807 Y15.0216 F350.00
G01 X1.9807 Y16.8049 F350.00
G00 Z0.5000
G00 X2.2109 Y18.0035
G01 F250.00
G01 Z-0.0500
G01 F350.00
G01 X2.1948 Y17.9769 F350.00
G01 X2.1811 Y17.9565 F350.00
G01 X2.1080 Y17.8580 F350.00
G01 X2.0925 Y17.8390 F350.00
G01 X2.0843 Y17.8298 F350.00
G01 X2.0184 Y17.7571 F350.00
G01 X2.0015 Y17.7393 F350.00
G01 X1.9837 Y17.7224 F350.00
G01 X1.9110 Y17.6565 F350.00
G01 X1.8925 Y17.6405 F350.00
G01 X1.8731 Y17.6254 F350.00
G01 X1.7943 Y17.5669 F350.00
G01 X1.7843 Y17.5597 F350.00
G01 X1.7639 Y17.5461 F350.00
G01 X1.6693 Y17.4892 F350.00
G01 X1.6480 Y17.4771 F350.00
G01 X1.6371 Y17.4715 F350.00
G01 X1.5262 Y17.4190 F350.00
G01 X1.5035 Y17.4096 F350.00
G01 X1.4920 Y17.4053 F350.00
G01 X1.3996 Y17.3723 F350.00
G01 X1.3763 Y17.3646 F350.00
G01 X1.3526 Y17.3580 F350.00
G01 X1.2574 Y17.3342 F350.00
G01 X1.2335 Y17.3288 F350.00
G01 X1.2214 Y17.3266 F350.00
G01 X1.1122 Y17.3102 F350.00
G01 X1.0879 Y17.3072 F350.00
G01 X1.0634 Y17.3054 F350.00
G01 X0.9654 Y17.3006 F350.00
G01 X0.9409 Y17.3000 F350.00
G01 X0.9163 Y17.3006 F350.00
G01 X0.8183 Y17.3054 F350.00
G01 X0.7938 Y17.3072 F350.00
G01 X0.7695 Y17.3102 F350.00
G01 X0.6724 Y17.3246 F350.00
G01 X0.6482 Y17.3288 F350.00
G01 X0.6243 Y17.3342 F350.00
G01 X0.5291 Y17.3580 F350.00
G01 X0.5172 Y17.3612 F350.00
G01 X0.4937 Y17.3683 F350.00
G01 X0.3897 Y17.4053 F350.00
G01 X0.3668 Y17.4142 F350.00
G01 X0.3444 Y17.4241 F350.00
G01 X0.2557 Y17.4661 F350.00
G01 X0.2338 Y17.4771 F350.00
G01 X0.2230 Y17.4830 F350.00
G01 X0.1282 Y17.5397 F350.00
G01 X0.1075 Y17.5528 F350.00
G01 X0.0974 Y17.5597 F350.00
G01 X-0.0011 Y17.6328 F350.00
G01 X-0.0201 Y17.6484 F350.00
G01 X-0.0590 Y17.6834 F350.00
G01 X-0.0590 Y16.0007 F350.00
G01 X2.1916 Y13.7501 F350.00
G01 X2.9710 Y13.7501 F350.00
G01 X2.9504 Y13.7696 F350.00
G01 X2.9335 Y13.7874 F350.00
G01 X2.9089 Y13.8147 F350.00
G01 X2.8933 Y13.8337 F350.00
G01 X2.8859 Y13.8435 F350.00
G01 X2.8641 Y13.8731 F350.00
G01 X2.8505 Y13.8935 F350.00
G01 X2.8252 Y13.9356 F350.00
G01 X2.8137 Y13.9573 F350.00
G01 X2.8083 Y13.9683 F350.00
G01 X2.7927 Y14.0017 F350.00
G01 X2.7833 Y14.0243 F350.00
G01 X2.7667 Y14.0706 F350.00
G01 X2.7596 Y14.0940 F350.00
G01 X2.7477 Y14.1417 F350.00
G01 X2.7429 Y14.1657 F350.00
G01 X2.7357 Y14.2143 F350.00
G01 X2.7333 Y14.2387 F350.00
G01 X2.7313 Y14.2755 F350.00
G01 X2.7307 Y14.3000 F350.00
G01 X2.7307 Y17.5022 F350.00
G01 X2.6682 Y17.5397 F350.00
G01 X2.6475 Y17.5528 F350.00
G01 X2.6274 Y17.5669 F350.00
G01 X2.5486 Y17.6254 F350.00
G01 X2.5293 Y17.6405 F350.00
G01 X2.5199 Y17.6484 F350.00
G01 X2.4290 Y17.7308 F350.00
G01 X2.4116 Y17.7481 F350.00
G01 X2.4033 Y17.7571 F350.00
G01 X2.3374 Y17.8298 F350.00
G01 X2.3292 Y17.8390 F350.00
G01 X2.3137 Y17.8580 F350.00
G01 X2.2406 Y17.9565 F350.00
G01 X2.2270 Y17.9769 F350.00
G01 X2.2109 Y18.0035 F350.00
G00 Z0.5000
G00 X4.5265 Y20.8750
G01 F250.00
G01 Z-0.0500
G01 F350.00
G01 X4.5305 Y20.8975 F350.00
G01 X4.5358 Y20.9215 F350.00
G01 X4.5424 Y20.9451 F350.00
G01 X4.5461 Y20.9568 F350.00
G01 X4.5501 Y20.9684 F350.00
G01 X4.5589 Y20.9913 F350.00
G01 X4.5689 Y21.0138 F350.00
G01 X4.5742 Y21.0248 F350.00
G01 X4.5858 Y21.0464 F350.00
G01 X4.5920 Y21.0571 F350.00
G01 X4.5984 Y21.0675 F350.00
G01 X4.6121 Y21.0879 F350.00
G01 X4.6267 Y21.1076 F350.00
G01 X4.6344 Y21.1172 F350.00
G01 X4.6504 Y21.1358 F350.00
G01 X4.6673 Y21.1536 F350.00
G01 X4.6851 Y21.1705 F350.00
G01 X4.7037 Y21.1865 F350.00
G01 X4.7230 Y21.2016 F350.00
G01 X4.7330 Y21.2088 F350.00
G01 X4.7431 Y21.2157 F350.00
G01 X4.7638 Y21.2289 F350.00
G01 X4.7744 Y21.2350 F350.00
G01 X4.7961 Y21.2466 F350.00
G01 X4.8071 Y21.2520 F350.00
G01 X4.8295 Y21.2619 F350.00
G01 X4.8409 Y21.2665 F350.00
G01 X4.8640 Y21.2748 F350.00
G01 X4.8757 Y21.2785 F350.00
G01 X4.8994 Y21.2850 F350.00
G01 X4.9113 Y21.2879 F350.00
G01 X4.9354 Y21.2926 F350.00
G01 X4.9597 Y21.2962 F350.00
G01 X4.9841 Y21.2986 F350.00
G01 X4.9963 Y21.2994 F350.00
G01 X5.0209 Y21.3000 F350.00
G01 X7.0209 Y21.3000 F350.00
G01 X7.0454 Y21.2994 F350.00
G01 X7.0699 Y21.2976 F350.00
G01 X7.0942 Y21.2946 F350.00
G01 X7.1184 Y21.2904 F350.00
G01 X7.1424 Y21.2850 F350.00
G01 X7.1542 Y21.2819 F350.00
G01 X7.1777 Y21.2748 F350.00
G01 X7.2008 Y21.2665 F350.00
G01 X7.2235 Y21.2571 F350.00
G01 X7.2346 Y21.2520 F350.00
G01 X7.2566 Y21.2410 F350.00
G01 X7.2779 Y21.2289 F350.00
G01 X7.2884 Y21.2224 F350.00
G01 X7.3088 Y21.2088 F350.00
G01 X7.3285 Y21.1942 F350.00
G01 X7.3474 Y21.1786 F350.00
G01 X7.3656 Y21.1621 F350.00
G01 X7.3744 Y21.1536 F350.00
G01 X7.3913 Y21.1358 F350.00
G01 X7.3995 Y21.1266 F350.00
G01 X7.4150 Y21.1076 F350.00
G01 X7.4297 Y21.0879 F350.00
G01 X7.4433 Y21.0675 F350.00
G01 X7.4497 Y21.0571 F350.00
G01 X7.4618 Y21.0357 F350.00
G01 X7.4729 Y21.0138 F350.00
G01 X7.4828 Y20.9913 F350.00
G01 X7.4916 Y20.9684 F350.00
G01 X7.4993 Y20.9451 F350.00
G01 X7.5059 Y20.9215 F350.00
G01 X7.5113 Y20.8975 F350.00
G01 X7.5154 Y20.8734 F350.00
G01 X7.5185 Y20.8490 F350.00
G01 X7.5203 Y20.8245 F350.00
G01 X7.5207 Y20.8123 F350.00
G01 X7.5209 Y20.5548 F350.00
G01 X7.5555 Y20.6126 F350.00
G01 X7.5687 Y20.6334 F350.00
G01 X7.5828 Y20.6534 F350.00
G01 X7.6487 Y20.7420 F350.00
G01 X7.6642 Y20.7610 F350.00
G01 X7.6724 Y20.7702 F350.00
G01 X7.7383 Y20.8429 F350.00
G01 X7.7552 Y20.8607 F350.00
G01 X7.7730 Y20.8776 F350.00
G01 X7.8457 Y20.9435 F350.00
G01 X7.8643 Y20.9595 F350.00
G01 X7.8836 Y20.9746 F350.00
G01 X7.9624 Y21.0331 F350.00
G01 X7.9825 Y21.0472 F350.00
G01 X8.0032 Y21.0603 F350.00
G01 X8.0980 Y21.1170 F350.00
G01 X8.1197 Y21.1285 F350.00
G01 X8.1906 Y21.1623 F350.00
G01 X8.1908 Y24.5223 F350.00
G01 X8.1944 Y24.5958 F350.00
G01 X8.1968 Y24.6202 F350.00
G01 X8.1984 Y24.6324 F350.00
G01 X8.2056 Y24.6810 F350.00
G01 X8.2098 Y24.7051 F350.00
G01 X8.2152 Y24.7291 F350.00
G01 X8.2303 Y24.7886 F350.00
G01 X8.2374 Y24.8121 F350.00
G01 X8.2414 Y24.8237 F350.00
G01 X8.2579 Y24.8699 F350.00
G01 X8.2668 Y24.8928 F350.00
G01 X8.2767 Y24.9152 F350.00
G01 X8.3031 Y24.9706 F350.00
G01 X8.3146 Y24.9923 F350.00
G01 X8.3208 Y25.0029 F350.00
G01 X8.3461 Y25.0450 F350.00
G01 X8.3592 Y25.0657 F350.00
G01 X8.3733 Y25.0858 F350.00
G01 X8.4026 Y25.1252 F350.00
G01 X8.4100 Y25.1350 F350.00
G01 X8.4256 Y25.1539 F350.00
G01 X8.4750 Y25.2085 F350.00
G01 X10.2309 Y26.9646 F350.00
G01 X10.2310 Y27.3123 F350.00
G01 X10.2370 Y27.4348 F350.00
G01 X10.2394 Y27.4592 F350.00
G01 X10.2411 Y27.4714 F350.00
G01 X10.2555 Y27.5685 F350.00
G01 X10.2597 Y27.5926 F350.00
G01 X10.2651 Y27.6166 F350.00
G01 X10.2889 Y27.7118 F350.00
G01 X10.2955 Y27.7354 F350.00
G01 X10.3031 Y27.7587 F350.00
G01 X10.3362 Y27.8511 F350.00
G01 X10.3450 Y27.8740 F350.00
G01 X10.3550 Y27.8965 F350.00
G01 X10.3969 Y27.9852 F350.00
G01 X10.4080 Y28.0071 F350.00
G01 X10.4201 Y28.0284 F350.00
G01 X10.4705 Y28.1126 F350.00
G01 X10.4837 Y28.1334 F350.00
G01 X10.4978 Y28.1534 F350.00
G01 X10.5562 Y28.2322 F350.00
G01 X10.5713 Y28.2516 F350.00
G01 X10.5874 Y28.2702 F350.00
G01 X10.6533 Y28.3429 F350.00
G01 X10.6702 Y28.3607 F350.00
G01 X10.6880 Y28.3776 F350.00
G01 X10.7607 Y28.4435 F350.00
G01 X10.7793 Y28.4595 F350.00
G01 X10.7986 Y28.4746 F350.00
G01 X10.8774 Y28.5331 F350.00
G01 X10.8975 Y28.5472 F350.00
G01 X10.9182 Y28.5603 F350.00
G01 X11.0024 Y28.6108 F350.00
G01 X11.0238 Y28.6229 F350.00
G01 X11.0457 Y28.6339 F350.00
G01 X11.1344 Y28.6759 F350.00
G01 X11.1568 Y28.6858 F350.00
G01 X11.1797 Y28.6947 F350.00
G01 X11.2721 Y28.7277 F350.00
G01 X11.2954 Y28.7354 F350.00
G01 X11.3191 Y28.7420 F350.00
G01 X11.4143 Y28.7658 F350.00
G01 X11.4382 Y28.7712 F350.00
G01 X11.4624 Y28.7754 F350.00
G01 X11.5595 Y28.7898 F350.00
G01 X11.5838 Y28.7928 F350.00
G01 X11.6083 Y28.7946 F350.00
G01 X11.7063 Y28.7994 F350.00
G01 X11.7309 Y28.8000 F350.00
G01 X11.7554 Y28.7994 F350.00
G01 X11.8534 Y28.7946 F350.00
G01 X11.8779 Y28.7928 F350.00
G01 X11.9022 Y28.7898 F350.00
G01 X11.9993 Y28.7754 F350.00
G01 X12.0114 Y28.7734 F350.00
G01 X12.0350 Y28.7687 F350.00
G01 X13.4806 Y30.2143 F350.00
G01 X13.4806 Y33.8325 F350.00
G01 X13.4069 Y33.7096 F350.00
G01 X13.3938 Y33.6889 F350.00
G01 X13.3797 Y33.6688 F350.00
G01 X13.2920 Y33.5506 F350.00
G01 X13.2769 Y33.5312 F350.00
G01 X13.2609 Y33.5126 F350.00
G01 X13.1620 Y33.4036 F350.00
G01 X13.1451 Y33.3858 F350.00
G01 X13.1273 Y33.3689 F350.00
G01 X13.0182 Y33.2700 F350.00
G01 X12.9996 Y33.2540 F350.00
G01 X12.9803 Y33.2389 F350.00
G01 X12.8621 Y33.1512 F350.00
G01 X12.8420 Y33.1371 F350.00
G01 X12.8213 Y33.1239 F350.00
G01 X12.6950 Y33.0483 F350.00
G01 X12.6737 Y33.0362 F350.00
G01 X12.6517 Y33.0251 F350.00
G01 X12.5187 Y32.9622 F350.00
G01 X12.4962 Y32.9522 F350.00
G01 X12.4733 Y32.9434 F350.00
G01 X12.3347 Y32.8938 F350.00
G01 X12.3114 Y32.8861 F350.00
G01 X12.2878 Y32.8796 F350.00
G01 X12.1450 Y32.8438 F350.00
G01 X12.1210 Y32.8384 F350.00
G01 X12.0969 Y32.8342 F350.00
G01 X11.9513 Y32.8126 F350.00
G01 X11.9269 Y32.8096 F350.00
G01 X11.9024 Y32.8078 F350.00
G01 X11.7554 Y32.8006 F350.00
G01 X11.7309 Y32.8000 F350.00
G01 X11.7063 Y32.8006 F350.00
G01 X11.5593 Y32.8078 F350.00
G01 X11.5348 Y32.8096 F350.00
G01 X11.5105 Y32.8126 F350.00
G01 X11.3649 Y32.8342 F350.00
G01 X11.3407 Y32.8384 F350.00
G01 X11.3167 Y32.8438 F350.00
G01 X11.1739 Y32.8796 F350.00
G01 X11.1503 Y32.8861 F350.00
G01 X11.1270 Y32.8938 F350.00
G01 X10.9884 Y32.9434 F350.00
G01 X10.9655 Y32.9522 F350.00
G01 X10.9431 Y32.9622 F350.00
G01 X10.8100 Y33.0251 F350.00
G01 X10.7881 Y33.0362 F350.00
G01 X10.7667 Y33.0483 F350.00
G01 X10.6405 Y33.1239 F350.00
G01 X10.6197 Y33.1371 F350.00
G01 X10.5997 Y33.1512 F350.00
G01 X10.4814 Y33.2389 F350.00
G01 X10.4621 Y33.2540 F350.00
G01 X10.4435 Y33.2700 F350.00
G01 X10.3344 Y33.3689 F350.00
G01 X10.3166 Y33.3858 F350.00
G01 X10.2997 Y33.4036 F350.00
G01 X10.2009 Y33.5126 F350.00
G01 X10.1848 Y33.5312 F350.00
G01 X10.1697 Y33.5506 F350.00
G01 X10.0821 Y33.6688 F350.00
G01 X10.0679 Y33.6889 F350.00
G01 X10.0548 Y33.7096 F350.00
G01 X9.9791 Y33.8359 F350.00
G01 X9.9670 Y33.8572 F350.00
G01 X9.9560 Y33.8791 F350.00
G01 X9.8930 Y34.0122 F350.00
G01 X9.8831 Y34.0346 F350.00
G01 X9.8743 Y34.0575 F350.00
G01 X9.8247 Y34.1961 F350.00
G01 X9.8170 Y34.2194 F350.00
G01 X9.8104 Y34.2431 F350.00
G01 X9.7747 Y34.3859 F350.00
G01 X9.7693 Y34.4098 F350.00
G01 X9.7651 Y34.4340 F350.00
G01 X9.7435 Y34.5796 F350.00
G01 X9.7405 Y34.6040 F350.00
G01 X9.7387 Y34.6284 F350.00
G01 X9.7315 Y34.7755 F350.00
G01 X9.7309 Y34.8000 F350.00
G01 X9.7315 Y34.8245 F350.00
G01 X9.7387 Y34.9716 F350.00
G01 X9.7405 Y34.9960 F350.00
G01 X9.7435 Y35.0204 F350.00
G01 X9.7651 Y35.1660 F350.00
G01 X9.7693 Y35.1902 F350.00
G01 X9.7747 Y35.2141 F350.00
G01 X9.8104 Y35.3569 F350.00
G01 X9.8170 Y35.3806 F350.00
G01 X9.8247 Y35.4039 F350.00
G01 X9.8743 Y35.5425 F350.00
G01 X9.8831 Y35.5654 F350.00
G01 X9.8930 Y35.5878 F350.00
G01 X9.9560 Y35.7209 F350.00
G01 X9.9670 Y35.7428 F350.00
G01 X9.9791 Y35.7641 F350.00
G01 X10.0548 Y35.8904 F350.00
G01 X10.0679 Y35.9111 F350.00
G01 X10.0821 Y35.9312 F350.00
G01 X10.1697 Y36.0494 F350.00
G01 X10.1848 Y36.0688 F350.00
G01 X10.2009 Y36.0874 F350.00
G01 X10.2997 Y36.1964 F350.00
G01 X10.3166 Y36.2142 F350.00
G01 X10.3344 Y36.2311 F350.00
G01 X10.4435 Y36.3300 F350.00
G01 X10.4621 Y36.3460 F350.00
G01 X10.4814 Y36.3611 F350.00
G01 X10.5997 Y36.4488 F350.00
G01 X10.6197 Y36.4629 F350.00
G01 X10.6405 Y36.4761 F350.00
G01 X10.7667 Y36.5517 F350.00
G01 X10.7881 Y36.5638 F350.00
G01 X10.8100 Y36.5749 F350.00
G01 X10.9431 Y36.6378 F350.00
G01 X10.9655 Y36.6478 F350.00
G01 X10.9884 Y36.6566 F350.00
G01 X11.1270 Y36.7062 F350.00
G01 X11.1503 Y36.7139 F350.00
G01 X11.1739 Y36.7204 F350.00
G01 X11.3167 Y36.7562 F350.00
G01 X11.3407 Y36.7616 F350.00
G01 X11.3649 Y36.7658 F350.00
G01 X11.5105 Y36.7874 F350.00
G01 X11.5348 Y36.7904 F350.00
G01 X11.5593 Y36.7922 F350.00
G01 X11.7063 Y36.7994 F350.00
G01 X11.7309 Y36.8000 F350.00
G01 X11.7554 Y36.7994 F350.00
G01 X11.9024 Y36.7922 F350.00
G01 X11.9269 Y36.7904 F350.00
G01 X11.9513 Y36.7874 F350.00
G01 X12.0969 Y36.7658 F350.00
G01 X12.1210 Y36.7616 F350.00
G01 X12.1450 Y36.7562 F350.00
G01 X12.2878 Y36.7204 F350.00
G01 X12.3114 Y36.7139 F350.00
G01 X12.3347 Y36.7062 F350.00
G01 X12.4733 Y36.6566 F350.00
G01 X12.4962 Y36.6478 F350.00
G01 X12.5187 Y36.6378 F350.00
G01 X12.6517 Y36.5749 F350.00
G01 X12.6737 Y36.5638 F350.00
G01 X12.6950 Y36.5517 F350.00
G01 X12.8213 Y36.4761 F350.00
G01 X12.8420 Y36.4629 F350.00
G01 X12.8621 Y36.4488 F350.00
G01 X12.9803 Y36.3611 F350.00
G01 X12.9996 Y36.3460 F350.00
G01 X13.0182 Y36.3300 F350.00
G01 X13.1273 Y36.2311 F350.00
G01 X13.1451 Y36.2142 F350.00
G01 X13.1620 Y36.1964 F350.00
G01 X13.2609 Y36.0874 F350.00
G01 X13.2769 Y36.0688 F350.00
G01 X13.2920 Y36.0494 F350.00
G01 X13.3797 Y35.9312 F350.00
G01 X13.3938 Y35.9111 F350.00
G01 X13.4069 Y35.8904 F350.00
G01 X13.4806 Y35.7675 F350.00
G01 X13.4806 Y37.7535 F350.00
G01 X13.4240 Y37.7805 F350.00
G01 X13.4023 Y37.7921 F350.00
G01 X13.2655 Y37.8739 F350.00
G01 X13.2447 Y37.8871 F350.00
G01 X13.2346 Y37.8940 F350.00
G01 X13.1064 Y37.9889 F350.00
G01 X13.0871 Y38.0040 F350.00
G01 X13.0685 Y38.0200 F350.00
G01 X12.9594 Y38.1189 F350.00
G01 X12.9504 Y38.1272 F350.00
G01 X12.9331 Y38.1446 F350.00
G01 X12.8259 Y38.2626 F350.00
G01 X12.8098 Y38.2812 F350.00
G01 X12.7947 Y38.3006 F350.00
G01 X12.7071 Y38.4188 F350.00
G01 X12.6929 Y38.4389 F350.00
G01 X12.6798 Y38.4596 F350.00
G01 X12.6041 Y38.5859 F350.00
G01 X12.5920 Y38.6072 F350.00
G01 X12.5810 Y38.6291 F350.00
G01 X12.5180 Y38.7622 F350.00
G01 X12.5081 Y38.7846 F350.00
G01 X12.5035 Y38.7960 F350.00
G01 X12.4497 Y38.9461 F350.00
G01 X12.4420 Y38.9694 F350.00
G01 X12.4354 Y38.9931 F350.00
G01 X12.3997 Y39.1359 F350.00
G01 X12.3943 Y39.1598 F350.00
G01 X12.3901 Y39.1840 F350.00
G01 X12.3685 Y39.3296 F350.00
G01 X12.3655 Y39.3540 F350.00
G01 X12.3637 Y39.3784 F350.00
G01 X12.3565 Y39.5255 F350.00
G01 X12.3559 Y39.5500 F350.00
G01 X12.3565 Y39.5745 F350.00
G01 X12.3637 Y39.7216 F350.00
G01 X12.3655 Y39.7460 F350.00
G01 X12.3685 Y39.7704 F350.00
G01 X12.3901 Y39.9160 F350.00
G01 X12.3943 Y39.9402 F350.00
G01 X12.3997 Y39.9641 F350.00
G01 X12.4354 Y40.1069 F350.00
G01 X12.4420 Y40.1306 F350.00
G01 X12.4497 Y40.1539 F350.00
G01 X12.4993 Y40.2925 F350.00
G01 X12.5081 Y40.3154 F350.00
G01 X12.5180 Y40.3378 F350.00
G01 X12.5810 Y40.4709 F350.00
G01 X12.5920 Y40.4928 F350.00
G01 X12.6041 Y40.5141 F350.00
G01 X12.6798 Y40.6404 F350.00
G01 X12.6929 Y40.6611 F350.00
G01 X12.7071 Y40.6812 F350.00
G01 X12.7947 Y40.7994 F350.00
G01 X12.8098 Y40.8188 F350.00
G01 X12.8259 Y40.8374 F350.00
G01 X12.9247 Y40.9464 F350.00
G01 X12.9416 Y40.9642 F350.00
G01 X12.9594 Y40.9811 F350.00
G01 X13.0685 Y41.0800 F350.00
G01 X13.0871 Y41.0960 F350.00
G01 X13.1064 Y41.1111 F350.00
G01 X13.2247 Y41.1988 F350.00
G01 X13.2447 Y41.2129 F350.00
G01 X13.2655 Y41.2261 F350.00
G01 X13.3917 Y41.3017 F350.00
G01 X13.4131 Y41.3138 F350.00
G01 X13.4350 Y41.3249 F350.00
G01 X13.5681 Y41.3878 F350.00
G01 X13.5905 Y41.3978 F350.00
G01 X13.6134 Y41.4066 F350.00
G01 X13.7520 Y41.4562 F350.00
G01 X13.7753 Y41.4639 F350.00
G01 X13.7989 Y41.4704 F350.00
G01 X13.9417 Y41.5062 F350.00
G01 X13.9537 Y41.5090 F350.00
G01 X13.9777 Y41.5138 F350.00
G01 X14.1355 Y41.5374 F350.00
G01 X14.1598 Y41.5404 F350.00
G01 X14.1843 Y41.5422 F350.00
G01 X14.3313 Y41.5494 F350.00
G01 X14.3559 Y41.5500 F350.00
G01 X14.3804 Y41.5494 F350.00
G01 X14.5274 Y41.5422 F350.00
G01 X14.5519 Y41.5404 F350.00
G01 X14.5763 Y41.5374 F350.00
G01 X14.7219 Y41.5158 F350.00
G01 X14.7460 Y41.5116 F350.00
G01 X14.7700 Y41.5062 F350.00
G01 X14.9128 Y41.4704 F350.00
G01 X14.9246 Y41.4673 F350.00
G01 X14.9481 Y41.4602 F350.00
G01 X15.0983 Y41.4066 F350.00
G01 X15.1212 Y41.3978 F350.00
G01 X15.1437 Y41.3878 F350.00
G01 X15.2767 Y41.3249 F350.00
G01 X15.2987 Y41.3138 F350.00
G01 X15.3200 Y41.3017 F350.00
G01 X15.4567 Y41.2196 F350.00
G01 X15.4670 Y41.2129 F350.00
G01 X15.4871 Y41.1988 F350.00
G01 X15.6053 Y41.1111 F350.00
G01 X15.6246 Y41.0960 F350.00
G01 X15.6340 Y41.0881 F350.00
G01 X15.7523 Y40.9811 F350.00
G01 X15.7701 Y40.9642 F350.00
G01 X15.7870 Y40.9464 F350.00
G01 X15.8557 Y40.8706 F350.00
G01 X15.8557 Y42.3499 F350.00
G01 X-0.0590 Y42.3499 F350.00
G01 X-0.0590 Y23.0284 F350.00
G01 X-0.0564 Y23.0836 F350.00
G01 X-0.0546 Y23.1080 F350.00
G01 X-0.0516 Y23.1324 F350.00
G01 X-0.0444 Y23.1810 F350.00
G01 X-0.0402 Y23.2051 F350.00
G01 X-0.0348 Y23.2291 F350.00
G01 X-0.0229 Y23.2767 F350.00
G01 X-0.0163 Y23.3004 F350.00
G01 X-0.0086 Y23.3237 F350.00
G01 X0.0122 Y23.3814 F350.00
G01 X0.0168 Y23.3928 F350.00
G01 X0.0267 Y23.4152 F350.00
G01 X0.0531 Y23.4706 F350.00
G01 X0.0646 Y23.4923 F350.00
G01 X0.0961 Y23.5450 F350.00
G01 X0.1092 Y23.5657 F350.00
G01 X0.1233 Y23.5858 F350.00
G01 X0.1600 Y23.6350 F350.00
G01 X0.1756 Y23.6539 F350.00
G01 X0.1837 Y23.6631 F350.00
G01 X0.2167 Y23.6995 F350.00
G01 X0.2336 Y23.7173 F350.00
G01 X3.2309 Y26.7146 F350.00
G01 X3.2309 Y26.8854 F350.00
G01 X0.5236 Y29.5927 F350.00
G01 X0.5067 Y29.6105 F350.00
G01 X0.4656 Y29.6561 F350.00
G01 X0.4500 Y29.6750 F350.00
G01 X0.4133 Y29.7242 F350.00
G01 X0.3992 Y29.7443 F350.00
G01 X0.3861 Y29.7650 F350.00
G01 X0.3608 Y29.8071 F350.00
G01 X0.3487 Y29.8285 F350.00
G01 X0.3377 Y29.8504 F350.00
G01 X0.3167 Y29.8948 F350.00
G01 X0.3068 Y29.9172 F350.00
G01 X0.2979 Y29.9401 F350.00
G01 X0.2814 Y29.9863 F350.00
G01 X0.2737 Y30.0096 F350.00
G01 X0.2671 Y30.0333 F350.00
G01 X0.2552 Y30.0809 F350.00
G01 X0.2498 Y30.1049 F350.00
G01 X0.2456 Y30.1290 F350.00
G01 X0.2368 Y30.1898 F350.00
G01 X0.2344 Y30.2142 F350.00
G01 X0.2312 Y30.2755 F350.00
G01 X0.2306 Y30.3000 F350.00
G01 X0.2306 Y38.5834 F350.00
G01 X0.2170 Y38.6072 F350.00
G01 X0.2060 Y38.6291 F350.00
G01 X0.1430 Y38.7622 F350.00
G01 X0.1331 Y38.7846 F350.00
G01 X0.1243 Y38.8075 F350.00
G01 X0.0747 Y38.9461 F350.00
G01 X0.0670 Y38.9694 F350.00
G01 X0.0604 Y38.9931 F350.00
G01 X0.0247 Y39.1359 F350.00
G01 X0.0193 Y39.1598 F350.00
G01 X0.0151 Y39.1840 F350.00
G01 X-0.0065 Y39.3296 F350.00
G01 X-0.0095 Y39.3540 F350.00
G01 X-0.0113 Y39.3784 F350.00
G01 X-0.0185 Y39.5255 F350.00
G01 X-0.0191 Y39.5500 F350.00
G01 X-0.0185 Y39.5745 F350.00
G01 X-0.0113 Y39.7216 F350.00
G01 X-0.0095 Y39.7460 F350.00
G01 X-0.0065 Y39.7704 F350.00
G01 X0.0170 Y39.9281 F350.00
G01 X0.0193 Y39.9402 F350.00
G01 X0.0247 Y39.9641 F350.00
G01 X0.0604 Y40.1069 F350.00
G01 X0.0670 Y40.1306 F350.00
G01 X0.0747 Y40.1539 F350.00
G01 X0.1243 Y40.2925 F350.00
G01 X0.1331 Y40.3154 F350.00
G01 X0.1430 Y40.3378 F350.00
G01 X0.2060 Y40.4709 F350.00
G01 X0.2170 Y40.4928 F350.00
G01 X0.2291 Y40.5141 F350.00
G01 X0.3048 Y40.6404 F350.00
G01 X0.3179 Y40.6611 F350.00
G01 X0.3321 Y40.6812 F350.00
G01 X0.4197 Y40.7994 F350.00
G01 X0.4348 Y40.8188 F350.00
G01 X0.4509 Y40.8374 F350.00
G01 X0.5497 Y40.9464 F350.00
G01 X0.5666 Y40.9642 F350.00
G01 X0.5844 Y40.9811 F350.00
G01 X0.6935 Y41.0800 F350.00
G01 X0.7121 Y41.0960 F350.00
G01 X0.7314 Y41.1111 F350.00
G01 X0.8497 Y41.1988 F350.00
G01 X0.8697 Y41.2129 F350.00
G01 X0.8905 Y41.2261 F350.00
G01 X1.0167 Y41.3017 F350.00
G01 X1.0381 Y41.3138 F350.00
G01 X1.0600 Y41.3249 F350.00
G01 X1.1931 Y41.3878 F350.00
G01 X1.2155 Y41.3978 F350.00
G01 X1.2384 Y41.4066 F350.00
G01 X1.3770 Y41.4562 F350.00
G01 X1.4003 Y41.4639 F350.00
G01 X1.4239 Y41.4704 F350.00
G01 X1.5667 Y41.5062 F350.00
G01 X1.5907 Y41.5116 F350.00
G01 X1.6149 Y41.5158 F350.00
G01 X1.7605 Y41.5374 F350.00
G01 X1.7848 Y41.5404 F350.00
G01 X1.8093 Y41.5422 F350.00
G01 X1.9563 Y41.5494 F350.00
G01 X1.9809 Y41.5500 F350.00
G01 X2.0054 Y41.5494 F350.00
G01 X2.1524 Y41.5422 F350.00
G01 X2.1647 Y41.5414 F350.00
G01 X2.1891 Y41.5390 F350.00
G01 X2.3469 Y41.5158 F350.00
G01 X2.3710 Y41.5116 F350.00
G01 X2.3950 Y41.5062 F350.00
G01 X2.5378 Y41.4704 F350.00
G01 X2.5614 Y41.4639 F350.00
G01 X2.5847 Y41.4562 F350.00
G01 X2.7233 Y41.4066 F350.00
G01 X2.7462 Y41.3978 F350.00
G01 X2.7687 Y41.3878 F350.00
G01 X2.9017 Y41.3249 F350.00
G01 X2.9237 Y41.3138 F350.00
G01 X2.9450 Y41.3017 F350.00
G01 X3.0713 Y41.2261 F350.00
G01 X3.0920 Y41.2129 F350.00
G01 X3.1121 Y41.1988 F350.00
G01 X3.2303 Y41.1111 F350.00
G01 X3.2496 Y41.0960 F350.00
G01 X3.2682 Y41.0800 F350.00
G01 X3.3773 Y40.9811 F350.00
G01 X3.3951 Y40.9642 F350.00
G01 X3.4120 Y40.9464 F350.00
G01 X3.5109 Y40.8374 F350.00
G01 X3.5269 Y40.8188 F350.00
G01 X3.5420 Y40.7994 F350.00
G01 X3.6297 Y40.6812 F350.00
G01 X3.6438 Y40.6611 F350.00
G01 X3.6569 Y40.6404 F350.00
G01 X3.7326 Y40.5141 F350.00
G01 X3.7447 Y40.4928 F350.00
G01 X3.7557 Y40.4709 F350.00
G01 X3.8187 Y40.3378 F350.00
G01 X3.8286 Y40.3154 F350.00
G01 X3.8375 Y40.2925 F350.00
G01 X3.8870 Y40.1539 F350.00
G01 X3.8947 Y40.1306 F350.00
G01 X3.9013 Y40.1069 F350.00
G01 X3.9371 Y39.9641 F350.00
G01 X3.9424 Y39.9402 F350.00
G01 X3.9466 Y39.9160 F350.00
G01 X3.9682 Y39.7704 F350.00
G01 X3.9712 Y39.7460 F350.00
G01 X3.9730 Y39.7216 F350.00
G01 X3.9803 Y39.5745 F350.00
G01 X3.9809 Y39.5500 F350.00
G01 X3.9803 Y39.5255 F350.00
G01 X3.9730 Y39.3784 F350.00
G01 X3.9712 Y39.3540 F350.00
G01 X3.9682 Y39.3296 F350.00
G01 X3.9466 Y39.1840 F350.00
G01 X3.9424 Y39.1598 F350.00
G01 X3.9371 Y39.1359 F350.00
G01 X3.9013 Y38.9931 F350.00
G01 X3.8947 Y38.9694 F350.00
G01 X3.8870 Y38.9461 F350.00
G01 X3.8375 Y38.8075 F350.00
G01 X3.8286 Y38.7846 F350.00
G01 X3.8187 Y38.7622 F350.00
G01 X3.7557 Y38.6291 F350.00
G01 X3.7447 Y38.6072 F350.00
G01 X3.7326 Y38.5859 F350.00
G01 X3.6569 Y38.4596 F350.00
G01 X3.6438 Y38.4389 F350.00
G01 X3.6297 Y38.4188 F350.00
G01 X3.5420 Y38.3006 F350.00
G01 X3.5269 Y38.2812 F350.00
G01 X3.5190 Y38.2718 F350.00
G01 X3.4120 Y38.1536 F350.00
G01 X3.3951 Y38.1358 F350.00
G01 X3.3773 Y38.1189 F350.00
G01 X3.2682 Y38.0200 F350.00
G01 X3.2496 Y38.0040 F350.00
G01 X3.2303 Y37.9889 F350.00
G01 X3.1121 Y37.9012 F350.00
G01 X3.0920 Y37.8871 F350.00
G01 X3.0713 Y37.8739 F350.00
G01 X2.9450 Y37.7983 F350.00
G01 X2.9237 Y37.7862 F350.00
G01 X2.9017 Y37.7751 F350.00
G01 X2.7687 Y37.7122 F350.00
G01 X2.7462 Y37.7022 F350.00
G01 X2.7233 Y37.6934 F350.00
G01 X2.5847 Y37.6438 F350.00
G01 X2.5614 Y37.6361 F350.00
G01 X2.5378 Y37.6296 F350.00
G01 X2.3950 Y37.5938 F350.00
G01 X2.3710 Y37.5884 F350.00
G01 X2.3469 Y37.5842 F350.00
G01 X2.2311 Y37.5671 F350.00
G01 X2.2311 Y30.7143 F350.00
G01 X4.2321 Y28.7134 F350.00
G01 X4.2837 Y28.7317 F350.00
G01 X4.3072 Y28.7388 F350.00
G01 X4.4143 Y28.7658 F350.00
G01 X4.4382 Y28.7712 F350.00
G01 X4.4503 Y28.7734 F350.00
G01 X4.5595 Y28.7898 F350.00
G01 X4.5838 Y28.7928 F350.00
G01 X4.6083 Y28.7946 F350.00
G01 X4.7186 Y28.7998 F350.00
G01 X4.7431 Y28.7998 F350.00
G01 X4.7554 Y28.7994 F350.00
G01 X4.8534 Y28.7946 F350.00
G01 X4.8779 Y28.7928 F350.00
G01 X4.9022 Y28.7898 F350.00
G01 X4.9993 Y28.7754 F350.00
G01 X5.0235 Y28.7712 F350.00
G01 X5.0474 Y28.7658 F350.00
G01 X5.1545 Y28.7388 F350.00
G01 X5.1780 Y28.7317 F350.00
G01 X5.1896 Y28.7277 F350.00
G01 X5.2820 Y28.6947 F350.00
G01 X5.3049 Y28.6858 F350.00
G01 X5.3273 Y28.6759 F350.00
G01 X5.4160 Y28.6339 F350.00
G01 X5.4380 Y28.6229 F350.00
G01 X5.4593 Y28.6108 F350.00
G01 X5.5435 Y28.5603 F350.00
G01 X5.5642 Y28.5472 F350.00
G01 X5.5843 Y28.5331 F350.00
G01 X5.6631 Y28.4746 F350.00
G01 X5.6825 Y28.4595 F350.00
G01 X5.7010 Y28.4435 F350.00
G01 X5.7737 Y28.3776 F350.00
G01 X5.7915 Y28.3607 F350.00
G01 X5.8084 Y28.3429 F350.00
G01 X5.8743 Y28.2702 F350.00
G01 X5.8904 Y28.2516 F350.00
G01 X5.9055 Y28.2322 F350.00
G01 X5.9639 Y28.1534 F350.00
G01 X5.9781 Y28.1334 F350.00
G01 X5.9912 Y28.1126 F350.00
G01 X6.0416 Y28.0284 F350.00
G01 X6.0537 Y28.0071 F350.00
G01 X6.0648 Y27.9852 F350.00
G01 X6.1067 Y27.8965 F350.00
G01 X6.1167 Y27.8740 F350.00
G01 X6.1255 Y27.8511 F350.00
G01 X6.1586 Y27.7587 F350.00
G01 X6.1663 Y27.7354 F350.00
G01 X6.1728 Y27.7118 F350.00
G01 X6.1967 Y27.6166 F350.00
G01 X6.2020 Y27.5926 F350.00
G01 X6.2043 Y27.5806 F350.00
G01 X6.2206 Y27.4714 F350.00
G01 X6.2236 Y27.4470 F350.00
G01 X6.2254 Y27.4226 F350.00
G01 X6.2307 Y27.3123 F350.00
G01 X6.2309 Y26.3000 F350.00
G01 X6.2303 Y26.2755 F350.00
G01 X6.2254 Y26.1774 F350.00
G01 X6.2236 Y26.1530 F350.00
G01 X6.2206 Y26.1286 F350.00
G01 X6.2062 Y26.0315 F350.00
G01 X6.2020 Y26.0074 F350.00
G01 X6.1967 Y25.9834 F350.00
G01 X6.1728 Y25.8882 F350.00
G01 X6.1663 Y25.8646 F350.00
G01 X6.1586 Y25.8413 F350.00
G01 X6.1255 Y25.7489 F350.00
G01 X6.1167 Y25.7260 F350.00
G01 X6.1067 Y25.7035 F350.00
G01 X6.0648 Y25.6148 F350.00
G01 X6.0537 Y25.5929 F350.00
G01 X6.0416 Y25.5716 F350.00
G01 X5.9912 Y25.4874 F350.00
G01 X5.9848 Y25.4769 F350.00
G01 X5.9711 Y25.4565 F350.00
G01 X5.9055 Y25.3678 F350.00
G01 X5.8980 Y25.3580 F350.00
G01 X5.8825 Y25.3390 F350.00
G01 X5.8001 Y25.2481 F350.00
G01 X5.7827 Y25.2308 F350.00
G01 X5.7737 Y25.2224 F350.00
G01 X5.6918 Y25.1484 F350.00
G01 X5.6825 Y25.1405 F350.00
G01 X5.6631 Y25.1254 F350.00
G01 X5.5843 Y25.0669 F350.00
G01 X5.5642 Y25.0528 F350.00
G01 X5.5435 Y25.0397 F350.00
G01 X5.4593 Y24.9892 F350.00
G01 X5.4380 Y24.9771 F350.00
G01 X5.4160 Y24.9661 F350.00
G01 X5.3273 Y24.9241 F350.00
G01 X5.3049 Y24.9142 F350.00
G01 X5.2820 Y24.9053 F350.00
G01 X5.1896 Y24.8723 F350.00
G01 X5.1663 Y24.8646 F350.00
G01 X5.1426 Y24.8580 F350.00
G01 X5.0474 Y24.8342 F350.00
G01 X5.0235 Y24.8288 F350.00
G01 X5.0114 Y24.8266 F350.00
G01 X4.9022 Y24.8102 F350.00
G01 X4.8779 Y24.8072 F350.00
G01 X4.8534 Y24.8054 F350.00
G01 X4.7554 Y24.8006 F350.00
G01 X4.7431 Y24.8002 F350.00
G01 X4.7186 Y24.8002 F350.00
G01 X4.5961 Y24.8062 F350.00
G01 X4.5716 Y24.8086 F350.00
G01 X4.5595 Y24.8102 F350.00
G01 X4.4624 Y24.8246 F350.00
G01 X4.4382 Y24.8288 F350.00
G01 X4.4262 Y24.8314 F350.00
G01 X4.3072 Y24.8612 F350.00
G01 X4.2837 Y24.8683 F350.00
G01 X4.2321 Y24.8866 F350.00
G01 X1.9411 Y22.5957 F350.00
G01 X1.9411 Y20.9162 F350.00
G01 X1.9927 Y20.8692 F350.00
G01 X2.0101 Y20.8519 F350.00
G01 X2.0925 Y20.7610 F350.00
G01 X2.1004 Y20.7516 F350.00
G01 X2.1155 Y20.7322 F350.00
G01 X2.1811 Y20.6435 F350.00
G01 X2.1948 Y20.6231 F350.00
G01 X2.2109 Y20.5965 F350.00
G01 X2.2270 Y20.6231 F350.00
G01 X2.2406 Y20.6435 F350.00
G01 X2.3137 Y20.7420 F350.00
G01 X2.3213 Y20.7516 F350.00
G01 X2.3374 Y20.7702 F350.00
G01 X2.4033 Y20.8429 F350.00
G01 X2.4116 Y20.8519 F350.00
G01 X2.4290 Y20.8692 F350.00
G01 X2.5107 Y20.9435 F350.00
G01 X2.5293 Y20.9595 F350.00
G01 X2.5486 Y20.9746 F350.00
G01 X2.6274 Y21.0331 F350.00
G01 X2.6475 Y21.0472 F350.00
G01 X2.6682 Y21.0603 F350.00
G01 X2.7524 Y21.1108 F350.00
G01 X2.7738 Y21.1229 F350.00
G01 X2.7957 Y21.1339 F350.00
G01 X2.8844 Y21.1759 F350.00
G01 X2.9068 Y21.1858 F350.00
G01 X2.9297 Y21.1947 F350.00
G01 X3.0221 Y21.2277 F350.00
G01 X3.0454 Y21.2354 F350.00
G01 X3.0691 Y21.2420 F350.00
G01 X3.1643 Y21.2658 F350.00
G01 X3.1882 Y21.2712 F350.00
G01 X3.2124 Y21.2754 F350.00
G01 X3.3095 Y21.2898 F350.00
G01 X3.3338 Y21.2928 F350.00
G01 X3.3583 Y21.2946 F350.00
G01 X3.4563 Y21.2994 F350.00
G01 X3.4809 Y21.3000 F350.00
G01 X3.4931 Y21.2998 F350.00
G01 X3.6034 Y21.2946 F350.00
G01 X3.6279 Y21.2928 F350.00
G01 X3.6522 Y21.2898 F350.00
G01 X3.7493 Y21.2754 F350.00
G01 X3.7735 Y21.2712 F350.00
G01 X3.7974 Y21.2658 F350.00
G01 X3.8926 Y21.2420 F350.00
G01 X3.9163 Y21.2354 F350.00
G01 X3.9396 Y21.2277 F350.00
G01 X4.0320 Y21.1947 F350.00
G01 X4.0549 Y21.1858 F350.00
G01 X4.0773 Y21.1759 F350.00
G01 X4.1660 Y21.1339 F350.00
G01 X4.1880 Y21.1229 F350.00
G01 X4.2093 Y21.1108 F350.00
G01 X4.2935 Y21.0603 F350.00
G01 X4.3142 Y21.0472 F350.00
G01 X4.3343 Y21.0331 F350.00
G01 X4.4131 Y20.9746 F350.00
G01 X4.4325 Y20.9595 F350.00
G01 X4.4510 Y20.9435 F350.00
G01 X4.5265 Y20.8750 F350.00
G00 Z0.5000
G00 X4.3696 Y21.8668
G01 F250.00
G01 Z-0.0500
G01 F350.00
G01 X4.4047 Y21.8876 F350.00
G01 X4.4316 Y21.9024 F350.00
G01 X4.4588 Y21.9165 F350.00
G01 X4.4864 Y21.9300 F350.00
G01 X4.5143 Y21.9428 F350.00
G01 X4.5425 Y21.9548 F350.00
G01 X4.5710 Y21.9662 F350.00
G01 X4.5997 Y21.9769 F350.00
G01 X4.6288 Y21.9869 F350.00
G01 X4.6580 Y21.9962 F350.00
G01 X4.6875 Y22.0047 F350.00
G01 X4.7171 Y22.0125 F350.00
G01 X4.7470 Y22.0196 F350.00
G01 X4.7770 Y22.0260 F350.00
G01 X4.8072 Y22.0316 F350.00
G01 X4.8374 Y22.0365 F350.00
G01 X4.8678 Y22.0406 F350.00
G01 X4.8983 Y22.0440 F350.00
G01 X4.9289 Y22.0466 F350.00
G01 X4.9595 Y22.0485 F350.00
G01 X4.9902 Y22.0496 F350.00
G01 X5.0209 Y22.0500 F350.00
G01 X7.0209 Y22.0500 F350.00
G01 X7.0515 Y22.0496 F350.00
G01 X7.0822 Y22.0485 F350.00
G01 X7.1128 Y22.0466 F350.00
G01 X7.1434 Y22.0440 F350.00
G01 X7.1739 Y22.0406 F350.00
G01 X7.2043 Y22.0365 F350.00
G01 X7.2346 Y22.0316 F350.00
G01 X7.2647 Y22.0260 F350.00
G01 X7.2947 Y22.0196 F350.00
G01 X7.3246 Y22.0125 F350.00
G01 X7.3543 Y22.0047 F350.00
G01 X7.3837 Y21.9962 F350.00
G01 X7.4130 Y21.9869 F350.00
G01 X7.4406 Y21.9774 F350.00
G01 X7.4406 Y24.5100 F350.00
G01 X7.4410 Y24.5407 F350.00
G01 X7.4421 Y24.5713 F350.00
G01 X7.4464 Y24.6510 F350.00
G01 X7.4490 Y24.6816 F350.00
G01 X7.4524 Y24.7120 F350.00
G01 X7.4565 Y24.7424 F350.00
G01 X7.4686 Y24.8213 F350.00
G01 X7.4742 Y24.8515 F350.00
G01 X7.4806 Y24.8815 F350.00
G01 X7.4996 Y24.9589 F350.00
G01 X7.5074 Y24.9886 F350.00
G01 X7.5160 Y25.0181 F350.00
G01 X7.5252 Y25.0473 F350.00
G01 X7.5518 Y25.1225 F350.00
G01 X7.5624 Y25.1513 F350.00
G01 X7.5738 Y25.1798 F350.00
G01 X7.5859 Y25.2080 F350.00
G01 X7.6197 Y25.2803 F350.00
G01 X7.6331 Y25.3078 F350.00
G01 X7.6473 Y25.3351 F350.00
G01 X7.6621 Y25.3619 F350.00
G01 X7.6775 Y25.3884 F350.00
G01 X7.7189 Y25.4567 F350.00
G01 X7.7356 Y25.4824 F350.00
G01 X7.7529 Y25.5077 F350.00
G01 X7.7709 Y25.5325 F350.00
G01 X7.8187 Y25.5964 F350.00
G01 X7.8379 Y25.6203 F350.00
G01 X7.8577 Y25.6438 F350.00
G01 X7.8780 Y25.6668 F350.00
G01 X7.9318 Y25.7257 F350.00
G01 X7.9532 Y25.7476 F350.00
G01 X9.4809 Y27.2752 F350.00
G01 X9.4812 Y27.3307 F350.00
G01 X9.4824 Y27.3613 F350.00
G01 X9.4872 Y27.4594 F350.00
G01 X9.4891 Y27.4900 F350.00
G01 X9.4917 Y27.5205 F350.00
G01 X9.4951 Y27.5510 F350.00
G01 X9.4992 Y27.5814 F350.00
G01 X9.5136 Y27.6785 F350.00
G01 X9.5185 Y27.7088 F350.00
G01 X9.5241 Y27.7390 F350.00
G01 X9.5304 Y27.7690 F350.00
G01 X9.5375 Y27.7988 F350.00
G01 X9.5614 Y27.8940 F350.00
G01 X9.5692 Y27.9237 F350.00
G01 X9.5777 Y27.9531 F350.00
G01 X9.5870 Y27.9824 F350.00
G01 X9.5970 Y28.0114 F350.00
G01 X9.6301 Y28.1038 F350.00
G01 X9.6407 Y28.1326 F350.00
G01 X9.6521 Y28.1610 F350.00
G01 X9.6642 Y28.1892 F350.00
G01 X9.6770 Y28.2171 F350.00
G01 X9.7190 Y28.3058 F350.00
G01 X9.7324 Y28.3334 F350.00
G01 X9.7465 Y28.3606 F350.00
G01 X9.7613 Y28.3875 F350.00
G01 X9.7768 Y28.4140 F350.00
G01 X9.8272 Y28.4982 F350.00
G01 X9.8433 Y28.5243 F350.00
G01 X9.8601 Y28.5500 F350.00
G01 X9.8774 Y28.5753 F350.00
G01 X9.8954 Y28.6002 F350.00
G01 X9.9538 Y28.6790 F350.00
G01 X9.9724 Y28.7034 F350.00
G01 X9.9916 Y28.7274 F350.00
G01 X10.0113 Y28.7509 F350.00
G01 X10.0317 Y28.7738 F350.00
G01 X10.0976 Y28.8466 F350.00
G01 X10.1184 Y28.8690 F350.00
G01 X10.1399 Y28.8910 F350.00
G01 X10.1618 Y28.9124 F350.00
G01 X10.1843 Y28.9333 F350.00
G01 X10.2570 Y28.9992 F350.00
G01 X10.2800 Y29.0195 F350.00
G01 X10.3035 Y29.0393 F350.00
G01 X10.3274 Y29.0584 F350.00
G01 X10.3518 Y29.0770 F350.00
G01 X10.4307 Y29.1355 F350.00
G01 X10.4555 Y29.1535 F350.00
G01 X10.4808 Y29.1708 F350.00
G01 X10.5065 Y29.1875 F350.00
G01 X10.5327 Y29.2036 F350.00
G01 X10.6168 Y29.2541 F350.00
G01 X10.6433 Y29.2695 F350.00
G01 X10.6702 Y29.2843 F350.00
G01 X10.6975 Y29.2985 F350.00
G01 X10.7250 Y29.3119 F350.00
G01 X10.8137 Y29.3539 F350.00
G01 X10.8416 Y29.3666 F350.00
G01 X10.8698 Y29.3787 F350.00
G01 X10.8983 Y29.3901 F350.00
G01 X10.9271 Y29.4008 F350.00
G01 X11.0195 Y29.4339 F350.00
G01 X11.0485 Y29.4439 F350.00
G01 X11.0777 Y29.4531 F350.00
G01 X11.1072 Y29.4617 F350.00
G01 X11.1369 Y29.4695 F350.00
G01 X11.2320 Y29.4933 F350.00
G01 X11.2619 Y29.5004 F350.00
G01 X11.2919 Y29.5068 F350.00
G01 X11.3221 Y29.5124 F350.00
G01 X11.3524 Y29.5173 F350.00
G01 X11.4494 Y29.5317 F350.00
G01 X11.4798 Y29.5358 F350.00
G01 X11.5103 Y29.5392 F350.00
G01 X11.5409 Y29.5418 F350.00
G01 X11.5715 Y29.5437 F350.00
G01 X11.6695 Y29.5485 F350.00
G01 X11.7002 Y29.5496 F350.00
G01 X11.7309 Y29.5500 F350.00
G01 X11.7553 Y29.5497 F350.00
G01 X12.7306 Y30.5250 F350.00
G01 X12.7306 Y32.2390 F350.00
G01 X12.5874 Y32.1877 F350.00
G01 X12.5584 Y32.1777 F350.00
G01 X12.5291 Y32.1684 F350.00
G01 X12.4997 Y32.1599 F350.00
G01 X12.4700 Y32.1521 F350.00
G01 X12.3272 Y32.1163 F350.00
G01 X12.2974 Y32.1092 F350.00
G01 X12.2674 Y32.1028 F350.00
G01 X12.2372 Y32.0972 F350.00
G01 X12.2069 Y32.0924 F350.00
G01 X12.0613 Y32.0708 F350.00
G01 X12.0309 Y32.0666 F350.00
G01 X12.0004 Y32.0632 F350.00
G01 X11.9698 Y32.0606 F350.00
G01 X11.9392 Y32.0587 F350.00
G01 X11.7922 Y32.0515 F350.00
G01 X11.7615 Y32.0504 F350.00
G01 X11.7309 Y32.0500 F350.00
G01 X11.7002 Y32.0504 F350.00
G01 X11.6695 Y32.0515 F350.00
G01 X11.5225 Y32.0587 F350.00
G01 X11.4919 Y32.0606 F350.00
G01 X11.4613 Y32.0632 F350.00
G01 X11.4308 Y32.0666 F350.00
G01 X11.4004 Y32.0708 F350.00
G01 X11.2548 Y32.0924 F350.00
G01 X11.2245 Y32.0972 F350.00
G01 X11.1944 Y32.1028 F350.00
G01 X11.1643 Y32.1092 F350.00
G01 X11.1345 Y32.1163 F350.00
G01 X10.9917 Y32.1521 F350.00
G01 X10.9620 Y32.1599 F350.00
G01 X10.9326 Y32.1684 F350.00
G01 X10.9033 Y32.1777 F350.00
G01 X10.8743 Y32.1877 F350.00
G01 X10.7357 Y32.2373 F350.00
G01 X10.7070 Y32.2479 F350.00
G01 X10.6785 Y32.2593 F350.00
G01 X10.6503 Y32.2714 F350.00
G01 X10.6224 Y32.2842 F350.00
G01 X10.4893 Y32.3471 F350.00
G01 X10.4618 Y32.3606 F350.00
G01 X10.4345 Y32.3747 F350.00
G01 X10.4076 Y32.3895 F350.00
G01 X10.3811 Y32.4050 F350.00
G01 X10.2549 Y32.4806 F350.00
G01 X10.2288 Y32.4967 F350.00
G01 X10.2030 Y32.5135 F350.00
G01 X10.1777 Y32.5308 F350.00
G01 X10.1529 Y32.5488 F350.00
G01 X10.0346 Y32.6365 F350.00
G01 X10.0102 Y32.6551 F350.00
G01 X9.9863 Y32.6742 F350.00
G01 X9.9628 Y32.6940 F350.00
G01 X9.9398 Y32.7143 F350.00
G01 X9.8308 Y32.8132 F350.00
G01 X9.8083 Y32.8340 F350.00
G01 X9.7863 Y32.8555 F350.00
G01 X9.7649 Y32.8774 F350.00
G01 X9.7440 Y32.8999 F350.00
G01 X9.6452 Y33.0090 F350.00
G01 X9.6248 Y33.0319 F350.00
G01 X9.6051 Y33.0554 F350.00
G01 X9.5859 Y33.0794 F350.00
G01 X9.5673 Y33.1038 F350.00
G01 X9.4796 Y33.2220 F350.00
G01 X9.4617 Y33.2469 F350.00
G01 X9.4443 Y33.2722 F350.00
G01 X9.4276 Y33.2979 F350.00
G01 X9.4115 Y33.3240 F350.00
G01 X9.3358 Y33.4503 F350.00
G01 X9.3204 Y33.4768 F350.00
G01 X9.3056 Y33.5037 F350.00
G01 X9.2914 Y33.5309 F350.00
G01 X9.2780 Y33.5585 F350.00
G01 X9.2151 Y33.6915 F350.00
G01 X9.2023 Y33.7194 F350.00
G01 X9.1902 Y33.7476 F350.00
G01 X9.1788 Y33.7761 F350.00
G01 X9.1681 Y33.8049 F350.00
G01 X9.1185 Y33.9435 F350.00
G01 X9.1085 Y33.9725 F350.00
G01 X9.0993 Y34.0017 F350.00
G01 X9.0907 Y34.0312 F350.00
G01 X9.0829 Y34.0608 F350.00
G01 X9.0471 Y34.2036 F350.00
G01 X9.0401 Y34.2335 F350.00
G01 X9.0337 Y34.2635 F350.00
G01 X9.0281 Y34.2937 F350.00
G01 X9.0232 Y34.3240 F350.00
G01 X9.0016 Y34.4696 F350.00
G01 X8.9975 Y34.5000 F350.00
G01 X8.9941 Y34.5305 F350.00
G01 X8.9915 Y34.5610 F350.00
G01 X8.9896 Y34.5916 F350.00
G01 X8.9824 Y34.7387 F350.00
G01 X8.9812 Y34.7693 F350.00
G01 X8.9809 Y34.8000 F350.00
G01 X8.9812 Y34.8307 F350.00
G01 X8.9824 Y34.8613 F350.00
G01 X8.9896 Y35.0084 F350.00
G01 X8.9915 Y35.0390 F350.00
G01 X8.9941 Y35.0695 F350.00
G01 X8.9975 Y35.1000 F350.00
G01 X9.0016 Y35.1304 F350.00
G01 X9.0232 Y35.2760 F350.00
G01 X9.0281 Y35.3063 F350.00
G01 X9.0337 Y35.3365 F350.00
G01 X9.0401 Y35.3665 F350.00
G01 X9.0471 Y35.3964 F350.00
G01 X9.0829 Y35.5392 F350.00
G01 X9.0907 Y35.5688 F350.00
G01 X9.0993 Y35.5983 F350.00
G01 X9.1085 Y35.6275 F350.00
G01 X9.1185 Y35.6565 F350.00
G01 X9.1681 Y35.7951 F350.00
G01 X9.1788 Y35.8239 F350.00
G01 X9.1902 Y35.8524 F350.00
G01 X9.2023 Y35.8806 F350.00
G01 X9.2151 Y35.9085 F350.00
G01 X9.2780 Y36.0415 F350.00
G01 X9.2914 Y36.0691 F350.00
G01 X9.3056 Y36.0963 F350.00
G01 X9.3204 Y36.1232 F350.00
G01 X9.3358 Y36.1497 F350.00
G01 X9.4115 Y36.2760 F350.00
G01 X9.4276 Y36.3021 F350.00
G01 X9.4443 Y36.3278 F350.00
G01 X9.4617 Y36.3531 F350.00
G01 X9.4796 Y36.3780 F350.00
G01 X9.5673 Y36.4962 F350.00
G01 X9.5859 Y36.5206 F350.00
G01 X9.6051 Y36.5446 F350.00
G01 X9.6248 Y36.5681 F350.00
G01 X9.6452 Y36.5910 F350.00
G01 X9.7440 Y36.7001 F350.00
G01 X9.7649 Y36.7226 F350.00
G01 X9.7863 Y36.7445 F350.00
G01 X9.8083 Y36.7660 F350.00
G01 X9.8308 Y36.7868 F350.00
G01 X9.9398 Y36.8857 F350.00
G01 X9.9628 Y36.9060 F350.00
G01 X9.9863 Y36.9258 F350.00
G01 X10.0102 Y36.9449 F350.00
G01 X10.0346 Y36.9635 F350.00
G01 X10.1529 Y37.0512 F350.00
G01 X10.1777 Y37.0692 F350.00
G01 X10.2030 Y37.0865 F350.00
G01 X10.2288 Y37.1033 F350.00
G01 X10.2549 Y37.1194 F350.00
G01 X10.3811 Y37.1950 F350.00
G01 X10.4076 Y37.2105 F350.00
G01 X10.4345 Y37.2253 F350.00
G01 X10.4618 Y37.2394 F350.00
G01 X10.4893 Y37.2529 F350.00
G01 X10.6224 Y37.3158 F350.00
G01 X10.6503 Y37.3286 F350.00
G01 X10.6785 Y37.3407 F350.00
G01 X10.7070 Y37.3521 F350.00
G01 X10.7357 Y37.3627 F350.00
G01 X10.8743 Y37.4123 F350.00
G01 X10.9033 Y37.4223 F350.00
G01 X10.9326 Y37.4316 F350.00
G01 X10.9620 Y37.4401 F350.00
G01 X10.9917 Y37.4479 F350.00
G01 X11.1345 Y37.4837 F350.00
G01 X11.1643 Y37.4908 F350.00
G01 X11.1944 Y37.4972 F350.00
G01 X11.2245 Y37.5028 F350.00
G01 X11.2548 Y37.5076 F350.00
G01 X11.4004 Y37.5292 F350.00
G01 X11.4308 Y37.5334 F350.00
G01 X11.4613 Y37.5368 F350.00
G01 X11.4919 Y37.5394 F350.00
G01 X11.5225 Y37.5413 F350.00
G01 X11.6695 Y37.5485 F350.00
G01 X11.7002 Y37.5496 F350.00
G01 X11.7309 Y37.5500 F350.00
G01 X11.7615 Y37.5496 F350.00
G01 X11.7922 Y37.5485 F350.00
G01 X11.9392 Y37.5413 F350.00
G01 X11.9698 Y37.5394 F350.00
G01 X12.0004 Y37.5368 F350.00
G01 X12.0309 Y37.5334 F350.00
G01 X12.0613 Y37.5292 F350.00
G01 X12.2069 Y37.5076 F350.00
G01 X12.2372 Y37.5028 F350.00
G01 X12.2674 Y37.4972 F350.00
G01 X12.2974 Y37.4908 F350.00
G01 X12.3272 Y37.4837 F350.00
G01 X12.4700 Y37.4479 F350.00
G01 X12.4997 Y37.4401 F350.00
G01 X12.5291 Y37.4316 F350.00
G01 X12.5584 Y37.4223 F350.00
G01 X12.5874 Y37.4123 F350.00
G01 X12.6596 Y37.3865 F350.00
G01 X12.6352 Y37.4051 F350.00
G01 X12.6113 Y37.4242 F350.00
G01 X12.5878 Y37.4440 F350.00
G01 X12.5648 Y37.4643 F350.00
G01 X12.4558 Y37.5632 F350.00
G01 X12.4333 Y37.5840 F350.00
G01 X12.4113 Y37.6055 F350.00
G01 X12.3899 Y37.6274 F350.00
G01 X12.3690 Y37.6499 F350.00
G01 X12.2702 Y37.7590 F350.00
G01 X12.2498 Y37.7819 F350.00
G01 X12.2301 Y37.8054 F350.00
G01 X12.2109 Y37.8294 F350.00
G01 X12.1923 Y37.8538 F350.00
G01 X12.1046 Y37.9720 F350.00
G01 X12.0867 Y37.9969 F350.00
G01 X12.0693 Y38.0222 F350.00
G01 X12.0526 Y38.0479 F350.00
G01 X12.0365 Y38.0740 F350.00
G01 X11.9608 Y38.2003 F350.00
G01 X11.9454 Y38.2268 F350.00
G01 X11.9306 Y38.2537 F350.00
G01 X11.9164 Y38.2809 F350.00
G01 X11.9030 Y38.3085 F350.00
G01 X11.8401 Y38.4415 F350.00
G01 X11.8273 Y38.4694 F350.00
G01 X11.8152 Y38.4976 F350.00
G01 X11.8038 Y38.5261 F350.00
G01 X11.7931 Y38.5549 F350.00
G01 X11.7435 Y38.6935 F350.00
G01 X11.7335 Y38.7225 F350.00
G01 X11.7243 Y38.7517 F350.00
G01 X11.7157 Y38.7812 F350.00
G01 X11.7079 Y38.8108 F350.00
G01 X11.6721 Y38.9536 F350.00
G01 X11.6651 Y38.9835 F350.00
G01 X11.6587 Y39.0135 F350.00
G01 X11.6531 Y39.0437 F350.00
G01 X11.6482 Y39.0740 F350.00
G01 X11.6266 Y39.2196 F350.00
G01 X11.6225 Y39.2500 F350.00
G01 X11.6191 Y39.2805 F350.00
G01 X11.6165 Y39.3110 F350.00
G01 X11.6146 Y39.3416 F350.00
G01 X11.6074 Y39.4887 F350.00
G01 X11.6062 Y39.5193 F350.00
G01 X11.6059 Y39.5500 F350.00
G01 X11.6062 Y39.5807 F350.00
G01 X11.6074 Y39.6113 F350.00
G01 X11.6146 Y39.7584 F350.00
G01 X11.6165 Y39.7890 F350.00
G01 X11.6191 Y39.8195 F350.00
G01 X11.6225 Y39.8500 F350.00
G01 X11.6266 Y39.8804 F350.00
G01 X11.6482 Y40.0260 F350.00
G01 X11.6531 Y40.0563 F350.00
G01 X11.6587 Y40.0865 F350.00
G01 X11.6651 Y40.1165 F350.00
G01 X11.6721 Y40.1464 F350.00
G01 X11.7079 Y40.2892 F350.00
G01 X11.7157 Y40.3188 F350.00
G01 X11.7243 Y40.3483 F350.00
G01 X11.7335 Y40.3775 F350.00
G01 X11.7435 Y40.4065 F350.00
G01 X11.7931 Y40.5451 F350.00
G01 X11.8038 Y40.5739 F350.00
G01 X11.8152 Y40.6024 F350.00
G01 X11.8273 Y40.6306 F350.00
G01 X11.8401 Y40.6585 F350.00
G01 X11.9030 Y40.7915 F350.00
G01 X11.9164 Y40.8191 F350.00
G01 X11.9306 Y40.8463 F350.00
G01 X11.9454 Y40.8732 F350.00
G01 X11.9608 Y40.8997 F350.00
G01 X12.0365 Y41.0260 F350.00
G01 X12.0526 Y41.0521 F350.00
G01 X12.0693 Y41.0778 F350.00
G01 X12.0867 Y41.1031 F350.00
G01 X12.1046 Y41.1280 F350.00
G01 X12.1923 Y41.2462 F350.00
G01 X12.2109 Y41.2706 F350.00
G01 X12.2301 Y41.2946 F350.00
G01 X12.2498 Y41.3181 F350.00
G01 X12.2702 Y41.3410 F350.00
G01 X12.3690 Y41.4501 F350.00
G01 X12.3899 Y41.4726 F350.00
G01 X12.4113 Y41.4945 F350.00
G01 X12.4333 Y41.5160 F350.00
G01 X12.4558 Y41.5368 F350.00
G01 X12.5253 Y41.5999 F350.00
G01 X3.8114 Y41.5999 F350.00
G01 X3.8810 Y41.5368 F350.00
G01 X3.9034 Y41.5160 F350.00
G01 X3.9254 Y41.4945 F350.00
G01 X3.9468 Y41.4726 F350.00
G01 X3.9677 Y41.4501 F350.00
G01 X4.0666 Y41.3410 F350.00
G01 X4.0869 Y41.3181 F350.00
G01 X4.1066 Y41.2946 F350.00
G01 X4.1258 Y41.2706 F350.00
G01 X4.1444 Y41.2462 F350.00
G01 X4.2321 Y41.1280 F350.00
G01 X4.2500 Y41.1031 F350.00
G01 X4.2674 Y41.0778 F350.00
G01 X4.2841 Y41.0521 F350.00
G01 X4.3002 Y41.0260 F350.00
G01 X4.3759 Y40.8997 F350.00
G01 X4.3914 Y40.8732 F350.00
G01 X4.4061 Y40.8463 F350.00
G01 X4.4203 Y40.8191 F350.00
G01 X4.4337 Y40.7915 F350.00
G01 X4.4967 Y40.6585 F350.00
G01 X4.5094 Y40.6306 F350.00
G01 X4.5215 Y40.6024 F350.00
G01 X4.5329 Y40.5739 F350.00
G01 X4.5436 Y40.5451 F350.00
G01 X4.5932 Y40.4065 F350.00
G01 X4.6032 Y40.3775 F350.00
G01 X4.6124 Y40.3483 F350.00
G01 X4.6210 Y40.3188 F350.00
G01 X4.6288 Y40.2892 F350.00
G01 X4.6646 Y40.1464 F350.00
G01 X4.6717 Y40.1165 F350.00
G01 X4.6780 Y40.0865 F350.00
G01 X4.6836 Y40.0563 F350.00
G01 X4.6885 Y40.0260 F350.00
G01 X4.7101 Y39.8804 F350.00
G01 X4.7142 Y39.8500 F350.00
G01 X4.7176 Y39.8195 F350.00
G01 X4.7203 Y39.7890 F350.00
G01 X4.7221 Y39.7584 F350.00
G01 X4.7294 Y39.6113 F350.00
G01 X4.7305 Y39.5807 F350.00
G01 X4.7309 Y39.5500 F350.00
G01 X4.7305 Y39.5193 F350.00
G01 X4.7294 Y39.4887 F350.00
G01 X4.7221 Y39.3416 F350.00
G01 X4.7203 Y39.3110 F350.00
G01 X4.7176 Y39.2805 F350.00
G01 X4.7142 Y39.2500 F350.00
G01 X4.7101 Y39.2196 F350.00
G01 X4.6885 Y39.0740 F350.00
G01 X4.6836 Y39.0437 F350.00
G01 X4.6780 Y39.0135 F350.00
G01 X4.6717 Y38.9835 F350.00
G01 X4.6646 Y38.9536 F350.00
G01 X4.6288 Y38.8108 F350.00
G01 X4.6210 Y38.7812 F350.00
G01 X4.6124 Y38.7517 F350.00
G01 X4.6032 Y38.7225 F350.00
G01 X4.5932 Y38.6935 F350.00
G01 X4.5436 Y38.5549 F350.00
G01 X4.5329 Y38.5261 F350.00
G01 X4.5215 Y38.4976 F350.00
G01 X4.5094 Y38.4694 F350.00
G01 X4.4967 Y38.4415 F350.00
G01 X4.4337 Y38.3085 F350.00
G01 X4.4203 Y38.2809 F350.00
G01 X4.4061 Y38.2537 F350.00
G01 X4.3914 Y38.2268 F350.00
G01 X4.3759 Y38.2003 F350.00
G01 X4.3002 Y38.0740 F350.00
G01 X4.2841 Y38.0479 F350.00
G01 X4.2674 Y38.0222 F350.00
G01 X4.2500 Y37.9969 F350.00
G01 X4.2321 Y37.9720 F350.00
G01 X4.1444 Y37.8538 F350.00
G01 X4.1258 Y37.8294 F350.00
G01 X4.1066 Y37.8054 F350.00
G01 X4.0869 Y37.7819 F350.00
G01 X4.0666 Y37.7590 F350.00
G01 X3.9677 Y37.6499 F350.00
G01 X3.9468 Y37.6274 F350.00
G01 X3.9254 Y37.6055 F350.00
G01 X3.9034 Y37.5840 F350.00
G01 X3.8810 Y37.5632 F350.00
G01 X3.7719 Y37.4643 F350.00
G01 X3.7489 Y37.4440 F350.00
G01 X3.7254 Y37.4242 F350.00
G01 X3.7015 Y37.4051 F350.00
G01 X3.6771 Y37.3865 F350.00
G01 X3.5588 Y37.2988 F350.00
G01 X3.5340 Y37.2808 F350.00
G01 X3.5006 Y37.2582 F350.00
G01 X3.6224 Y37.3158 F350.00
G01 X3.6503 Y37.3286 F350.00
G01 X3.6785 Y37.3407 F350.00
G01 X3.7070 Y37.3521 F350.00
G01 X3.7357 Y37.3627 F350.00
G01 X3.8743 Y37.4123 F350.00
G01 X3.9033 Y37.4223 F350.00
G01 X3.9326 Y37.4316 F350.00
G01 X3.9620 Y37.4401 F350.00
G01 X3.9917 Y37.4479 F350.00
G01 X4.1345 Y37.4837 F350.00
G01 X4.1643 Y37.4908 F350.00
G01 X4.1944 Y37.4972 F350.00
G01 X4.2245 Y37.5028 F350.00
G01 X4.2548 Y37.5076 F350.00
G01 X4.4004 Y37.5292 F350.00
G01 X4.4308 Y37.5334 F350.00
G01 X4.4613 Y37.5368 F350.00
G01 X4.4919 Y37.5394 F350.00
G01 X4.5225 Y37.5413 F350.00
G01 X4.6695 Y37.5485 F350.00
G01 X4.7002 Y37.5496 F350.00
G01 X4.7309 Y37.5500 F350.00
G01 X4.7615 Y37.5496 F350.00
G01 X4.7922 Y37.5485 F350.00
G01 X4.9392 Y37.5413 F350.00
G01 X4.9698 Y37.5394 F350.00
G01 X5.0004 Y37.5368 F350.00
G01 X5.0309 Y37.5334 F350.00
G01 X5.0613 Y37.5292 F350.00
G01 X5.2069 Y37.5076 F350.00
G01 X5.2372 Y37.5028 F350.00
G01 X5.2674 Y37.4972 F350.00
G01 X5.2974 Y37.4908 F350.00
G01 X5.3272 Y37.4837 F350.00
G01 X5.4700 Y37.4479 F350.00
G01 X5.4997 Y37.4401 F350.00
G01 X5.5291 Y37.4316 F350.00
G01 X5.5584 Y37.4223 F350.00
G01 X5.5874 Y37.4123 F350.00
G01 X5.7260 Y37.3627 F350.00
G01 X5.7548 Y37.3521 F350.00
G01 X5.7832 Y37.3407 F350.00
G01 X5.8114 Y37.3286 F350.00
G01 X5.8393 Y37.3158 F350.00
G01 X5.9724 Y37.2529 F350.00
G01 X6.0000 Y37.2394 F350.00
G01 X6.0272 Y37.2253 F350.00
G01 X6.0541 Y37.2105 F350.00
G01 X6.0806 Y37.1950 F350.00
G01 X6.2068 Y37.1194 F350.00
G01 X6.2330 Y37.1033 F350.00
G01 X6.2587 Y37.0865 F350.00
G01 X6.2840 Y37.0692 F350.00
G01 X6.3088 Y37.0512 F350.00
G01 X6.4271 Y36.9635 F350.00
G01 X6.4515 Y36.9449 F350.00
G01 X6.4754 Y36.9258 F350.00
G01 X6.4989 Y36.9060 F350.00
G01 X6.5219 Y36.8857 F350.00
G01 X6.6310 Y36.7868 F350.00
G01 X6.6534 Y36.7660 F350.00
G01 X6.6754 Y36.7445 F350.00
G01 X6.6968 Y36.7226 F350.00
G01 X6.7177 Y36.7001 F350.00
G01 X6.8166 Y36.5910 F350.00
G01 X6.8369 Y36.5681 F350.00
G01 X6.8566 Y36.5446 F350.00
G01 X6.8758 Y36.5206 F350.00
G01 X6.8944 Y36.4962 F350.00
G01 X6.9821 Y36.3780 F350.00
G01 X7.0000 Y36.3531 F350.00
G01 X7.0174 Y36.3278 F350.00
G01 X7.0341 Y36.3021 F350.00
G01 X7.0502 Y36.2760 F350.00
G01 X7.1259 Y36.1497 F350.00
G01 X7.1414 Y36.1232 F350.00
G01 X7.1561 Y36.0963 F350.00
G01 X7.1703 Y36.0691 F350.00
G01 X7.1837 Y36.0415 F350.00
G01 X7.2467 Y35.9085 F350.00
G01 X7.2594 Y35.8806 F350.00
G01 X7.2715 Y35.8524 F350.00
G01 X7.2829 Y35.8239 F350.00
G01 X7.2936 Y35.7951 F350.00
G01 X7.3432 Y35.6565 F350.00
G01 X7.3532 Y35.6275 F350.00
G01 X7.3624 Y35.5983 F350.00
G01 X7.3710 Y35.5688 F350.00
G01 X7.3788 Y35.5392 F350.00
G01 X7.4146 Y35.3964 F350.00
G01 X7.4217 Y35.3665 F350.00
G01 X7.4280 Y35.3365 F350.00
G01 X7.4336 Y35.3063 F350.00
G01 X7.4385 Y35.2760 F350.00
G01 X7.4601 Y35.1304 F350.00
G01 X7.4642 Y35.1000 F350.00
G01 X7.4676 Y35.0695 F350.00
G01 X7.4703 Y35.0390 F350.00
G01 X7.4721 Y35.0084 F350.00
G01 X7.4794 Y34.8613 F350.00
G01 X7.4805 Y34.8307 F350.00
G01 X7.4809 Y34.8000 F350.00
G01 X7.4805 Y34.7693 F350.00
G01 X7.4794 Y34.7387 F350.00
G01 X7.4721 Y34.5916 F350.00
G01 X7.4703 Y34.5610 F350.00
G01 X7.4676 Y34.5305 F350.00
G01 X7.4642 Y34.5000 F350.00
G01 X7.4601 Y34.4696 F350.00
G01 X7.4385 Y34.3240 F350.00
G01 X7.4336 Y34.2937 F350.00
G01 X7.4280 Y34.2635 F350.00
G01 X7.4217 Y34.2335 F350.00
G01 X7.4146 Y34.2036 F350.00
G01 X7.3788 Y34.0608 F350.00
G01 X7.3710 Y34.0312 F350.00
G01 X7.3624 Y34.0017 F350.00
G01 X7.3532 Y33.9725 F350.00
G01 X7.3432 Y33.9435 F350.00
G01 X7.2936 Y33.8049 F350.00
G01 X7.2829 Y33.7761 F350.00
G01 X7.2715 Y33.7476 F350.00
G01 X7.2594 Y33.7194 F350.00
G01 X7.2467 Y33.6915 F350.00
G01 X7.1837 Y33.5585 F350.00
G01 X7.1703 Y33.5309 F350.00
G01 X7.1561 Y33.5037 F350.00
G01 X7.1414 Y33.4768 F350.00
G01 X7.1259 Y33.4503 F350.00
G01 X7.0502 Y33.3240 F350.00
G01 X7.0341 Y33.2979 F350.00
G01 X7.0174 Y33.2722 F350.00
G01 X7.0000 Y33.2469 F350.00
G01 X6.9821 Y33.2220 F350.00
G01 X6.8944 Y33.1038 F350.00
G01 X6.8758 Y33.0794 F350.00
G01 X6.8566 Y33.0554 F350.00
G01 X6.8369 Y33.0319 F350.00
G01 X6.8166 Y33.0090 F350.00
G01 X6.7177 Y32.8999 F350.00
G01 X6.6968 Y32.8774 F350.00
G01 X6.6754 Y32.8555 F350.00
G01 X6.6534 Y32.8340 F350.00
G01 X6.6310 Y32.8132 F350.00
G01 X6.5219 Y32.7143 F350.00
G01 X6.4989 Y32.6940 F350.00
G01 X6.4754 Y32.6742 F350.00
G01 X6.4515 Y32.6551 F350.00
G01 X6.4271 Y32.6365 F350.00
G01 X6.3088 Y32.5488 F350.00
G01 X6.2840 Y32.5308 F350.00
G01 X6.2587 Y32.5135 F350.00
G01 X6.2330 Y32.4967 F350.00
G01 X6.2068 Y32.4806 F350.00
G01 X6.0806 Y32.4050 F350.00
G01 X6.0541 Y32.3895 F350.00
G01 X6.0272 Y32.3747 F350.00
G01 X6.0000 Y32.3606 F350.00
G01 X5.9724 Y32.3471 F350.00
G01 X5.8393 Y32.2842 F350.00
G01 X5.8114 Y32.2714 F350.00
G01 X5.7832 Y32.2593 F350.00
G01 X5.7548 Y32.2479 F350.00
G01 X5.7260 Y32.2373 F350.00
G01 X5.5874 Y32.1877 F350.00
G01 X5.5584 Y32.1777 F350.00
G01 X5.5291 Y32.1684 F350.00
G01 X5.4997 Y32.1599 F350.00
G01 X5.4700 Y32.1521 F350.00
G01 X5.3272 Y32.1163 F350.00
G01 X5.2974 Y32.1092 F350.00
G01 X5.2674 Y32.1028 F350.00
G01 X5.2372 Y32.0972 F350.00
G01 X5.2069 Y32.0924 F350.00
G01 X5.0613 Y32.0708 F350.00
G01 X5.0309 Y32.0666 F350.00
G01 X5.0004 Y32.0632 F350.00
G01 X4.9698 Y32.0606 F350.00
G01 X4.9392 Y32.0587 F350.00
G01 X4.7922 Y32.0515 F350.00
G01 X4.7615 Y32.0504 F350.00
G01 X4.7309 Y32.0500 F350.00
G01 X4.7002 Y32.0504 F350.00
G01 X4.6695 Y32.0515 F350.00
G01 X4.5225 Y32.0587 F350.00
G01 X4.4919 Y32.0606 F350.00
G01 X4.4613 Y32.0632 F350.00
G01 X4.4308 Y32.0666 F350.00
G01 X4.4004 Y32.0708 F350.00
G01 X4.2548 Y32.0924 F350.00
G01 X4.2245 Y32.0972 F350.00
G01 X4.1944 Y32.1028 F350.00
G01 X4.1643 Y32.1092 F350.00
G01 X4.1345 Y32.1163 F350.00
G01 X3.9917 Y32.1521 F350.00
G01 X3.9620 Y32.1599 F350.00
G01 X3.9326 Y32.1684 F350.00
G01 X3.9033 Y32.1777 F350.00
G01 X3.8743 Y32.1877 F350.00
G01 X3.7357 Y32.2373 F350.00
G01 X3.7070 Y32.2479 F350.00
G01 X3.6785 Y32.2593 F350.00
G01 X3.6503 Y32.2714 F350.00
G01 X3.6224 Y32.2842 F350.00
G01 X3.4893 Y32.3471 F350.00
G01 X3.4618 Y32.3606 F350.00
G01 X3.4345 Y32.3747 F350.00
G01 X3.4076 Y32.3895 F350.00
G01 X3.3811 Y32.4050 F350.00
G01 X3.2549 Y32.4806 F350.00
G01 X3.2288 Y32.4967 F350.00
G01 X3.2030 Y32.5135 F350.00
G01 X3.1777 Y32.5308 F350.00
G01 X3.1529 Y32.5488 F350.00
G01 X3.0346 Y32.6365 F350.00
G01 X3.0102 Y32.6551 F350.00
G01 X2.9811 Y32.6786 F350.00
G01 X2.9811 Y31.0250 F350.00
G01 X4.4714 Y29.5346 F350.00
G01 X4.5103 Y29.5392 F350.00
G01 X4.5409 Y29.5418 F350.00
G01 X4.5715 Y29.5437 F350.00
G01 X4.6695 Y29.5485 F350.00
G01 X4.7002 Y29.5496 F350.00
G01 X4.7309 Y29.5500 F350.00
G01 X4.7615 Y29.5496 F350.00
G01 X4.7922 Y29.5485 F350.00
G01 X4.8902 Y29.5437 F350.00
G01 X4.9208 Y29.5418 F350.00
G01 X4.9514 Y29.5392 F350.00
G01 X4.9819 Y29.5358 F350.00
G01 X5.0123 Y29.5317 F350.00
G01 X5.1094 Y29.5173 F350.00
G01 X5.1397 Y29.5124 F350.00
G01 X5.1698 Y29.5068 F350.00
G01 X5.1998 Y29.5004 F350.00
G01 X5.2297 Y29.4933 F350.00
G01 X5.3249 Y29.4695 F350.00
G01 X5.3545 Y29.4617 F350.00
G01 X5.3840 Y29.4531 F350.00
G01 X5.4132 Y29.4439 F350.00
G01 X5.4423 Y29.4339 F350.00
G01 X5.5347 Y29.4008 F350.00
G01 X5.5634 Y29.3901 F350.00
G01 X5.5919 Y29.3787 F350.00
G01 X5.6201 Y29.3666 F350.00
G01 X5.6480 Y29.3539 F350.00
G01 X5.7367 Y29.3119 F350.00
G01 X5.7643 Y29.2985 F350.00
G01 X5.7915 Y29.2843 F350.00
G01 X5.8184 Y29.2695 F350.00
G01 X5.8449 Y29.2541 F350.00
G01 X5.9291 Y29.2036 F350.00
G01 X5.9552 Y29.1875 F350.00
G01 X5.9809 Y29.1708 F350.00
G01 X6.0062 Y29.1535 F350.00
G01 X6.0311 Y29.1355 F350.00
G01 X6.1099 Y29.0770 F350.00
G01 X6.1343 Y29.0584 F350.00
G01 X6.1582 Y29.0393 F350.00
G01 X6.1817 Y29.0195 F350.00
G01 X6.2047 Y28.9992 F350.00
G01 X6.2774 Y28.9333 F350.00
G01 X6.2999 Y28.9124 F350.00
G01 X6.3219 Y28.8910 F350.00
G01 X6.3433 Y28.8690 F350.00
G01 X6.3642 Y28.8466 F350.00
G01 X6.4301 Y28.7738 F350.00
G01 X6.4504 Y28.7509 F350.00
G01 X6.4701 Y28.7274 F350.00
G01 X6.4893 Y28.7034 F350.00
G01 X6.5079 Y28.6790 F350.00
G01 X6.5663 Y28.6002 F350.00
G01 X6.5843 Y28.5753 F350.00
G01 X6.6017 Y28.5500 F350.00
G01 X6.6184 Y28.5243 F350.00
G01 X6.6345 Y28.4982 F350.00
G01 X6.6849 Y28.4140 F350.00
G01 X6.7004 Y28.3875 F350.00
G01 X6.7152 Y28.3606 F350.00
G01 X6.7293 Y28.3334 F350.00
G01 X6.7428 Y28.3058 F350.00
G01 X6.7847 Y28.2171 F350.00
G01 X6.7975 Y28.1892 F350.00
G01 X6.8096 Y28.1610 F350.00
G01 X6.8210 Y28.1326 F350.00
G01 X6.8317 Y28.1038 F350.00
G01 X6.8647 Y28.0114 F350.00
G01 X6.8747 Y27.9824 F350.00
G01 X6.8840 Y27.9531 F350.00
G01 X6.8925 Y27.9237 F350.00
G01 X6.9003 Y27.8940 F350.00
G01 X6.9242 Y27.7988 F350.00
G01 X6.9313 Y27.7690 F350.00
G01 X6.9376 Y27.7390 F350.00
G01 X6.9432 Y27.7088 F350.00
G01 X6.9481 Y27.6785 F350.00
G01 X6.9625 Y27.5814 F350.00
G01 X6.9666 Y27.5510 F350.00
G01 X6.9700 Y27.5205 F350.00
G01 X6.9727 Y27.4900 F350.00
G01 X6.9745 Y27.4594 F350.00
G01 X6.9794 Y27.3613 F350.00
G01 X6.9805 Y27.3307 F350.00
G01 X6.9809 Y27.3000 F350.00
G01 X6.9809 Y26.3000 F350.00
G01 X6.9805 Y26.2693 F350.00
G01 X6.9794 Y26.2387 F350.00
G01 X6.9745 Y26.1406 F350.00
G01 X6.9727 Y26.1100 F350.00
G01 X6.9700 Y26.0795 F350.00
G01 X6.9666 Y26.0490 F350.00
G01 X6.9625 Y26.0186 F350.00
G01 X6.9481 Y25.9215 F350.00
G01 X6.9432 Y25.8912 F350.00
G01 X6.9376 Y25.8610 F350.00
G01 X6.9313 Y25.8310 F350.00
G01 X6.9242 Y25.8012 F350.00
G01 X6.9003 Y25.7060 F350.00
G01 X6.8925 Y25.6763 F350.00
G01 X6.8840 Y25.6469 F350.00
G01 X6.8747 Y25.6176 F350.00
G01 X6.8647 Y25.5886 F350.00
G01 X6.8317 Y25.4962 F350.00
G01 X6.8210 Y25.4674 F350.00
G01 X6.8096 Y25.4390 F350.00
G01 X6.7975 Y25.4108 F350.00
G01 X6.7847 Y25.3829 F350.00
G01 X6.7428 Y25.2942 F350.00
G01 X6.7293 Y25.2666 F350.00
G01 X6.7152 Y25.2394 F350.00
G01 X6.7004 Y25.2125 F350.00
G01 X6.6849 Y25.1860 F350.00
G01 X6.6345 Y25.1018 F350.00
G01 X6.6184 Y25.0757 F350.00
G01 X6.6017 Y25.0500 F350.00
G01 X6.5843 Y25.0247 F350.00
G01 X6.5663 Y24.9998 F350.00
G01 X6.5079 Y24.9210 F350.00
G01 X6.4893 Y24.8966 F350.00
G01 X6.4701 Y24.8726 F350.00
G01 X6.4504 Y24.8491 F350.00
G01 X6.4301 Y24.8262 F350.00
G01 X6.3642 Y24.7534 F350.00
G01 X6.3433 Y24.7310 F350.00
G01 X6.3219 Y24.7090 F350.00
G01 X6.2999 Y24.6876 F350.00
G01 X6.2774 Y24.6667 F350.00
G01 X6.2047 Y24.6008 F350.00
G01 X6.1817 Y24.5805 F350.00
G01 X6.1582 Y24.5607 F350.00
G01 X6.1343 Y24.5416 F350.00
G01 X6.1099 Y24.5230 F350.00
G01 X6.0311 Y24.4645 F350.00
G01 X6.0062 Y24.4465 F350.00
G01 X5.9809 Y24.4292 F350.00
G01 X5.9552 Y24.4125 F350.00
G01 X5.9291 Y24.3964 F350.00
G01 X5.8449 Y24.3459 F350.00
G01 X5.8184 Y24.3305 F350.00
G01 X5.7915 Y24.3157 F350.00
G01 X5.7643 Y24.3015 F350.00
G01 X5.7367 Y24.2881 F350.00
G01 X5.6480 Y24.2461 F350.00
G01 X5.6201 Y24.2334 F350.00
G01 X5.5919 Y24.2213 F350.00
G01 X5.5634 Y24.2099 F350.00
G01 X5.5347 Y24.1992 F350.00
G01 X5.4423 Y24.1661 F350.00
G01 X5.4132 Y24.1561 F350.00
G01 X5.3840 Y24.1469 F350.00
G01 X5.3545 Y24.1383 F350.00
G01 X5.3249 Y24.1305 F350.00
G01 X5.2297 Y24.1067 F350.00
G01 X5.1998 Y24.0996 F350.00
G01 X5.1698 Y24.0932 F350.00
G01 X5.1397 Y24.0876 F350.00
G01 X5.1094 Y24.0827 F350.00
G01 X5.0123 Y24.0683 F350.00
G01 X4.9819 Y24.0642 F350.00
G01 X4.9514 Y24.0608 F350.00
G01 X4.9208 Y24.0582 F350.00
G01 X4.8902 Y24.0563 F350.00
G01 X4.7922 Y24.0515 F350.00
G01 X4.7615 Y24.0504 F350.00
G01 X4.7309 Y24.0500 F350.00
G01 X4.7002 Y24.0504 F350.00
G01 X4.6695 Y24.0515 F350.00
G01 X4.5715 Y24.0563 F350.00
G01 X4.5409 Y24.0582 F350.00
G01 X4.5103 Y24.0608 F350.00
G01 X4.4714 Y24.0654 F350.00
G01 X2.6911 Y22.2850 F350.00
G01 X2.6911 Y21.9058 F350.00
G01 X2.7695 Y21.9339 F350.00
G01 X2.7985 Y21.9439 F350.00
G01 X2.8277 Y21.9531 F350.00
G01 X2.8572 Y21.9617 F350.00
G01 X2.8869 Y21.9695 F350.00
G01 X2.9820 Y21.9933 F350.00
G01 X3.0119 Y22.0004 F350.00
G01 X3.0419 Y22.0068 F350.00
G01 X3.0721 Y22.0124 F350.00
G01 X3.1024 Y22.0173 F350.00
G01 X3.1994 Y22.0317 F350.00
G01 X3.2298 Y22.0358 F350.00
G01 X3.2603 Y22.0392 F350.00
G01 X3.2909 Y22.0418 F350.00
G01 X3.3215 Y22.0437 F350.00
G01 X3.4195 Y22.0485 F350.00
G01 X3.4502 Y22.0496 F350.00
G01 X3.4809 Y22.0500 F350.00
G01 X3.5115 Y22.0496 F350.00
G01 X3.5422 Y22.0485 F350.00
G01 X3.6402 Y22.0437 F350.00
G01 X3.6708 Y22.0418 F350.00
G01 X3.7014 Y22.0392 F350.00
G01 X3.7319 Y22.0358 F350.00
G01 X3.7623 Y22.0317 F350.00
G01 X3.8594 Y22.0173 F350.00
G01 X3.8897 Y22.0124 F350.00
G01 X3.9198 Y22.0068 F350.00
G01 X3.9498 Y22.0004 F350.00
G01 X3.9797 Y21.9933 F350.00
G01 X4.0749 Y21.9695 F350.00
G01 X4.1045 Y21.9617 F350.00
G01 X4.1340 Y21.9531 F350.00
G01 X4.1632 Y21.9439 F350.00
G01 X4.1923 Y21.9339 F350.00
G01 X4.2847 Y21.9008 F350.00
G01 X4.3134 Y21.8901 F350.00
G01 X4.3419 Y21.8787 F350.00
G01 X4.3696 Y21.8668 F350.00
G00 Z0.5000
G00 X0.6910 Y25.2354
G01 F250.00
G01 Z-0.0500
G01 F350.00
G01 X2.2556 Y26.8000 F350.00
G01 X0.6910 Y28.3646 F350.00
G01 X0.6910 Y25.2354 F350.00
G00 Z0.5000
G00 X2.7315 Y34.8245
G01 F250.00
G01 Z-0.0500
G01 F350.00
G01 X2.7309 Y34.8000 F350.00
G01 X2.7315 Y34.7755 F350.00
G01 X2.7387 Y34.6284 F350.00
G01 X2.7405 Y34.6040 F350.00
G01 X2.7435 Y34.5796 F350.00
G01 X2.7651 Y34.4340 F350.00
G01 X2.7693 Y34.4098 F350.00
G01 X2.7747 Y34.3859 F350.00
G01 X2.8104 Y34.2431 F350.00
G01 X2.8170 Y34.2194 F350.00
G01 X2.8247 Y34.1961 F350.00
G01 X2.8743 Y34.0575 F350.00
G01 X2.8831 Y34.0346 F350.00
G01 X2.8930 Y34.0122 F350.00
G01 X2.9560 Y33.8791 F350.00
G01 X2.9670 Y33.8572 F350.00
G01 X2.9791 Y33.8359 F350.00
G01 X3.0548 Y33.7096 F350.00
G01 X3.0679 Y33.6889 F350.00
G01 X3.0821 Y33.6688 F350.00
G01 X3.1697 Y33.5506 F350.00
G01 X3.1848 Y33.5312 F350.00
G01 X3.2009 Y33.5126 F350.00
G01 X3.2997 Y33.4036 F350.00
G01 X3.3166 Y33.3858 F350.00
G01 X3.3344 Y33.3689 F350.00
G01 X3.4435 Y33.2700 F350.00
G01 X3.4621 Y33.2540 F350.00
G01 X3.4814 Y33.2389 F350.00
G01 X3.5997 Y33.1512 F350.00
G01 X3.6197 Y33.1371 F350.00
G01 X3.6405 Y33.1239 F350.00
G01 X3.7667 Y33.0483 F350.00
G01 X3.7881 Y33.0362 F350.00
G01 X3.8100 Y33.0251 F350.00
G01 X3.9431 Y32.9622 F350.00
G01 X3.9655 Y32.9522 F350.00
G01 X3.9884 Y32.9434 F350.00
G01 X4.1270 Y32.8938 F350.00
G01 X4.1503 Y32.8861 F350.00
G01 X4.1739 Y32.8796 F350.00
G01 X4.3167 Y32.8438 F350.00
G01 X4.3407 Y32.8384 F350.00
G01 X4.3649 Y32.8342 F350.00
G01 X4.5105 Y32.8126 F350.00
G01 X4.5348 Y32.8096 F350.00
G01 X4.5593 Y32.8078 F350.00
G01 X4.7063 Y32.8006 F350.00
G01 X4.7309 Y32.8000 F350.00
G01 X4.7554 Y32.8006 F350.00
G01 X4.9024 Y32.8078 F350.00
G01 X4.9269 Y32.8096 F350.00
G01 X4.9513 Y32.8126 F350.00
G01 X5.0969 Y32.8342 F350.00
G01 X5.1210 Y32.8384 F350.00
G01 X5.1450 Y32.8438 F350.00
G01 X5.2878 Y32.8796 F350.00
G01 X5.3114 Y32.8861 F350.00
G01 X5.3347 Y32.8938 F350.00
G01 X5.4733 Y32.9434 F350.00
G01 X5.4962 Y32.9522 F350.00
G01 X5.5187 Y32.9622 F350.00
G01 X5.6517 Y33.0251 F350.00
G01 X5.6737 Y33.0362 F350.00
G01 X5.6950 Y33.0483 F350.00
G01 X5.8213 Y33.1239 F350.00
G01 X5.8420 Y33.1371 F350.00
G01 X5.8621 Y33.1512 F350.00
G01 X5.9803 Y33.2389 F350.00
G01 X5.9996 Y33.2540 F350.00
G01 X6.0182 Y33.2700 F350.00
G01 X6.1273 Y33.3689 F350.00
G01 X6.1451 Y33.3858 F350.00
G01 X6.1620 Y33.4036 F350.00
G01 X6.2609 Y33.5126 F350.00
G01 X6.2769 Y33.5312 F350.00
G01 X6.2920 Y33.5506 F350.00
G01 X6.3797 Y33.6688 F350.00
G01 X6.3938 Y33.6889 F350.00
G01 X6.4069 Y33.7096 F350.00
G01 X6.4826 Y33.8359 F350.00
G01 X6.4947 Y33.8572 F350.00
G01 X6.5057 Y33.8791 F350.00
G01 X6.5687 Y34.0122 F350.00
G01 X6.5786 Y34.0346 F350.00
G01 X6.5875 Y34.0575 F350.00
G01 X6.6370 Y34.1961 F350.00
G01 X6.6447 Y34.2194 F350.00
G01 X6.6513 Y34.2431 F350.00
G01 X6.6871 Y34.3859 F350.00
G01 X6.6924 Y34.4098 F350.00
G01 X6.6966 Y34.4340 F350.00
G01 X6.7182 Y34.5796 F350.00
G01 X6.7212 Y34.6040 F350.00
G01 X6.7230 Y34.6284 F350.00
G01 X6.7303 Y34.7755 F350.00
G01 X6.7309 Y34.8000 F350.00
G01 X6.7303 Y34.8245 F350.00
G01 X6.7230 Y34.9716 F350.00
G01 X6.7212 Y34.9960 F350.00
G01 X6.7182 Y35.0204 F350.00
G01 X6.6966 Y35.1660 F350.00
G01 X6.6924 Y35.1902 F350.00
G01 X6.6871 Y35.2141 F350.00
G01 X6.6513 Y35.3569 F350.00
G01 X6.6447 Y35.3806 F350.00
G01 X6.6370 Y35.4039 F350.00
G01 X6.5875 Y35.5425 F350.00
G01 X6.5786 Y35.5654 F350.00
G01 X6.5687 Y35.5878 F350.00
G01 X6.5057 Y35.7209 F350.00
G01 X6.4947 Y35.7428 F350.00
G01 X6.4826 Y35.7641 F350.00
G01 X6.4069 Y35.8904 F350.00
G01 X6.3938 Y35.9111 F350.00
G01 X6.3797 Y35.9312 F350.00
G01 X6.2920 Y36.0494 F350.00
G01 X6.2769 Y36.0688 F350.00
G01 X6.2609 Y36.0874 F350.00
G01 X6.1620 Y36.1964 F350.00
G01 X6.1451 Y36.2142 F350.00
G01 X6.1273 Y36.2311 F350.00
G01 X6.0182 Y36.3300 F350.00
G01 X5.9996 Y36.3460 F350.00
G01 X5.9803 Y36.3611 F350.00
G01 X5.8621 Y36.4488 F350.00
G01 X5.8420 Y36.4629 F350.00
G01 X5.8213 Y36.4761 F350.00
G01 X5.6950 Y36.5517 F350.00
G01 X5.6737 Y36.5638 F350.00
G01 X5.6517 Y36.5749 F350.00
G01 X5.5187 Y36.6378 F350.00
G01 X5.4962 Y36.6478 F350.00
G01 X5.4733 Y36.6566 F350.00
G01 X5.3347 Y36.7062 F350.00
G01 X5.3114 Y36.7139 F350.00
G01 X5.2878 Y36.7204 F350.00
G01 X5.1450 Y36.7562 F350.00
G01 X5.1210 Y36.7616 F350.00
G01 X5.0969 Y36.7658 F350.00
G01 X4.9513 Y36.7874 F350.00
G01 X4.9269 Y36.7904 F350.00
G01 X4.9024 Y36.7922 F350.00
G01 X4.7554 Y36.7994 F350.00
G01 X4.7309 Y36.8000 F350.00
G01 X4.7063 Y36.7994 F350.00
G01 X4.5593 Y36.7922 F350.00
G01 X4.5348 Y36.7904 F350.00
G01 X4.5105 Y36.7874 F350.00
G01 X4.3649 Y36.7658 F350.00
G01 X4.3407 Y36.7616 F350.00
G01 X4.3167 Y36.7562 F350.00
G01 X4.1739 Y36.7204 F350.00
G01 X4.1503 Y36.7139 F350.00
G01 X4.1270 Y36.7062 F350.00
G01 X3.9884 Y36.6566 F350.00
G01 X3.9655 Y36.6478 F350.00
G01 X3.9431 Y36.6378 F350.00
G01 X3.8100 Y36.5749 F350.00
G01 X3.7881 Y36.5638 F350.00
G01 X3.7667 Y36.5517 F350.00
G01 X3.6405 Y36.4761 F350.00
G01 X3.6197 Y36.4629 F350.00
G01 X3.5997 Y36.4488 F350.00
G01 X3.4814 Y36.3611 F350.00
G01 X3.4621 Y36.3460 F350.00
G01 X3.4435 Y36.3300 F350.00
G01 X3.3344 Y36.2311 F350.00
G01 X3.3166 Y36.2142 F350.00
G01 X3.2997 Y36.1964 F350.00
G01 X3.2009 Y36.0874 F350.00
G01 X3.1848 Y36.0688 F350.00
G01 X3.1697 Y36.0494 F350.00
G01 X3.0821 Y35.9312 F350.00
G01 X3.0679 Y35.9111 F350.00
G01 X3.0548 Y35.8904 F350.00
G01 X2.9791 Y35.7641 F350.00
G01 X2.9670 Y35.7428 F350.00
G01 X2.9560 Y35.7209 F350.00
G01 X2.8930 Y35.5878 F350.00
G01 X2.8831 Y35.5654 F350.00
G01 X2.8743 Y35.5425 F350.00
G01 X2.8247 Y35.4039 F350.00
G01 X2.8170 Y35.3806 F350.00
G01 X2.8104 Y35.3569 F350.00
G01 X2.7747 Y35.2141 F350.00
G01 X2.7693 Y35.1902 F350.00
G01 X2.7651 Y35.1660 F350.00
G01 X2.7435 Y35.0204 F350.00
G01 X2.7405 Y34.9960 F350.00
G01 X2.7387 Y34.9716 F350.00
G01 X2.7315 Y34.8245 F350.00
G00 Z0.5000
G00 X3.2111 Y37.0918
G01 F250.00
G01 Z-0.0500
G01 F350.00
G01 X3.0893 Y37.0342 F350.00
G01 X3.0614 Y37.0214 F350.00
G01 X3.0332 Y37.0093 F350.00
G01 X3.0048 Y36.9979 F350.00
G01 X2.9811 Y36.9892 F350.00
G01 X2.9811 Y36.9214 F350.00
G01 X3.0102 Y36.9449 F350.00
G01 X3.0346 Y36.9635 F350.00
G01 X3.1529 Y37.0512 F350.00
G01 X3.1777 Y37.0692 F350.00
G01 X3.2111 Y37.0918 F350.00
G00 Z0.5000
G00 X15.8557 Y38.2294
G01 F250.00
G01 Z-0.0500
G01 F350.00
G01 X15.7870 Y38.1536 F350.00
G01 X15.7701 Y38.1358 F350.00
G01 X15.7523 Y38.1189 F350.00
G01 X15.6432 Y38.0200 F350.00
G01 X15.6246 Y38.0040 F350.00
G01 X15.6053 Y37.9889 F350.00
G01 X15.4811 Y37.8969 F350.00
G01 X15.4811 Y29.8000 F350.00
G01 X15.4805 Y29.7755 F350.00
G01 X15.4781 Y29.7264 F350.00
G01 X15.4763 Y29.7020 F350.00
G01 X15.4733 Y29.6776 F350.00
G01 X15.4661 Y29.6290 F350.00
G01 X15.4619 Y29.6049 F350.00
G01 X15.4565 Y29.5809 F350.00
G01 X15.4415 Y29.5214 F350.00
G01 X15.4343 Y29.4979 F350.00
G01 X15.4138 Y29.4401 F350.00
G01 X15.4050 Y29.4172 F350.00
G01 X15.4001 Y29.4059 F350.00
G01 X15.3687 Y29.3394 F350.00
G01 X15.3571 Y29.3177 F350.00
G01 X15.3509 Y29.3071 F350.00
G01 X15.3257 Y29.2650 F350.00
G01 X15.3125 Y29.2443 F350.00
G01 X15.2984 Y29.2242 F350.00
G01 X15.2692 Y29.1848 F350.00
G01 X15.2617 Y29.1750 F350.00
G01 X15.2462 Y29.1561 F350.00
G01 X15.1967 Y29.1015 F350.00
G01 X13.2309 Y27.1354 F350.00
G01 X13.2307 Y26.2877 F350.00
G01 X13.2254 Y26.1774 F350.00
G01 X13.2236 Y26.1530 F350.00
G01 X13.2206 Y26.1286 F350.00
G01 X13.2062 Y26.0315 F350.00
G01 X13.2020 Y26.0074 F350.00
G01 X13.1995 Y25.9954 F350.00
G01 X13.1728 Y25.8882 F350.00
G01 X13.1663 Y25.8646 F350.00
G01 X13.1586 Y25.8413 F350.00
G01 X13.1255 Y25.7489 F350.00
G01 X13.1167 Y25.7260 F350.00
G01 X13.1067 Y25.7035 F350.00
G01 X13.0648 Y25.6148 F350.00
G01 X13.0537 Y25.5929 F350.00
G01 X13.0416 Y25.5716 F350.00
G01 X12.9912 Y25.4874 F350.00
G01 X12.9781 Y25.4666 F350.00
G01 X12.9639 Y25.4466 F350.00
G01 X12.9055 Y25.3678 F350.00
G01 X12.8904 Y25.3484 F350.00
G01 X12.8743 Y25.3298 F350.00
G01 X12.8001 Y25.2481 F350.00
G01 X12.7827 Y25.2308 F350.00
G01 X12.7737 Y25.2224 F350.00
G01 X12.7010 Y25.1565 F350.00
G01 X12.6825 Y25.1405 F350.00
G01 X12.6631 Y25.1254 F350.00
G01 X12.5843 Y25.0669 F350.00
G01 X12.5642 Y25.0528 F350.00
G01 X12.5435 Y25.0397 F350.00
G01 X12.4593 Y24.9892 F350.00
G01 X12.4380 Y24.9771 F350.00
G01 X12.4160 Y24.9661 F350.00
G01 X12.3273 Y24.9241 F350.00
G01 X12.3049 Y24.9142 F350.00
G01 X12.2820 Y24.9053 F350.00
G01 X12.1896 Y24.8723 F350.00
G01 X12.1663 Y24.8646 F350.00
G01 X12.1426 Y24.8580 F350.00
G01 X12.0474 Y24.8342 F350.00
G01 X12.0235 Y24.8288 F350.00
G01 X12.0114 Y24.8266 F350.00
G01 X11.9022 Y24.8102 F350.00
G01 X11.8779 Y24.8072 F350.00
G01 X11.8534 Y24.8054 F350.00
G01 X11.7431 Y24.8002 F350.00
G01 X11.7186 Y24.8002 F350.00
G01 X11.7063 Y24.8006 F350.00
G01 X11.6083 Y24.8054 F350.00
G01 X11.5838 Y24.8072 F350.00
G01 X11.5595 Y24.8102 F350.00
G01 X11.4624 Y24.8246 F350.00
G01 X11.4382 Y24.8288 F350.00
G01 X11.4143 Y24.8342 F350.00
G01 X11.3191 Y24.8580 F350.00
G01 X11.2954 Y24.8646 F350.00
G01 X11.2721 Y24.8723 F350.00
G01 X11.1797 Y24.9053 F350.00
G01 X11.1568 Y24.9142 F350.00
G01 X11.1344 Y24.9241 F350.00
G01 X11.0564 Y24.9610 F350.00
G01 X10.1911 Y24.0957 F350.00
G01 X10.1911 Y20.7450 F350.00
G01 X10.2042 Y20.7610 F350.00
G01 X10.2124 Y20.7702 F350.00
G01 X10.2783 Y20.8429 F350.00
G01 X10.2952 Y20.8607 F350.00
G01 X10.3130 Y20.8776 F350.00
G01 X10.3949 Y20.9516 F350.00
G01 X10.4139 Y20.9672 F350.00
G01 X10.4236 Y20.9746 F350.00
G01 X10.5124 Y21.0403 F350.00
G01 X10.5328 Y21.0539 F350.00
G01 X10.6057 Y21.0978 F350.00
G01 X10.6057 Y21.9750 F350.00
G01 X10.6063 Y21.9995 F350.00
G01 X10.6075 Y22.0241 F350.00
G01 X10.6083 Y22.0363 F350.00
G01 X10.6107 Y22.0607 F350.00
G01 X10.6160 Y22.0972 F350.00
G01 X10.6201 Y22.1213 F350.00
G01 X10.6255 Y22.1453 F350.00
G01 X10.6315 Y22.1691 F350.00
G01 X10.6346 Y22.1810 F350.00
G01 X10.6417 Y22.2044 F350.00
G01 X10.6540 Y22.2392 F350.00
G01 X10.6628 Y22.2621 F350.00
G01 X10.6728 Y22.2845 F350.00
G01 X10.6887 Y22.3177 F350.00
G01 X10.6943 Y22.3286 F350.00
G01 X10.7064 Y22.3500 F350.00
G01 X10.7255 Y22.3815 F350.00
G01 X10.7391 Y22.4019 F350.00
G01 X10.7609 Y22.4315 F350.00
G01 X10.7760 Y22.4509 F350.00
G01 X10.7920 Y22.4695 F350.00
G01 X10.8085 Y22.4876 F350.00
G01 X10.8254 Y22.5054 F350.00
G01 X15.8557 Y27.5357 F350.00
G01 X15.8557 Y38.2294 F350.00
G00 Z0.5000
G00 X17.4815 Y34.8245
G01 F250.00
G01 Z-0.0500
G01 F350.00
G01 X17.4809 Y34.8000 F350.00
G01 X17.4815 Y34.7755 F350.00
G01 X17.4887 Y34.6284 F350.00
G01 X17.4905 Y34.6040 F350.00
G01 X17.4935 Y34.5796 F350.00
G01 X17.5151 Y34.4340 F350.00
G01 X17.5193 Y34.4098 F350.00
G01 X17.5247 Y34.3859 F350.00
G01 X17.5604 Y34.2431 F350.00
G01 X17.5670 Y34.2194 F350.00
G01 X17.5747 Y34.1961 F350.00
G01 X17.6243 Y34.0575 F350.00
G01 X17.6331 Y34.0346 F350.00
G01 X17.6430 Y34.0122 F350.00
G01 X17.7060 Y33.8791 F350.00
G01 X17.7170 Y33.8572 F350.00
G01 X17.7291 Y33.8359 F350.00
G01 X17.8048 Y33.7096 F350.00
G01 X17.8179 Y33.6889 F350.00
G01 X17.8321 Y33.6688 F350.00
G01 X17.9197 Y33.5506 F350.00
G01 X17.9348 Y33.5312 F350.00
G01 X17.9509 Y33.5126 F350.00
G01 X18.0497 Y33.4036 F350.00
G01 X18.0666 Y33.3858 F350.00
G01 X18.0844 Y33.3689 F350.00
G01 X18.1935 Y33.2700 F350.00
G01 X18.2121 Y33.2540 F350.00
G01 X18.2314 Y33.2389 F350.00
G01 X18.3497 Y33.1512 F350.00
G01 X18.3697 Y33.1371 F350.00
G01 X18.3905 Y33.1239 F350.00
G01 X18.5167 Y33.0483 F350.00
G01 X18.5381 Y33.0362 F350.00
G01 X18.5600 Y33.0251 F350.00
G01 X18.6931 Y32.9622 F350.00
G01 X18.7155 Y32.9522 F350.00
G01 X18.7384 Y32.9434 F350.00
G01 X18.8770 Y32.8938 F350.00
G01 X18.9003 Y32.8861 F350.00
G01 X18.9239 Y32.8796 F350.00
G01 X19.0667 Y32.8438 F350.00
G01 X19.0907 Y32.8384 F350.00
G01 X19.1149 Y32.8342 F350.00
G01 X19.2605 Y32.8126 F350.00
G01 X19.2848 Y32.8096 F350.00
G01 X19.3093 Y32.8078 F350.00
G01 X19.4563 Y32.8006 F350.00
G01 X19.4809 Y32.8000 F350.00
G01 X19.5054 Y32.8006 F350.00
G01 X19.6524 Y32.8078 F350.00
G01 X19.6769 Y32.8096 F350.00
G01 X19.7013 Y32.8126 F350.00
G01 X19.8469 Y32.8342 F350.00
G01 X19.8710 Y32.8384 F350.00
G01 X19.8950 Y32.8438 F350.00
G01 X20.0378 Y32.8796 F350.00
G01 X20.0614 Y32.8861 F350.00
G01 X20.0847 Y32.8938 F350.00
G01 X20.2233 Y32.9434 F350.00
G01 X20.2462 Y32.9522 F350.00
G01 X20.2687 Y32.9622 F350.00
G01 X20.4017 Y33.0251 F350.00
G01 X20.4237 Y33.0362 F350.00
G01 X20.4450 Y33.0483 F350.00
G01 X20.5713 Y33.1239 F350.00
G01 X20.5920 Y33.1371 F350.00
G01 X20.6121 Y33.1512 F350.00
G01 X20.7303 Y33.2389 F350.00
G01 X20.7496 Y33.2540 F350.00
G01 X20.7682 Y33.2700 F350.00
G01 X20.8773 Y33.3689 F350.00
G01 X20.8951 Y33.3858 F350.00
G01 X20.9120 Y33.4036 F350.00
G01 X21.0109 Y33.5126 F350.00
G01 X21.0269 Y33.5312 F350.00
G01 X21.0420 Y33.5506 F350.00
G01 X21.1297 Y33.6688 F350.00
G01 X21.1438 Y33.6889 F350.00
G01 X21.1569 Y33.7096 F350.00
G01 X21.2326 Y33.8359 F350.00
G01 X21.2447 Y33.8572 F350.00
G01 X21.2557 Y33.8791 F350.00
G01 X21.3187 Y34.0122 F350.00
G01 X21.3286 Y34.0346 F350.00
G01 X21.3375 Y34.0575 F350.00
G01 X21.3870 Y34.1961 F350.00
G01 X21.3947 Y34.2194 F350.00
G01 X21.4013 Y34.2431 F350.00
G01 X21.4371 Y34.3859 F350.00
G01 X21.4424 Y34.4098 F350.00
G01 X21.4466 Y34.4340 F350.00
G01 X21.4682 Y34.5796 F350.00
G01 X21.4712 Y34.6040 F350.00
G01 X21.4730 Y34.6284 F350.00
G01 X21.4803 Y34.7755 F350.00
G01 X21.4809 Y34.8000 F350.00
G01 X21.4803 Y34.8245 F350.00
G01 X21.4730 Y34.9716 F350.00
G01 X21.4712 Y34.9960 F350.00
G01 X21.4682 Y35.0204 F350.00
G01 X21.4466 Y35.1660 F350.00
G01 X21.4424 Y35.1902 F350.00
G01 X21.4371 Y35.2141 F350.00
G01 X21.4013 Y35.3569 F350.00
G01 X21.3947 Y35.3806 F350.00
G01 X21.3870 Y35.4039 F350.00
G01 X21.3375 Y35.5425 F350.00
G01 X21.3286 Y35.5654 F350.00
G01 X21.3187 Y35.5878 F350.00
G01 X21.2557 Y35.7209 F350.00
G01 X21.2447 Y35.7428 F350.00
G01 X21.2326 Y35.7641 F350.00
G01 X21.1569 Y35.8904 F350.00
G01 X21.1438 Y35.9111 F350.00
G01 X21.1297 Y35.9312 F350.00
G01 X21.0420 Y36.0494 F350.00
G01 X21.0269 Y36.0688 F350.00
G01 X21.0109 Y36.0874 F350.00
G01 X20.9120 Y36.1964 F350.00
G01 X20.8951 Y36.2142 F350.00
G01 X20.8773 Y36.2311 F350.00
G01 X20.7682 Y36.3300 F350.00
G01 X20.7496 Y36.3460 F350.00
G01 X20.7303 Y36.3611 F350.00
G01 X20.6121 Y36.4488 F350.00
G01 X20.5920 Y36.4629 F350.00
G01 X20.5713 Y36.4761 F350.00
G01 X20.4450 Y36.5517 F350.00
G01 X20.4237 Y36.5638 F350.00
G01 X20.4017 Y36.5749 F350.00
G01 X20.2687 Y36.6378 F350.00
G01 X20.2462 Y36.6478 F350.00
G01 X20.2233 Y36.6566 F350.00
G01 X20.0847 Y36.7062 F350.00
G01 X20.0614 Y36.7139 F350.00
G01 X20.0378 Y36.7204 F350.00
G01 X19.8950 Y36.7562 F350.00
G01 X19.8710 Y36.7616 F350.00
G01 X19.8469 Y36.7658 F350.00
G01 X19.7013 Y36.7874 F350.00
G01 X19.6769 Y36.7904 F350.00
G01 X19.6524 Y36.7922 F350.00
G01 X19.5054 Y36.7994 F350.00
G01 X19.4809 Y36.8000 F350.00
G01 X19.4563 Y36.7994 F350.00
G01 X19.3093 Y36.7922 F350.00
G01 X19.2848 Y36.7904 F350.00
G01 X19.2605 Y36.7874 F350.00
G01 X19.1149 Y36.7658 F350.00
G01 X19.0907 Y36.7616 F350.00
G01 X19.0667 Y36.7562 F350.00
G01 X18.9239 Y36.7204 F350.00
G01 X18.9003 Y36.7139 F350.00
G01 X18.8770 Y36.7062 F350.00
G01 X18.7384 Y36.6566 F350.00
G01 X18.7155 Y36.6478 F350.00
G01 X18.6931 Y36.6378 F350.00
G01 X18.5600 Y36.5749 F350.00
G01 X18.5381 Y36.5638 F350.00
G01 X18.5167 Y36.5517 F350.00
G01 X18.3905 Y36.4761 F350.00
G01 X18.3697 Y36.4629 F350.00
G01 X18.3497 Y36.4488 F350.00
G01 X18.2314 Y36.3611 F350.00
G01 X18.2121 Y36.3460 F350.00
G01 X18.1935 Y36.3300 F350.00
G01 X18.0844 Y36.2311 F350.00
G01 X18.0666 Y36.2142 F350.00
G01 X18.0497 Y36.1964 F350.00
G01 X17.9509 Y36.0874 F350.00
G01 X17.9348 Y36.0688 F350.00
G01 X17.9197 Y36.0494 F350.00
G01 X17.8321 Y35.9312 F350.00
G01 X17.8179 Y35.9111 F350.00
G01 X17.8048 Y35.8904 F350.00
G01 X17.7291 Y35.7641 F350.00
G01 X17.7170 Y35.7428 F350.00
G01 X17.7060 Y35.7209 F350.00
G01 X17.6430 Y35.5878 F350.00
G01 X17.6331 Y35.5654 F350.00
G01 X17.6243 Y35.5425 F350.00
G01 X17.5747 Y35.4039 F350.00
G01 X17.5670 Y35.3806 F350.00
G01 X17.5604 Y35.3569 F350.00
G01 X17.5247 Y35.2141 F350.00
G01 X17.5193 Y35.1902 F350.00
G01 X17.5151 Y35.1660 F350.00
G01 X17.4935 Y35.0204 F350.00
G01 X17.4905 Y34.9960 F350.00
G01 X17.4887 Y34.9716 F350.00
G01 X17.4815 Y34.8245 F350.00
G00 Z0.5000
G00 X18.1060 Y29.0801
G01 F250.00
G01 Z-0.0500
G01 F350.00
G01 X18.1807 Y29.1355 F350.00
G01 X18.2055 Y29.1535 F350.00
G01 X18.2308 Y29.1708 F350.00
G01 X18.2565 Y29.1875 F350.00
G01 X18.2827 Y29.2036 F350.00
G01 X18.3668 Y29.2541 F350.00
G01 X18.3933 Y29.2695 F350.00
G01 X18.4202 Y29.2843 F350.00
G01 X18.4475 Y29.2985 F350.00
G01 X18.4750 Y29.3119 F350.00
G01 X18.5637 Y29.3539 F350.00
G01 X18.5916 Y29.3666 F350.00
G01 X18.6198 Y29.3787 F350.00
G01 X18.6483 Y29.3901 F350.00
G01 X18.6771 Y29.4008 F350.00
G01 X18.7695 Y29.4339 F350.00
G01 X18.7985 Y29.4439 F350.00
G01 X18.8277 Y29.4531 F350.00
G01 X18.8572 Y29.4617 F350.00
G01 X18.8869 Y29.4695 F350.00
G01 X18.9820 Y29.4933 F350.00
G01 X19.0119 Y29.5004 F350.00
G01 X19.0419 Y29.5068 F350.00
G01 X19.0721 Y29.5124 F350.00
G01 X19.1024 Y29.5173 F350.00
G01 X19.1994 Y29.5317 F350.00
G01 X19.2429 Y29.5372 F350.00
G01 X21.7306 Y32.0250 F350.00
G01 X21.7306 Y33.2200 F350.00
G01 X21.6444 Y33.1038 F350.00
G01 X21.6258 Y33.0794 F350.00
G01 X21.6066 Y33.0554 F350.00
G01 X21.5869 Y33.0319 F350.00
G01 X21.5666 Y33.0090 F350.00
G01 X21.4677 Y32.8999 F350.00
G01 X21.4468 Y32.8774 F350.00
G01 X21.4254 Y32.8555 F350.00
G01 X21.4034 Y32.8340 F350.00
G01 X21.3810 Y32.8132 F350.00
G01 X21.2719 Y32.7143 F350.00
G01 X21.2489 Y32.6940 F350.00
G01 X21.2254 Y32.6742 F350.00
G01 X21.2015 Y32.6551 F350.00
G01 X21.1771 Y32.6365 F350.00
G01 X21.0588 Y32.5488 F350.00
G01 X21.0340 Y32.5308 F350.00
G01 X21.0087 Y32.5135 F350.00
G01 X20.9830 Y32.4967 F350.00
G01 X20.9568 Y32.4806 F350.00
G01 X20.8306 Y32.4050 F350.00
G01 X20.8041 Y32.3895 F350.00
G01 X20.7772 Y32.3747 F350.00
G01 X20.7500 Y32.3606 F350.00
G01 X20.7224 Y32.3471 F350.00
G01 X20.5893 Y32.2842 F350.00
G01 X20.5614 Y32.2714 F350.00
G01 X20.5332 Y32.2593 F350.00
G01 X20.5048 Y32.2479 F350.00
G01 X20.4760 Y32.2373 F350.00
G01 X20.3374 Y32.1877 F350.00
G01 X20.3084 Y32.1777 F350.00
G01 X20.2791 Y32.1684 F350.00
G01 X20.2497 Y32.1599 F350.00
G01 X20.2200 Y32.1521 F350.00
G01 X20.0772 Y32.1163 F350.00
G01 X20.0474 Y32.1092 F350.00
G01 X20.0174 Y32.1028 F350.00
G01 X19.9872 Y32.0972 F350.00
G01 X19.9569 Y32.0924 F350.00
G01 X19.8113 Y32.0708 F350.00
G01 X19.7809 Y32.0666 F350.00
G01 X19.7504 Y32.0632 F350.00
G01 X19.7198 Y32.0606 F350.00
G01 X19.6892 Y32.0587 F350.00
G01 X19.5422 Y32.0515 F350.00
G01 X19.5115 Y32.0504 F350.00
G01 X19.4809 Y32.0500 F350.00
G01 X19.4502 Y32.0504 F350.00
G01 X19.4195 Y32.0515 F350.00
G01 X19.2725 Y32.0587 F350.00
G01 X19.2419 Y32.0606 F350.00
G01 X19.2113 Y32.0632 F350.00
G01 X19.1808 Y32.0666 F350.00
G01 X19.1504 Y32.0708 F350.00
G01 X19.0048 Y32.0924 F350.00
G01 X18.9745 Y32.0972 F350.00
G01 X18.9444 Y32.1028 F350.00
G01 X18.9143 Y32.1092 F350.00
G01 X18.8845 Y32.1163 F350.00
G01 X18.7417 Y32.1521 F350.00
G01 X18.7120 Y32.1599 F350.00
G01 X18.6826 Y32.1684 F350.00
G01 X18.6533 Y32.1777 F350.00
G01 X18.6243 Y32.1877 F350.00
G01 X18.4857 Y32.2373 F350.00
G01 X18.4570 Y32.2479 F350.00
G01 X18.4285 Y32.2593 F350.00
G01 X18.4003 Y32.2714 F350.00
G01 X18.3724 Y32.2842 F350.00
G01 X18.2393 Y32.3471 F350.00
G01 X18.2118 Y32.3606 F350.00
G01 X18.1845 Y32.3747 F350.00
G01 X18.1576 Y32.3895 F350.00
G01 X18.1060 Y32.4200 F350.00
G01 X18.1060 Y29.0801 F350.00
G00 Z0.5000
G00 X15.1057 Y27.9496
G01 F250.00
G01 Z-0.0500
G01 F350.00
G01 X13.9809 Y26.8248 F350.00
G01 X13.9809 Y26.7215 F350.00
G01 X15.1057 Y27.8464 F350.00
G01 X15.1057 Y27.9496 F350.00
G00 Z0.5000
G00 X11.3435 Y24.0842
G01 F250.00
G01 Z-0.0500
G01 F350.00
G01 X11.3221 Y24.0876 F350.00
G01 X11.2919 Y24.0932 F350.00
G01 X11.2569 Y24.1008 F350.00
G01 X10.9411 Y23.7850 F350.00
G01 X10.9411 Y23.6817 F350.00
G01 X11.3435 Y24.0842 F350.00
G00 Z0.5000
G00 X13.5524 Y22.0500
G01 F250.00
G01 Z-0.0500
G01 F350.00
G01 X14.8959 Y22.0500 F350.00
G01 X14.9406 Y22.0491 F350.00
G01 X14.9406 Y23.4383 F350.00
G01 X13.5524 Y22.0500 F350.00
G00 Z0.5000
G00 X17.9609 Y18.0035
G01 F250.00
G01 Z-0.0500
G01 F350.00
G01 X17.9448 Y17.9769 F350.00
G01 X17.9311 Y17.9565 F350.00
G01 X17.8580 Y17.8580 F350.00
G01 X17.8504 Y17.8484 F350.00
G01 X17.8343 Y17.8298 F350.00
G01 X17.7684 Y17.7571 F350.00
G01 X17.7601 Y17.7481 F350.00
G01 X17.7427 Y17.7308 F350.00
G01 X17.6518 Y17.6484 F350.00
G01 X17.6425 Y17.6405 F350.00
G01 X17.6231 Y17.6254 F350.00
G01 X17.5443 Y17.5669 F350.00
G01 X17.5242 Y17.5528 F350.00
G01 X17.5035 Y17.5397 F350.00
G01 X17.4087 Y17.4830 F350.00
G01 X17.3980 Y17.4771 F350.00
G01 X17.3760 Y17.4661 F350.00
G01 X17.2873 Y17.4241 F350.00
G01 X17.2649 Y17.4142 F350.00
G01 X17.2420 Y17.4053 F350.00
G01 X17.1496 Y17.3723 F350.00
G01 X17.1263 Y17.3646 F350.00
G01 X17.1026 Y17.3580 F350.00
G01 X17.0074 Y17.3342 F350.00
G01 X16.9835 Y17.3288 F350.00
G01 X16.9593 Y17.3246 F350.00
G01 X16.8622 Y17.3102 F350.00
G01 X16.8501 Y17.3086 F350.00
G01 X16.8257 Y17.3062 F350.00
G01 X16.7031 Y17.3002 F350.00
G01 X16.6786 Y17.3002 F350.00
G01 X16.6663 Y17.3006 F350.00
G01 X16.5683 Y17.3054 F350.00
G01 X16.5438 Y17.3072 F350.00
G01 X16.5195 Y17.3102 F350.00
G01 X16.4224 Y17.3246 F350.00
G01 X16.3982 Y17.3288 F350.00
G01 X16.3743 Y17.3342 F350.00
G01 X16.2791 Y17.3580 F350.00
G01 X16.2554 Y17.3646 F350.00
G01 X16.2321 Y17.3723 F350.00
G01 X16.1397 Y17.4053 F350.00
G01 X16.1168 Y17.4142 F350.00
G01 X16.0944 Y17.4241 F350.00
G01 X16.0057 Y17.4661 F350.00
G01 X15.9947 Y17.4715 F350.00
G01 X15.9730 Y17.4830 F350.00
G01 X15.8782 Y17.5397 F350.00
G01 X15.8575 Y17.5528 F350.00
G01 X15.8374 Y17.5669 F350.00
G01 X15.7586 Y17.6254 F350.00
G01 X15.7393 Y17.6405 F350.00
G01 X15.7299 Y17.6484 F350.00
G01 X15.6390 Y17.7308 F350.00
G01 X15.6302 Y17.7393 F350.00
G01 X15.6133 Y17.7571 F350.00
G01 X15.5474 Y17.8298 F350.00
G01 X15.5313 Y17.8484 F350.00
G01 X15.5237 Y17.8580 F350.00
G01 X15.4578 Y17.9466 F350.00
G01 X15.4437 Y17.9666 F350.00
G01 X15.4305 Y17.9874 F350.00
G01 X15.3959 Y18.0452 F350.00
G01 X15.3957 Y17.7877 F350.00
G01 X15.3945 Y17.7632 F350.00
G01 X15.3935 Y17.7510 F350.00
G01 X15.3921 Y17.7388 F350.00
G01 X15.3885 Y17.7145 F350.00
G01 X15.3837 Y17.6904 F350.00
G01 X15.3809 Y17.6785 F350.00
G01 X15.3743 Y17.6549 F350.00
G01 X15.3666 Y17.6316 F350.00
G01 X15.3578 Y17.6087 F350.00
G01 X15.3479 Y17.5862 F350.00
G01 X15.3368 Y17.5643 F350.00
G01 X15.3247 Y17.5429 F350.00
G01 X15.3116 Y17.5222 F350.00
G01 X15.2975 Y17.5022 F350.00
G01 X15.2824 Y17.4828 F350.00
G01 X15.2745 Y17.4734 F350.00
G01 X15.2580 Y17.4552 F350.00
G01 X15.2406 Y17.4379 F350.00
G01 X15.2316 Y17.4295 F350.00
G01 X15.2131 Y17.4135 F350.00
G01 X15.1937 Y17.3984 F350.00
G01 X15.1736 Y17.3843 F350.00
G01 X15.1529 Y17.3711 F350.00
G01 X15.1423 Y17.3650 F350.00
G01 X15.1207 Y17.3534 F350.00
G01 X15.0985 Y17.3429 F350.00
G01 X15.0872 Y17.3381 F350.00
G01 X15.0643 Y17.3292 F350.00
G01 X15.0410 Y17.3215 F350.00
G01 X15.0292 Y17.3181 F350.00
G01 X15.0054 Y17.3121 F350.00
G01 X14.9934 Y17.3096 F350.00
G01 X14.9692 Y17.3054 F350.00
G01 X14.9449 Y17.3024 F350.00
G01 X14.9204 Y17.3006 F350.00
G01 X14.9081 Y17.3002 F350.00
G01 X12.8959 Y17.3000 F350.00
G01 X12.8713 Y17.3006 F350.00
G01 X12.8469 Y17.3024 F350.00
G01 X12.8225 Y17.3054 F350.00
G01 X12.8104 Y17.3074 F350.00
G01 X12.7983 Y17.3096 F350.00
G01 X12.7744 Y17.3150 F350.00
G01 X12.7625 Y17.3181 F350.00
G01 X12.7390 Y17.3252 F350.00
G01 X12.7274 Y17.3292 F350.00
G01 X12.7045 Y17.3381 F350.00
G01 X12.6932 Y17.3429 F350.00
G01 X12.6711 Y17.3534 F350.00
G01 X12.6494 Y17.3650 F350.00
G01 X12.6388 Y17.3711 F350.00
G01 X12.6181 Y17.3843 F350.00
G01 X12.5980 Y17.3984 F350.00
G01 X12.5882 Y17.4058 F350.00
G01 X12.5693 Y17.4214 F350.00
G01 X12.5511 Y17.4379 F350.00
G01 X12.5423 Y17.4464 F350.00
G01 X12.5337 Y17.4552 F350.00
G01 X12.5173 Y17.4734 F350.00
G01 X12.5017 Y17.4924 F350.00
G01 X12.4943 Y17.5022 F350.00
G01 X12.4801 Y17.5222 F350.00
G01 X12.4734 Y17.5325 F350.00
G01 X12.4608 Y17.5536 F350.00
G01 X12.4492 Y17.5752 F350.00
G01 X12.4439 Y17.5862 F350.00
G01 X12.4339 Y17.6087 F350.00
G01 X12.4294 Y17.6201 F350.00
G01 X12.4211 Y17.6432 F350.00
G01 X12.4140 Y17.6666 F350.00
G01 X12.4108 Y17.6785 F350.00
G01 X12.4055 Y17.7025 F350.00
G01 X12.4015 Y17.7250 F350.00
G01 X12.3168 Y17.6484 F350.00
G01 X12.3075 Y17.6405 F350.00
G01 X12.2881 Y17.6254 F350.00
G01 X12.2093 Y17.5669 F350.00
G01 X12.1892 Y17.5528 F350.00
G01 X12.1685 Y17.5397 F350.00
G01 X12.0843 Y17.4892 F350.00
G01 X12.0630 Y17.4771 F350.00
G01 X12.0521 Y17.4715 F350.00
G01 X11.9412 Y17.4190 F350.00
G01 X11.9185 Y17.4096 F350.00
G01 X11.9070 Y17.4053 F350.00
G01 X11.8030 Y17.3683 F350.00
G01 X11.7795 Y17.3612 F350.00
G01 X11.7676 Y17.3580 F350.00
G01 X11.6724 Y17.3342 F350.00
G01 X11.6485 Y17.3288 F350.00
G01 X11.6243 Y17.3246 F350.00
G01 X11.5272 Y17.3102 F350.00
G01 X11.5029 Y17.3072 F350.00
G01 X11.4784 Y17.3054 F350.00
G01 X11.3804 Y17.3006 F350.00
G01 X11.3559 Y17.3000 F350.00
G01 X11.3313 Y17.3006 F350.00
G01 X11.2333 Y17.3054 F350.00
G01 X11.2088 Y17.3072 F350.00
G01 X11.1845 Y17.3102 F350.00
G01 X11.0874 Y17.3246 F350.00
G01 X11.0632 Y17.3288 F350.00
G01 X11.0393 Y17.3342 F350.00
G01 X10.9441 Y17.3580 F350.00
G01 X10.9204 Y17.3646 F350.00
G01 X10.9087 Y17.3683 F350.00
G01 X10.8047 Y17.4053 F350.00
G01 X10.7818 Y17.4142 F350.00
G01 X10.7706 Y17.4190 F350.00
G01 X10.6597 Y17.4715 F350.00
G01 X10.6488 Y17.4771 F350.00
G01 X10.6274 Y17.4892 F350.00
G01 X10.5328 Y17.5461 F350.00
G01 X10.5225 Y17.5528 F350.00
G01 X10.5024 Y17.5669 F350.00
G01 X10.4236 Y17.6254 F350.00
G01 X10.4043 Y17.6405 F350.00
G01 X10.3857 Y17.6565 F350.00
G01 X10.3130 Y17.7224 F350.00
G01 X10.2952 Y17.7393 F350.00
G01 X10.2783 Y17.7571 F350.00
G01 X10.2124 Y17.8298 F350.00
G01 X10.1963 Y17.8484 F350.00
G01 X10.1887 Y17.8580 F350.00
G01 X10.1156 Y17.9565 F350.00
G01 X10.1020 Y17.9769 F350.00
G01 X10.0859 Y18.0035 F350.00
G01 X10.0698 Y17.9769 F350.00
G01 X10.0561 Y17.9565 F350.00
G01 X9.9830 Y17.8580 F350.00
G01 X9.9754 Y17.8484 F350.00
G01 X9.9593 Y17.8298 F350.00
G01 X9.8934 Y17.7571 F350.00
G01 X9.8765 Y17.7393 F350.00
G01 X9.8587 Y17.7224 F350.00
G01 X9.7860 Y17.6565 F350.00
G01 X9.7675 Y17.6405 F350.00
G01 X9.7481 Y17.6254 F350.00
G01 X9.6693 Y17.5669 F350.00
G01 X9.6492 Y17.5528 F350.00
G01 X9.6285 Y17.5397 F350.00
G01 X9.5443 Y17.4892 F350.00
G01 X9.5230 Y17.4771 F350.00
G01 X9.5010 Y17.4661 F350.00
G01 X9.4123 Y17.4241 F350.00
G01 X9.4012 Y17.4190 F350.00
G01 X9.3785 Y17.4096 F350.00
G01 X9.2630 Y17.3683 F350.00
G01 X9.2395 Y17.3612 F350.00
G01 X9.2276 Y17.3580 F350.00
G01 X9.1324 Y17.3342 F350.00
G01 X9.1085 Y17.3288 F350.00
G01 X9.0843 Y17.3246 F350.00
G01 X8.9872 Y17.3102 F350.00
G01 X8.9629 Y17.3072 F350.00
G01 X8.9384 Y17.3054 F350.00
G01 X8.8404 Y17.3006 F350.00
G01 X8.8159 Y17.3000 F350.00
G01 X8.7913 Y17.3006 F350.00
G01 X8.6933 Y17.3054 F350.00
G01 X8.6688 Y17.3072 F350.00
G01 X8.6445 Y17.3102 F350.00
G01 X8.5474 Y17.3246 F350.00
G01 X8.5232 Y17.3288 F350.00
G01 X8.4993 Y17.3342 F350.00
G01 X8.4041 Y17.3580 F350.00
G01 X8.3804 Y17.3646 F350.00
G01 X8.3571 Y17.3723 F350.00
G01 X8.2647 Y17.4053 F350.00
G01 X8.2418 Y17.4142 F350.00
G01 X8.2194 Y17.4241 F350.00
G01 X8.1307 Y17.4661 F350.00
G01 X8.1088 Y17.4771 F350.00
G01 X8.0874 Y17.4892 F350.00
G01 X8.0032 Y17.5397 F350.00
G01 X7.9825 Y17.5528 F350.00
G01 X7.9624 Y17.5669 F350.00
G01 X7.8836 Y17.6254 F350.00
G01 X7.8643 Y17.6405 F350.00
G01 X7.8457 Y17.6565 F350.00
G01 X7.7640 Y17.7308 F350.00
G01 X7.7466 Y17.7481 F350.00
G01 X7.7383 Y17.7571 F350.00
G01 X7.6724 Y17.8298 F350.00
G01 X7.6563 Y17.8484 F350.00
G01 X7.6487 Y17.8580 F350.00
G01 X7.5828 Y17.9466 F350.00
G01 X7.5687 Y17.9666 F350.00
G01 X7.5555 Y17.9874 F350.00
G01 X7.5209 Y18.0452 F350.00
G01 X7.5207 Y17.7877 F350.00
G01 X7.5195 Y17.7632 F350.00
G01 X7.5171 Y17.7388 F350.00
G01 X7.5154 Y17.7266 F350.00
G01 X7.5113 Y17.7025 F350.00
G01 X7.5059 Y17.6785 F350.00
G01 X7.4993 Y17.6549 F350.00
G01 X7.4916 Y17.6316 F350.00
G01 X7.4828 Y17.6087 F350.00
G01 X7.4729 Y17.5862 F350.00
G01 X7.4618 Y17.5643 F350.00
G01 X7.4497 Y17.5429 F350.00
G01 X7.4433 Y17.5325 F350.00
G01 X7.4297 Y17.5121 F350.00
G01 X7.4150 Y17.4924 F350.00
G01 X7.3995 Y17.4734 F350.00
G01 X7.3830 Y17.4552 F350.00
G01 X7.3656 Y17.4379 F350.00
G01 X7.3474 Y17.4214 F350.00
G01 X7.3381 Y17.4135 F350.00
G01 X7.3187 Y17.3984 F350.00
G01 X7.2986 Y17.3843 F350.00
G01 X7.2884 Y17.3776 F350.00
G01 X7.2673 Y17.3650 F350.00
G01 X7.2457 Y17.3534 F350.00
G01 X7.2346 Y17.3480 F350.00
G01 X7.2235 Y17.3429 F350.00
G01 X7.2008 Y17.3335 F350.00
G01 X7.1777 Y17.3252 F350.00
G01 X7.1542 Y17.3181 F350.00
G01 X7.1304 Y17.3121 F350.00
G01 X7.1184 Y17.3096 F350.00
G01 X7.0942 Y17.3054 F350.00
G01 X7.0699 Y17.3024 F350.00
G01 X7.0454 Y17.3006 F350.00
G01 X7.0209 Y17.3000 F350.00
G01 X5.0209 Y17.3000 F350.00
G01 X4.9963 Y17.3006 F350.00
G01 X4.9719 Y17.3024 F350.00
G01 X4.9475 Y17.3054 F350.00
G01 X4.9354 Y17.3074 F350.00
G01 X4.9113 Y17.3121 F350.00
G01 X4.8994 Y17.3150 F350.00
G01 X4.8757 Y17.3215 F350.00
G01 X4.8524 Y17.3292 F350.00
G01 X4.8295 Y17.3381 F350.00
G01 X4.8182 Y17.3429 F350.00
G01 X4.8071 Y17.3480 F350.00
G01 X4.7852 Y17.3590 F350.00
G01 X4.7638 Y17.3711 F350.00
G01 X4.7534 Y17.3776 F350.00
G01 X4.7330 Y17.3912 F350.00
G01 X4.7230 Y17.3984 F350.00
G01 X4.7132 Y17.4058 F350.00
G01 X4.6943 Y17.4214 F350.00
G01 X4.6851 Y17.4295 F350.00
G01 X4.6673 Y17.4464 F350.00
G01 X4.6504 Y17.4642 F350.00
G01 X4.6423 Y17.4734 F350.00
G01 X4.6267 Y17.4924 F350.00
G01 X4.6193 Y17.5022 F350.00
G01 X4.6051 Y17.5222 F350.00
G01 X4.5984 Y17.5325 F350.00
G01 X4.5858 Y17.5536 F350.00
G01 X4.5742 Y17.5752 F350.00
G01 X4.5689 Y17.5862 F350.00
G01 X4.5589 Y17.6087 F350.00
G01 X4.5544 Y17.6201 F350.00
G01 X4.5461 Y17.6432 F350.00
G01 X4.5390 Y17.6666 F350.00
G01 X4.5358 Y17.6785 F350.00
G01 X4.5305 Y17.7025 F350.00
G01 X4.5265 Y17.7250 F350.00
G01 X4.4418 Y17.6484 F350.00
G01 X4.4325 Y17.6405 F350.00
G01 X4.4131 Y17.6254 F350.00
G01 X4.3343 Y17.5669 F350.00
G01 X4.3142 Y17.5528 F350.00
G01 X4.2935 Y17.5397 F350.00
G01 X4.2310 Y17.5022 F350.00
G01 X4.2310 Y15.0501 F350.00
G01 X20.7967 Y15.0501 F350.00
G01 X22.8307 Y17.0842 F350.00
G01 X22.8307 Y17.3036 F350.00
G01 X22.8076 Y17.3014 F350.00
G01 X22.7954 Y17.3006 F350.00
G01 X22.7709 Y17.3000 F350.00
G01 X20.7709 Y17.3000 F350.00
G01 X20.7463 Y17.3006 F350.00
G01 X20.7219 Y17.3024 F350.00
G01 X20.7097 Y17.3038 F350.00
G01 X20.6854 Y17.3074 F350.00
G01 X20.6613 Y17.3121 F350.00
G01 X20.6494 Y17.3150 F350.00
G01 X20.6375 Y17.3181 F350.00
G01 X20.6140 Y17.3252 F350.00
G01 X20.6024 Y17.3292 F350.00
G01 X20.5795 Y17.3381 F350.00
G01 X20.5571 Y17.3480 F350.00
G01 X20.5461 Y17.3534 F350.00
G01 X20.5352 Y17.3590 F350.00
G01 X20.5138 Y17.3711 F350.00
G01 X20.5034 Y17.3776 F350.00
G01 X20.4830 Y17.3912 F350.00
G01 X20.4632 Y17.4058 F350.00
G01 X20.4537 Y17.4135 F350.00
G01 X20.4351 Y17.4295 F350.00
G01 X20.4261 Y17.4379 F350.00
G01 X20.4173 Y17.4464 F350.00
G01 X20.4004 Y17.4642 F350.00
G01 X20.3923 Y17.4734 F350.00
G01 X20.3767 Y17.4924 F350.00
G01 X20.3621 Y17.5121 F350.00
G01 X20.3551 Y17.5222 F350.00
G01 X20.3420 Y17.5429 F350.00
G01 X20.3358 Y17.5536 F350.00
G01 X20.3242 Y17.5752 F350.00
G01 X20.3189 Y17.5862 F350.00
G01 X20.3138 Y17.5974 F350.00
G01 X20.3044 Y17.6201 F350.00
G01 X20.2961 Y17.6432 F350.00
G01 X20.2924 Y17.6549 F350.00
G01 X20.2890 Y17.6666 F350.00
G01 X20.2830 Y17.6904 F350.00
G01 X20.2805 Y17.7025 F350.00
G01 X20.2765 Y17.7250 F350.00
G01 X20.1918 Y17.6484 F350.00
G01 X20.1825 Y17.6405 F350.00
G01 X20.1631 Y17.6254 F350.00
G01 X20.0843 Y17.5669 F350.00
G01 X20.0642 Y17.5528 F350.00
G01 X20.0435 Y17.5397 F350.00
G01 X19.9593 Y17.4892 F350.00
G01 X19.9380 Y17.4771 F350.00
G01 X19.9160 Y17.4661 F350.00
G01 X19.8273 Y17.4241 F350.00
G01 X19.8049 Y17.4142 F350.00
G01 X19.7820 Y17.4053 F350.00
G01 X19.6896 Y17.3723 F350.00
G01 X19.6663 Y17.3646 F350.00
G01 X19.6426 Y17.3580 F350.00
G01 X19.5474 Y17.3342 F350.00
G01 X19.5235 Y17.3288 F350.00
G01 X19.4993 Y17.3246 F350.00
G01 X19.4022 Y17.3102 F350.00
G01 X19.3779 Y17.3072 F350.00
G01 X19.3534 Y17.3054 F350.00
G01 X19.2554 Y17.3006 F350.00
G01 X19.2309 Y17.3000 F350.00
G01 X19.2063 Y17.3006 F350.00
G01 X19.1083 Y17.3054 F350.00
G01 X19.0838 Y17.3072 F350.00
G01 X19.0595 Y17.3102 F350.00
G01 X18.9624 Y17.3246 F350.00
G01 X18.9382 Y17.3288 F350.00
G01 X18.9143 Y17.3342 F350.00
G01 X18.8191 Y17.3580 F350.00
G01 X18.7954 Y17.3646 F350.00
G01 X18.7721 Y17.3723 F350.00
G01 X18.6797 Y17.4053 F350.00
G01 X18.6568 Y17.4142 F350.00
G01 X18.6344 Y17.4241 F350.00
G01 X18.5457 Y17.4661 F350.00
G01 X18.5238 Y17.4771 F350.00
G01 X18.5024 Y17.4892 F350.00
G01 X18.4182 Y17.5397 F350.00
G01 X18.4078 Y17.5461 F350.00
G01 X18.3874 Y17.5597 F350.00
G01 X18.2986 Y17.6254 F350.00
G01 X18.2793 Y17.6405 F350.00
G01 X18.2607 Y17.6565 F350.00
G01 X18.1880 Y17.7224 F350.00
G01 X18.1702 Y17.7393 F350.00
G01 X18.1616 Y17.7481 F350.00
G01 X18.0874 Y17.8298 F350.00
G01 X18.0713 Y17.8484 F350.00
G01 X18.0637 Y17.8580 F350.00
G01 X17.9906 Y17.9565 F350.00
G01 X17.9770 Y17.9769 F350.00
G01 X17.9609 Y18.0035 F350.00
G00 Z0.5000
G00 X17.9609 Y16.9429
G01 F250.00
G01 Z-0.0500
G01 F350.00
G01 X17.9409 Y16.9292 F350.00
G01 X17.9152 Y16.9125 F350.00
G01 X17.8891 Y16.8964 F350.00
G01 X17.8049 Y16.8459 F350.00
G01 X17.7784 Y16.8305 F350.00
G01 X17.7515 Y16.8157 F350.00
G01 X17.7243 Y16.8015 F350.00
G01 X17.6967 Y16.7881 F350.00
G01 X17.6080 Y16.7461 F350.00
G01 X17.5801 Y16.7334 F350.00
G01 X17.5519 Y16.7213 F350.00
G01 X17.5234 Y16.7099 F350.00
G01 X17.4947 Y16.6992 F350.00
G01 X17.4023 Y16.6661 F350.00
G01 X17.3732 Y16.6561 F350.00
G01 X17.3440 Y16.6469 F350.00
G01 X17.3145 Y16.6383 F350.00
G01 X17.2849 Y16.6305 F350.00
G01 X17.1897 Y16.6067 F350.00
G01 X17.1598 Y16.5996 F350.00
G01 X17.1298 Y16.5932 F350.00
G01 X17.0997 Y16.5876 F350.00
G01 X17.0694 Y16.5827 F350.00
G01 X16.9723 Y16.5683 F350.00
G01 X16.9419 Y16.5642 F350.00
G01 X16.9114 Y16.5608 F350.00
G01 X16.8808 Y16.5582 F350.00
G01 X16.8502 Y16.5563 F350.00
G01 X16.7522 Y16.5515 F350.00
G01 X16.7215 Y16.5504 F350.00
G01 X16.6909 Y16.5500 F350.00
G01 X16.6602 Y16.5504 F350.00
G01 X16.6295 Y16.5515 F350.00
G01 X16.5315 Y16.5563 F350.00
G01 X16.5009 Y16.5582 F350.00
G01 X16.4703 Y16.5608 F350.00
G01 X16.4398 Y16.5642 F350.00
G01 X16.4094 Y16.5683 F350.00
G01 X16.3124 Y16.5827 F350.00
G01 X16.2821 Y16.5876 F350.00
G01 X16.2519 Y16.5932 F350.00
G01 X16.2219 Y16.5996 F350.00
G01 X16.1920 Y16.6067 F350.00
G01 X16.0969 Y16.6305 F350.00
G01 X16.0672 Y16.6383 F350.00
G01 X16.0377 Y16.6469 F350.00
G01 X16.0085 Y16.6561 F350.00
G01 X15.9795 Y16.6661 F350.00
G01 X15.8871 Y16.6992 F350.00
G01 X15.8583 Y16.7099 F350.00
G01 X15.8298 Y16.7213 F350.00
G01 X15.8016 Y16.7334 F350.00
G01 X15.7737 Y16.7461 F350.00
G01 X15.6850 Y16.7881 F350.00
G01 X15.6517 Y16.8045 F350.00
G01 X15.6156 Y16.7780 F350.00
G01 X15.5903 Y16.7607 F350.00
G01 X15.5646 Y16.7439 F350.00
G01 X15.5385 Y16.7278 F350.00
G01 X15.5120 Y16.7124 F350.00
G01 X15.4851 Y16.6976 F350.00
G01 X15.4579 Y16.6835 F350.00
G01 X15.4303 Y16.6700 F350.00
G01 X15.4024 Y16.6572 F350.00
G01 X15.3742 Y16.6452 F350.00
G01 X15.3457 Y16.6338 F350.00
G01 X15.3170 Y16.6231 F350.00
G01 X15.2880 Y16.6131 F350.00
G01 X15.2587 Y16.6038 F350.00
G01 X15.2293 Y16.5953 F350.00
G01 X15.1996 Y16.5875 F350.00
G01 X15.1697 Y16.5804 F350.00
G01 X15.1397 Y16.5740 F350.00
G01 X15.1096 Y16.5684 F350.00
G01 X15.0793 Y16.5635 F350.00
G01 X15.0489 Y16.5594 F350.00
G01 X15.0184 Y16.5560 F350.00
G01 X14.9878 Y16.5534 F350.00
G01 X14.9572 Y16.5515 F350.00
G01 X14.9265 Y16.5504 F350.00
G01 X14.8959 Y16.5500 F350.00
G01 X12.8959 Y16.5500 F350.00
G01 X12.8652 Y16.5504 F350.00
G01 X12.8345 Y16.5515 F350.00
G01 X12.8039 Y16.5534 F350.00
G01 X12.7733 Y16.5560 F350.00
G01 X12.7428 Y16.5594 F350.00
G01 X12.7124 Y16.5635 F350.00
G01 X12.6822 Y16.5684 F350.00
G01 X12.6520 Y16.5740 F350.00
G01 X12.6220 Y16.5804 F350.00
G01 X12.5921 Y16.5875 F350.00
G01 X12.5625 Y16.5953 F350.00
G01 X12.5330 Y16.6038 F350.00
G01 X12.5038 Y16.6131 F350.00
G01 X12.4747 Y16.6231 F350.00
G01 X12.4460 Y16.6338 F350.00
G01 X12.4175 Y16.6452 F350.00
G01 X12.3893 Y16.6572 F350.00
G01 X12.3614 Y16.6700 F350.00
G01 X12.3338 Y16.6835 F350.00
G01 X12.3066 Y16.6976 F350.00
G01 X12.2797 Y16.7124 F350.00
G01 X12.2446 Y16.7332 F350.00
G01 X12.2169 Y16.7213 F350.00
G01 X12.1884 Y16.7099 F350.00
G01 X12.1597 Y16.6992 F350.00
G01 X12.0673 Y16.6661 F350.00
G01 X12.0382 Y16.6561 F350.00
G01 X12.0090 Y16.6469 F350.00
G01 X11.9795 Y16.6383 F350.00
G01 X11.9499 Y16.6305 F350.00
G01 X11.8547 Y16.6067 F350.00
G01 X11.8248 Y16.5996 F350.00
G01 X11.7948 Y16.5932 F350.00
G01 X11.7647 Y16.5876 F350.00
G01 X11.7344 Y16.5827 F350.00
G01 X11.6373 Y16.5683 F350.00
G01 X11.6069 Y16.5642 F350.00
G01 X11.5764 Y16.5608 F350.00
G01 X11.5458 Y16.5582 F350.00
G01 X11.5152 Y16.5563 F350.00
G01 X11.4172 Y16.5515 F350.00
G01 X11.3865 Y16.5504 F350.00
G01 X11.3559 Y16.5500 F350.00
G01 X11.3252 Y16.5504 F350.00
G01 X11.2945 Y16.5515 F350.00
G01 X11.1965 Y16.5563 F350.00
G01 X11.1659 Y16.5582 F350.00
G01 X11.1353 Y16.5608 F350.00
G01 X11.1048 Y16.5642 F350.00
G01 X11.0744 Y16.5683 F350.00
G01 X10.9774 Y16.5827 F350.00
G01 X10.9471 Y16.5876 F350.00
G01 X10.9169 Y16.5932 F350.00
G01 X10.8869 Y16.5996 F350.00
G01 X10.8570 Y16.6067 F350.00
G01 X10.7619 Y16.6305 F350.00
G01 X10.7322 Y16.6383 F350.00
G01 X10.7027 Y16.6469 F350.00
G01 X10.6735 Y16.6561 F350.00
G01 X10.6445 Y16.6661 F350.00
G01 X10.5521 Y16.6992 F350.00
G01 X10.5233 Y16.7099 F350.00
G01 X10.4948 Y16.7213 F350.00
G01 X10.4666 Y16.7334 F350.00
G01 X10.4387 Y16.7461 F350.00
G01 X10.3500 Y16.7881 F350.00
G01 X10.3225 Y16.8015 F350.00
G01 X10.2952 Y16.8157 F350.00
G01 X10.2683 Y16.8305 F350.00
G01 X10.2418 Y16.8459 F350.00
G01 X10.1577 Y16.8964 F350.00
G01 X10.1315 Y16.9125 F350.00
G01 X10.1058 Y16.9292 F350.00
G01 X10.0859 Y16.9429 F350.00
G01 X10.0659 Y16.9292 F350.00
G01 X10.0402 Y16.9125 F350.00
G01 X10.0141 Y16.8964 F350.00
G01 X9.9299 Y16.8459 F350.00
G01 X9.9034 Y16.8305 F350.00
G01 X9.8765 Y16.8157 F350.00
G01 X9.8493 Y16.8015 F350.00
G01 X9.8217 Y16.7881 F350.00
G01 X9.7330 Y16.7461 F350.00
G01 X9.7051 Y16.7334 F350.00
G01 X9.6769 Y16.7213 F350.00
G01 X9.6484 Y16.7099 F350.00
G01 X9.6197 Y16.6992 F350.00
G01 X9.5273 Y16.6661 F350.00
G01 X9.4982 Y16.6561 F350.00
G01 X9.4690 Y16.6469 F350.00
G01 X9.4395 Y16.6383 F350.00
G01 X9.4099 Y16.6305 F350.00
G01 X9.3147 Y16.6067 F350.00
G01 X9.2848 Y16.5996 F350.00
G01 X9.2548 Y16.5932 F350.00
G01 X9.2247 Y16.5876 F350.00
G01 X9.1944 Y16.5827 F350.00
G01 X9.0973 Y16.5683 F350.00
G01 X9.0669 Y16.5642 F350.00
G01 X9.0364 Y16.5608 F350.00
G01 X9.0058 Y16.5582 F350.00
G01 X8.9752 Y16.5563 F350.00
G01 X8.8772 Y16.5515 F350.00
G01 X8.8465 Y16.5504 F350.00
G01 X8.8159 Y16.5500 F350.00
G01 X8.7852 Y16.5504 F350.00
G01 X8.7545 Y16.5515 F350.00
G01 X8.6565 Y16.5563 F350.00
G01 X8.6259 Y16.5582 F350.00
G01 X8.5953 Y16.5608 F350.00
G01 X8.5648 Y16.5642 F350.00
G01 X8.5344 Y16.5683 F350.00
G01 X8.4374 Y16.5827 F350.00
G01 X8.4071 Y16.5876 F350.00
G01 X8.3769 Y16.5932 F350.00
G01 X8.3469 Y16.5996 F350.00
G01 X8.3170 Y16.6067 F350.00
G01 X8.2219 Y16.6305 F350.00
G01 X8.1922 Y16.6383 F350.00
G01 X8.1627 Y16.6469 F350.00
G01 X8.1335 Y16.6561 F350.00
G01 X8.1045 Y16.6661 F350.00
G01 X8.0121 Y16.6992 F350.00
G01 X7.9833 Y16.7099 F350.00
G01 X7.9548 Y16.7213 F350.00
G01 X7.9266 Y16.7334 F350.00
G01 X7.8987 Y16.7461 F350.00
G01 X7.8100 Y16.7881 F350.00
G01 X7.7767 Y16.8045 F350.00
G01 X7.7406 Y16.7780 F350.00
G01 X7.7153 Y16.7607 F350.00
G01 X7.6896 Y16.7439 F350.00
G01 X7.6635 Y16.7278 F350.00
G01 X7.6370 Y16.7124 F350.00
G01 X7.6101 Y16.6976 F350.00
G01 X7.5829 Y16.6835 F350.00
G01 X7.5553 Y16.6700 F350.00
G01 X7.5274 Y16.6572 F350.00
G01 X7.4992 Y16.6452 F350.00
G01 X7.4707 Y16.6338 F350.00
G01 X7.4420 Y16.6231 F350.00
G01 X7.4130 Y16.6131 F350.00
G01 X7.3837 Y16.6038 F350.00
G01 X7.3543 Y16.5953 F350.00
G01 X7.3246 Y16.5875 F350.00
G01 X7.2947 Y16.5804 F350.00
G01 X7.2647 Y16.5740 F350.00
G01 X7.2346 Y16.5684 F350.00
G01 X7.2043 Y16.5635 F350.00
G01 X7.1739 Y16.5594 F350.00
G01 X7.1434 Y16.5560 F350.00
G01 X7.1128 Y16.5534 F350.00
G01 X7.0822 Y16.5515 F350.00
G01 X7.0515 Y16.5504 F350.00
G01 X7.0209 Y16.5500 F350.00
G01 X5.0209 Y16.5500 F350.00
G01 X4.9810 Y16.5507 F350.00
G01 X4.9810 Y15.8001 F350.00
G01 X20.4860 Y15.8001 F350.00
G01 X21.2359 Y16.5500 F350.00
G01 X20.7709 Y16.5500 F350.00
G01 X20.7402 Y16.5504 F350.00
G01 X20.7095 Y16.5515 F350.00
G01 X20.6789 Y16.5534 F350.00
G01 X20.6483 Y16.5560 F350.00
G01 X20.6178 Y16.5594 F350.00
G01 X20.5874 Y16.5635 F350.00
G01 X20.5572 Y16.5684 F350.00
G01 X20.5270 Y16.5740 F350.00
G01 X20.4970 Y16.5804 F350.00
G01 X20.4671 Y16.5875 F350.00
G01 X20.4375 Y16.5953 F350.00
G01 X20.4080 Y16.6038 F350.00
G01 X20.3788 Y16.6131 F350.00
G01 X20.3497 Y16.6231 F350.00
G01 X20.3210 Y16.6338 F350.00
G01 X20.2925 Y16.6452 F350.00
G01 X20.2643 Y16.6572 F350.00
G01 X20.2364 Y16.6700 F350.00
G01 X20.2088 Y16.6835 F350.00
G01 X20.1816 Y16.6976 F350.00
G01 X20.1547 Y16.7124 F350.00
G01 X20.1196 Y16.7332 F350.00
G01 X20.0919 Y16.7213 F350.00
G01 X20.0634 Y16.7099 F350.00
G01 X20.0347 Y16.6992 F350.00
G01 X19.9423 Y16.6661 F350.00
G01 X19.9132 Y16.6561 F350.00
G01 X19.8840 Y16.6469 F350.00
G01 X19.8545 Y16.6383 F350.00
G01 X19.8249 Y16.6305 F350.00
G01 X19.7297 Y16.6067 F350.00
G01 X19.6998 Y16.5996 F350.00
G01 X19.6698 Y16.5932 F350.00
G01 X19.6397 Y16.5876 F350.00
G01 X19.6094 Y16.5827 F350.00
G01 X19.5123 Y16.5683 F350.00
G01 X19.4819 Y16.5642 F350.00
G01 X19.4514 Y16.5608 F350.00
G01 X19.4208 Y16.5582 F350.00
G01 X19.3902 Y16.5563 F350.00
G01 X19.2922 Y16.5515 F350.00
G01 X19.2615 Y16.5504 F350.00
G01 X19.2309 Y16.5500 F350.00
G01 X19.2002 Y16.5504 F350.00
G01 X19.1695 Y16.5515 F350.00
G01 X19.0715 Y16.5563 F350.00
G01 X19.0409 Y16.5582 F350.00
G01 X19.0103 Y16.5608 F350.00
G01 X18.9798 Y16.5642 F350.00
G01 X18.9494 Y16.5683 F350.00
G01 X18.8524 Y16.5827 F350.00
G01 X18.8221 Y16.5876 F350.00
G01 X18.7919 Y16.5932 F350.00
G01 X18.7619 Y16.5996 F350.00
G01 X18.7320 Y16.6067 F350.00
G01 X18.6369 Y16.6305 F350.00
G01 X18.6072 Y16.6383 F350.00
G01 X18.5777 Y16.6469 F350.00
G01 X18.5485 Y16.6561 F350.00
G01 X18.5195 Y16.6661 F350.00
G01 X18.4271 Y16.6992 F350.00
