%
(; SHAPEOKO POSTPROCESSED v1)
( Source: FRONT_1MM_ISOLATION_cnc.nc )
( Stripped: M30 only - kept T#/M6/M0/M1/MSG for Shapeoko/Carbide Motion )
( Wrapped with Shapeoko start/end blocks - mirrors 1001.nc structure )
G90        ( absolute positioning )
G17        ( XY plane select )
G21        ( mm units )
G94        ( feedrate units/min )
G28 G91 Z0 ( safe Z home - assumes machine has been homed )
G90        ( back to absolute )
G54        ( work coordinate system 1 )
M5         ( ensure spindle off at start )

(G-CODE GENERATED BY FLATCAM v8.994 - www.flatcam.org - Version Date: 2020/11/7)

(Name: FRONT_1MM_ISOLATION_cnc_cnc)
(Type: G-code from Geometry)
(Units: MM)

(Created on Friday, 26 June 2026 at 10:11)

(This preprocessor is used with a motion controller loaded with GRBL firmware.)
(It is configured to be compatible with almost any version of GRBL firmware.)

(TOOL DIAMETER: 1.0 mm)
(Feedrate_XY: 350.0 mm/min)
(Feedrate_Z: 250.0 mm/min)
(Feedrate rapids 1500.0 mm/min)

(Z_Cut: -0.05 mm)
(Z_Move: 0.5 mm)
(Z Start: None mm)
(Z End: 40.0 mm)
(X,Y End: None mm)
(Steps per circle: 64)
(Steps per circle: 64)
(Preprocessor Geometry: grbl_11)

(X range:   -4.6002 ...  134.7502  mm)
(Y range:   -3.4600 ...   69.3502  mm)

(Spindle Speed: 0.0 RPM)
G21
G90
G17
G94


G01 F350.00

M5             
G00 Z40.0000
G00 X0.0000 Y0.0000                
T1 M6
(MSG, Change to Tool Dia = 1.0000)
M0
G00 Z40.0000

M03
G01 F350.00
G00 X2.5443 Y1.6936
G01 F250.00
G01 Z-0.0500
G01 F350.00
G01 X2.5587 Y1.5965 F350.00
G01 X2.5636 Y1.5662 F350.00
G01 X2.5692 Y1.5360 F350.00
G01 X2.5756 Y1.5060 F350.00
G01 X2.5827 Y1.4762 F350.00
G01 X2.6065 Y1.3810 F350.00
G01 X2.6143 Y1.3513 F350.00
G01 X2.6229 Y1.3219 F350.00
G01 X2.6321 Y1.2926 F350.00
G01 X2.6421 Y1.2636 F350.00
G01 X2.6752 Y1.1712 F350.00
G01 X2.6859 Y1.1424 F350.00
G01 X2.6973 Y1.1140 F350.00
G01 X2.7094 Y1.0858 F350.00
G01 X2.7221 Y1.0579 F350.00
G01 X2.7641 Y0.9692 F350.00
G01 X2.7775 Y0.9416 F350.00
G01 X2.7917 Y0.9144 F350.00
G01 X2.8065 Y0.8875 F350.00
G01 X2.8219 Y0.8610 F350.00
G01 X2.8724 Y0.7768 F350.00
G01 X2.8885 Y0.7507 F350.00
G01 X2.9052 Y0.7250 F350.00
G01 X2.9225 Y0.6997 F350.00
G01 X2.9405 Y0.6748 F350.00
G01 X2.9990 Y0.5960 F350.00
G01 X3.0176 Y0.5716 F350.00
G01 X3.0367 Y0.5476 F350.00
G01 X3.0565 Y0.5241 F350.00
G01 X3.0768 Y0.5012 F350.00
G01 X3.1427 Y0.4284 F350.00
G01 X3.1636 Y0.4060 F350.00
G01 X3.1850 Y0.3840 F350.00
G01 X3.2070 Y0.3626 F350.00
G01 X3.2294 Y0.3417 F350.00
G01 X3.3022 Y0.2758 F350.00
G01 X3.3251 Y0.2555 F350.00
G01 X3.3486 Y0.2357 F350.00
G01 X3.3726 Y0.2166 F350.00
G01 X3.3970 Y0.1980 F350.00
G01 X3.4758 Y0.1395 F350.00
G01 X3.5007 Y0.1215 F350.00
G01 X3.5260 Y0.1042 F350.00
G01 X3.5517 Y0.0875 F350.00
G01 X3.5778 Y0.0714 F350.00
G01 X3.6620 Y0.0209 F350.00
G01 X3.6885 Y0.0055 F350.00
G01 X3.7154 Y-0.0093 F350.00
G01 X3.7426 Y-0.0235 F350.00
G01 X3.7702 Y-0.0369 F350.00
G01 X3.8589 Y-0.0789 F350.00
G01 X3.8868 Y-0.0916 F350.00
G01 X3.9150 Y-0.1037 F350.00
G01 X3.9434 Y-0.1151 F350.00
G01 X3.9722 Y-0.1258 F350.00
G01 X4.0646 Y-0.1589 F350.00
G01 X4.0936 Y-0.1689 F350.00
G01 X4.1229 Y-0.1781 F350.00
G01 X4.1523 Y-0.1867 F350.00
G01 X4.1820 Y-0.1945 F350.00
G01 X4.2772 Y-0.2183 F350.00
G01 X4.3070 Y-0.2254 F350.00
G01 X4.3370 Y-0.2318 F350.00
G01 X4.3672 Y-0.2374 F350.00
G01 X4.3975 Y-0.2423 F350.00
G01 X4.4946 Y-0.2567 F350.00
G01 X4.5250 Y-0.2608 F350.00
G01 X4.5555 Y-0.2642 F350.00
G01 X4.5860 Y-0.2668 F350.00
G01 X4.6166 Y-0.2687 F350.00
G01 X4.7147 Y-0.2735 F350.00
G01 X4.7453 Y-0.2746 F350.00
G01 X4.7760 Y-0.2750 F350.00
G01 X4.8067 Y-0.2746 F350.00
G01 X4.8373 Y-0.2735 F350.00
G01 X4.9354 Y-0.2687 F350.00
G01 X4.9660 Y-0.2668 F350.00
G01 X4.9965 Y-0.2642 F350.00
G01 X5.0270 Y-0.2608 F350.00
G01 X5.0574 Y-0.2567 F350.00
G01 X5.1545 Y-0.2423 F350.00
G01 X5.1848 Y-0.2374 F350.00
G01 X5.2150 Y-0.2318 F350.00
G01 X5.2450 Y-0.2254 F350.00
G01 X5.2748 Y-0.2183 F350.00
G01 X5.3700 Y-0.1945 F350.00
G01 X5.3997 Y-0.1867 F350.00
G01 X5.4291 Y-0.1781 F350.00
G01 X5.4584 Y-0.1689 F350.00
G01 X5.4874 Y-0.1589 F350.00
G01 X5.5798 Y-0.1258 F350.00
G01 X5.6086 Y-0.1151 F350.00
G01 X5.6370 Y-0.1037 F350.00
G01 X5.6652 Y-0.0916 F350.00
G01 X5.6931 Y-0.0789 F350.00
G01 X5.7818 Y-0.0369 F350.00
G01 X5.8094 Y-0.0235 F350.00
G01 X5.8366 Y-0.0093 F350.00
G01 X5.8635 Y0.0055 F350.00
G01 X5.8900 Y0.0209 F350.00
G01 X5.9742 Y0.0714 F350.00
G01 X6.0003 Y0.0875 F350.00
G01 X6.0260 Y0.1042 F350.00
G01 X6.0513 Y0.1215 F350.00
G01 X6.0762 Y0.1395 F350.00
G01 X6.1550 Y0.1980 F350.00
G01 X6.1794 Y0.2166 F350.00
G01 X6.2034 Y0.2357 F350.00
G01 X6.2269 Y0.2555 F350.00
G01 X6.2498 Y0.2758 F350.00
G01 X6.3226 Y0.3417 F350.00
G01 X6.3450 Y0.3626 F350.00
G01 X6.3670 Y0.3840 F350.00
G01 X6.3884 Y0.4060 F350.00
G01 X6.4093 Y0.4284 F350.00
G01 X6.4752 Y0.5012 F350.00
G01 X6.4955 Y0.5241 F350.00
G01 X6.5153 Y0.5476 F350.00
G01 X6.5344 Y0.5716 F350.00
G01 X6.5530 Y0.5960 F350.00
G01 X6.6115 Y0.6748 F350.00
G01 X6.6295 Y0.6997 F350.00
G01 X6.6468 Y0.7250 F350.00
G01 X6.6635 Y0.7507 F350.00
G01 X6.6796 Y0.7768 F350.00
G01 X6.7301 Y0.8610 F350.00
G01 X6.7455 Y0.8875 F350.00
G01 X6.7603 Y0.9144 F350.00
G01 X6.7745 Y0.9416 F350.00
G01 X6.7879 Y0.9692 F350.00
G01 X6.8299 Y1.0579 F350.00
G01 X6.8426 Y1.0858 F350.00
G01 X6.8547 Y1.1140 F350.00
G01 X6.8661 Y1.1424 F350.00
G01 X6.8768 Y1.1712 F350.00
G01 X6.9099 Y1.2636 F350.00
G01 X6.9199 Y1.2926 F350.00
G01 X6.9291 Y1.3219 F350.00
G01 X6.9377 Y1.3513 F350.00
G01 X6.9455 Y1.3810 F350.00
G01 X6.9693 Y1.4762 F350.00
G01 X6.9764 Y1.5060 F350.00
G01 X6.9828 Y1.5360 F350.00
G01 X6.9884 Y1.5662 F350.00
G01 X6.9933 Y1.5965 F350.00
G01 X7.0077 Y1.6936 F350.00
G01 X7.0118 Y1.7240 F350.00
G01 X7.0152 Y1.7545 F350.00
G01 X7.0178 Y1.7850 F350.00
G01 X7.0197 Y1.8156 F350.00
G01 X7.0245 Y1.9137 F350.00
G01 X7.0256 Y1.9443 F350.00
G01 X7.0260 Y1.9750 F350.00
G01 X7.0260 Y3.2250 F350.00
G01 X7.0256 Y3.2557 F350.00
G01 X7.0245 Y3.2863 F350.00
G01 X7.0197 Y3.3844 F350.00
G01 X7.0178 Y3.4150 F350.00
G01 X7.0152 Y3.4455 F350.00
G01 X7.0118 Y3.4760 F350.00
G01 X7.0077 Y3.5064 F350.00
G01 X6.9933 Y3.6035 F350.00
G01 X6.9884 Y3.6338 F350.00
G01 X6.9828 Y3.6640 F350.00
G01 X6.9764 Y3.6940 F350.00
G01 X6.9693 Y3.7238 F350.00
G01 X6.9455 Y3.8190 F350.00
G01 X6.9377 Y3.8487 F350.00
G01 X6.9291 Y3.8781 F350.00
G01 X6.9199 Y3.9074 F350.00
G01 X6.9099 Y3.9364 F350.00
G01 X6.8768 Y4.0288 F350.00
G01 X6.8661 Y4.0576 F350.00
G01 X6.8547 Y4.0860 F350.00
G01 X6.8426 Y4.1142 F350.00
G01 X6.8299 Y4.1421 F350.00
G01 X6.7879 Y4.2308 F350.00
G01 X6.7745 Y4.2584 F350.00
G01 X6.7603 Y4.2856 F350.00
G01 X6.7455 Y4.3125 F350.00
G01 X6.7301 Y4.3390 F350.00
G01 X6.6796 Y4.4232 F350.00
G01 X6.6635 Y4.4493 F350.00
G01 X6.6468 Y4.4750 F350.00
G01 X6.6295 Y4.5003 F350.00
G01 X6.6115 Y4.5252 F350.00
G01 X6.5530 Y4.6040 F350.00
G01 X6.5344 Y4.6284 F350.00
G01 X6.5153 Y4.6524 F350.00
G01 X6.4955 Y4.6759 F350.00
G01 X6.4752 Y4.6988 F350.00
G01 X6.4093 Y4.7716 F350.00
G01 X6.3884 Y4.7940 F350.00
G01 X6.3670 Y4.8160 F350.00
G01 X6.3450 Y4.8374 F350.00
G01 X6.3226 Y4.8583 F350.00
G01 X6.2498 Y4.9242 F350.00
G01 X6.2269 Y4.9445 F350.00
G01 X6.2034 Y4.9643 F350.00
G01 X6.1794 Y4.9834 F350.00
G01 X6.1550 Y5.0020 F350.00
G01 X6.0762 Y5.0605 F350.00
G01 X6.0513 Y5.0785 F350.00
G01 X6.0260 Y5.0958 F350.00
G01 X6.0003 Y5.1125 F350.00
G01 X5.9742 Y5.1286 F350.00
G01 X5.8900 Y5.1791 F350.00
G01 X5.8635 Y5.1945 F350.00
G01 X5.8366 Y5.2093 F350.00
G01 X5.8094 Y5.2235 F350.00
G01 X5.7818 Y5.2369 F350.00
G01 X5.6931 Y5.2789 F350.00
G01 X5.6652 Y5.2916 F350.00
G01 X5.6370 Y5.3037 F350.00
G01 X5.6086 Y5.3151 F350.00
G01 X5.5798 Y5.3258 F350.00
G01 X5.4874 Y5.3589 F350.00
G01 X5.4584 Y5.3689 F350.00
G01 X5.4291 Y5.3781 F350.00
G01 X5.3997 Y5.3867 F350.00
G01 X5.3700 Y5.3945 F350.00
G01 X5.2748 Y5.4183 F350.00
G01 X5.2450 Y5.4254 F350.00
G01 X5.2150 Y5.4318 F350.00
G01 X5.1848 Y5.4374 F350.00
G01 X5.1545 Y5.4423 F350.00
G01 X5.0574 Y5.4567 F350.00
G01 X5.0270 Y5.4608 F350.00
G01 X4.9965 Y5.4642 F350.00
G01 X4.9660 Y5.4668 F350.00
G01 X4.9354 Y5.4687 F350.00
G01 X4.8373 Y5.4735 F350.00
G01 X4.8067 Y5.4746 F350.00
G01 X4.7760 Y5.4750 F350.00
G01 X4.7453 Y5.4746 F350.00
G01 X4.7147 Y5.4735 F350.00
G01 X4.6166 Y5.4687 F350.00
G01 X4.5860 Y5.4668 F350.00
G01 X4.5555 Y5.4642 F350.00
G01 X4.5250 Y5.4608 F350.00
G01 X4.4946 Y5.4567 F350.00
G01 X4.3975 Y5.4423 F350.00
G01 X4.3672 Y5.4374 F350.00
G01 X4.3370 Y5.4318 F350.00
G01 X4.3070 Y5.4254 F350.00
G01 X4.2772 Y5.4183 F350.00
G01 X4.1820 Y5.3945 F350.00
G01 X4.1523 Y5.3867 F350.00
G01 X4.1229 Y5.3781 F350.00
G01 X4.0936 Y5.3689 F350.00
G01 X4.0646 Y5.3589 F350.00
G01 X3.9722 Y5.3258 F350.00
G01 X3.9434 Y5.3151 F350.00
G01 X3.9150 Y5.3037 F350.00
G01 X3.8868 Y5.2916 F350.00
G01 X3.8589 Y5.2789 F350.00
G01 X3.7702 Y5.2369 F350.00
G01 X3.7426 Y5.2235 F350.00
G01 X3.7154 Y5.2093 F350.00
G01 X3.6885 Y5.1945 F350.00
G01 X3.6620 Y5.1791 F350.00
G01 X3.5778 Y5.1286 F350.00
G01 X3.5517 Y5.1125 F350.00
G01 X3.5260 Y5.0958 F350.00
G01 X3.5007 Y5.0785 F350.00
G01 X3.4758 Y5.0605 F350.00
G01 X3.3970 Y5.0020 F350.00
G01 X3.3726 Y4.9834 F350.00
G01 X3.3486 Y4.9643 F350.00
G01 X3.3251 Y4.9445 F350.00
G01 X3.3022 Y4.9242 F350.00
G01 X3.2294 Y4.8583 F350.00
G01 X3.2070 Y4.8374 F350.00
G01 X3.1850 Y4.8160 F350.00
G01 X3.1636 Y4.7940 F350.00
G01 X3.1427 Y4.7716 F350.00
G01 X3.0768 Y4.6988 F350.00
G01 X3.0565 Y4.6759 F350.00
G01 X3.0367 Y4.6524 F350.00
G01 X3.0176 Y4.6284 F350.00
G01 X2.9990 Y4.6040 F350.00
G01 X2.9405 Y4.5252 F350.00
G01 X2.9225 Y4.5003 F350.00
G01 X2.9052 Y4.4750 F350.00
G01 X2.8885 Y4.4493 F350.00
G01 X2.8724 Y4.4232 F350.00
G01 X2.8219 Y4.3390 F350.00
G01 X2.8065 Y4.3125 F350.00
G01 X2.7917 Y4.2856 F350.00
G01 X2.7775 Y4.2584 F350.00
G01 X2.7641 Y4.2308 F350.00
G01 X2.7221 Y4.1421 F350.00
G01 X2.7094 Y4.1142 F350.00
G01 X2.6973 Y4.0860 F350.00
G01 X2.6859 Y4.0576 F350.00
G01 X2.6752 Y4.0288 F350.00
G01 X2.6421 Y3.9364 F350.00
G01 X2.6321 Y3.9074 F350.00
G01 X2.6229 Y3.8781 F350.00
G01 X2.6143 Y3.8487 F350.00
G01 X2.6065 Y3.8190 F350.00
G01 X2.5827 Y3.7238 F350.00
G01 X2.5756 Y3.6940 F350.00
G01 X2.5692 Y3.6640 F350.00
G01 X2.5636 Y3.6338 F350.00
G01 X2.5587 Y3.6035 F350.00
G01 X2.5443 Y3.5064 F350.00
G01 X2.5402 Y3.4760 F350.00
G01 X2.5368 Y3.4455 F350.00
G01 X2.5342 Y3.4150 F350.00
G01 X2.5323 Y3.3844 F350.00
G01 X2.5275 Y3.2863 F350.00
G01 X2.5264 Y3.2557 F350.00
G01 X2.5260 Y3.2250 F350.00
G01 X2.5260 Y1.9750 F350.00
G01 X2.5264 Y1.9443 F350.00
G01 X2.5275 Y1.9137 F350.00
G01 X2.5323 Y1.8156 F350.00
G01 X2.5342 Y1.7850 F350.00
G01 X2.5368 Y1.7545 F350.00
G01 X2.5402 Y1.7240 F350.00
G01 X2.5443 Y1.6936 F350.00
G00 Z0.5000
G00 X3.2862 Y1.8036
G01 F250.00
G01 Z-0.0500
G01 F350.00
G01 X3.3006 Y1.7065 F350.00
G01 X3.3048 Y1.6824 F350.00
G01 X3.3102 Y1.6584 F350.00
G01 X3.3340 Y1.5632 F350.00
G01 X3.3406 Y1.5396 F350.00
G01 X3.3483 Y1.5163 F350.00
G01 X3.3813 Y1.4239 F350.00
G01 X3.3902 Y1.4010 F350.00
G01 X3.4001 Y1.3785 F350.00
G01 X3.4421 Y1.2898 F350.00
G01 X3.4531 Y1.2679 F350.00
G01 X3.4652 Y1.2466 F350.00
G01 X3.5157 Y1.1624 F350.00
G01 X3.5288 Y1.1416 F350.00
G01 X3.5429 Y1.1216 F350.00
G01 X3.6014 Y1.0428 F350.00
G01 X3.6165 Y1.0234 F350.00
G01 X3.6325 Y1.0048 F350.00
G01 X3.6984 Y0.9321 F350.00
G01 X3.7153 Y0.9143 F350.00
G01 X3.7331 Y0.8974 F350.00
G01 X3.8058 Y0.8315 F350.00
G01 X3.8244 Y0.8155 F350.00
G01 X3.8438 Y0.8004 F350.00
G01 X3.9226 Y0.7419 F350.00
G01 X3.9426 Y0.7278 F350.00
G01 X3.9634 Y0.7147 F350.00
G01 X4.0476 Y0.6642 F350.00
G01 X4.0689 Y0.6521 F350.00
G01 X4.0908 Y0.6411 F350.00
G01 X4.1795 Y0.5991 F350.00
G01 X4.2020 Y0.5892 F350.00
G01 X4.2249 Y0.5803 F350.00
G01 X4.3173 Y0.5473 F350.00
G01 X4.3406 Y0.5396 F350.00
G01 X4.3642 Y0.5330 F350.00
G01 X4.4594 Y0.5092 F350.00
G01 X4.4834 Y0.5038 F350.00
G01 X4.5075 Y0.4996 F350.00
G01 X4.6046 Y0.4852 F350.00
G01 X4.6290 Y0.4822 F350.00
G01 X4.6534 Y0.4804 F350.00
G01 X4.7515 Y0.4756 F350.00
G01 X4.7760 Y0.4750 F350.00
G01 X4.8005 Y0.4756 F350.00
G01 X4.8986 Y0.4804 F350.00
G01 X4.9230 Y0.4822 F350.00
G01 X4.9474 Y0.4852 F350.00
G01 X5.0445 Y0.4996 F350.00
G01 X5.0566 Y0.5016 F350.00
G01 X5.0806 Y0.5064 F350.00
G01 X5.1878 Y0.5330 F350.00
G01 X5.2114 Y0.5396 F350.00
G01 X5.2347 Y0.5473 F350.00
G01 X5.3271 Y0.5803 F350.00
G01 X5.3500 Y0.5892 F350.00
G01 X5.3725 Y0.5991 F350.00
G01 X5.4612 Y0.6411 F350.00
G01 X5.4831 Y0.6521 F350.00
G01 X5.5044 Y0.6642 F350.00
G01 X5.5886 Y0.7147 F350.00
G01 X5.6094 Y0.7278 F350.00
G01 X5.6294 Y0.7419 F350.00
G01 X5.7082 Y0.8004 F350.00
G01 X5.7276 Y0.8155 F350.00
G01 X5.7462 Y0.8315 F350.00
G01 X5.8279 Y0.9058 F350.00
G01 X5.8452 Y0.9231 F350.00
G01 X5.8536 Y0.9321 F350.00
G01 X5.9195 Y1.0048 F350.00
G01 X5.9355 Y1.0234 F350.00
G01 X5.9506 Y1.0428 F350.00
G01 X6.0091 Y1.1216 F350.00
G01 X6.0232 Y1.1416 F350.00
G01 X6.0363 Y1.1624 F350.00
G01 X6.0868 Y1.2466 F350.00
G01 X6.0989 Y1.2679 F350.00
G01 X6.1099 Y1.2898 F350.00
G01 X6.1519 Y1.3785 F350.00
G01 X6.1618 Y1.4010 F350.00
G01 X6.1707 Y1.4239 F350.00
G01 X6.2037 Y1.5163 F350.00
G01 X6.2114 Y1.5396 F350.00
G01 X6.2180 Y1.5632 F350.00
G01 X6.2418 Y1.6584 F350.00
G01 X6.2472 Y1.6824 F350.00
G01 X6.2514 Y1.7065 F350.00
G01 X6.2658 Y1.8036 F350.00
G01 X6.2688 Y1.8280 F350.00
G01 X6.2706 Y1.8524 F350.00
G01 X6.2754 Y1.9505 F350.00
G01 X6.2760 Y1.9750 F350.00
G01 X6.2758 Y3.2373 F350.00
G01 X6.2706 Y3.3476 F350.00
G01 X6.2688 Y3.3720 F350.00
G01 X6.2658 Y3.3964 F350.00
G01 X6.2514 Y3.4935 F350.00
G01 X6.2472 Y3.5176 F350.00
G01 X6.2418 Y3.5416 F350.00
G01 X6.2180 Y3.6368 F350.00
G01 X6.2114 Y3.6604 F350.00
G01 X6.2037 Y3.6837 F350.00
G01 X6.1707 Y3.7761 F350.00
G01 X6.1618 Y3.7990 F350.00
G01 X6.1519 Y3.8215 F350.00
G01 X6.1099 Y3.9102 F350.00
G01 X6.0989 Y3.9321 F350.00
G01 X6.0868 Y3.9534 F350.00
G01 X6.0363 Y4.0376 F350.00
G01 X6.0232 Y4.0584 F350.00
G01 X6.0091 Y4.0784 F350.00
G01 X5.9506 Y4.1572 F350.00
G01 X5.9355 Y4.1766 F350.00
G01 X5.9195 Y4.1952 F350.00
G01 X5.8452 Y4.2769 F350.00
G01 X5.8367 Y4.2857 F350.00
G01 X5.8189 Y4.3026 F350.00
G01 X5.7462 Y4.3685 F350.00
G01 X5.7276 Y4.3845 F350.00
G01 X5.7082 Y4.3996 F350.00
G01 X5.6294 Y4.4581 F350.00
G01 X5.6094 Y4.4722 F350.00
G01 X5.5886 Y4.4853 F350.00
G01 X5.5044 Y4.5358 F350.00
G01 X5.4831 Y4.5479 F350.00
G01 X5.4612 Y4.5589 F350.00
G01 X5.3725 Y4.6009 F350.00
G01 X5.3500 Y4.6108 F350.00
G01 X5.3271 Y4.6197 F350.00
G01 X5.2347 Y4.6527 F350.00
G01 X5.2114 Y4.6604 F350.00
G01 X5.1878 Y4.6670 F350.00
G01 X5.0926 Y4.6908 F350.00
G01 X5.0686 Y4.6962 F350.00
G01 X5.0445 Y4.7004 F350.00
G01 X4.9474 Y4.7148 F350.00
G01 X4.9230 Y4.7178 F350.00
G01 X4.8986 Y4.7196 F350.00
G01 X4.8005 Y4.7244 F350.00
G01 X4.7760 Y4.7250 F350.00
G01 X4.7515 Y4.7244 F350.00
G01 X4.6534 Y4.7196 F350.00
G01 X4.6290 Y4.7178 F350.00
G01 X4.6046 Y4.7148 F350.00
G01 X4.5075 Y4.7004 F350.00
G01 X4.4834 Y4.6962 F350.00
G01 X4.4594 Y4.6908 F350.00
G01 X4.3642 Y4.6670 F350.00
G01 X4.3406 Y4.6604 F350.00
G01 X4.3173 Y4.6527 F350.00
G01 X4.2249 Y4.6197 F350.00
G01 X4.2020 Y4.6108 F350.00
G01 X4.1795 Y4.6009 F350.00
G01 X4.0908 Y4.5589 F350.00
G01 X4.0689 Y4.5479 F350.00
G01 X4.0476 Y4.5358 F350.00
G01 X3.9634 Y4.4853 F350.00
G01 X3.9426 Y4.4722 F350.00
G01 X3.9226 Y4.4581 F350.00
G01 X3.8438 Y4.3996 F350.00
G01 X3.8244 Y4.3845 F350.00
G01 X3.8058 Y4.3685 F350.00
G01 X3.7241 Y4.2942 F350.00
G01 X3.7068 Y4.2769 F350.00
G01 X3.6984 Y4.2679 F350.00
G01 X3.6325 Y4.1952 F350.00
G01 X3.6165 Y4.1766 F350.00
G01 X3.6014 Y4.1572 F350.00
G01 X3.5429 Y4.0784 F350.00
G01 X3.5288 Y4.0584 F350.00
G01 X3.5157 Y4.0376 F350.00
G01 X3.4652 Y3.9534 F350.00
G01 X3.4531 Y3.9321 F350.00
G01 X3.4421 Y3.9102 F350.00
G01 X3.4001 Y3.8215 F350.00
G01 X3.3902 Y3.7990 F350.00
G01 X3.3813 Y3.7761 F350.00
G01 X3.3483 Y3.6837 F350.00
G01 X3.3406 Y3.6604 F350.00
G01 X3.3340 Y3.6368 F350.00
G01 X3.3102 Y3.5416 F350.00
G01 X3.3048 Y3.5176 F350.00
G01 X3.3026 Y3.5056 F350.00
G01 X3.2862 Y3.3964 F350.00
G01 X3.2832 Y3.3720 F350.00
G01 X3.2814 Y3.3476 F350.00
G01 X3.2766 Y3.2495 F350.00
G01 X3.2760 Y3.2250 F350.00
G01 X3.2760 Y1.9750 F350.00
G01 X3.2766 Y1.9505 F350.00
G01 X3.2814 Y1.8524 F350.00
G01 X3.2832 Y1.8280 F350.00
G01 X3.2862 Y1.8036 F350.00
G00 Z0.5000
G00 X2.5443 Y10.6936
G01 F250.00
G01 Z-0.0500
G01 F350.00
G01 X2.5402 Y10.7240 F350.00
G01 X2.5368 Y10.7545 F350.00
G01 X2.5342 Y10.7850 F350.00
G01 X2.5323 Y10.8156 F350.00
G01 X2.5275 Y10.9137 F350.00
G01 X2.5264 Y10.9443 F350.00
G01 X2.5260 Y10.9750 F350.00
G01 X2.5260 Y12.2250 F350.00
G01 X2.5264 Y12.2557 F350.00
G01 X2.5275 Y12.2863 F350.00
G01 X2.5323 Y12.3844 F350.00
G01 X2.5342 Y12.4150 F350.00
G01 X2.5368 Y12.4455 F350.00
G01 X2.5402 Y12.4760 F350.00
G01 X2.5443 Y12.5064 F350.00
G01 X2.5587 Y12.6035 F350.00
G01 X2.5636 Y12.6338 F350.00
G01 X2.5692 Y12.6640 F350.00
G01 X2.5756 Y12.6940 F350.00
G01 X2.5827 Y12.7238 F350.00
G01 X2.6065 Y12.8190 F350.00
G01 X2.6143 Y12.8487 F350.00
G01 X2.6229 Y12.8781 F350.00
G01 X2.6321 Y12.9074 F350.00
G01 X2.6421 Y12.9364 F350.00
G01 X2.6752 Y13.0288 F350.00
G01 X2.6859 Y13.0576 F350.00
G01 X2.6973 Y13.0860 F350.00
G01 X2.7094 Y13.1142 F350.00
G01 X2.7221 Y13.1421 F350.00
G01 X2.7641 Y13.2308 F350.00
G01 X2.7775 Y13.2584 F350.00
G01 X2.7917 Y13.2856 F350.00
G01 X2.8065 Y13.3125 F350.00
G01 X2.8219 Y13.3390 F350.00
G01 X2.8724 Y13.4232 F350.00
G01 X2.8885 Y13.4493 F350.00
G01 X2.9052 Y13.4750 F350.00
G01 X2.9225 Y13.5003 F350.00
G01 X2.9405 Y13.5252 F350.00
G01 X2.9990 Y13.6040 F350.00
G01 X3.0176 Y13.6284 F350.00
G01 X3.0367 Y13.6524 F350.00
G01 X3.0565 Y13.6759 F350.00
G01 X3.0768 Y13.6988 F350.00
G01 X3.1427 Y13.7716 F350.00
G01 X3.1636 Y13.7940 F350.00
G01 X3.1850 Y13.8160 F350.00
G01 X3.2070 Y13.8374 F350.00
G01 X3.2294 Y13.8583 F350.00
G01 X3.3022 Y13.9242 F350.00
G01 X3.3251 Y13.9445 F350.00
G01 X3.3486 Y13.9643 F350.00
G01 X3.3726 Y13.9834 F350.00
G01 X3.3970 Y14.0020 F350.00
G01 X3.4758 Y14.0605 F350.00
G01 X3.5007 Y14.0785 F350.00
G01 X3.5260 Y14.0958 F350.00
G01 X3.5517 Y14.1125 F350.00
G01 X3.5778 Y14.1286 F350.00
G01 X3.6620 Y14.1791 F350.00
G01 X3.6885 Y14.1945 F350.00
G01 X3.7154 Y14.2093 F350.00
G01 X3.7426 Y14.2235 F350.00
G01 X3.7702 Y14.2369 F350.00
G01 X3.8589 Y14.2789 F350.00
G01 X3.8868 Y14.2916 F350.00
G01 X3.9150 Y14.3037 F350.00
G01 X3.9434 Y14.3151 F350.00
G01 X3.9722 Y14.3258 F350.00
G01 X4.0646 Y14.3589 F350.00
G01 X4.0936 Y14.3689 F350.00
G01 X4.1229 Y14.3781 F350.00
G01 X4.1523 Y14.3867 F350.00
G01 X4.1820 Y14.3945 F350.00
G01 X4.2772 Y14.4183 F350.00
G01 X4.3070 Y14.4254 F350.00
G01 X4.3370 Y14.4318 F350.00
G01 X4.3672 Y14.4374 F350.00
G01 X4.3975 Y14.4423 F350.00
G01 X4.4946 Y14.4567 F350.00
G01 X4.5250 Y14.4608 F350.00
G01 X4.5555 Y14.4642 F350.00
G01 X4.5860 Y14.4668 F350.00
G01 X4.6166 Y14.4687 F350.00
G01 X4.7147 Y14.4735 F350.00
G01 X4.7453 Y14.4746 F350.00
G01 X4.7760 Y14.4750 F350.00
G01 X4.8067 Y14.4746 F350.00
G01 X4.8373 Y14.4735 F350.00
G01 X4.9354 Y14.4687 F350.00
G01 X4.9660 Y14.4668 F350.00
G01 X4.9965 Y14.4642 F350.00
G01 X5.0270 Y14.4608 F350.00
G01 X5.0574 Y14.4567 F350.00
G01 X5.1545 Y14.4423 F350.00
G01 X5.1848 Y14.4374 F350.00
G01 X5.2150 Y14.4318 F350.00
G01 X5.2450 Y14.4254 F350.00
G01 X5.2748 Y14.4183 F350.00
G01 X5.3700 Y14.3945 F350.00
G01 X5.3997 Y14.3867 F350.00
G01 X5.4291 Y14.3781 F350.00
G01 X5.4584 Y14.3689 F350.00
G01 X5.4874 Y14.3589 F350.00
G01 X5.5798 Y14.3258 F350.00
G01 X5.6086 Y14.3151 F350.00
G01 X5.6370 Y14.3037 F350.00
G01 X5.6652 Y14.2916 F350.00
G01 X5.6931 Y14.2789 F350.00
G01 X5.7818 Y14.2369 F350.00
G01 X5.8094 Y14.2235 F350.00
G01 X5.8497 Y14.2021 F350.00
G01 X5.8498 Y14.9497 F350.00
G01 X0.4502 Y14.9498 F350.00
G01 X0.4502 Y9.5503 F350.00
G01 X3.0346 Y9.5503 F350.00
G01 X3.0176 Y9.5716 F350.00
G01 X2.9990 Y9.5960 F350.00
G01 X2.9405 Y9.6748 F350.00
G01 X2.9225 Y9.6997 F350.00
G01 X2.9052 Y9.7250 F350.00
G01 X2.8885 Y9.7507 F350.00
G01 X2.8724 Y9.7768 F350.00
G01 X2.8219 Y9.8610 F350.00
G01 X2.8065 Y9.8875 F350.00
G01 X2.7917 Y9.9144 F350.00
G01 X2.7775 Y9.9416 F350.00
G01 X2.7641 Y9.9692 F350.00
G01 X2.7221 Y10.0579 F350.00
G01 X2.7094 Y10.0858 F350.00
G01 X2.6973 Y10.1140 F350.00
G01 X2.6859 Y10.1424 F350.00
G01 X2.6752 Y10.1712 F350.00
G01 X2.6421 Y10.2636 F350.00
G01 X2.6321 Y10.2926 F350.00
G01 X2.6229 Y10.3219 F350.00
G01 X2.6143 Y10.3513 F350.00
G01 X2.6065 Y10.3810 F350.00
G01 X2.5827 Y10.4762 F350.00
G01 X2.5756 Y10.5060 F350.00
G01 X2.5692 Y10.5360 F350.00
G01 X2.5636 Y10.5662 F350.00
G01 X2.5587 Y10.5965 F350.00
G01 X2.5443 Y10.6936 F350.00
G00 Z0.5000
G00 X3.1191 Y19.5155
G01 F250.00
G01 Z-0.0500
G01 F350.00
G01 X3.0809 Y19.4876 F350.00
G01 X3.0556 Y19.4702 F350.00
G01 X3.0299 Y19.4535 F350.00
G01 X3.0037 Y19.4374 F350.00
G01 X2.9490 Y19.4046 F350.00
G01 X2.9225 Y19.3891 F350.00
G01 X2.8957 Y19.3743 F350.00
G01 X2.8684 Y19.3602 F350.00
G01 X2.8409 Y19.3468 F350.00
G01 X2.7832 Y19.3195 F350.00
G01 X2.7553 Y19.3067 F350.00
G01 X2.7271 Y19.2946 F350.00
G01 X2.6986 Y19.2832 F350.00
G01 X2.6699 Y19.2725 F350.00
G01 X2.6098 Y19.2511 F350.00
G01 X2.5808 Y19.2411 F350.00
G01 X2.5515 Y19.2318 F350.00
G01 X2.5221 Y19.2233 F350.00
G01 X2.4924 Y19.2154 F350.00
G01 X2.4305 Y19.2000 F350.00
G01 X2.4007 Y19.1929 F350.00
G01 X2.3707 Y19.1865 F350.00
G01 X2.3405 Y19.1809 F350.00
G01 X2.3102 Y19.1760 F350.00
G01 X2.2471 Y19.1667 F350.00
G01 X2.2167 Y19.1625 F350.00
G01 X2.1862 Y19.1591 F350.00
G01 X2.1557 Y19.1565 F350.00
G01 X2.1002 Y19.1534 F350.00
G01 X2.1002 Y18.4503 F350.00
G01 X5.8497 Y18.4502 F350.00
G01 X5.8497 Y18.6668 F350.00
G01 X5.8326 Y18.6599 F350.00
G01 X5.8038 Y18.6492 F350.00
G01 X5.7114 Y18.6161 F350.00
G01 X5.6824 Y18.6061 F350.00
G01 X5.6531 Y18.5969 F350.00
G01 X5.6237 Y18.5883 F350.00
G01 X5.5940 Y18.5805 F350.00
G01 X5.4988 Y18.5567 F350.00
G01 X5.4690 Y18.5496 F350.00
G01 X5.4390 Y18.5432 F350.00
G01 X5.4088 Y18.5376 F350.00
G01 X5.3785 Y18.5327 F350.00
G01 X5.2814 Y18.5183 F350.00
G01 X5.2510 Y18.5142 F350.00
G01 X5.2205 Y18.5108 F350.00
G01 X5.1900 Y18.5082 F350.00
G01 X5.1594 Y18.5063 F350.00
G01 X5.0613 Y18.5015 F350.00
G01 X5.0307 Y18.5004 F350.00
G01 X5.0000 Y18.5000 F350.00
G01 X4.9693 Y18.5004 F350.00
G01 X4.9387 Y18.5015 F350.00
G01 X4.8406 Y18.5063 F350.00
G01 X4.8100 Y18.5082 F350.00
G01 X4.7795 Y18.5108 F350.00
G01 X4.7490 Y18.5142 F350.00
G01 X4.7186 Y18.5183 F350.00
G01 X4.6215 Y18.5327 F350.00
G01 X4.5912 Y18.5376 F350.00
G01 X4.5610 Y18.5432 F350.00
G01 X4.5310 Y18.5496 F350.00
G01 X4.5012 Y18.5567 F350.00
G01 X4.4060 Y18.5805 F350.00
G01 X4.3763 Y18.5883 F350.00
G01 X4.3469 Y18.5969 F350.00
G01 X4.3176 Y18.6061 F350.00
G01 X4.2886 Y18.6161 F350.00
G01 X4.1962 Y18.6492 F350.00
G01 X4.1674 Y18.6599 F350.00
G01 X4.1390 Y18.6713 F350.00
G01 X4.1108 Y18.6834 F350.00
G01 X4.0829 Y18.6961 F350.00
G01 X3.9942 Y18.7381 F350.00
G01 X3.9666 Y18.7515 F350.00
G01 X3.9394 Y18.7657 F350.00
G01 X3.9125 Y18.7805 F350.00
G01 X3.8860 Y18.7959 F350.00
G01 X3.8018 Y18.8464 F350.00
G01 X3.7757 Y18.8625 F350.00
G01 X3.7500 Y18.8792 F350.00
G01 X3.7247 Y18.8965 F350.00
G01 X3.6998 Y18.9145 F350.00
G01 X3.6210 Y18.9730 F350.00
G01 X3.5966 Y18.9916 F350.00
G01 X3.5726 Y19.0107 F350.00
G01 X3.5491 Y19.0305 F350.00
G01 X3.5262 Y19.0508 F350.00
G01 X3.4534 Y19.1167 F350.00
G01 X3.4310 Y19.1376 F350.00
G01 X3.4090 Y19.1590 F350.00
G01 X3.3876 Y19.1810 F350.00
G01 X3.3667 Y19.2034 F350.00
G01 X3.3008 Y19.2762 F350.00
G01 X3.2805 Y19.2991 F350.00
G01 X3.2607 Y19.3226 F350.00
G01 X3.2416 Y19.3466 F350.00
G01 X3.2230 Y19.3710 F350.00
G01 X3.1645 Y19.4498 F350.00
G01 X3.1465 Y19.4747 F350.00
G01 X3.1292 Y19.5000 F350.00
G01 X3.1191 Y19.5155 F350.00
G00 Z0.5000
G00 X9.5102 Y20.5786
G01 F250.00
G01 Z-0.0500
G01 F350.00
G01 X9.5246 Y20.4815 F350.00
G01 X9.5288 Y20.4574 F350.00
G01 X9.5342 Y20.4334 F350.00
G01 X9.5580 Y20.3382 F350.00
G01 X9.5612 Y20.3264 F350.00
G01 X9.5683 Y20.3029 F350.00
G01 X9.6053 Y20.1989 F350.00
G01 X9.6142 Y20.1760 F350.00
G01 X9.6241 Y20.1535 F350.00
G01 X9.6661 Y20.0648 F350.00
G01 X9.6771 Y20.0429 F350.00
G01 X9.6892 Y20.0216 F350.00
G01 X9.7397 Y19.9374 F350.00
G01 X9.7528 Y19.9166 F350.00
G01 X9.7669 Y19.8966 F350.00
G01 X9.8254 Y19.8178 F350.00
G01 X9.8405 Y19.7984 F350.00
G01 X9.8565 Y19.7798 F350.00
G01 X9.9224 Y19.7071 F350.00
G01 X9.9393 Y19.6893 F350.00
G01 X9.9571 Y19.6724 F350.00
G01 X10.0298 Y19.6065 F350.00
G01 X10.0484 Y19.5905 F350.00
G01 X10.0678 Y19.5754 F350.00
G01 X10.1466 Y19.5169 F350.00
G01 X10.1666 Y19.5028 F350.00
G01 X10.1874 Y19.4897 F350.00
G01 X10.2716 Y19.4392 F350.00
G01 X10.2929 Y19.4271 F350.00
G01 X10.3148 Y19.4161 F350.00
G01 X10.4035 Y19.3741 F350.00
G01 X10.4260 Y19.3642 F350.00
G01 X10.4489 Y19.3553 F350.00
G01 X10.5413 Y19.3223 F350.00
G01 X10.5646 Y19.3146 F350.00
G01 X10.5882 Y19.3080 F350.00
G01 X10.6834 Y19.2842 F350.00
G01 X10.7074 Y19.2788 F350.00
G01 X10.7315 Y19.2746 F350.00
G01 X10.8286 Y19.2602 F350.00
G01 X10.8530 Y19.2572 F350.00
G01 X10.8774 Y19.2554 F350.00
G01 X10.9755 Y19.2506 F350.00
G01 X11.0000 Y19.2500 F350.00
G01 X11.0245 Y19.2506 F350.00
G01 X11.1226 Y19.2554 F350.00
G01 X11.1470 Y19.2572 F350.00
G01 X11.1714 Y19.2602 F350.00
G01 X11.2685 Y19.2746 F350.00
G01 X11.2926 Y19.2788 F350.00
G01 X11.3166 Y19.2842 F350.00
G01 X11.4118 Y19.3080 F350.00
G01 X11.4354 Y19.3146 F350.00
G01 X11.4587 Y19.3223 F350.00
G01 X11.5511 Y19.3553 F350.00
G01 X11.5740 Y19.3642 F350.00
G01 X11.5965 Y19.3741 F350.00
G01 X11.6852 Y19.4161 F350.00
G01 X11.7071 Y19.4271 F350.00
G01 X11.7284 Y19.4392 F350.00
G01 X11.8126 Y19.4897 F350.00
G01 X11.8334 Y19.5028 F350.00
G01 X11.8534 Y19.5169 F350.00
G01 X11.9322 Y19.5754 F350.00
G01 X11.9516 Y19.5905 F350.00
G01 X11.9702 Y19.6065 F350.00
G01 X12.0429 Y19.6724 F350.00
G01 X12.0607 Y19.6893 F350.00
G01 X12.0776 Y19.7071 F350.00
G01 X12.1435 Y19.7798 F350.00
G01 X12.1595 Y19.7984 F350.00
G01 X12.1746 Y19.8178 F350.00
G01 X12.2403 Y19.9065 F350.00
G01 X12.2539 Y19.9269 F350.00
G01 X12.2603 Y19.9374 F350.00
G01 X12.3108 Y20.0216 F350.00
G01 X12.3229 Y20.0429 F350.00
G01 X12.3339 Y20.0648 F350.00
G01 X12.3759 Y20.1535 F350.00
G01 X12.3858 Y20.1760 F350.00
G01 X12.3904 Y20.1874 F350.00
G01 X12.4317 Y20.3029 F350.00
G01 X12.4354 Y20.3146 F350.00
G01 X12.4420 Y20.3382 F350.00
G01 X12.4686 Y20.4454 F350.00
G01 X12.4734 Y20.4694 F350.00
G01 X12.4754 Y20.4815 F350.00
G01 X12.4898 Y20.5786 F350.00
G01 X12.4928 Y20.6030 F350.00
G01 X12.4946 Y20.6274 F350.00
G01 X12.4998 Y20.7377 F350.00
G01 X12.5000 Y21.3500 F350.00
G01 X12.4994 Y21.3745 F350.00
G01 X12.4946 Y21.4726 F350.00
G01 X12.4928 Y21.4970 F350.00
G01 X12.4898 Y21.5214 F350.00
G01 X12.4754 Y21.6185 F350.00
G01 X12.4712 Y21.6426 F350.00
G01 X12.4658 Y21.6666 F350.00
G01 X12.4420 Y21.7618 F350.00
G01 X12.4354 Y21.7854 F350.00
G01 X12.4277 Y21.8087 F350.00
G01 X12.3947 Y21.9011 F350.00
G01 X12.3858 Y21.9240 F350.00
G01 X12.3759 Y21.9465 F350.00
G01 X12.3339 Y22.0352 F350.00
G01 X12.3229 Y22.0571 F350.00
G01 X12.3108 Y22.0784 F350.00
G01 X12.2603 Y22.1626 F350.00
G01 X12.2472 Y22.1834 F350.00
G01 X12.2331 Y22.2034 F350.00
G01 X12.1746 Y22.2822 F350.00
G01 X12.1595 Y22.3016 F350.00
G01 X12.1435 Y22.3202 F350.00
G01 X12.0776 Y22.3929 F350.00
G01 X12.0607 Y22.4107 F350.00
G01 X12.0429 Y22.4276 F350.00
G01 X11.9702 Y22.4935 F350.00
G01 X11.9516 Y22.5095 F350.00
G01 X11.9322 Y22.5246 F350.00
G01 X11.8534 Y22.5831 F350.00
G01 X11.8334 Y22.5972 F350.00
G01 X11.8126 Y22.6103 F350.00
G01 X11.7284 Y22.6608 F350.00
G01 X11.7071 Y22.6729 F350.00
G01 X11.6852 Y22.6839 F350.00
G01 X11.5965 Y22.7259 F350.00
G01 X11.5740 Y22.7358 F350.00
G01 X11.5511 Y22.7447 F350.00
G01 X11.4587 Y22.7777 F350.00
G01 X11.4354 Y22.7854 F350.00
G01 X11.4118 Y22.7920 F350.00
G01 X11.3166 Y22.8158 F350.00
G01 X11.2926 Y22.8212 F350.00
G01 X11.2685 Y22.8254 F350.00
G01 X11.1714 Y22.8398 F350.00
G01 X11.1470 Y22.8428 F350.00
G01 X11.1226 Y22.8446 F350.00
G01 X11.0245 Y22.8494 F350.00
G01 X11.0000 Y22.8500 F350.00
G01 X10.9755 Y22.8494 F350.00
G01 X10.8774 Y22.8446 F350.00
G01 X10.8530 Y22.8428 F350.00
G01 X10.8286 Y22.8398 F350.00
G01 X10.7315 Y22.8254 F350.00
G01 X10.7074 Y22.8212 F350.00
G01 X10.6834 Y22.8158 F350.00
G01 X10.5882 Y22.7920 F350.00
G01 X10.5646 Y22.7854 F350.00
G01 X10.5413 Y22.7777 F350.00
G01 X10.4489 Y22.7447 F350.00
G01 X10.4260 Y22.7358 F350.00
G01 X10.4035 Y22.7259 F350.00
G01 X10.3148 Y22.6839 F350.00
G01 X10.2929 Y22.6729 F350.00
G01 X10.2716 Y22.6608 F350.00
G01 X10.1874 Y22.6103 F350.00
G01 X10.1666 Y22.5972 F350.00
G01 X10.1466 Y22.5831 F350.00
G01 X10.0678 Y22.5246 F350.00
G01 X10.0484 Y22.5095 F350.00
G01 X10.0298 Y22.4935 F350.00
G01 X9.9571 Y22.4276 F350.00
G01 X9.9393 Y22.4107 F350.00
G01 X9.9224 Y22.3929 F350.00
G01 X9.8565 Y22.3202 F350.00
G01 X9.8405 Y22.3016 F350.00
G01 X9.8328 Y22.2920 F350.00
G01 X9.7669 Y22.2034 F350.00
G01 X9.7528 Y22.1834 F350.00
G01 X9.7397 Y22.1626 F350.00
G01 X9.6892 Y22.0784 F350.00
G01 X9.6771 Y22.0571 F350.00
G01 X9.6661 Y22.0352 F350.00
G01 X9.6241 Y21.9465 F350.00
G01 X9.6190 Y21.9353 F350.00
G01 X9.6096 Y21.9126 F350.00
G01 X9.5723 Y21.8087 F350.00
G01 X9.5646 Y21.7854 F350.00
G01 X9.5580 Y21.7618 F350.00
G01 X9.5342 Y21.6666 F350.00
G01 X9.5288 Y21.6426 F350.00
G01 X9.5246 Y21.6185 F350.00
G01 X9.5102 Y21.5214 F350.00
G01 X9.5072 Y21.4970 F350.00
G01 X9.5062 Y21.4848 F350.00
G01 X9.5006 Y21.3745 F350.00
G01 X9.5000 Y21.3500 F350.00
G01 X9.5000 Y20.7500 F350.00
G01 X9.5006 Y20.7255 F350.00
G01 X9.5054 Y20.6274 F350.00
G01 X9.5072 Y20.6030 F350.00
G01 X9.5102 Y20.5786 F350.00
G00 Z0.5000
G00 X8.4407 Y23.5564
G01 F250.00
G01 Z-0.0500
G01 F350.00
G01 X8.4690 Y23.5504 F350.00
G01 X8.4988 Y23.5433 F350.00
G01 X8.5940 Y23.5195 F350.00
G01 X8.6237 Y23.5117 F350.00
G01 X8.6531 Y23.5031 F350.00
G01 X8.6824 Y23.4939 F350.00
G01 X8.7114 Y23.4839 F350.00
G01 X8.8038 Y23.4508 F350.00
G01 X8.8326 Y23.4401 F350.00
G01 X8.8610 Y23.4287 F350.00
G01 X8.8892 Y23.4166 F350.00
G01 X8.9171 Y23.4039 F350.00
G01 X9.0058 Y23.3619 F350.00
G01 X9.0334 Y23.3485 F350.00
G01 X9.0606 Y23.3343 F350.00
G01 X9.0875 Y23.3195 F350.00
G01 X9.1140 Y23.3041 F350.00
G01 X9.1982 Y23.2536 F350.00
G01 X9.2243 Y23.2375 F350.00
G01 X9.2500 Y23.2208 F350.00
G01 X9.2753 Y23.2035 F350.00
G01 X9.3002 Y23.1855 F350.00
G01 X9.3790 Y23.1270 F350.00
G01 X9.4034 Y23.1084 F350.00
G01 X9.4274 Y23.0893 F350.00
G01 X9.4509 Y23.0695 F350.00
G01 X9.5000 Y23.0255 F350.00
G01 X9.5491 Y23.0695 F350.00
G01 X9.5726 Y23.0893 F350.00
G01 X9.5966 Y23.1084 F350.00
G01 X9.6210 Y23.1270 F350.00
G01 X9.6998 Y23.1855 F350.00
G01 X9.7247 Y23.2035 F350.00
G01 X9.7500 Y23.2208 F350.00
G01 X9.7757 Y23.2375 F350.00
G01 X9.8018 Y23.2536 F350.00
G01 X9.8860 Y23.3041 F350.00
G01 X9.9125 Y23.3195 F350.00
G01 X9.9394 Y23.3343 F350.00
G01 X9.9666 Y23.3485 F350.00
G01 X9.9942 Y23.3619 F350.00
G01 X10.0829 Y23.4039 F350.00
G01 X10.1108 Y23.4166 F350.00
G01 X10.1390 Y23.4287 F350.00
G01 X10.1674 Y23.4401 F350.00
G01 X10.1962 Y23.4508 F350.00
G01 X10.2886 Y23.4839 F350.00
G01 X10.3176 Y23.4939 F350.00
G01 X10.3469 Y23.5031 F350.00
G01 X10.3763 Y23.5117 F350.00
G01 X10.4060 Y23.5195 F350.00
G01 X10.5012 Y23.5433 F350.00
G01 X10.5310 Y23.5504 F350.00
G01 X10.5610 Y23.5568 F350.00
G01 X10.5912 Y23.5624 F350.00
G01 X10.6215 Y23.5673 F350.00
G01 X10.7186 Y23.5817 F350.00
G01 X10.7490 Y23.5858 F350.00
G01 X10.7795 Y23.5892 F350.00
G01 X10.8100 Y23.5918 F350.00
G01 X10.8406 Y23.5937 F350.00
G01 X10.9387 Y23.5985 F350.00
G01 X10.9693 Y23.5996 F350.00
G01 X11.0000 Y23.6000 F350.00
G01 X11.0307 Y23.5996 F350.00
G01 X11.0613 Y23.5985 F350.00
G01 X11.1594 Y23.5937 F350.00
G01 X11.1900 Y23.5918 F350.00
G01 X11.2205 Y23.5892 F350.00
G01 X11.2510 Y23.5858 F350.00
G01 X11.2814 Y23.5817 F350.00
G01 X11.3785 Y23.5673 F350.00
G01 X11.4088 Y23.5624 F350.00
G01 X11.4390 Y23.5568 F350.00
G01 X11.4690 Y23.5504 F350.00
G01 X11.4988 Y23.5433 F350.00
G01 X11.5940 Y23.5195 F350.00
G01 X11.6237 Y23.5117 F350.00
G01 X11.6531 Y23.5031 F350.00
G01 X11.6824 Y23.4939 F350.00
G01 X11.7114 Y23.4839 F350.00
G01 X11.8038 Y23.4508 F350.00
G01 X11.8326 Y23.4401 F350.00
G01 X11.8610 Y23.4287 F350.00
G01 X11.8892 Y23.4166 F350.00
G01 X11.9171 Y23.4039 F350.00
G01 X12.0058 Y23.3619 F350.00
G01 X12.0334 Y23.3485 F350.00
G01 X12.0606 Y23.3343 F350.00
G01 X12.0875 Y23.3195 F350.00
G01 X12.1140 Y23.3041 F350.00
G01 X12.1982 Y23.2536 F350.00
G01 X12.2243 Y23.2375 F350.00
G01 X12.2500 Y23.2208 F350.00
G01 X12.2753 Y23.2035 F350.00
G01 X12.3002 Y23.1855 F350.00
G01 X12.3790 Y23.1270 F350.00
G01 X12.4034 Y23.1084 F350.00
G01 X12.4274 Y23.0893 F350.00
G01 X12.4509 Y23.0695 F350.00
G01 X12.4738 Y23.0492 F350.00
G01 X12.5466 Y22.9833 F350.00
G01 X12.5690 Y22.9624 F350.00
G01 X12.5910 Y22.9410 F350.00
G01 X12.6124 Y22.9190 F350.00
G01 X12.6333 Y22.8966 F350.00
G01 X12.6992 Y22.8238 F350.00
G01 X12.7195 Y22.8009 F350.00
G01 X12.7393 Y22.7774 F350.00
G01 X12.7584 Y22.7534 F350.00
G01 X12.7770 Y22.7290 F350.00
G01 X12.8355 Y22.6502 F350.00
G01 X12.8535 Y22.6253 F350.00
G01 X12.8708 Y22.6000 F350.00
G01 X12.8809 Y22.5845 F350.00
G01 X12.9191 Y22.6124 F350.00
G01 X12.9444 Y22.6298 F350.00
G01 X12.9701 Y22.6465 F350.00
G01 X12.9963 Y22.6626 F350.00
G01 X13.0510 Y22.6954 F350.00
G01 X13.0775 Y22.7109 F350.00
G01 X13.1043 Y22.7257 F350.00
G01 X13.1316 Y22.7398 F350.00
G01 X13.1591 Y22.7532 F350.00
G01 X13.2168 Y22.7805 F350.00
G01 X13.2447 Y22.7933 F350.00
G01 X13.2729 Y22.8054 F350.00
G01 X13.3014 Y22.8168 F350.00
G01 X13.3301 Y22.8275 F350.00
G01 X13.3902 Y22.8489 F350.00
G01 X13.4192 Y22.8589 F350.00
G01 X13.4548 Y22.8700 F350.00
G01 X12.7748 Y23.5500 F350.00
G01 X12.5000 Y23.5500 F350.00
G01 X12.4693 Y23.5504 F350.00
G01 X12.4387 Y23.5515 F350.00
G01 X12.3406 Y23.5563 F350.00
G01 X12.3100 Y23.5582 F350.00
G01 X12.2795 Y23.5608 F350.00
G01 X12.2490 Y23.5642 F350.00
G01 X12.2186 Y23.5683 F350.00
G01 X12.1215 Y23.5827 F350.00
G01 X12.0912 Y23.5876 F350.00
G01 X12.0610 Y23.5932 F350.00
G01 X12.0310 Y23.5996 F350.00
G01 X12.0012 Y23.6067 F350.00
G01 X11.9060 Y23.6305 F350.00
G01 X11.8763 Y23.6383 F350.00
G01 X11.8469 Y23.6469 F350.00
G01 X11.8176 Y23.6561 F350.00
G01 X11.7886 Y23.6661 F350.00
G01 X11.6962 Y23.6992 F350.00
G01 X11.6674 Y23.7099 F350.00
G01 X11.6390 Y23.7213 F350.00
G01 X11.6108 Y23.7334 F350.00
G01 X11.5829 Y23.7461 F350.00
G01 X11.4942 Y23.7881 F350.00
G01 X11.4666 Y23.8015 F350.00
G01 X11.4394 Y23.8157 F350.00
G01 X11.4125 Y23.8305 F350.00
G01 X11.3860 Y23.8459 F350.00
G01 X11.3018 Y23.8964 F350.00
G01 X11.2757 Y23.9125 F350.00
G01 X11.2500 Y23.9292 F350.00
G01 X11.2247 Y23.9465 F350.00
G01 X11.1998 Y23.9645 F350.00
G01 X11.1210 Y24.0230 F350.00
G01 X11.0966 Y24.0416 F350.00
G01 X11.0726 Y24.0607 F350.00
G01 X11.0491 Y24.0805 F350.00
G01 X11.0262 Y24.1008 F350.00
G01 X10.9534 Y24.1667 F350.00
G01 X10.9310 Y24.1876 F350.00
G01 X10.9090 Y24.2090 F350.00
G01 X10.8876 Y24.2310 F350.00
G01 X10.8667 Y24.2534 F350.00
G01 X10.8008 Y24.3262 F350.00
G01 X10.7805 Y24.3491 F350.00
G01 X10.7607 Y24.3726 F350.00
G01 X10.7416 Y24.3966 F350.00
G01 X10.7230 Y24.4210 F350.00
G01 X10.6645 Y24.4998 F350.00
G01 X10.6465 Y24.5247 F350.00
G01 X10.6292 Y24.5500 F350.00
G01 X10.6125 Y24.5757 F350.00
G01 X10.5964 Y24.6018 F350.00
G01 X10.5459 Y24.6860 F350.00
G01 X10.5305 Y24.7125 F350.00
G01 X10.5157 Y24.7394 F350.00
G01 X10.5015 Y24.7666 F350.00
G01 X10.4881 Y24.7942 F350.00
G01 X10.4461 Y24.8829 F350.00
G01 X10.4334 Y24.9108 F350.00
G01 X10.4213 Y24.9390 F350.00
G01 X10.4099 Y24.9674 F350.00
G01 X10.3992 Y24.9962 F350.00
G01 X10.3661 Y25.0886 F350.00
G01 X10.3561 Y25.1176 F350.00
G01 X10.3469 Y25.1469 F350.00
G01 X10.3383 Y25.1763 F350.00
G01 X10.3305 Y25.2060 F350.00
G01 X10.3067 Y25.3012 F350.00
G01 X10.2996 Y25.3310 F350.00
G01 X10.2932 Y25.3610 F350.00
G01 X10.2876 Y25.3912 F350.00
G01 X10.2827 Y25.4215 F350.00
G01 X10.2683 Y25.5186 F350.00
G01 X10.2642 Y25.5490 F350.00
G01 X10.2608 Y25.5795 F350.00
G01 X10.2582 Y25.6100 F350.00
G01 X10.2563 Y25.6406 F350.00
G01 X10.2515 Y25.7387 F350.00
G01 X10.2504 Y25.7693 F350.00
G01 X10.2500 Y25.8000 F350.00
G01 X10.2504 Y25.8307 F350.00
G01 X10.2515 Y25.8613 F350.00
G01 X10.2563 Y25.9594 F350.00
G01 X10.2582 Y25.9900 F350.00
G01 X10.2608 Y26.0205 F350.00
G01 X10.2654 Y26.0594 F350.00
G01 X8.9624 Y27.3624 F350.00
G01 X8.9410 Y27.3843 F350.00
G01 X8.8871 Y27.4432 F350.00
G01 X8.8668 Y27.4662 F350.00
G01 X8.8470 Y27.4897 F350.00
G01 X8.8279 Y27.5136 F350.00
G01 X8.8093 Y27.5380 F350.00
G01 X8.7800 Y27.5775 F350.00
G01 X8.7621 Y27.6023 F350.00
G01 X8.7502 Y27.6196 F350.00
G01 X8.7502 Y24.5500 F350.00
G01 X8.7499 Y24.5193 F350.00
G01 X8.7487 Y24.4887 F350.00
G01 X8.7445 Y24.4090 F350.00
G01 X8.7418 Y24.3784 F350.00
G01 X8.7384 Y24.3480 F350.00
G01 X8.7343 Y24.3176 F350.00
G01 X8.7222 Y24.2387 F350.00
G01 X8.7166 Y24.2085 F350.00
G01 X8.7103 Y24.1785 F350.00
G01 X8.7032 Y24.1487 F350.00
G01 X8.6834 Y24.0714 F350.00
G01 X8.6749 Y24.0419 F350.00
G01 X8.6656 Y24.0127 F350.00
G01 X8.6556 Y23.9837 F350.00
G01 X8.6284 Y23.9087 F350.00
G01 X8.6170 Y23.8802 F350.00
G01 X8.6049 Y23.8520 F350.00
G01 X8.5922 Y23.8241 F350.00
G01 X8.5577 Y23.7522 F350.00
G01 X8.5436 Y23.7249 F350.00
G01 X8.5288 Y23.6981 F350.00
G01 X8.5133 Y23.6716 F350.00
G01 X8.4720 Y23.6033 F350.00
G01 X8.4553 Y23.5776 F350.00
G01 X8.4407 Y23.5564 F350.00
G00 Z0.5000
G00 X13.2748 Y28.0500
G01 F250.00
G01 Z-0.0500
G01 F350.00
G01 X12.7748 Y28.5500 F350.00
G01 X12.7252 Y28.5500 F350.00
G01 X13.2252 Y28.0500 F350.00
G01 X13.2748 Y28.0500 F350.00
G00 Z0.5000
G00 X11.2003 Y31.5469
G01 F250.00
G01 Z-0.0500
G01 F350.00
G01 X11.2397 Y31.6126 F350.00
G01 X11.2528 Y31.6334 F350.00
G01 X11.2669 Y31.6534 F350.00
G01 X11.3254 Y31.7322 F350.00
G01 X11.3328 Y31.7420 F350.00
G01 X11.3484 Y31.7610 F350.00
G01 X11.4224 Y31.8429 F350.00
G01 X11.4393 Y31.8607 F350.00
G01 X11.4481 Y31.8692 F350.00
G01 X11.5390 Y31.9516 F350.00
G01 X11.5484 Y31.9595 F350.00
G01 X11.5678 Y31.9746 F350.00
G01 X11.6565 Y32.0403 F350.00
G01 X11.6769 Y32.0539 F350.00
G01 X11.6874 Y32.0603 F350.00
G01 X11.7716 Y32.1108 F350.00
G01 X11.7929 Y32.1229 F350.00
G01 X11.8148 Y32.1339 F350.00
G01 X11.9035 Y32.1759 F350.00
G01 X11.9260 Y32.1858 F350.00
G01 X11.9489 Y32.1947 F350.00
G01 X12.0413 Y32.2277 F350.00
G01 X12.0646 Y32.2354 F350.00
G01 X12.0882 Y32.2420 F350.00
G01 X12.1834 Y32.2658 F350.00
G01 X12.2074 Y32.2712 F350.00
G01 X12.2315 Y32.2754 F350.00
G01 X12.3286 Y32.2898 F350.00
G01 X12.3530 Y32.2928 F350.00
G01 X12.3774 Y32.2946 F350.00
G01 X12.4877 Y32.2998 F350.00
G01 X13.5000 Y32.3000 F350.00
G01 X13.5245 Y32.2994 F350.00
G01 X13.6226 Y32.2946 F350.00
G01 X13.6470 Y32.2928 F350.00
G01 X13.6714 Y32.2898 F350.00
G01 X13.7685 Y32.2754 F350.00
G01 X13.7926 Y32.2712 F350.00
G01 X13.8166 Y32.2658 F350.00
G01 X13.9118 Y32.2420 F350.00
G01 X13.9354 Y32.2354 F350.00
G01 X13.9587 Y32.2277 F350.00
G01 X14.0511 Y32.1947 F350.00
G01 X14.0740 Y32.1858 F350.00
G01 X14.0965 Y32.1759 F350.00
G01 X14.1852 Y32.1339 F350.00
G01 X14.2071 Y32.1229 F350.00
G01 X14.2284 Y32.1108 F350.00
G01 X14.3126 Y32.0603 F350.00
G01 X14.3334 Y32.0472 F350.00
G01 X14.3534 Y32.0331 F350.00
G01 X14.4322 Y31.9746 F350.00
G01 X14.4516 Y31.9595 F350.00
G01 X14.4702 Y31.9435 F350.00
G01 X14.5429 Y31.8776 F350.00
G01 X14.5607 Y31.8607 F350.00
G01 X14.5776 Y31.8429 F350.00
G01 X14.6516 Y31.7610 F350.00
G01 X14.6672 Y31.7420 F350.00
G01 X14.6746 Y31.7322 F350.00
G01 X14.7331 Y31.6534 F350.00
G01 X14.7472 Y31.6334 F350.00
G01 X14.7603 Y31.6126 F350.00
G01 X14.8108 Y31.5284 F350.00
G01 X14.8229 Y31.5071 F350.00
G01 X14.8339 Y31.4852 F350.00
G01 X14.8759 Y31.3965 F350.00
G01 X14.8858 Y31.3740 F350.00
G01 X14.8947 Y31.3511 F350.00
G01 X14.9317 Y31.2471 F350.00
G01 X14.9388 Y31.2236 F350.00
G01 X14.9420 Y31.2118 F350.00
G01 X14.9658 Y31.1166 F350.00
G01 X14.9712 Y31.0926 F350.00
G01 X14.9754 Y31.0685 F350.00
G01 X14.9898 Y30.9714 F350.00
G01 X14.9928 Y30.9470 F350.00
G01 X14.9946 Y30.9226 F350.00
G01 X14.9994 Y30.8245 F350.00
G01 X15.0000 Y30.8000 F350.00
G01 X14.9998 Y30.7877 F350.00
G01 X14.9946 Y30.6774 F350.00
G01 X14.9928 Y30.6530 F350.00
G01 X14.9898 Y30.6286 F350.00
G01 X14.9734 Y30.5194 F350.00
G01 X14.9686 Y30.4954 F350.00
G01 X14.9658 Y30.4834 F350.00
G01 X14.9388 Y30.3764 F350.00
G01 X14.9317 Y30.3529 F350.00
G01 X14.9134 Y30.3012 F350.00
G01 X18.4143 Y26.8003 F350.00
G01 X23.7497 Y26.8003 F350.00
G01 X23.7497 Y34.8000 F350.00
G01 X23.7504 Y34.8245 F350.00
G01 X23.7528 Y34.8736 F350.00
G01 X23.7546 Y34.8980 F350.00
G01 X23.7576 Y34.9224 F350.00
G01 X23.7667 Y34.9831 F350.00
G01 X23.7715 Y35.0071 F350.00
G01 X23.7863 Y35.0667 F350.00
G01 X23.7894 Y35.0786 F350.00
G01 X23.7965 Y35.1021 F350.00
G01 X23.8171 Y35.1599 F350.00
G01 X23.8259 Y35.1828 F350.00
G01 X23.8358 Y35.2052 F350.00
G01 X23.8568 Y35.2496 F350.00
G01 X23.8622 Y35.2606 F350.00
G01 X23.8738 Y35.2823 F350.00
G01 X23.9052 Y35.3350 F350.00
G01 X23.9183 Y35.3557 F350.00
G01 X23.9325 Y35.3758 F350.00
G01 X23.9617 Y35.4152 F350.00
G01 X23.9768 Y35.4346 F350.00
G01 X23.9847 Y35.4439 F350.00
G01 X24.0258 Y35.4895 F350.00
G01 X24.0427 Y35.5073 F350.00
G01 X25.5352 Y36.9997 F350.00
G01 X16.2143 Y36.9997 F350.00
G01 X11.2003 Y31.9857 F350.00
G01 X11.2003 Y31.5469 F350.00
G00 Z0.5000
G00 X13.3252 Y33.0500
G01 F250.00
G01 Z-0.0500
G01 F350.00
G01 X13.5000 Y33.0500 F350.00
G01 X13.5307 Y33.0496 F350.00
G01 X13.5613 Y33.0485 F350.00
G01 X13.6594 Y33.0437 F350.00
G01 X13.6900 Y33.0418 F350.00
G01 X13.7205 Y33.0392 F350.00
G01 X13.7510 Y33.0358 F350.00
G01 X13.7814 Y33.0317 F350.00
G01 X13.8785 Y33.0173 F350.00
G01 X13.9088 Y33.0124 F350.00
G01 X13.9390 Y33.0068 F350.00
G01 X13.9690 Y33.0004 F350.00
G01 X13.9988 Y32.9933 F350.00
G01 X14.0940 Y32.9695 F350.00
G01 X14.1237 Y32.9617 F350.00
G01 X14.1531 Y32.9531 F350.00
G01 X14.1824 Y32.9439 F350.00
G01 X14.2114 Y32.9339 F350.00
G01 X14.3038 Y32.9008 F350.00
G01 X14.3326 Y32.8901 F350.00
G01 X14.3610 Y32.8787 F350.00
G01 X14.3892 Y32.8666 F350.00
G01 X14.4171 Y32.8539 F350.00
G01 X14.5058 Y32.8119 F350.00
G01 X14.5334 Y32.7985 F350.00
G01 X14.5606 Y32.7843 F350.00
G01 X14.5875 Y32.7695 F350.00
G01 X14.6140 Y32.7541 F350.00
G01 X14.6982 Y32.7036 F350.00
G01 X14.7243 Y32.6875 F350.00
G01 X14.7500 Y32.6708 F350.00
G01 X14.7753 Y32.6535 F350.00
G01 X14.8002 Y32.6355 F350.00
G01 X14.8790 Y32.5770 F350.00
G01 X14.9034 Y32.5584 F350.00
G01 X14.9274 Y32.5393 F350.00
G01 X14.9509 Y32.5195 F350.00
G01 X14.9738 Y32.4992 F350.00
G01 X15.0466 Y32.4333 F350.00
G01 X15.0690 Y32.4124 F350.00
G01 X15.0910 Y32.3910 F350.00
G01 X15.1124 Y32.3690 F350.00
G01 X15.1333 Y32.3466 F350.00
G01 X15.1992 Y32.2738 F350.00
G01 X15.2195 Y32.2509 F350.00
G01 X15.2393 Y32.2274 F350.00
G01 X15.2584 Y32.2034 F350.00
G01 X15.2770 Y32.1790 F350.00
G01 X15.3355 Y32.1002 F350.00
G01 X15.3535 Y32.0753 F350.00
G01 X15.3708 Y32.0500 F350.00
G01 X15.3875 Y32.0243 F350.00
G01 X15.4036 Y31.9982 F350.00
G01 X15.4541 Y31.9140 F350.00
G01 X15.4695 Y31.8875 F350.00
G01 X15.4843 Y31.8606 F350.00
G01 X15.4985 Y31.8334 F350.00
G01 X15.5119 Y31.8058 F350.00
G01 X15.5539 Y31.7171 F350.00
G01 X15.5666 Y31.6892 F350.00
G01 X15.5787 Y31.6610 F350.00
G01 X15.5901 Y31.6326 F350.00
G01 X15.6008 Y31.6038 F350.00
G01 X15.6339 Y31.5114 F350.00
G01 X15.6439 Y31.4824 F350.00
G01 X15.6531 Y31.4531 F350.00
G01 X15.6617 Y31.4237 F350.00
G01 X15.6695 Y31.3940 F350.00
G01 X15.6933 Y31.2988 F350.00
G01 X15.7004 Y31.2690 F350.00
G01 X15.7068 Y31.2390 F350.00
G01 X15.7124 Y31.2088 F350.00
G01 X15.7173 Y31.1785 F350.00
G01 X15.7317 Y31.0814 F350.00
G01 X15.7358 Y31.0510 F350.00
G01 X15.7392 Y31.0205 F350.00
G01 X15.7418 Y30.9900 F350.00
G01 X15.7437 Y30.9594 F350.00
G01 X15.7485 Y30.8613 F350.00
G01 X15.7496 Y30.8307 F350.00
G01 X15.7500 Y30.8000 F350.00
G01 X15.7496 Y30.7693 F350.00
G01 X15.7485 Y30.7387 F350.00
G01 X15.7437 Y30.6406 F350.00
G01 X15.7418 Y30.6100 F350.00
G01 X15.7392 Y30.5795 F350.00
G01 X15.7346 Y30.5406 F350.00
G01 X18.7250 Y27.5502 F350.00
G01 X22.9997 Y27.5502 F350.00
G01 X22.9998 Y34.8000 F350.00
G01 X23.0001 Y34.8307 F350.00
G01 X23.0013 Y34.8613 F350.00
G01 X23.0055 Y34.9410 F350.00
G01 X23.0082 Y34.9716 F350.00
G01 X23.0116 Y35.0020 F350.00
G01 X23.0157 Y35.0324 F350.00
G01 X23.0278 Y35.1113 F350.00
G01 X23.0334 Y35.1415 F350.00
G01 X23.0397 Y35.1715 F350.00
G01 X23.0588 Y35.2489 F350.00
G01 X23.0666 Y35.2786 F350.00
G01 X23.0751 Y35.3081 F350.00
G01 X23.0844 Y35.3373 F350.00
G01 X23.0944 Y35.3663 F350.00
G01 X23.1216 Y35.4413 F350.00
G01 X23.1330 Y35.4698 F350.00
G01 X23.1451 Y35.4980 F350.00
G01 X23.1788 Y35.5703 F350.00
G01 X23.1923 Y35.5978 F350.00
G01 X23.2064 Y35.6251 F350.00
G01 X23.2212 Y35.6519 F350.00
G01 X23.2619 Y35.7206 F350.00
G01 X23.2780 Y35.7467 F350.00
G01 X23.2947 Y35.7724 F350.00
G01 X23.3121 Y35.7977 F350.00
G01 X23.3300 Y35.8225 F350.00
G01 X23.3779 Y35.8864 F350.00
G01 X23.3970 Y35.9103 F350.00
G01 X23.4168 Y35.9338 F350.00
G01 X23.4371 Y35.9568 F350.00
G01 X23.4910 Y36.0157 F350.00
G01 X23.5124 Y36.0376 F350.00
G01 X23.7245 Y36.2498 F350.00
G01 X16.5250 Y36.2498 F350.00
G01 X13.3252 Y33.0500 F350.00
G00 Z0.5000
G00 X18.0252 Y39.7502
G01 F250.00
G01 Z-0.0500
G01 F350.00
G01 X25.6750 Y39.7502 F350.00
G01 X33.2724 Y47.3476 F350.00
G01 X33.2943 Y47.3690 F350.00
G01 X33.3168 Y47.3899 F350.00
G01 X33.3762 Y47.4432 F350.00
G01 X33.3997 Y47.4630 F350.00
G01 X33.4236 Y47.4821 F350.00
G01 X33.4875 Y47.5300 F350.00
G01 X33.5123 Y47.5479 F350.00
G01 X33.5376 Y47.5653 F350.00
G01 X33.5633 Y47.5820 F350.00
G01 X33.5894 Y47.5981 F350.00
G01 X33.6581 Y47.6388 F350.00
G01 X33.6849 Y47.6536 F350.00
G01 X33.7122 Y47.6677 F350.00
G01 X33.7397 Y47.6812 F350.00
G01 X33.8120 Y47.7149 F350.00
G01 X33.8402 Y47.7270 F350.00
G01 X33.8687 Y47.7384 F350.00
G01 X33.8975 Y47.7491 F350.00
G01 X33.9727 Y47.7756 F350.00
G01 X34.0019 Y47.7849 F350.00
G01 X34.0314 Y47.7934 F350.00
G01 X34.0611 Y47.8012 F350.00
G01 X34.1385 Y47.8203 F350.00
G01 X34.1685 Y47.8266 F350.00
G01 X34.1987 Y47.8322 F350.00
G01 X34.2776 Y47.8443 F350.00
G01 X34.3080 Y47.8484 F350.00
G01 X34.3384 Y47.8518 F350.00
G01 X34.3690 Y47.8545 F350.00
G01 X34.4487 Y47.8587 F350.00
G01 X34.4793 Y47.8599 F350.00
G01 X34.5100 Y47.8602 F350.00
G01 X41.2613 Y47.8602 F350.00
G01 X41.2159 Y47.9360 F350.00
G01 X41.2005 Y47.9625 F350.00
G01 X41.1857 Y47.9894 F350.00
G01 X41.1715 Y48.0166 F350.00
G01 X41.1581 Y48.0442 F350.00
G01 X41.1161 Y48.1329 F350.00
G01 X41.1034 Y48.1608 F350.00
G01 X41.0913 Y48.1890 F350.00
G01 X41.0799 Y48.2174 F350.00
G01 X41.0692 Y48.2462 F350.00
G01 X41.0361 Y48.3386 F350.00
G01 X41.0261 Y48.3676 F350.00
G01 X41.0169 Y48.3969 F350.00
G01 X41.0083 Y48.4263 F350.00
G01 X41.0005 Y48.4560 F350.00
G01 X40.9767 Y48.5512 F350.00
G01 X40.9696 Y48.5810 F350.00
G01 X40.9632 Y48.6110 F350.00
G01 X40.9576 Y48.6412 F350.00
G01 X40.9527 Y48.6715 F350.00
G01 X40.9383 Y48.7686 F350.00
G01 X40.9342 Y48.7990 F350.00
G01 X40.9308 Y48.8295 F350.00
G01 X40.9282 Y48.8600 F350.00
G01 X40.9263 Y48.8906 F350.00
G01 X40.9215 Y48.9887 F350.00
G01 X40.9204 Y49.0193 F350.00
G01 X40.9200 Y49.0500 F350.00
G01 X40.9204 Y49.0807 F350.00
G01 X40.9215 Y49.1113 F350.00
G01 X40.9263 Y49.2094 F350.00
G01 X40.9282 Y49.2400 F350.00
G01 X40.9308 Y49.2705 F350.00
G01 X40.9342 Y49.3010 F350.00
G01 X40.9383 Y49.3314 F350.00
G01 X40.9527 Y49.4285 F350.00
G01 X40.9576 Y49.4588 F350.00
G01 X40.9632 Y49.4890 F350.00
G01 X40.9696 Y49.5190 F350.00
G01 X40.9767 Y49.5488 F350.00
G01 X41.0005 Y49.6440 F350.00
G01 X41.0083 Y49.6737 F350.00
G01 X41.0169 Y49.7031 F350.00
G01 X41.0261 Y49.7324 F350.00
G01 X41.0361 Y49.7614 F350.00
G01 X41.0692 Y49.8538 F350.00
G01 X41.0799 Y49.8826 F350.00
G01 X41.0913 Y49.9110 F350.00
G01 X41.1034 Y49.9392 F350.00
G01 X41.1161 Y49.9671 F350.00
G01 X41.1581 Y50.0558 F350.00
G01 X41.1715 Y50.0834 F350.00
G01 X41.1857 Y50.1106 F350.00
G01 X41.2005 Y50.1375 F350.00
G01 X41.2159 Y50.1640 F350.00
G01 X41.2664 Y50.2482 F350.00
G01 X41.2825 Y50.2743 F350.00
G01 X41.2992 Y50.3000 F350.00
G01 X41.3165 Y50.3253 F350.00
G01 X41.3345 Y50.3502 F350.00
G01 X41.3930 Y50.4290 F350.00
G01 X41.4116 Y50.4534 F350.00
G01 X41.4307 Y50.4774 F350.00
G01 X41.4505 Y50.5009 F350.00
G01 X41.4708 Y50.5238 F350.00
G01 X41.5367 Y50.5966 F350.00
G01 X41.5576 Y50.6190 F350.00
G01 X41.5790 Y50.6410 F350.00
G01 X41.6010 Y50.6624 F350.00
G01 X41.6234 Y50.6833 F350.00
G01 X41.6962 Y50.7492 F350.00
G01 X41.7191 Y50.7695 F350.00
G01 X41.7426 Y50.7893 F350.00
G01 X41.7666 Y50.8084 F350.00
G01 X41.7910 Y50.8270 F350.00
G01 X41.8698 Y50.8855 F350.00
G01 X41.8947 Y50.9035 F350.00
G01 X41.9200 Y50.9208 F350.00
G01 X41.9457 Y50.9375 F350.00
G01 X41.9718 Y50.9536 F350.00
G01 X42.0560 Y51.0041 F350.00
G01 X42.0825 Y51.0195 F350.00
G01 X42.1094 Y51.0343 F350.00
G01 X42.1366 Y51.0485 F350.00
G01 X42.1642 Y51.0619 F350.00
G01 X42.2529 Y51.1039 F350.00
G01 X42.2808 Y51.1166 F350.00
G01 X42.3090 Y51.1287 F350.00
G01 X42.3374 Y51.1401 F350.00
G01 X42.3662 Y51.1508 F350.00
G01 X42.4586 Y51.1839 F350.00
G01 X42.4876 Y51.1939 F350.00
G01 X42.5169 Y51.2031 F350.00
G01 X42.5463 Y51.2117 F350.00
G01 X42.5760 Y51.2195 F350.00
G01 X42.6712 Y51.2433 F350.00
G01 X42.7010 Y51.2504 F350.00
G01 X42.7310 Y51.2568 F350.00
G01 X42.7612 Y51.2624 F350.00
G01 X42.7915 Y51.2673 F350.00
G01 X42.8886 Y51.2817 F350.00
G01 X42.9190 Y51.2858 F350.00
G01 X42.9495 Y51.2892 F350.00
G01 X42.9800 Y51.2918 F350.00
G01 X43.0106 Y51.2937 F350.00
G01 X43.1087 Y51.2985 F350.00
G01 X43.1393 Y51.2996 F350.00
G01 X43.1700 Y51.3000 F350.00
G01 X43.2007 Y51.2996 F350.00
G01 X43.2313 Y51.2985 F350.00
G01 X43.3294 Y51.2937 F350.00
G01 X43.3600 Y51.2918 F350.00
G01 X43.3905 Y51.2892 F350.00
G01 X43.4210 Y51.2858 F350.00
G01 X43.4514 Y51.2817 F350.00
G01 X43.5485 Y51.2673 F350.00
G01 X43.5788 Y51.2624 F350.00
G01 X43.6090 Y51.2568 F350.00
G01 X43.6390 Y51.2504 F350.00
G01 X43.6688 Y51.2433 F350.00
G01 X43.7640 Y51.2195 F350.00
G01 X43.7937 Y51.2117 F350.00
G01 X43.8231 Y51.2031 F350.00
G01 X43.8524 Y51.1939 F350.00
G01 X43.8814 Y51.1839 F350.00
G01 X43.9738 Y51.1508 F350.00
G01 X44.0026 Y51.1401 F350.00
G01 X44.0310 Y51.1287 F350.00
G01 X44.0592 Y51.1166 F350.00
G01 X44.0871 Y51.1039 F350.00
G01 X44.1758 Y51.0619 F350.00
G01 X44.2034 Y51.0485 F350.00
G01 X44.2306 Y51.0343 F350.00
G01 X44.2575 Y51.0195 F350.00
G01 X44.2840 Y51.0041 F350.00
G01 X44.3682 Y50.9536 F350.00
G01 X44.3943 Y50.9375 F350.00
G01 X44.4200 Y50.9208 F350.00
G01 X44.4453 Y50.9035 F350.00
G01 X44.4702 Y50.8855 F350.00
G01 X44.5490 Y50.8270 F350.00
G01 X44.5734 Y50.8084 F350.00
G01 X44.5974 Y50.7893 F350.00
G01 X44.6209 Y50.7695 F350.00
G01 X44.6438 Y50.7492 F350.00
G01 X44.7166 Y50.6833 F350.00
G01 X44.7390 Y50.6624 F350.00
G01 X44.7610 Y50.6410 F350.00
G01 X44.7824 Y50.6190 F350.00
G01 X44.8033 Y50.5966 F350.00
G01 X44.8692 Y50.5238 F350.00
G01 X44.8895 Y50.5009 F350.00
G01 X44.9093 Y50.4774 F350.00
G01 X44.9284 Y50.4534 F350.00
G01 X44.9470 Y50.4290 F350.00
G01 X45.0055 Y50.3502 F350.00
G01 X45.0235 Y50.3253 F350.00
G01 X45.0408 Y50.3000 F350.00
G01 X45.0575 Y50.2743 F350.00
G01 X45.0736 Y50.2482 F350.00
G01 X45.1241 Y50.1640 F350.00
G01 X45.1395 Y50.1375 F350.00
G01 X45.1543 Y50.1106 F350.00
G01 X45.1685 Y50.0834 F350.00
G01 X45.1819 Y50.0558 F350.00
G01 X45.2239 Y49.9671 F350.00
G01 X45.2366 Y49.9392 F350.00
G01 X45.2487 Y49.9110 F350.00
G01 X45.2601 Y49.8826 F350.00
G01 X45.2708 Y49.8538 F350.00
G01 X45.3039 Y49.7614 F350.00
G01 X45.3139 Y49.7324 F350.00
G01 X45.3231 Y49.7031 F350.00
G01 X45.3317 Y49.6737 F350.00
G01 X45.3395 Y49.6440 F350.00
G01 X45.3633 Y49.5488 F350.00
G01 X45.3704 Y49.5190 F350.00
G01 X45.3768 Y49.4890 F350.00
G01 X45.3824 Y49.4588 F350.00
G01 X45.3873 Y49.4285 F350.00
G01 X45.4017 Y49.3314 F350.00
G01 X45.4058 Y49.3010 F350.00
G01 X45.4092 Y49.2705 F350.00
G01 X45.4118 Y49.2400 F350.00
G01 X45.4137 Y49.2094 F350.00
G01 X45.4185 Y49.1113 F350.00
G01 X45.4196 Y49.0807 F350.00
G01 X45.4200 Y49.0500 F350.00
G01 X45.4196 Y49.0193 F350.00
G01 X45.4185 Y48.9887 F350.00
G01 X45.4137 Y48.8906 F350.00
G01 X45.4118 Y48.8600 F350.00
G01 X45.4092 Y48.8295 F350.00
G01 X45.4058 Y48.7990 F350.00
G01 X45.4017 Y48.7686 F350.00
G01 X45.3873 Y48.6715 F350.00
G01 X45.3824 Y48.6412 F350.00
G01 X45.3768 Y48.6110 F350.00
G01 X45.3704 Y48.5810 F350.00
G01 X45.3633 Y48.5512 F350.00
G01 X45.3395 Y48.4560 F350.00
G01 X45.3317 Y48.4263 F350.00
G01 X45.3231 Y48.3969 F350.00
G01 X45.3139 Y48.3676 F350.00
G01 X45.3039 Y48.3386 F350.00
G01 X45.2708 Y48.2462 F350.00
G01 X45.2601 Y48.2174 F350.00
G01 X45.2487 Y48.1890 F350.00
G01 X45.2366 Y48.1608 F350.00
G01 X45.2239 Y48.1329 F350.00
G01 X45.1819 Y48.0442 F350.00
G01 X45.1685 Y48.0166 F350.00
G01 X45.1543 Y47.9894 F350.00
G01 X45.1395 Y47.9625 F350.00
G01 X45.1241 Y47.9360 F350.00
G01 X45.0787 Y47.8602 F350.00
G01 X51.4213 Y47.8602 F350.00
G01 X51.3759 Y47.9360 F350.00
G01 X51.3605 Y47.9625 F350.00
G01 X51.3457 Y47.9894 F350.00
G01 X51.3315 Y48.0166 F350.00
G01 X51.3181 Y48.0442 F350.00
G01 X51.2761 Y48.1329 F350.00
G01 X51.2634 Y48.1608 F350.00
G01 X51.2513 Y48.1890 F350.00
G01 X51.2399 Y48.2174 F350.00
G01 X51.2292 Y48.2462 F350.00
G01 X51.1961 Y48.3386 F350.00
G01 X51.1861 Y48.3676 F350.00
G01 X51.1769 Y48.3969 F350.00
G01 X51.1683 Y48.4263 F350.00
G01 X51.1605 Y48.4560 F350.00
G01 X51.1367 Y48.5512 F350.00
G01 X51.1296 Y48.5810 F350.00
G01 X51.1232 Y48.6110 F350.00
G01 X51.1176 Y48.6412 F350.00
G01 X51.1127 Y48.6715 F350.00
G01 X51.0983 Y48.7686 F350.00
G01 X51.0942 Y48.7990 F350.00
G01 X51.0908 Y48.8295 F350.00
G01 X51.0882 Y48.8600 F350.00
G01 X51.0863 Y48.8906 F350.00
G01 X51.0815 Y48.9887 F350.00
G01 X51.0804 Y49.0193 F350.00
G01 X51.0800 Y49.0500 F350.00
G01 X51.0804 Y49.0807 F350.00
G01 X51.0815 Y49.1113 F350.00
G01 X51.0863 Y49.2094 F350.00
G01 X51.0882 Y49.2400 F350.00
G01 X51.0908 Y49.2705 F350.00
G01 X51.0942 Y49.3010 F350.00
G01 X51.0983 Y49.3314 F350.00
G01 X51.1127 Y49.4285 F350.00
G01 X51.1176 Y49.4588 F350.00
G01 X51.1232 Y49.4890 F350.00
G01 X51.1296 Y49.5190 F350.00
G01 X51.1367 Y49.5488 F350.00
G01 X51.1605 Y49.6440 F350.00
G01 X51.1683 Y49.6737 F350.00
G01 X51.1769 Y49.7031 F350.00
G01 X51.1861 Y49.7324 F350.00
G01 X51.1961 Y49.7614 F350.00
G01 X51.2292 Y49.8538 F350.00
G01 X51.2399 Y49.8826 F350.00
G01 X51.2513 Y49.9110 F350.00
G01 X51.2634 Y49.9392 F350.00
G01 X51.2761 Y49.9671 F350.00
G01 X51.3181 Y50.0558 F350.00
G01 X51.3315 Y50.0834 F350.00
G01 X51.3457 Y50.1106 F350.00
G01 X51.3605 Y50.1375 F350.00
G01 X51.3759 Y50.1640 F350.00
G01 X51.4264 Y50.2482 F350.00
G01 X51.4425 Y50.2743 F350.00
G01 X51.4592 Y50.3000 F350.00
G01 X51.4765 Y50.3253 F350.00
G01 X51.4945 Y50.3502 F350.00
G01 X51.5530 Y50.4290 F350.00
G01 X51.5716 Y50.4534 F350.00
G01 X51.5907 Y50.4774 F350.00
G01 X51.6105 Y50.5009 F350.00
G01 X51.6308 Y50.5238 F350.00
G01 X51.6967 Y50.5966 F350.00
G01 X51.7176 Y50.6190 F350.00
G01 X51.7390 Y50.6410 F350.00
G01 X51.7610 Y50.6624 F350.00
G01 X51.7834 Y50.6833 F350.00
G01 X51.8562 Y50.7492 F350.00
G01 X51.8791 Y50.7695 F350.00
G01 X51.9026 Y50.7893 F350.00
G01 X51.9266 Y50.8084 F350.00
G01 X51.9510 Y50.8270 F350.00
G01 X52.0298 Y50.8855 F350.00
G01 X52.0547 Y50.9035 F350.00
G01 X52.0800 Y50.9208 F350.00
G01 X52.1057 Y50.9375 F350.00
G01 X52.1318 Y50.9536 F350.00
G01 X52.2160 Y51.0041 F350.00
G01 X52.2425 Y51.0195 F350.00
G01 X52.2694 Y51.0343 F350.00
G01 X52.2966 Y51.0485 F350.00
G01 X52.3242 Y51.0619 F350.00
G01 X52.4129 Y51.1039 F350.00
G01 X52.4408 Y51.1166 F350.00
G01 X52.4690 Y51.1287 F350.00
G01 X52.4974 Y51.1401 F350.00
G01 X52.5262 Y51.1508 F350.00
G01 X52.6186 Y51.1839 F350.00
G01 X52.6476 Y51.1939 F350.00
G01 X52.6769 Y51.2031 F350.00
G01 X52.7063 Y51.2117 F350.00
G01 X52.7360 Y51.2195 F350.00
G01 X52.8312 Y51.2433 F350.00
G01 X52.8610 Y51.2504 F350.00
G01 X52.8910 Y51.2568 F350.00
G01 X52.9212 Y51.2624 F350.00
G01 X52.9515 Y51.2673 F350.00
G01 X53.0486 Y51.2817 F350.00
G01 X53.0790 Y51.2858 F350.00
G01 X53.1095 Y51.2892 F350.00
G01 X53.1400 Y51.2918 F350.00
G01 X53.1706 Y51.2937 F350.00
G01 X53.2687 Y51.2985 F350.00
G01 X53.2993 Y51.2996 F350.00
G01 X53.3300 Y51.3000 F350.00
G01 X53.3607 Y51.2996 F350.00
G01 X53.3913 Y51.2985 F350.00
G01 X53.4894 Y51.2937 F350.00
G01 X53.5200 Y51.2918 F350.00
G01 X53.5505 Y51.2892 F350.00
G01 X53.5810 Y51.2858 F350.00
G01 X53.6114 Y51.2817 F350.00
G01 X53.7085 Y51.2673 F350.00
G01 X53.7388 Y51.2624 F350.00
G01 X53.7690 Y51.2568 F350.00
G01 X53.7990 Y51.2504 F350.00
G01 X53.8288 Y51.2433 F350.00
G01 X53.9240 Y51.2195 F350.00
G01 X53.9537 Y51.2117 F350.00
G01 X53.9831 Y51.2031 F350.00
G01 X54.0124 Y51.1939 F350.00
G01 X54.0414 Y51.1839 F350.00
G01 X54.1338 Y51.1508 F350.00
G01 X54.1626 Y51.1401 F350.00
G01 X54.1910 Y51.1287 F350.00
G01 X54.2192 Y51.1166 F350.00
G01 X54.2471 Y51.1039 F350.00
G01 X54.3358 Y51.0619 F350.00
G01 X54.3634 Y51.0485 F350.00
G01 X54.3906 Y51.0343 F350.00
G01 X54.4175 Y51.0195 F350.00
G01 X54.4440 Y51.0041 F350.00
G01 X54.5282 Y50.9536 F350.00
G01 X54.5543 Y50.9375 F350.00
G01 X54.5800 Y50.9208 F350.00
G01 X54.6053 Y50.9035 F350.00
G01 X54.6302 Y50.8855 F350.00
G01 X54.7090 Y50.8270 F350.00
G01 X54.7334 Y50.8084 F350.00
G01 X54.7574 Y50.7893 F350.00
G01 X54.7809 Y50.7695 F350.00
G01 X54.8038 Y50.7492 F350.00
G01 X54.8766 Y50.6833 F350.00
G01 X54.8990 Y50.6624 F350.00
G01 X54.9210 Y50.6410 F350.00
G01 X54.9424 Y50.6190 F350.00
G01 X54.9633 Y50.5966 F350.00
G01 X55.0292 Y50.5238 F350.00
G01 X55.0495 Y50.5009 F350.00
G01 X55.0693 Y50.4774 F350.00
G01 X55.0884 Y50.4534 F350.00
G01 X55.1070 Y50.4290 F350.00
G01 X55.1655 Y50.3502 F350.00
G01 X55.1835 Y50.3253 F350.00
G01 X55.2008 Y50.3000 F350.00
G01 X55.2175 Y50.2743 F350.00
G01 X55.2336 Y50.2482 F350.00
G01 X55.2841 Y50.1640 F350.00
G01 X55.2995 Y50.1375 F350.00
G01 X55.3143 Y50.1106 F350.00
G01 X55.3285 Y50.0834 F350.00
G01 X55.3419 Y50.0558 F350.00
G01 X55.3839 Y49.9671 F350.00
G01 X55.3966 Y49.9392 F350.00
G01 X55.4087 Y49.9110 F350.00
G01 X55.4201 Y49.8826 F350.00
G01 X55.4308 Y49.8538 F350.00
G01 X55.4639 Y49.7614 F350.00
G01 X55.4739 Y49.7324 F350.00
G01 X55.4831 Y49.7031 F350.00
G01 X55.4917 Y49.6737 F350.00
G01 X55.4995 Y49.6440 F350.00
G01 X55.5233 Y49.5488 F350.00
G01 X55.5304 Y49.5190 F350.00
G01 X55.5368 Y49.4890 F350.00
G01 X55.5424 Y49.4588 F350.00
G01 X55.5473 Y49.4285 F350.00
G01 X55.5617 Y49.3314 F350.00
G01 X55.5658 Y49.3010 F350.00
G01 X55.5692 Y49.2705 F350.00
G01 X55.5718 Y49.2400 F350.00
G01 X55.5737 Y49.2094 F350.00
G01 X55.5785 Y49.1113 F350.00
G01 X55.5796 Y49.0807 F350.00
G01 X55.5800 Y49.0500 F350.00
G01 X55.5796 Y49.0193 F350.00
G01 X55.5785 Y48.9887 F350.00
G01 X55.5737 Y48.8906 F350.00
G01 X55.5718 Y48.8600 F350.00
G01 X55.5692 Y48.8295 F350.00
G01 X55.5658 Y48.7990 F350.00
G01 X55.5617 Y48.7686 F350.00
G01 X55.5473 Y48.6715 F350.00
G01 X55.5424 Y48.6412 F350.00
G01 X55.5368 Y48.6110 F350.00
G01 X55.5304 Y48.5810 F350.00
G01 X55.5233 Y48.5512 F350.00
G01 X55.4995 Y48.4560 F350.00
G01 X55.4917 Y48.4263 F350.00
G01 X55.4831 Y48.3969 F350.00
G01 X55.4739 Y48.3676 F350.00
G01 X55.4639 Y48.3386 F350.00
G01 X55.4308 Y48.2462 F350.00
G01 X55.4201 Y48.2174 F350.00
G01 X55.4087 Y48.1890 F350.00
G01 X55.3966 Y48.1608 F350.00
G01 X55.3839 Y48.1329 F350.00
G01 X55.3419 Y48.0442 F350.00
G01 X55.3285 Y48.0166 F350.00
G01 X55.3143 Y47.9894 F350.00
G01 X55.2995 Y47.9625 F350.00
G01 X55.2841 Y47.9360 F350.00
G01 X55.2387 Y47.8602 F350.00
G01 X76.7750 Y47.8602 F350.00
G01 X85.4653 Y56.5505 F350.00
G01 X85.4387 Y56.5515 F350.00
G01 X85.3406 Y56.5563 F350.00
G01 X85.3100 Y56.5582 F350.00
G01 X85.2795 Y56.5608 F350.00
G01 X85.2490 Y56.5642 F350.00
G01 X85.2186 Y56.5683 F350.00
G01 X85.1215 Y56.5827 F350.00
G01 X85.0912 Y56.5876 F350.00
G01 X85.0610 Y56.5932 F350.00
G01 X85.0310 Y56.5996 F350.00
G01 X85.0012 Y56.6067 F350.00
G01 X84.9060 Y56.6305 F350.00
G01 X84.8763 Y56.6383 F350.00
G01 X84.8469 Y56.6469 F350.00
G01 X84.8176 Y56.6561 F350.00
G01 X84.7886 Y56.6661 F350.00
G01 X84.6962 Y56.6992 F350.00
G01 X84.6674 Y56.7099 F350.00
G01 X84.6390 Y56.7213 F350.00
G01 X84.6108 Y56.7334 F350.00
G01 X84.5829 Y56.7461 F350.00
G01 X84.4942 Y56.7881 F350.00
G01 X84.4666 Y56.8015 F350.00
G01 X84.4394 Y56.8157 F350.00
G01 X84.4125 Y56.8305 F350.00
G01 X84.3860 Y56.8459 F350.00
G01 X84.3018 Y56.8964 F350.00
G01 X84.2757 Y56.9125 F350.00
G01 X84.2500 Y56.9292 F350.00
G01 X84.2247 Y56.9465 F350.00
G01 X84.1998 Y56.9645 F350.00
G01 X84.1210 Y57.0230 F350.00
G01 X84.0966 Y57.0416 F350.00
G01 X84.0726 Y57.0607 F350.00
G01 X84.0491 Y57.0805 F350.00
G01 X84.0262 Y57.1008 F350.00
G01 X83.9534 Y57.1667 F350.00
G01 X83.9310 Y57.1876 F350.00
G01 X83.9090 Y57.2090 F350.00
G01 X83.8876 Y57.2310 F350.00
G01 X83.8667 Y57.2534 F350.00
G01 X83.8008 Y57.3262 F350.00
G01 X83.7805 Y57.3491 F350.00
G01 X83.7607 Y57.3726 F350.00
G01 X83.7416 Y57.3966 F350.00
G01 X83.7230 Y57.4210 F350.00
G01 X83.6645 Y57.4998 F350.00
G01 X83.6465 Y57.5247 F350.00
G01 X83.6292 Y57.5500 F350.00
G01 X83.6125 Y57.5757 F350.00
G01 X83.5964 Y57.6018 F350.00
G01 X83.5459 Y57.6860 F350.00
G01 X83.5305 Y57.7125 F350.00
G01 X83.5157 Y57.7394 F350.00
G01 X83.5015 Y57.7666 F350.00
G01 X83.4881 Y57.7942 F350.00
G01 X83.4461 Y57.8829 F350.00
G01 X83.4334 Y57.9108 F350.00
G01 X83.4213 Y57.9390 F350.00
G01 X83.4099 Y57.9674 F350.00
G01 X83.3992 Y57.9962 F350.00
G01 X83.3661 Y58.0886 F350.00
G01 X83.3561 Y58.1176 F350.00
G01 X83.3469 Y58.1469 F350.00
G01 X83.3383 Y58.1763 F350.00
G01 X83.3305 Y58.2060 F350.00
G01 X83.3067 Y58.3012 F350.00
G01 X83.2996 Y58.3310 F350.00
G01 X83.2932 Y58.3610 F350.00
G01 X83.2876 Y58.3912 F350.00
G01 X83.2827 Y58.4215 F350.00
G01 X83.2683 Y58.5186 F350.00
G01 X83.2642 Y58.5490 F350.00
G01 X83.2608 Y58.5795 F350.00
G01 X83.2582 Y58.6100 F350.00
G01 X83.2563 Y58.6406 F350.00
G01 X83.2515 Y58.7387 F350.00
G01 X83.2504 Y58.7693 F350.00
G01 X83.2500 Y58.8000 F350.00
G01 X83.2500 Y59.5748 F350.00
G01 X82.7624 Y60.0624 F350.00
G01 X82.7410 Y60.0843 F350.00
G01 X82.7201 Y60.1068 F350.00
G01 X82.6668 Y60.1662 F350.00
G01 X82.6470 Y60.1897 F350.00
G01 X82.6279 Y60.2136 F350.00
G01 X82.5800 Y60.2775 F350.00
G01 X82.5621 Y60.3023 F350.00
G01 X82.5447 Y60.3276 F350.00
G01 X82.5280 Y60.3533 F350.00
G01 X82.5119 Y60.3794 F350.00
G01 X82.4712 Y60.4481 F350.00
G01 X82.4564 Y60.4749 F350.00
G01 X82.4423 Y60.5022 F350.00
G01 X82.4078 Y60.5741 F350.00
G01 X82.3951 Y60.6020 F350.00
G01 X82.3830 Y60.6302 F350.00
G01 X82.3716 Y60.6587 F350.00
G01 X82.3609 Y60.6875 F350.00
G01 X82.3344 Y60.7627 F350.00
G01 X82.3251 Y60.7919 F350.00
G01 X82.3166 Y60.8214 F350.00
G01 X82.2968 Y60.8987 F350.00
G01 X82.2897 Y60.9285 F350.00
G01 X82.2834 Y60.9585 F350.00
G01 X82.2778 Y60.9887 F350.00
G01 X82.2729 Y61.0190 F350.00
G01 X82.2616 Y61.0980 F350.00
G01 X82.2582 Y61.1284 F350.00
G01 X82.2555 Y61.1590 F350.00
G01 X82.2537 Y61.1896 F350.00
G01 X82.2501 Y61.2693 F350.00
G01 X82.2498 Y61.3000 F350.00
G01 X82.2498 Y61.4527 F350.00
G01 X82.2189 Y61.4726 F350.00
G01 X82.1936 Y61.4900 F350.00
G01 X82.1398 Y61.5294 F350.00
G01 X82.1154 Y61.5480 F350.00
G01 X82.0914 Y61.5672 F350.00
G01 X82.0679 Y61.5869 F350.00
G01 X82.0450 Y61.6073 F350.00
G01 X81.9958 Y61.6524 F350.00
G01 X81.9738 Y61.6738 F350.00
G01 X81.9524 Y61.6958 F350.00
G01 X81.9073 Y61.7450 F350.00
G01 X81.8869 Y61.7679 F350.00
G01 X81.8672 Y61.7914 F350.00
G01 X81.8480 Y61.8154 F350.00
G01 X81.8080 Y61.8688 F350.00
G01 X81.7900 Y61.8936 F350.00
G01 X81.7726 Y61.9189 F350.00
G01 X81.7559 Y61.9446 F350.00
G01 X81.7398 Y61.9708 F350.00
G01 X81.7058 Y62.0282 F350.00
G01 X81.6910 Y62.0551 F350.00
G01 X81.6769 Y62.0823 F350.00
G01 X81.6480 Y62.1425 F350.00
G01 X81.6352 Y62.1704 F350.00
G01 X81.6231 Y62.1986 F350.00
G01 X81.6117 Y62.2271 F350.00
G01 X81.6011 Y62.2558 F350.00
G01 X81.5789 Y62.3188 F350.00
G01 X81.5697 Y62.3481 F350.00
G01 X81.5611 Y62.3775 F350.00
G01 X81.5445 Y62.4422 F350.00
G01 X81.5374 Y62.4720 F350.00
G01 X81.5311 Y62.5021 F350.00
G01 X81.5255 Y62.5322 F350.00
G01 X81.5206 Y62.5625 F350.00
G01 X81.5112 Y62.6286 F350.00
G01 X81.5078 Y62.6591 F350.00
G01 X81.5052 Y62.6897 F350.00
G01 X81.5033 Y62.7203 F350.00
G01 X81.5004 Y62.7870 F350.00
G01 X81.5000 Y62.8176 F350.00
G01 X81.5000 Y64.5824 F350.00
G01 X81.5004 Y64.6130 F350.00
G01 X81.5015 Y64.6437 F350.00
G01 X81.5052 Y64.7103 F350.00
G01 X81.5078 Y64.7409 F350.00
G01 X81.5112 Y64.7714 F350.00
G01 X81.5153 Y64.8018 F350.00
G01 X81.5255 Y64.8678 F350.00
G01 X81.5311 Y64.8979 F350.00
G01 X81.5374 Y64.9280 F350.00
G01 X81.5533 Y64.9928 F350.00
G01 X81.5611 Y65.0225 F350.00
G01 X81.5697 Y65.0519 F350.00
G01 X81.5789 Y65.0812 F350.00
G01 X81.5889 Y65.1102 F350.00
G01 X81.6117 Y65.1729 F350.00
G01 X81.6231 Y65.2014 F350.00
G01 X81.6352 Y65.2296 F350.00
G01 X81.6634 Y65.2901 F350.00
G01 X81.6769 Y65.3177 F350.00
G01 X81.6910 Y65.3449 F350.00
G01 X81.7058 Y65.3718 F350.00
G01 X81.7213 Y65.3983 F350.00
G01 X81.7559 Y65.4554 F350.00
G01 X81.7726 Y65.4811 F350.00
G01 X81.7900 Y65.5064 F350.00
G01 X81.8080 Y65.5312 F350.00
G01 X81.8480 Y65.5846 F350.00
G01 X81.8672 Y65.6086 F350.00
G01 X81.8869 Y65.6321 F350.00
G01 X81.9315 Y65.6818 F350.00
G01 X81.9524 Y65.7042 F350.00
G01 X81.9738 Y65.7262 F350.00
G01 X81.9958 Y65.7476 F350.00
G01 X82.0182 Y65.7685 F350.00
G01 X82.0679 Y65.8131 F350.00
G01 X82.0914 Y65.8328 F350.00
G01 X82.1126 Y65.8497 F350.00
G01 X69.4045 Y65.8497 F350.00
G01 X69.4124 Y65.8088 F350.00
G01 X69.4173 Y65.7785 F350.00
G01 X69.4317 Y65.6814 F350.00
G01 X69.4358 Y65.6510 F350.00
G01 X69.4392 Y65.6205 F350.00
G01 X69.4418 Y65.5900 F350.00
G01 X69.4437 Y65.5594 F350.00
G01 X69.4485 Y65.4613 F350.00
G01 X69.4496 Y65.4307 F350.00
G01 X69.4500 Y65.4000 F350.00
G01 X69.4496 Y65.3693 F350.00
G01 X69.4485 Y65.3387 F350.00
G01 X69.4437 Y65.2406 F350.00
G01 X69.4418 Y65.2100 F350.00
G01 X69.4392 Y65.1795 F350.00
G01 X69.4358 Y65.1490 F350.00
G01 X69.4317 Y65.1186 F350.00
G01 X69.4173 Y65.0215 F350.00
G01 X69.4124 Y64.9912 F350.00
G01 X69.4068 Y64.9610 F350.00
G01 X69.4004 Y64.9310 F350.00
G01 X69.3933 Y64.9012 F350.00
G01 X69.3695 Y64.8060 F350.00
G01 X69.3617 Y64.7763 F350.00
G01 X69.3531 Y64.7469 F350.00
G01 X69.3439 Y64.7176 F350.00
G01 X69.3339 Y64.6886 F350.00
G01 X69.3008 Y64.5962 F350.00
G01 X69.2901 Y64.5674 F350.00
G01 X69.2787 Y64.5390 F350.00
G01 X69.2666 Y64.5108 F350.00
G01 X69.2539 Y64.4829 F350.00
G01 X69.2119 Y64.3942 F350.00
G01 X69.1985 Y64.3666 F350.00
G01 X69.1843 Y64.3394 F350.00
G01 X69.1695 Y64.3125 F350.00
G01 X69.1541 Y64.2860 F350.00
G01 X69.1036 Y64.2018 F350.00
G01 X69.0875 Y64.1757 F350.00
G01 X69.0708 Y64.1500 F350.00
G01 X69.0535 Y64.1247 F350.00
G01 X69.0355 Y64.0998 F350.00
G01 X68.9770 Y64.0210 F350.00
G01 X68.9584 Y63.9966 F350.00
G01 X68.9393 Y63.9726 F350.00
G01 X68.9195 Y63.9491 F350.00
G01 X68.8992 Y63.9262 F350.00
G01 X68.8333 Y63.8534 F350.00
G01 X68.8124 Y63.8310 F350.00
G01 X68.7910 Y63.8090 F350.00
G01 X68.7690 Y63.7876 F350.00
G01 X68.7466 Y63.7667 F350.00
G01 X68.6738 Y63.7008 F350.00
G01 X68.6509 Y63.6805 F350.00
G01 X68.6274 Y63.6607 F350.00
G01 X68.6034 Y63.6416 F350.00
G01 X68.5790 Y63.6230 F350.00
G01 X68.5002 Y63.5645 F350.00
G01 X68.4753 Y63.5465 F350.00
G01 X68.4500 Y63.5292 F350.00
G01 X68.4243 Y63.5125 F350.00
G01 X68.3982 Y63.4964 F350.00
G01 X68.3140 Y63.4459 F350.00
G01 X68.2875 Y63.4305 F350.00
G01 X68.2606 Y63.4157 F350.00
G01 X68.2334 Y63.4015 F350.00
G01 X68.2058 Y63.3881 F350.00
G01 X68.1171 Y63.3461 F350.00
G01 X68.0892 Y63.3334 F350.00
G01 X68.0610 Y63.3213 F350.00
G01 X68.0326 Y63.3099 F350.00
G01 X68.0038 Y63.2992 F350.00
G01 X67.9114 Y63.2661 F350.00
G01 X67.8824 Y63.2561 F350.00
G01 X67.8531 Y63.2469 F350.00
G01 X67.8237 Y63.2383 F350.00
G01 X67.7940 Y63.2305 F350.00
G01 X67.6988 Y63.2067 F350.00
G01 X67.6690 Y63.1996 F350.00
G01 X67.6390 Y63.1932 F350.00
G01 X67.6088 Y63.1876 F350.00
G01 X67.5785 Y63.1827 F350.00
G01 X67.4814 Y63.1683 F350.00
G01 X67.4510 Y63.1642 F350.00
G01 X67.4205 Y63.1608 F350.00
G01 X67.3900 Y63.1582 F350.00
G01 X67.3594 Y63.1563 F350.00
G01 X67.2613 Y63.1515 F350.00
G01 X67.2307 Y63.1504 F350.00
G01 X67.2000 Y63.1500 F350.00
G01 X66.2000 Y63.1500 F350.00
G01 X66.1693 Y63.1504 F350.00
G01 X66.1387 Y63.1515 F350.00
G01 X66.0406 Y63.1563 F350.00
G01 X66.0100 Y63.1582 F350.00
G01 X65.9795 Y63.1608 F350.00
G01 X65.9490 Y63.1642 F350.00
G01 X65.9186 Y63.1683 F350.00
G01 X65.8215 Y63.1827 F350.00
G01 X65.7912 Y63.1876 F350.00
G01 X65.7610 Y63.1932 F350.00
G01 X65.7310 Y63.1996 F350.00
G01 X65.7012 Y63.2067 F350.00
G01 X65.6060 Y63.2305 F350.00
G01 X65.5763 Y63.2383 F350.00
G01 X65.5469 Y63.2469 F350.00
G01 X65.5176 Y63.2561 F350.00
G01 X65.4886 Y63.2661 F350.00
G01 X65.3962 Y63.2992 F350.00
G01 X65.3674 Y63.3099 F350.00
G01 X65.3390 Y63.3213 F350.00
G01 X65.3108 Y63.3334 F350.00
G01 X65.2829 Y63.3461 F350.00
G01 X65.1942 Y63.3881 F350.00
G01 X65.1666 Y63.4015 F350.00
G01 X65.1394 Y63.4157 F350.00
G01 X65.1125 Y63.4305 F350.00
G01 X65.0860 Y63.4459 F350.00
G01 X65.0018 Y63.4964 F350.00
G01 X64.9757 Y63.5125 F350.00
G01 X64.9500 Y63.5292 F350.00
G01 X64.9247 Y63.5465 F350.00
G01 X64.8998 Y63.5645 F350.00
G01 X64.8210 Y63.6230 F350.00
G01 X64.7966 Y63.6416 F350.00
G01 X64.7726 Y63.6607 F350.00
G01 X64.7491 Y63.6805 F350.00
G01 X64.7262 Y63.7008 F350.00
G01 X64.6534 Y63.7667 F350.00
G01 X64.6310 Y63.7876 F350.00
G01 X64.6090 Y63.8090 F350.00
G01 X64.5876 Y63.8310 F350.00
G01 X64.5667 Y63.8534 F350.00
G01 X64.5008 Y63.9262 F350.00
G01 X64.4805 Y63.9491 F350.00
G01 X64.4607 Y63.9726 F350.00
G01 X64.4416 Y63.9966 F350.00
G01 X64.4230 Y64.0210 F350.00
G01 X64.3645 Y64.0998 F350.00
G01 X64.3465 Y64.1247 F350.00
G01 X64.3292 Y64.1500 F350.00
G01 X64.3125 Y64.1757 F350.00
G01 X64.2964 Y64.2018 F350.00
G01 X64.2459 Y64.2860 F350.00
G01 X64.2305 Y64.3125 F350.00
G01 X64.2157 Y64.3394 F350.00
G01 X64.2015 Y64.3666 F350.00
G01 X64.1881 Y64.3942 F350.00
G01 X64.1461 Y64.4829 F350.00
G01 X64.1334 Y64.5108 F350.00
G01 X64.1213 Y64.5390 F350.00
G01 X64.1099 Y64.5674 F350.00
G01 X64.0992 Y64.5962 F350.00
G01 X64.0661 Y64.6886 F350.00
G01 X64.0561 Y64.7176 F350.00
G01 X64.0469 Y64.7469 F350.00
G01 X64.0383 Y64.7763 F350.00
G01 X64.0305 Y64.8060 F350.00
G01 X64.0067 Y64.9012 F350.00
G01 X63.9996 Y64.9310 F350.00
G01 X63.9932 Y64.9610 F350.00
G01 X63.9876 Y64.9912 F350.00
G01 X63.9827 Y65.0215 F350.00
G01 X63.9683 Y65.1186 F350.00
G01 X63.9642 Y65.1490 F350.00
G01 X63.9608 Y65.1795 F350.00
G01 X63.9582 Y65.2100 F350.00
G01 X63.9563 Y65.2406 F350.00
G01 X63.9515 Y65.3387 F350.00
G01 X63.9504 Y65.3693 F350.00
G01 X63.9500 Y65.4000 F350.00
G01 X63.9504 Y65.4307 F350.00
G01 X63.9515 Y65.4613 F350.00
G01 X63.9563 Y65.5594 F350.00
G01 X63.9582 Y65.5900 F350.00
G01 X63.9608 Y65.6205 F350.00
G01 X63.9642 Y65.6510 F350.00
G01 X63.9683 Y65.6814 F350.00
G01 X63.9827 Y65.7785 F350.00
G01 X63.9876 Y65.8088 F350.00
G01 X63.9955 Y65.8498 F350.00
G01 X59.2445 Y65.8498 F350.00
G01 X59.2524 Y65.8088 F350.00
G01 X59.2573 Y65.7785 F350.00
G01 X59.2717 Y65.6814 F350.00
G01 X59.2758 Y65.6510 F350.00
G01 X59.2792 Y65.6205 F350.00
G01 X59.2818 Y65.5900 F350.00
G01 X59.2837 Y65.5594 F350.00
G01 X59.2885 Y65.4613 F350.00
G01 X59.2896 Y65.4307 F350.00
G01 X59.2900 Y65.4000 F350.00
G01 X59.2896 Y65.3693 F350.00
G01 X59.2885 Y65.3387 F350.00
G01 X59.2837 Y65.2406 F350.00
G01 X59.2818 Y65.2100 F350.00
G01 X59.2792 Y65.1795 F350.00
G01 X59.2758 Y65.1490 F350.00
G01 X59.2717 Y65.1186 F350.00
G01 X59.2573 Y65.0215 F350.00
G01 X59.2524 Y64.9912 F350.00
G01 X59.2468 Y64.9610 F350.00
G01 X59.2404 Y64.9310 F350.00
G01 X59.2333 Y64.9012 F350.00
G01 X59.2095 Y64.8060 F350.00
G01 X59.2017 Y64.7763 F350.00
G01 X59.1931 Y64.7469 F350.00
G01 X59.1839 Y64.7176 F350.00
G01 X59.1739 Y64.6886 F350.00
G01 X59.1408 Y64.5962 F350.00
G01 X59.1301 Y64.5674 F350.00
G01 X59.1187 Y64.5390 F350.00
G01 X59.1066 Y64.5108 F350.00
G01 X59.0939 Y64.4829 F350.00
G01 X59.0519 Y64.3942 F350.00
G01 X59.0385 Y64.3666 F350.00
G01 X59.0243 Y64.3394 F350.00
G01 X59.0095 Y64.3125 F350.00
G01 X58.9941 Y64.2860 F350.00
G01 X58.9436 Y64.2018 F350.00
G01 X58.9275 Y64.1757 F350.00
G01 X58.9108 Y64.1500 F350.00
G01 X58.8935 Y64.1247 F350.00
G01 X58.8755 Y64.0998 F350.00
G01 X58.8170 Y64.0210 F350.00
G01 X58.7984 Y63.9966 F350.00
G01 X58.7793 Y63.9726 F350.00
G01 X58.7595 Y63.9491 F350.00
G01 X58.7392 Y63.9262 F350.00
G01 X58.6733 Y63.8534 F350.00
G01 X58.6524 Y63.8310 F350.00
G01 X58.6310 Y63.8090 F350.00
G01 X58.6004 Y63.7795 F350.00
G01 X58.6004 Y63.4194 F350.00
G01 X58.6162 Y63.4224 F350.00
G01 X58.6465 Y63.4273 F350.00
G01 X58.7436 Y63.4417 F350.00
G01 X58.7740 Y63.4458 F350.00
G01 X58.8045 Y63.4492 F350.00
G01 X58.8350 Y63.4518 F350.00
G01 X58.8656 Y63.4537 F350.00
G01 X58.9637 Y63.4585 F350.00
G01 X58.9943 Y63.4596 F350.00
G01 X59.0250 Y63.4600 F350.00
G01 X59.0557 Y63.4596 F350.00
G01 X59.0863 Y63.4585 F350.00
G01 X59.1844 Y63.4537 F350.00
G01 X59.2150 Y63.4518 F350.00
G01 X59.2455 Y63.4492 F350.00
G01 X59.2760 Y63.4458 F350.00
G01 X59.3064 Y63.4417 F350.00
G01 X59.4035 Y63.4273 F350.00
G01 X59.4338 Y63.4224 F350.00
G01 X59.4640 Y63.4168 F350.00
G01 X59.4940 Y63.4104 F350.00
G01 X59.5238 Y63.4033 F350.00
G01 X59.6190 Y63.3795 F350.00
G01 X59.6487 Y63.3717 F350.00
G01 X59.6781 Y63.3631 F350.00
G01 X59.7074 Y63.3539 F350.00
G01 X59.7364 Y63.3439 F350.00
G01 X59.8288 Y63.3108 F350.00
G01 X59.8576 Y63.3001 F350.00
G01 X59.8860 Y63.2887 F350.00
G01 X59.9142 Y63.2766 F350.00
G01 X59.9421 Y63.2639 F350.00
G01 X60.0308 Y63.2219 F350.00
G01 X60.0584 Y63.2085 F350.00
G01 X60.0856 Y63.1943 F350.00
G01 X60.1125 Y63.1795 F350.00
G01 X60.1390 Y63.1641 F350.00
G01 X60.2232 Y63.1136 F350.00
G01 X60.2493 Y63.0975 F350.00
G01 X60.2750 Y63.0808 F350.00
G01 X60.3003 Y63.0635 F350.00
G01 X60.3252 Y63.0455 F350.00
G01 X60.4040 Y62.9870 F350.00
G01 X60.4284 Y62.9684 F350.00
G01 X60.4524 Y62.9493 F350.00
G01 X60.4759 Y62.9295 F350.00
G01 X60.4988 Y62.9092 F350.00
G01 X60.5716 Y62.8433 F350.00
G01 X60.5940 Y62.8224 F350.00
G01 X60.6160 Y62.8010 F350.00
G01 X60.6374 Y62.7790 F350.00
G01 X60.6583 Y62.7566 F350.00
G01 X60.7242 Y62.6838 F350.00
G01 X60.7445 Y62.6609 F350.00
G01 X60.7643 Y62.6374 F350.00
G01 X60.7834 Y62.6134 F350.00
G01 X60.8020 Y62.5890 F350.00
G01 X60.8605 Y62.5102 F350.00
G01 X60.8785 Y62.4853 F350.00
G01 X60.8958 Y62.4600 F350.00
G01 X60.9125 Y62.4343 F350.00
G01 X60.9493 Y62.3738 F350.00
G01 X61.0662 Y62.4033 F350.00
G01 X61.0960 Y62.4104 F350.00
G01 X61.1260 Y62.4168 F350.00
G01 X61.1562 Y62.4224 F350.00
G01 X61.1865 Y62.4273 F350.00
G01 X61.2836 Y62.4417 F350.00
G01 X61.3140 Y62.4458 F350.00
G01 X61.3445 Y62.4492 F350.00
G01 X61.3750 Y62.4518 F350.00
G01 X61.4056 Y62.4537 F350.00
G01 X61.5037 Y62.4585 F350.00
G01 X61.5343 Y62.4596 F350.00
G01 X61.5650 Y62.4600 F350.00
G01 X61.5957 Y62.4596 F350.00
G01 X61.6263 Y62.4585 F350.00
G01 X61.7244 Y62.4537 F350.00
G01 X61.7550 Y62.4518 F350.00
G01 X61.7855 Y62.4492 F350.00
G01 X61.8160 Y62.4458 F350.00
G01 X61.8464 Y62.4417 F350.00
G01 X61.9435 Y62.4273 F350.00
G01 X61.9738 Y62.4224 F350.00
G01 X62.0040 Y62.4168 F350.00
G01 X62.0340 Y62.4104 F350.00
G01 X62.0638 Y62.4033 F350.00
G01 X62.1590 Y62.3795 F350.00
G01 X62.1887 Y62.3717 F350.00
G01 X62.2181 Y62.3631 F350.00
G01 X62.2474 Y62.3539 F350.00
G01 X62.2764 Y62.3439 F350.00
G01 X62.3688 Y62.3108 F350.00
G01 X62.3976 Y62.3001 F350.00
G01 X62.4260 Y62.2887 F350.00
G01 X62.4542 Y62.2766 F350.00
G01 X62.4821 Y62.2639 F350.00
G01 X62.5708 Y62.2219 F350.00
G01 X62.5984 Y62.2085 F350.00
G01 X62.6256 Y62.1943 F350.00
G01 X62.6525 Y62.1795 F350.00
G01 X62.6790 Y62.1641 F350.00
G01 X62.7632 Y62.1136 F350.00
G01 X62.7893 Y62.0975 F350.00
G01 X62.8150 Y62.0808 F350.00
G01 X62.8350 Y62.0671 F350.00
G01 X62.8550 Y62.0808 F350.00
G01 X62.8807 Y62.0975 F350.00
G01 X62.9068 Y62.1136 F350.00
G01 X62.9910 Y62.1641 F350.00
G01 X63.0175 Y62.1795 F350.00
G01 X63.0444 Y62.1943 F350.00
G01 X63.0716 Y62.2085 F350.00
G01 X63.0992 Y62.2219 F350.00
G01 X63.1879 Y62.2639 F350.00
G01 X63.2158 Y62.2766 F350.00
G01 X63.2440 Y62.2887 F350.00
G01 X63.2724 Y62.3001 F350.00
G01 X63.3012 Y62.3108 F350.00
G01 X63.3936 Y62.3439 F350.00
G01 X63.4226 Y62.3539 F350.00
G01 X63.4519 Y62.3631 F350.00
G01 X63.4813 Y62.3717 F350.00
G01 X63.5110 Y62.3795 F350.00
G01 X63.6062 Y62.4033 F350.00
G01 X63.6360 Y62.4104 F350.00
G01 X63.6660 Y62.4168 F350.00
G01 X63.6962 Y62.4224 F350.00
G01 X63.7265 Y62.4273 F350.00
G01 X63.8236 Y62.4417 F350.00
G01 X63.8540 Y62.4458 F350.00
G01 X63.8845 Y62.4492 F350.00
G01 X63.9150 Y62.4518 F350.00
G01 X63.9456 Y62.4537 F350.00
G01 X64.0437 Y62.4585 F350.00
G01 X64.0743 Y62.4596 F350.00
G01 X64.1050 Y62.4600 F350.00
G01 X64.1357 Y62.4596 F350.00
G01 X64.1663 Y62.4585 F350.00
G01 X64.2644 Y62.4537 F350.00
G01 X64.2950 Y62.4518 F350.00
G01 X64.3255 Y62.4492 F350.00
G01 X64.3560 Y62.4458 F350.00
G01 X64.3864 Y62.4417 F350.00
G01 X64.4835 Y62.4273 F350.00
G01 X64.5138 Y62.4224 F350.00
G01 X64.5440 Y62.4168 F350.00
G01 X64.5740 Y62.4104 F350.00
G01 X64.6038 Y62.4033 F350.00
G01 X64.6990 Y62.3795 F350.00
G01 X64.7287 Y62.3717 F350.00
G01 X64.7581 Y62.3631 F350.00
G01 X64.7874 Y62.3539 F350.00
G01 X64.8164 Y62.3439 F350.00
G01 X64.9088 Y62.3108 F350.00
G01 X64.9376 Y62.3001 F350.00
G01 X64.9660 Y62.2887 F350.00
G01 X64.9942 Y62.2766 F350.00
G01 X65.0221 Y62.2639 F350.00
G01 X65.1108 Y62.2219 F350.00
G01 X65.1384 Y62.2085 F350.00
G01 X65.1656 Y62.1943 F350.00
G01 X65.1925 Y62.1795 F350.00
G01 X65.2190 Y62.1641 F350.00
G01 X65.3032 Y62.1136 F350.00
G01 X65.3293 Y62.0975 F350.00
G01 X65.3550 Y62.0808 F350.00
G01 X65.3750 Y62.0671 F350.00
G01 X65.3950 Y62.0808 F350.00
G01 X65.4207 Y62.0975 F350.00
G01 X65.4468 Y62.1136 F350.00
G01 X65.5310 Y62.1641 F350.00
G01 X65.5575 Y62.1795 F350.00
G01 X65.5844 Y62.1943 F350.00
G01 X65.6116 Y62.2085 F350.00
G01 X65.6392 Y62.2219 F350.00
G01 X65.7279 Y62.2639 F350.00
G01 X65.7558 Y62.2766 F350.00
G01 X65.7840 Y62.2887 F350.00
G01 X65.8124 Y62.3001 F350.00
G01 X65.8412 Y62.3108 F350.00
G01 X65.9336 Y62.3439 F350.00
G01 X65.9626 Y62.3539 F350.00
G01 X65.9919 Y62.3631 F350.00
G01 X66.0213 Y62.3717 F350.00
G01 X66.0510 Y62.3795 F350.00
G01 X66.1462 Y62.4033 F350.00
G01 X66.1760 Y62.4104 F350.00
G01 X66.2060 Y62.4168 F350.00
G01 X66.2362 Y62.4224 F350.00
G01 X66.2665 Y62.4273 F350.00
G01 X66.3636 Y62.4417 F350.00
G01 X66.3940 Y62.4458 F350.00
G01 X66.4245 Y62.4492 F350.00
G01 X66.4550 Y62.4518 F350.00
G01 X66.4856 Y62.4537 F350.00
G01 X66.5837 Y62.4585 F350.00
G01 X66.6143 Y62.4596 F350.00
G01 X66.6450 Y62.4600 F350.00
G01 X66.6757 Y62.4596 F350.00
G01 X66.7063 Y62.4585 F350.00
G01 X66.8044 Y62.4537 F350.00
G01 X66.8350 Y62.4518 F350.00
G01 X66.8655 Y62.4492 F350.00
G01 X66.8960 Y62.4458 F350.00
G01 X66.9264 Y62.4417 F350.00
G01 X67.0235 Y62.4273 F350.00
G01 X67.0538 Y62.4224 F350.00
G01 X67.0840 Y62.4168 F350.00
G01 X67.1140 Y62.4104 F350.00
G01 X67.1438 Y62.4033 F350.00
G01 X67.2390 Y62.3795 F350.00
G01 X67.2687 Y62.3717 F350.00
G01 X67.2981 Y62.3631 F350.00
G01 X67.3274 Y62.3539 F350.00
G01 X67.3564 Y62.3439 F350.00
G01 X67.4488 Y62.3108 F350.00
G01 X67.4776 Y62.3001 F350.00
G01 X67.5060 Y62.2887 F350.00
G01 X67.5342 Y62.2766 F350.00
G01 X67.5621 Y62.2639 F350.00
G01 X67.6508 Y62.2219 F350.00
G01 X67.6784 Y62.2085 F350.00
G01 X67.7056 Y62.1943 F350.00
G01 X67.7325 Y62.1795 F350.00
G01 X67.7590 Y62.1641 F350.00
G01 X67.8432 Y62.1136 F350.00
G01 X67.8693 Y62.0975 F350.00
G01 X67.8950 Y62.0808 F350.00
G01 X67.9150 Y62.0671 F350.00
G01 X67.9350 Y62.0808 F350.00
G01 X67.9607 Y62.0975 F350.00
G01 X67.9868 Y62.1136 F350.00
G01 X68.0710 Y62.1641 F350.00
G01 X68.0975 Y62.1795 F350.00
G01 X68.1244 Y62.1943 F350.00
G01 X68.1516 Y62.2085 F350.00
G01 X68.1792 Y62.2219 F350.00
G01 X68.2679 Y62.2639 F350.00
G01 X68.2958 Y62.2766 F350.00
G01 X68.3240 Y62.2887 F350.00
G01 X68.3524 Y62.3001 F350.00
G01 X68.3812 Y62.3108 F350.00
G01 X68.4736 Y62.3439 F350.00
G01 X68.5026 Y62.3539 F350.00
G01 X68.5319 Y62.3631 F350.00
G01 X68.5613 Y62.3717 F350.00
G01 X68.5910 Y62.3795 F350.00
G01 X68.6862 Y62.4033 F350.00
G01 X68.7160 Y62.4104 F350.00
G01 X68.7460 Y62.4168 F350.00
G01 X68.7762 Y62.4224 F350.00
G01 X68.8065 Y62.4273 F350.00
G01 X68.9036 Y62.4417 F350.00
G01 X68.9340 Y62.4458 F350.00
G01 X68.9645 Y62.4492 F350.00
G01 X68.9950 Y62.4518 F350.00
G01 X69.0256 Y62.4537 F350.00
G01 X69.1237 Y62.4585 F350.00
G01 X69.1543 Y62.4596 F350.00
G01 X69.1850 Y62.4600 F350.00
G01 X69.2157 Y62.4596 F350.00
G01 X69.2463 Y62.4585 F350.00
G01 X69.3444 Y62.4537 F350.00
G01 X69.3750 Y62.4518 F350.00
G01 X69.4055 Y62.4492 F350.00
G01 X69.4360 Y62.4458 F350.00
G01 X69.4664 Y62.4417 F350.00
G01 X69.5635 Y62.4273 F350.00
G01 X69.5938 Y62.4224 F350.00
G01 X69.6240 Y62.4168 F350.00
G01 X69.6540 Y62.4104 F350.00
G01 X69.6838 Y62.4033 F350.00
G01 X69.7790 Y62.3795 F350.00
G01 X69.8087 Y62.3717 F350.00
G01 X69.8381 Y62.3631 F350.00
G01 X69.8674 Y62.3539 F350.00
G01 X69.8964 Y62.3439 F350.00
G01 X69.9888 Y62.3108 F350.00
G01 X70.0176 Y62.3001 F350.00
G01 X70.0460 Y62.2887 F350.00
G01 X70.0742 Y62.2766 F350.00
G01 X70.1021 Y62.2639 F350.00
G01 X70.1908 Y62.2219 F350.00
G01 X70.2184 Y62.2085 F350.00
G01 X70.2456 Y62.1943 F350.00
G01 X70.2725 Y62.1795 F350.00
G01 X70.2990 Y62.1641 F350.00
G01 X70.3832 Y62.1136 F350.00
G01 X70.4093 Y62.0975 F350.00
G01 X70.4350 Y62.0808 F350.00
G01 X70.4550 Y62.0671 F350.00
G01 X70.4750 Y62.0808 F350.00
G01 X70.5007 Y62.0975 F350.00
G01 X70.5268 Y62.1136 F350.00
G01 X70.6110 Y62.1641 F350.00
G01 X70.6375 Y62.1795 F350.00
G01 X70.6644 Y62.1943 F350.00
G01 X70.6916 Y62.2085 F350.00
G01 X70.7192 Y62.2219 F350.00
G01 X70.8079 Y62.2639 F350.00
G01 X70.8358 Y62.2766 F350.00
G01 X70.8640 Y62.2887 F350.00
G01 X70.8924 Y62.3001 F350.00
G01 X70.9212 Y62.3108 F350.00
G01 X71.0136 Y62.3439 F350.00
G01 X71.0426 Y62.3539 F350.00
G01 X71.0719 Y62.3631 F350.00
G01 X71.1013 Y62.3717 F350.00
G01 X71.1310 Y62.3795 F350.00
G01 X71.2262 Y62.4033 F350.00
G01 X71.2560 Y62.4104 F350.00
G01 X71.2860 Y62.4168 F350.00
G01 X71.3162 Y62.4224 F350.00
G01 X71.3465 Y62.4273 F350.00
G01 X71.4436 Y62.4417 F350.00
G01 X71.4740 Y62.4458 F350.00
G01 X71.5045 Y62.4492 F350.00
G01 X71.5350 Y62.4518 F350.00
G01 X71.5656 Y62.4537 F350.00
G01 X71.6637 Y62.4585 F350.00
G01 X71.6943 Y62.4596 F350.00
G01 X71.7250 Y62.4600 F350.00
G01 X71.7557 Y62.4596 F350.00
G01 X71.7863 Y62.4585 F350.00
G01 X71.8844 Y62.4537 F350.00
G01 X71.9150 Y62.4518 F350.00
G01 X71.9455 Y62.4492 F350.00
G01 X71.9760 Y62.4458 F350.00
G01 X72.0064 Y62.4417 F350.00
G01 X72.1035 Y62.4273 F350.00
G01 X72.1338 Y62.4224 F350.00
G01 X72.1640 Y62.4168 F350.00
G01 X72.1940 Y62.4104 F350.00
G01 X72.2238 Y62.4033 F350.00
G01 X72.3190 Y62.3795 F350.00
G01 X72.3487 Y62.3717 F350.00
G01 X72.3781 Y62.3631 F350.00
G01 X72.4074 Y62.3539 F350.00
G01 X72.4364 Y62.3439 F350.00
G01 X72.5288 Y62.3108 F350.00
G01 X72.5576 Y62.3001 F350.00
G01 X72.5860 Y62.2887 F350.00
G01 X72.6142 Y62.2766 F350.00
G01 X72.6421 Y62.2639 F350.00
G01 X72.7308 Y62.2219 F350.00
G01 X72.7584 Y62.2085 F350.00
G01 X72.7856 Y62.1943 F350.00
G01 X72.8125 Y62.1795 F350.00
G01 X72.8390 Y62.1641 F350.00
G01 X72.9232 Y62.1136 F350.00
G01 X72.9493 Y62.0975 F350.00
G01 X72.9750 Y62.0808 F350.00
G01 X73.0003 Y62.0635 F350.00
G01 X73.0252 Y62.0455 F350.00
G01 X73.1040 Y61.9870 F350.00
G01 X73.1284 Y61.9684 F350.00
G01 X73.1524 Y61.9493 F350.00
G01 X73.1759 Y61.9295 F350.00
G01 X73.1988 Y61.9092 F350.00
G01 X73.2716 Y61.8433 F350.00
G01 X73.2940 Y61.8224 F350.00
G01 X73.3160 Y61.8010 F350.00
G01 X73.3374 Y61.7790 F350.00
G01 X73.3583 Y61.7566 F350.00
G01 X73.4242 Y61.6838 F350.00
G01 X73.4445 Y61.6609 F350.00
G01 X73.4643 Y61.6374 F350.00
G01 X73.4834 Y61.6134 F350.00
G01 X73.5020 Y61.5890 F350.00
G01 X73.5605 Y61.5102 F350.00
G01 X73.5785 Y61.4853 F350.00
G01 X73.5958 Y61.4600 F350.00
G01 X73.6125 Y61.4343 F350.00
G01 X73.6286 Y61.4082 F350.00
G01 X73.6791 Y61.3240 F350.00
G01 X73.6945 Y61.2975 F350.00
G01 X73.7093 Y61.2706 F350.00
G01 X73.7235 Y61.2434 F350.00
G01 X73.7369 Y61.2158 F350.00
G01 X73.7789 Y61.1271 F350.00
G01 X73.7916 Y61.0992 F350.00
G01 X73.8037 Y61.0710 F350.00
G01 X73.8151 Y61.0426 F350.00
G01 X73.8258 Y61.0138 F350.00
G01 X73.8589 Y60.9214 F350.00
G01 X73.8689 Y60.8924 F350.00
G01 X73.8781 Y60.8631 F350.00
G01 X73.8867 Y60.8337 F350.00
G01 X73.8945 Y60.8040 F350.00
G01 X73.9183 Y60.7088 F350.00
G01 X73.9254 Y60.6790 F350.00
G01 X73.9318 Y60.6490 F350.00
G01 X73.9374 Y60.6188 F350.00
G01 X73.9423 Y60.5885 F350.00
G01 X73.9567 Y60.4914 F350.00
G01 X73.9608 Y60.4610 F350.00
G01 X73.9642 Y60.4305 F350.00
G01 X73.9668 Y60.4000 F350.00
G01 X73.9687 Y60.3694 F350.00
G01 X73.9735 Y60.2713 F350.00
G01 X73.9746 Y60.2407 F350.00
G01 X73.9750 Y60.2100 F350.00
G01 X73.9750 Y57.7100 F350.00
G01 X73.9746 Y57.6793 F350.00
G01 X73.9735 Y57.6487 F350.00
G01 X73.9687 Y57.5506 F350.00
G01 X73.9668 Y57.5200 F350.00
G01 X73.9642 Y57.4895 F350.00
G01 X73.9608 Y57.4590 F350.00
G01 X73.9567 Y57.4286 F350.00
G01 X73.9423 Y57.3315 F350.00
G01 X73.9374 Y57.3012 F350.00
G01 X73.9318 Y57.2710 F350.00
G01 X73.9254 Y57.2410 F350.00
G01 X73.9183 Y57.2112 F350.00
G01 X73.8945 Y57.1160 F350.00
G01 X73.8867 Y57.0863 F350.00
G01 X73.8781 Y57.0569 F350.00
G01 X73.8689 Y57.0276 F350.00
G01 X73.8589 Y56.9986 F350.00
G01 X73.8258 Y56.9062 F350.00
G01 X73.8151 Y56.8774 F350.00
G01 X73.8037 Y56.8490 F350.00
G01 X73.7916 Y56.8208 F350.00
G01 X73.7789 Y56.7929 F350.00
G01 X73.7369 Y56.7042 F350.00
G01 X73.7235 Y56.6766 F350.00
G01 X73.7093 Y56.6494 F350.00
G01 X73.6945 Y56.6225 F350.00
G01 X73.6791 Y56.5960 F350.00
G01 X73.6286 Y56.5118 F350.00
G01 X73.6125 Y56.4857 F350.00
G01 X73.5958 Y56.4600 F350.00
G01 X73.5785 Y56.4347 F350.00
G01 X73.5605 Y56.4098 F350.00
G01 X73.5020 Y56.3310 F350.00
G01 X73.4834 Y56.3066 F350.00
G01 X73.4643 Y56.2826 F350.00
G01 X73.4445 Y56.2591 F350.00
G01 X73.4242 Y56.2362 F350.00
G01 X73.3583 Y56.1634 F350.00
G01 X73.3374 Y56.1410 F350.00
G01 X73.3160 Y56.1190 F350.00
G01 X73.2940 Y56.0976 F350.00
G01 X73.2716 Y56.0767 F350.00
G01 X73.1988 Y56.0108 F350.00
G01 X73.1759 Y55.9905 F350.00
G01 X73.1524 Y55.9707 F350.00
G01 X73.1284 Y55.9516 F350.00
G01 X73.1040 Y55.9330 F350.00
G01 X73.0252 Y55.8745 F350.00
G01 X73.0003 Y55.8565 F350.00
G01 X72.9750 Y55.8392 F350.00
G01 X72.9493 Y55.8225 F350.00
G01 X72.9232 Y55.8064 F350.00
G01 X72.8390 Y55.7559 F350.00
G01 X72.8125 Y55.7405 F350.00
G01 X72.7856 Y55.7257 F350.00
G01 X72.7584 Y55.7115 F350.00
G01 X72.7308 Y55.6981 F350.00
G01 X72.6421 Y55.6561 F350.00
G01 X72.6142 Y55.6434 F350.00
G01 X72.5860 Y55.6313 F350.00
G01 X72.5576 Y55.6199 F350.00
G01 X72.5288 Y55.6092 F350.00
G01 X72.4364 Y55.5761 F350.00
G01 X72.4074 Y55.5661 F350.00
G01 X72.3781 Y55.5569 F350.00
G01 X72.3487 Y55.5483 F350.00
G01 X72.3190 Y55.5405 F350.00
G01 X72.2238 Y55.5167 F350.00
G01 X72.1940 Y55.5096 F350.00
G01 X72.1640 Y55.5032 F350.00
G01 X72.1338 Y55.4976 F350.00
G01 X72.1035 Y55.4927 F350.00
G01 X72.0064 Y55.4783 F350.00
G01 X71.9760 Y55.4742 F350.00
G01 X71.9455 Y55.4708 F350.00
G01 X71.9150 Y55.4682 F350.00
G01 X71.8844 Y55.4663 F350.00
G01 X71.7863 Y55.4615 F350.00
G01 X71.7557 Y55.4604 F350.00
G01 X71.7250 Y55.4600 F350.00
G01 X71.6943 Y55.4604 F350.00
G01 X71.6637 Y55.4615 F350.00
G01 X71.5656 Y55.4663 F350.00
G01 X71.5350 Y55.4682 F350.00
G01 X71.5045 Y55.4708 F350.00
G01 X71.4740 Y55.4742 F350.00
G01 X71.4436 Y55.4783 F350.00
G01 X71.3465 Y55.4927 F350.00
G01 X71.3162 Y55.4976 F350.00
G01 X71.2860 Y55.5032 F350.00
G01 X71.2560 Y55.5096 F350.00
G01 X71.2262 Y55.5167 F350.00
G01 X71.1310 Y55.5405 F350.00
G01 X71.1013 Y55.5483 F350.00
G01 X71.0719 Y55.5569 F350.00
G01 X71.0426 Y55.5661 F350.00
G01 X71.0136 Y55.5761 F350.00
G01 X70.9212 Y55.6092 F350.00
G01 X70.8924 Y55.6199 F350.00
G01 X70.8640 Y55.6313 F350.00
G01 X70.8358 Y55.6434 F350.00
G01 X70.8079 Y55.6561 F350.00
G01 X70.7192 Y55.6981 F350.00
G01 X70.6916 Y55.7115 F350.00
G01 X70.6644 Y55.7257 F350.00
G01 X70.6375 Y55.7405 F350.00
G01 X70.6110 Y55.7559 F350.00
G01 X70.5268 Y55.8064 F350.00
G01 X70.5007 Y55.8225 F350.00
G01 X70.4750 Y55.8392 F350.00
G01 X70.4550 Y55.8529 F350.00
G01 X70.4350 Y55.8392 F350.00
G01 X70.4093 Y55.8225 F350.00
G01 X70.3832 Y55.8064 F350.00
G01 X70.2990 Y55.7559 F350.00
G01 X70.2725 Y55.7405 F350.00
G01 X70.2456 Y55.7257 F350.00
G01 X70.2184 Y55.7115 F350.00
G01 X70.1908 Y55.6981 F350.00
G01 X70.1021 Y55.6561 F350.00
G01 X70.0742 Y55.6434 F350.00
G01 X70.0460 Y55.6313 F350.00
G01 X70.0176 Y55.6199 F350.00
G01 X69.9888 Y55.6092 F350.00
G01 X69.8964 Y55.5761 F350.00
G01 X69.8674 Y55.5661 F350.00
G01 X69.8381 Y55.5569 F350.00
G01 X69.8087 Y55.5483 F350.00
G01 X69.7790 Y55.5405 F350.00
G01 X69.6838 Y55.5167 F350.00
G01 X69.6540 Y55.5096 F350.00
G01 X69.6240 Y55.5032 F350.00
G01 X69.5938 Y55.4976 F350.00
G01 X69.5635 Y55.4927 F350.00
G01 X69.4664 Y55.4783 F350.00
G01 X69.4360 Y55.4742 F350.00
G01 X69.4055 Y55.4708 F350.00
G01 X69.3750 Y55.4682 F350.00
G01 X69.3444 Y55.4663 F350.00
G01 X69.2463 Y55.4615 F350.00
G01 X69.2157 Y55.4604 F350.00
G01 X69.1850 Y55.4600 F350.00
G01 X69.1543 Y55.4604 F350.00
G01 X69.1237 Y55.4615 F350.00
G01 X69.0256 Y55.4663 F350.00
G01 X68.9950 Y55.4682 F350.00
G01 X68.9645 Y55.4708 F350.00
G01 X68.9340 Y55.4742 F350.00
G01 X68.9036 Y55.4783 F350.00
G01 X68.8065 Y55.4927 F350.00
G01 X68.7762 Y55.4976 F350.00
G01 X68.7460 Y55.5032 F350.00
G01 X68.7160 Y55.5096 F350.00
G01 X68.6862 Y55.5167 F350.00
G01 X68.5910 Y55.5405 F350.00
G01 X68.5613 Y55.5483 F350.00
G01 X68.5319 Y55.5569 F350.00
G01 X68.5026 Y55.5661 F350.00
G01 X68.4736 Y55.5761 F350.00
G01 X68.3812 Y55.6092 F350.00
G01 X68.3524 Y55.6199 F350.00
G01 X68.3240 Y55.6313 F350.00
G01 X68.2958 Y55.6434 F350.00
G01 X68.2679 Y55.6561 F350.00
G01 X68.1792 Y55.6981 F350.00
G01 X68.1516 Y55.7115 F350.00
G01 X68.1244 Y55.7257 F350.00
G01 X68.0975 Y55.7405 F350.00
G01 X68.0710 Y55.7559 F350.00
G01 X67.9868 Y55.8064 F350.00
G01 X67.9607 Y55.8225 F350.00
G01 X67.9350 Y55.8392 F350.00
G01 X67.9150 Y55.8529 F350.00
G01 X67.8950 Y55.8392 F350.00
G01 X67.8693 Y55.8225 F350.00
G01 X67.8432 Y55.8064 F350.00
G01 X67.7590 Y55.7559 F350.00
G01 X67.7325 Y55.7405 F350.00
G01 X67.7056 Y55.7257 F350.00
G01 X67.6784 Y55.7115 F350.00
G01 X67.6508 Y55.6981 F350.00
G01 X67.5621 Y55.6561 F350.00
G01 X67.5342 Y55.6434 F350.00
G01 X67.5060 Y55.6313 F350.00
G01 X67.4776 Y55.6199 F350.00
G01 X67.4488 Y55.6092 F350.00
G01 X67.3564 Y55.5761 F350.00
G01 X67.3274 Y55.5661 F350.00
G01 X67.2981 Y55.5569 F350.00
G01 X67.2687 Y55.5483 F350.00
G01 X67.2390 Y55.5405 F350.00
G01 X67.1438 Y55.5167 F350.00
G01 X67.1140 Y55.5096 F350.00
G01 X67.0840 Y55.5032 F350.00
G01 X67.0538 Y55.4976 F350.00
G01 X67.0235 Y55.4927 F350.00
G01 X66.9264 Y55.4783 F350.00
G01 X66.8960 Y55.4742 F350.00
G01 X66.8655 Y55.4708 F350.00
G01 X66.8350 Y55.4682 F350.00
G01 X66.8044 Y55.4663 F350.00
G01 X66.7063 Y55.4615 F350.00
G01 X66.6757 Y55.4604 F350.00
G01 X66.6450 Y55.4600 F350.00
G01 X66.6143 Y55.4604 F350.00
G01 X66.5837 Y55.4615 F350.00
G01 X66.4856 Y55.4663 F350.00
G01 X66.4550 Y55.4682 F350.00
G01 X66.4245 Y55.4708 F350.00
G01 X66.3940 Y55.4742 F350.00
G01 X66.3636 Y55.4783 F350.00
G01 X66.2665 Y55.4927 F350.00
G01 X66.2362 Y55.4976 F350.00
G01 X66.2060 Y55.5032 F350.00
G01 X66.1760 Y55.5096 F350.00
G01 X66.1462 Y55.5167 F350.00
G01 X66.0510 Y55.5405 F350.00
G01 X66.0213 Y55.5483 F350.00
G01 X65.9919 Y55.5569 F350.00
G01 X65.9626 Y55.5661 F350.00
G01 X65.9336 Y55.5761 F350.00
G01 X65.8412 Y55.6092 F350.00
G01 X65.8124 Y55.6199 F350.00
G01 X65.7840 Y55.6313 F350.00
G01 X65.7558 Y55.6434 F350.00
G01 X65.7279 Y55.6561 F350.00
G01 X65.6392 Y55.6981 F350.00
G01 X65.6116 Y55.7115 F350.00
G01 X65.5844 Y55.7257 F350.00
G01 X65.5575 Y55.7405 F350.00
G01 X65.5310 Y55.7559 F350.00
G01 X65.4468 Y55.8064 F350.00
G01 X65.4207 Y55.8225 F350.00
G01 X65.3950 Y55.8392 F350.00
G01 X65.3750 Y55.8529 F350.00
G01 X65.3550 Y55.8392 F350.00
G01 X65.3293 Y55.8225 F350.00
G01 X65.3032 Y55.8064 F350.00
G01 X65.2190 Y55.7559 F350.00
G01 X65.1925 Y55.7405 F350.00
G01 X65.1656 Y55.7257 F350.00
G01 X65.1384 Y55.7115 F350.00
G01 X65.1108 Y55.6981 F350.00
G01 X65.0221 Y55.6561 F350.00
G01 X64.9942 Y55.6434 F350.00
G01 X64.9660 Y55.6313 F350.00
G01 X64.9376 Y55.6199 F350.00
G01 X64.9088 Y55.6092 F350.00
G01 X64.8164 Y55.5761 F350.00
G01 X64.7874 Y55.5661 F350.00
G01 X64.7581 Y55.5569 F350.00
G01 X64.7287 Y55.5483 F350.00
G01 X64.6990 Y55.5405 F350.00
G01 X64.6038 Y55.5167 F350.00
G01 X64.5740 Y55.5096 F350.00
G01 X64.5440 Y55.5032 F350.00
G01 X64.5138 Y55.4976 F350.00
G01 X64.4835 Y55.4927 F350.00
G01 X64.3864 Y55.4783 F350.00
G01 X64.3560 Y55.4742 F350.00
G01 X64.3255 Y55.4708 F350.00
G01 X64.2950 Y55.4682 F350.00
G01 X64.2644 Y55.4663 F350.00
G01 X64.1663 Y55.4615 F350.00
G01 X64.1357 Y55.4604 F350.00
G01 X64.1050 Y55.4600 F350.00
G01 X64.0743 Y55.4604 F350.00
G01 X64.0437 Y55.4615 F350.00
G01 X63.9456 Y55.4663 F350.00
G01 X63.9150 Y55.4682 F350.00
G01 X63.8845 Y55.4708 F350.00
G01 X63.8540 Y55.4742 F350.00
G01 X63.8236 Y55.4783 F350.00
G01 X63.7265 Y55.4927 F350.00
G01 X63.6962 Y55.4976 F350.00
G01 X63.6660 Y55.5032 F350.00
G01 X63.6360 Y55.5096 F350.00
G01 X63.6062 Y55.5167 F350.00
G01 X63.5110 Y55.5405 F350.00
G01 X63.4813 Y55.5483 F350.00
G01 X63.4519 Y55.5569 F350.00
G01 X63.4226 Y55.5661 F350.00
G01 X63.3936 Y55.5761 F350.00
G01 X63.3012 Y55.6092 F350.00
G01 X63.2724 Y55.6199 F350.00
G01 X63.2440 Y55.6313 F350.00
G01 X63.2158 Y55.6434 F350.00
G01 X63.1879 Y55.6561 F350.00
G01 X63.0992 Y55.6981 F350.00
G01 X63.0716 Y55.7115 F350.00
G01 X63.0444 Y55.7257 F350.00
G01 X63.0175 Y55.7405 F350.00
G01 X62.9910 Y55.7559 F350.00
G01 X62.9068 Y55.8064 F350.00
G01 X62.8807 Y55.8225 F350.00
G01 X62.8550 Y55.8392 F350.00
G01 X62.8297 Y55.8565 F350.00
G01 X62.8048 Y55.8745 F350.00
G01 X62.7260 Y55.9330 F350.00
G01 X62.7016 Y55.9516 F350.00
G01 X62.6776 Y55.9707 F350.00
G01 X62.6541 Y55.9905 F350.00
G01 X62.6312 Y56.0108 F350.00
G01 X62.5584 Y56.0767 F350.00
G01 X62.5360 Y56.0976 F350.00
G01 X62.5140 Y56.1190 F350.00
G01 X62.4926 Y56.1410 F350.00
G01 X62.4796 Y56.1550 F350.00
G01 X62.4542 Y56.1434 F350.00
G01 X62.4260 Y56.1313 F350.00
G01 X62.3976 Y56.1199 F350.00
G01 X62.3688 Y56.1092 F350.00
G01 X62.2764 Y56.0761 F350.00
G01 X62.2474 Y56.0661 F350.00
G01 X62.2181 Y56.0569 F350.00
G01 X62.1775 Y56.0454 F350.00
G01 X62.2114 Y56.0339 F350.00
G01 X62.3038 Y56.0008 F350.00
G01 X62.3326 Y55.9901 F350.00
G01 X62.3610 Y55.9787 F350.00
G01 X62.3892 Y55.9666 F350.00
G01 X62.4171 Y55.9539 F350.00
G01 X62.5058 Y55.9119 F350.00
G01 X62.5334 Y55.8985 F350.00
G01 X62.5606 Y55.8843 F350.00
G01 X62.5875 Y55.8695 F350.00
G01 X62.6140 Y55.8541 F350.00
G01 X62.6982 Y55.8036 F350.00
G01 X62.7243 Y55.7875 F350.00
G01 X62.7500 Y55.7708 F350.00
G01 X62.7753 Y55.7535 F350.00
G01 X62.8002 Y55.7355 F350.00
G01 X62.8790 Y55.6770 F350.00
G01 X62.9034 Y55.6584 F350.00
G01 X62.9274 Y55.6393 F350.00
G01 X62.9509 Y55.6195 F350.00
G01 X62.9738 Y55.5992 F350.00
G01 X63.0466 Y55.5333 F350.00
G01 X63.0690 Y55.5124 F350.00
G01 X63.0910 Y55.4910 F350.00
G01 X63.1124 Y55.4690 F350.00
G01 X63.1333 Y55.4466 F350.00
G01 X63.1992 Y55.3738 F350.00
G01 X63.2195 Y55.3509 F350.00
G01 X63.2393 Y55.3274 F350.00
G01 X63.2584 Y55.3034 F350.00
G01 X63.2770 Y55.2790 F350.00
G01 X63.3355 Y55.2002 F350.00
G01 X63.3535 Y55.1753 F350.00
G01 X63.3708 Y55.1500 F350.00
G01 X63.3875 Y55.1243 F350.00
G01 X63.4036 Y55.0982 F350.00
G01 X63.4541 Y55.0140 F350.00
G01 X63.4695 Y54.9875 F350.00
G01 X63.4843 Y54.9606 F350.00
G01 X63.4985 Y54.9334 F350.00
G01 X63.5119 Y54.9058 F350.00
G01 X63.5539 Y54.8171 F350.00
G01 X63.5666 Y54.7892 F350.00
G01 X63.5787 Y54.7610 F350.00
G01 X63.5901 Y54.7326 F350.00
G01 X63.6008 Y54.7038 F350.00
G01 X63.6339 Y54.6114 F350.00
G01 X63.6439 Y54.5824 F350.00
G01 X63.6531 Y54.5531 F350.00
G01 X63.6617 Y54.5237 F350.00
G01 X63.6695 Y54.4940 F350.00
G01 X63.6933 Y54.3988 F350.00
G01 X63.7004 Y54.3690 F350.00
G01 X63.7068 Y54.3390 F350.00
G01 X63.7124 Y54.3088 F350.00
G01 X63.7173 Y54.2785 F350.00
G01 X63.7317 Y54.1814 F350.00
G01 X63.7358 Y54.1510 F350.00
G01 X63.7392 Y54.1205 F350.00
G01 X63.7418 Y54.0900 F350.00
G01 X63.7437 Y54.0594 F350.00
G01 X63.7485 Y53.9613 F350.00
G01 X63.7496 Y53.9307 F350.00
G01 X63.7500 Y53.9000 F350.00
G01 X63.7496 Y53.8693 F350.00
G01 X63.7485 Y53.8387 F350.00
G01 X63.7437 Y53.7406 F350.00
G01 X63.7418 Y53.7100 F350.00
G01 X63.7392 Y53.6795 F350.00
G01 X63.7358 Y53.6490 F350.00
G01 X63.7317 Y53.6186 F350.00
G01 X63.7173 Y53.5215 F350.00
G01 X63.7124 Y53.4912 F350.00
G01 X63.7068 Y53.4610 F350.00
G01 X63.7004 Y53.4310 F350.00
G01 X63.6933 Y53.4012 F350.00
G01 X63.6695 Y53.3060 F350.00
G01 X63.6617 Y53.2763 F350.00
G01 X63.6531 Y53.2469 F350.00
G01 X63.6439 Y53.2176 F350.00
G01 X63.6339 Y53.1886 F350.00
G01 X63.6008 Y53.0962 F350.00
G01 X63.5901 Y53.0674 F350.00
G01 X63.5787 Y53.0390 F350.00
G01 X63.5666 Y53.0108 F350.00
G01 X63.5539 Y52.9829 F350.00
G01 X63.5119 Y52.8942 F350.00
G01 X63.4985 Y52.8666 F350.00
G01 X63.4843 Y52.8394 F350.00
G01 X63.4695 Y52.8125 F350.00
G01 X63.4541 Y52.7860 F350.00
G01 X63.4036 Y52.7018 F350.00
G01 X63.3875 Y52.6757 F350.00
G01 X63.3708 Y52.6500 F350.00
G01 X63.3535 Y52.6247 F350.00
G01 X63.3355 Y52.5998 F350.00
G01 X63.2770 Y52.5210 F350.00
G01 X63.2584 Y52.4966 F350.00
G01 X63.2393 Y52.4726 F350.00
G01 X63.2195 Y52.4491 F350.00
G01 X63.1992 Y52.4262 F350.00
G01 X63.1333 Y52.3534 F350.00
G01 X63.1124 Y52.3310 F350.00
G01 X63.0910 Y52.3090 F350.00
G01 X63.0690 Y52.2876 F350.00
G01 X63.0466 Y52.2667 F350.00
G01 X62.9738 Y52.2008 F350.00
G01 X62.9509 Y52.1805 F350.00
G01 X62.9274 Y52.1607 F350.00
G01 X62.9034 Y52.1416 F350.00
G01 X62.8790 Y52.1230 F350.00
G01 X62.8002 Y52.0645 F350.00
G01 X62.7753 Y52.0465 F350.00
G01 X62.7500 Y52.0292 F350.00
G01 X62.7243 Y52.0125 F350.00
G01 X62.6982 Y51.9964 F350.00
G01 X62.6140 Y51.9459 F350.00
G01 X62.5875 Y51.9305 F350.00
G01 X62.5606 Y51.9157 F350.00
G01 X62.5334 Y51.9015 F350.00
G01 X62.5058 Y51.8881 F350.00
G01 X62.4171 Y51.8461 F350.00
G01 X62.3892 Y51.8334 F350.00
G01 X62.3610 Y51.8213 F350.00
G01 X62.3326 Y51.8099 F350.00
G01 X62.3038 Y51.7992 F350.00
G01 X62.2114 Y51.7661 F350.00
G01 X62.1824 Y51.7561 F350.00
G01 X62.1531 Y51.7469 F350.00
G01 X62.1237 Y51.7383 F350.00
G01 X62.0940 Y51.7305 F350.00
G01 X61.9988 Y51.7067 F350.00
G01 X61.9690 Y51.6996 F350.00
G01 X61.9390 Y51.6932 F350.00
G01 X61.9088 Y51.6876 F350.00
G01 X61.8785 Y51.6827 F350.00
G01 X61.7814 Y51.6683 F350.00
G01 X61.7510 Y51.6642 F350.00
G01 X61.7205 Y51.6608 F350.00
G01 X61.6900 Y51.6582 F350.00
G01 X61.6594 Y51.6563 F350.00
G01 X61.5613 Y51.6515 F350.00
G01 X61.5307 Y51.6504 F350.00
G01 X61.5000 Y51.6500 F350.00
G01 X61.4693 Y51.6504 F350.00
G01 X61.4387 Y51.6515 F350.00
G01 X61.3406 Y51.6563 F350.00
G01 X61.3100 Y51.6582 F350.00
G01 X61.2795 Y51.6608 F350.00
G01 X61.2490 Y51.6642 F350.00
G01 X61.2186 Y51.6683 F350.00
G01 X61.1215 Y51.6827 F350.00
G01 X61.0912 Y51.6876 F350.00
G01 X61.0610 Y51.6932 F350.00
G01 X61.0310 Y51.6996 F350.00
G01 X61.0012 Y51.7067 F350.00
G01 X60.9060 Y51.7305 F350.00
G01 X60.8763 Y51.7383 F350.00
G01 X60.8469 Y51.7469 F350.00
G01 X60.8176 Y51.7561 F350.00
G01 X60.7886 Y51.7661 F350.00
G01 X60.6962 Y51.7992 F350.00
G01 X60.6674 Y51.8099 F350.00
G01 X60.6390 Y51.8213 F350.00
G01 X60.6108 Y51.8334 F350.00
G01 X60.5829 Y51.8461 F350.00
G01 X60.4942 Y51.8881 F350.00
G01 X60.4666 Y51.9015 F350.00
G01 X60.4394 Y51.9157 F350.00
G01 X60.4125 Y51.9305 F350.00
G01 X60.3860 Y51.9459 F350.00
G01 X60.3018 Y51.9964 F350.00
G01 X60.2757 Y52.0125 F350.00
G01 X60.2500 Y52.0292 F350.00
G01 X60.2247 Y52.0465 F350.00
G01 X60.1998 Y52.0645 F350.00
G01 X60.1210 Y52.1230 F350.00
G01 X60.0966 Y52.1416 F350.00
G01 X60.0726 Y52.1607 F350.00
G01 X60.0491 Y52.1805 F350.00
G01 X60.0262 Y52.2008 F350.00
G01 X59.9534 Y52.2667 F350.00
G01 X59.9310 Y52.2876 F350.00
G01 X59.9090 Y52.3090 F350.00
G01 X59.8876 Y52.3310 F350.00
G01 X59.8667 Y52.3534 F350.00
G01 X59.8008 Y52.4262 F350.00
G01 X59.7805 Y52.4491 F350.00
G01 X59.7607 Y52.4726 F350.00
G01 X59.7416 Y52.4966 F350.00
G01 X59.7230 Y52.5210 F350.00
G01 X59.6645 Y52.5998 F350.00
G01 X59.6465 Y52.6247 F350.00
G01 X59.6292 Y52.6500 F350.00
G01 X59.6125 Y52.6757 F350.00
G01 X59.5964 Y52.7018 F350.00
G01 X59.5459 Y52.7860 F350.00
G01 X59.5305 Y52.8125 F350.00
G01 X59.5157 Y52.8394 F350.00
G01 X59.5015 Y52.8666 F350.00
G01 X59.4881 Y52.8942 F350.00
G01 X59.4461 Y52.9829 F350.00
G01 X59.4334 Y53.0108 F350.00
G01 X59.4213 Y53.0390 F350.00
G01 X59.4099 Y53.0674 F350.00
G01 X59.3992 Y53.0962 F350.00
G01 X59.3661 Y53.1886 F350.00
G01 X59.3561 Y53.2176 F350.00
G01 X59.3469 Y53.2469 F350.00
G01 X59.3383 Y53.2763 F350.00
G01 X59.3305 Y53.3060 F350.00
G01 X59.3067 Y53.4012 F350.00
G01 X59.2996 Y53.4310 F350.00
G01 X59.2932 Y53.4610 F350.00
G01 X59.2876 Y53.4912 F350.00
G01 X59.2827 Y53.5215 F350.00
G01 X59.2683 Y53.6186 F350.00
G01 X59.2642 Y53.6490 F350.00
G01 X59.2608 Y53.6795 F350.00
G01 X59.2582 Y53.7100 F350.00
G01 X59.2563 Y53.7406 F350.00
G01 X59.2515 Y53.8387 F350.00
G01 X59.2504 Y53.8693 F350.00
G01 X59.2500 Y53.9000 F350.00
G01 X59.2504 Y53.9307 F350.00
G01 X59.2515 Y53.9613 F350.00
G01 X59.2563 Y54.0594 F350.00
G01 X59.2582 Y54.0900 F350.00
G01 X59.2608 Y54.1205 F350.00
