%
(; SHAPEOKO POSTPROCESSED v1)
( Source: 2.PTH_BACKSIDE.nc )
( Stripped: M30 only - kept T#/M6/M0/M1/MSG for Shapeoko/Carbide Motion )
( Wrapped with Shapeoko start/end blocks - mirrors 1001.nc structure )
G90        ( absolute positioning )
G17        ( XY plane select )
G21        ( mm units )
G94        ( feedrate units/min )
G28 G91 Z0 ( safe Z home - assumes machine has been homed )
G90        ( back to absolute )
G54        ( work coordinate system 1 )
M5         ( ensure spindle off at start )

(G-CODE GENERATED BY FLATCAM v8.994 - www.flatcam.org - Version Date: 2020/11/7)

(Name: Buzzer PCB-PTH.drl_cnc)
(Type: G-code from Geometry)
(Units: MM)

(Created on Sunday, 21 June 2026 at 20:38)

(This preprocessor is used with a motion controller loaded with GRBL firmware.)
(It is configured to be compatible with almost any version of GRBL firmware.)


(TOOLS DIAMETER: )
(Tool: 1 -> Dia: 0.8)
(Tool: 2 -> Dia: 1.0)
(Tool: 3 -> Dia: 1.0)
(Tool: 4 -> Dia: 1.0)
(Tool: 5 -> Dia: 1.0)

(FEEDRATE Z: )
(Tool: 1 -> Feedrate: 300.0)
(Tool: 2 -> Feedrate: 300.0)
(Tool: 3 -> Feedrate: 300.0)
(Tool: 4 -> Feedrate: 300.0)
(Tool: 5 -> Feedrate: 300.0)

(FEEDRATE RAPIDS: )
(Tool: 1 -> Feedrate Rapids: 1500)
(Tool: 2 -> Feedrate Rapids: 1500)
(Tool: 3 -> Feedrate Rapids: 1500)
(Tool: 4 -> Feedrate Rapids: 1500)
(Tool: 5 -> Feedrate Rapids: 1500)

(Z_CUT: )
(Tool: 1 -> Z_Cut: -2.2)
(Tool: 2 -> Z_Cut: -2.2)
(Tool: 3 -> Z_Cut: -2.2)
(Tool: 4 -> Z_Cut: -2.2)
(Tool: 5 -> Z_Cut: -2.2)

(Tools Offset: )
(Tool: 1 -> Offset Z: 0.0)
(Tool: 5 -> Offset Z: 0.0)

(Z_MOVE: )
(Tool: 1 -> Z_Move: 0.5)
(Tool: 2 -> Z_Move: 0.5)
(Tool: 3 -> Z_Move: 0.5)
(Tool: 4 -> Z_Move: 0.5)
(Tool: 5 -> Z_Move: 0.5)

(Z Toolchange: 40.0 mm)
(X,Y Toolchange: 0.0000, 0.0000 mm)
(Z Start: None mm)
(Z End: 40.0 mm)
(X,Y End: None mm)
(Steps per circle: 64)
(Steps per circle: 64)
(Preprocessor Excellon: grbl_11)

(X range:  -22.0640 ...    1.1660  mm)
(Y range:   -1.8190 ...   18.7410  mm)

(Spindle Speed: 0 RPM)
G21
G90
G17
G94


G01 F300.00

M5             
G00 Z40.0000
G00 X0.0000 Y0.0000                
T1 M6
(MSG, Change to Tool Dia = 0.8000 ||| Total drills for tool T1 = 18)
M0
G00 Z40.0000

G01 F300.00
M03
G00 X0.7660 Y4.2410
G01 Z-2.2000
G01 Z0
G00 Z0.5000
G00 X-1.5340 Y8.2410
G01 Z-2.2000
G01 Z0
G00 Z0.5000
G00 X-1.5340 Y10.7410
G01 Z-2.2000
G01 Z0
G00 Z0.5000
G00 X-1.5340 Y13.2410
G01 Z-2.2000
G01 Z0
G00 Z0.5000
G00 X-5.0340 Y17.0410
G01 Z-2.2000
G01 Z0
G00 Z0.5000
G00 X-7.0340 Y17.0410
G01 Z-2.2000
G01 Z0
G00 Z0.5000
G00 X-19.4340 Y15.6310
G01 Z-2.2000
G01 Z0
G00 Z0.5000
G00 X-19.4340 Y13.0910
G01 Z-2.2000
G01 Z0
G00 Z0.5000
G00 X-19.4340 Y10.5510
G01 Z-2.2000
G01 Z0
G00 Z0.5000
G00 X-18.9340 Y8.1510
G01 Z-2.2000
G01 Z0
G00 Z0.5000
G00 X-21.4340 Y8.1510
G01 Z-2.2000
G01 Z0
G00 Z0.5000
G00 X-21.4340 Y0.5310
G01 Z-2.2000
G01 Z0
G00 Z0.5000
G00 X-18.9340 Y0.5310
G01 Z-2.2000
G01 Z0
G00 Z0.5000
G00 X-14.9340 Y3.6910
G01 Z-2.2000
G01 Z0
G00 Z0.5000
G00 X-12.9340 Y3.6910
G01 Z-2.2000
G01 Z0
G00 Z0.5000
G00 X-8.7340 Y3.6910
G01 Z-2.2000
G01 Z0
G00 Z0.5000
G00 X-6.7340 Y3.6910
G01 Z-2.2000
G01 Z0
G00 Z0.5000
G00 X-4.2340 Y4.2410
G01 Z-2.2000
G01 Z0
G00 Z0.5000
G01 F300.00

M5             
G00 Z40.0000
G00 X0.0000 Y0.0000                
T5 M6
(MSG, Change to Tool Dia = 1.0000 ||| Total drills for tool T5 = 5)
M0
G00 Z40.0000

G01 F300.00
M03
G00 X-7.9340 Y10.5410
G01 Z-2.2000
G01 Z0
G00 Z0.5000
G00 X-14.9340 Y10.5410
G01 Z-2.2000
G01 Z0
G00 Z0.5000
G00 X-21.5640 Y-1.3190
G01 Z-2.2000
G01 Z0
G00 Z0.5000
G00 X-20.6340 Y18.2410
G01 Z-2.2000
G01 Z0
G00 Z0.5000
G00 X-12.6340 Y18.2410
G01 Z-2.2000
G01 Z0
G00 Z0.5000
M05
G00 Z40.00
M5         ( spindle off )
M9         ( coolant off - ignored by Shapeoko if unused )
G28 G91 Z0 ( safe Z home )
G90        ( absolute )
G28 G91 X0 Y0 ( XY home )
G90        ( absolute )
M30        ( program end )
%
