%
(; SHAPEOKO POSTPROCESSED v1)
( Source: PTH_0.8-1.nc )
( Stripped: M30 only - kept T#/M6/M0/M1/MSG for Shapeoko/Carbide Motion )
( Wrapped with Shapeoko start/end blocks - mirrors 1001.nc structure )
G90        ( absolute positioning )
G17        ( XY plane select )
G21        ( mm units )
G94        ( feedrate units/min )
G28 G91 Z0 ( safe Z home - assumes machine has been homed )
G90        ( back to absolute )
G54        ( work coordinate system 1 )
M5         ( ensure spindle off at start )

(G-CODE GENERATED BY FLATCAM v8.994 - www.flatcam.org - Version Date: 2020/11/7)

(Name: Buzzer PCB-PTH.drl_1_cnc)
(Type: G-code from Geometry)
(Units: MM)

(Created on Sunday, 21 June 2026 at 03:02)

(This preprocessor is used with a motion controller loaded with GRBL firmware.)
(It is configured to be compatible with almost any version of GRBL firmware.)


(TOOLS DIAMETER: )
(Tool: 1 -> Dia: 0.8)
(Tool: 2 -> Dia: 1.0)

(FEEDRATE Z: )
(Tool: 1 -> Feedrate: 300.0)
(Tool: 2 -> Feedrate: 300.0)

(FEEDRATE RAPIDS: )
(Tool: 1 -> Feedrate Rapids: 1500)
(Tool: 2 -> Feedrate Rapids: 1500)

(Z_CUT: )
(Tool: 1 -> Z_Cut: -1.7)
(Tool: 2 -> Z_Cut: -1.7)

(Tools Offset: )
(Tool: 1 -> Offset Z: 0.0)
(Tool: 2 -> Offset Z: 0.0)

(DEPTH_PER_CUT: )
(Tool: 1 -> DeptPerCut: 0.7)
(Tool: 2 -> DeptPerCut: 0.7)

(Z_MOVE: )
(Tool: 1 -> Z_Move: 0.5)
(Tool: 2 -> Z_Move: 0.5)

(Z Toolchange: 40.0 mm)
(X,Y Toolchange: 0.0000, 0.0000 mm)
(Z Start: None mm)
(Z End: 40.0 mm)
(X,Y End: None mm)
(Steps per circle: 64)
(Steps per circle: 64)
(Preprocessor Excellon: grbl_11)

(X range:    8.2808 ...   31.3108  mm)
(Y range:    9.5500 ...   29.9600  mm)

(Spindle Speed: 0 RPM)
G21
G90
G17
G94


G01 F300.00

M5             
G00 Z40.0000
G00 X0.0000 Y0.0000                
T1 M6
(MSG, Change to Tool Dia = 0.8000 ||| Total drills for tool T1 = 18)
M0
G00 Z40.0000

G01 F300.00
M03
G00 X30.6808 Y27.6100
G01 Z-0.7000
G01 Z0
G00 Z0.5000
G01 Z-1.4000
G01 Z0
G00 Z0.5000
G01 Z-1.7000
G01 Z0
G00 Z0.5000
G00 X28.1808 Y27.6100
G01 Z-0.7000
G01 Z0
G00 Z0.5000
G01 Z-1.4000
G01 Z0
G00 Z0.5000
G01 Z-1.7000
G01 Z0
G00 Z0.5000
G00 X24.1808 Y27.8000
G01 Z-0.7000
G01 Z0
G00 Z0.5000
G01 Z-1.4000
G01 Z0
G00 Z0.5000
G01 Z-1.7000
G01 Z0
G00 Z0.5000
G00 X22.1808 Y27.8000
G01 Z-0.7000
G01 Z0
G00 Z0.5000
G01 Z-1.4000
G01 Z0
G00 Z0.5000
G01 Z-1.7000
G01 Z0
G00 Z0.5000
G00 X16.6808 Y27.8000
G01 Z-0.7000
G01 Z0
G00 Z0.5000
G01 Z-1.4000
G01 Z0
G00 Z0.5000
G01 Z-1.7000
G01 Z0
G00 Z0.5000
G00 X14.6808 Y27.8000
G01 Z-0.7000
G01 Z0
G00 Z0.5000
G01 Z-1.4000
G01 Z0
G00 Z0.5000
G01 Z-1.7000
G01 Z0
G00 Z0.5000
G00 X11.1808 Y25.0500
G01 Z-0.7000
G01 Z0
G00 Z0.5000
G01 Z-1.4000
G01 Z0
G00 Z0.5000
G01 Z-1.7000
G01 Z0
G00 Z0.5000
G00 X8.6808 Y25.0500
G01 Z-0.7000
G01 Z0
G00 Z0.5000
G01 Z-1.4000
G01 Z0
G00 Z0.5000
G01 Z-1.7000
G01 Z0
G00 Z0.5000
G00 X9.9308 Y21.3000
G01 Z-0.7000
G01 Z0
G00 Z0.5000
G01 Z-1.4000
G01 Z0
G00 Z0.5000
G01 Z-1.7000
G01 Z0
G00 Z0.5000
G00 X9.9308 Y19.3000
G01 Z-0.7000
G01 Z0
G00 Z0.5000
G01 Z-1.4000
G01 Z0
G00 Z0.5000
G01 Z-1.7000
G01 Z0
G00 Z0.5000
G00 X9.9308 Y17.3000
G01 Z-0.7000
G01 Z0
G00 Z0.5000
G01 Z-1.4000
G01 Z0
G00 Z0.5000
G01 Z-1.7000
G01 Z0
G00 Z0.5000
G00 X13.9308 Y11.8000
G01 Z-0.7000
G01 Z0
G00 Z0.5000
G01 Z-1.4000
G01 Z0
G00 Z0.5000
G01 Z-1.7000
G01 Z0
G00 Z0.5000
G00 X15.9308 Y11.8000
G01 Z-0.7000
G01 Z0
G00 Z0.5000
G01 Z-1.4000
G01 Z0
G00 Z0.5000
G01 Z-1.7000
G01 Z0
G00 Z0.5000
G00 X28.6808 Y12.5100
G01 Z-0.7000
G01 Z0
G00 Z0.5000
G01 Z-1.4000
G01 Z0
G00 Z0.5000
G01 Z-1.7000
G01 Z0
G00 Z0.5000
G00 X28.6808 Y15.0500
G01 Z-0.7000
G01 Z0
G00 Z0.5000
G01 Z-1.4000
G01 Z0
G00 Z0.5000
G01 Z-1.7000
G01 Z0
G00 Z0.5000
G00 X28.6808 Y17.5900
G01 Z-0.7000
G01 Z0
G00 Z0.5000
G01 Z-1.4000
G01 Z0
G00 Z0.5000
G01 Z-1.7000
G01 Z0
G00 Z0.5000
G00 X28.1808 Y19.9900
G01 Z-0.7000
G01 Z0
G00 Z0.5000
G01 Z-1.4000
G01 Z0
G00 Z0.5000
G01 Z-1.7000
G01 Z0
G00 Z0.5000
G00 X30.6808 Y19.9900
G01 Z-0.7000
G01 Z0
G00 Z0.5000
G01 Z-1.4000
G01 Z0
G00 Z0.5000
G01 Z-1.7000
G01 Z0
G00 Z0.5000
G01 F300.00

M5             
G00 Z40.0000
G00 X0.0000 Y0.0000                
T2 M6
(MSG, Change to Tool Dia = 1.0000 ||| Total drills for tool T2 = 5)
M0
G00 Z40.0000

G01 F300.00
M03
G00 X30.8108 Y29.4600
G01 Z-0.7000
G01 Z0
G00 Z0.5000
G01 Z-1.4000
G01 Z0
G00 Z0.5000
G01 Z-1.7000
G01 Z0
G00 Z0.5000
G00 X23.9908 Y18.8000
G01 Z-0.7000
G01 Z0
G00 Z0.5000
G01 Z-1.4000
G01 Z0
G00 Z0.5000
G01 Z-1.7000
G01 Z0
G00 Z0.5000
G00 X16.3708 Y18.8000
G01 Z-0.7000
G01 Z0
G00 Z0.5000
G01 Z-1.4000
G01 Z0
G00 Z0.5000
G01 Z-1.7000
G01 Z0
G00 Z0.5000
G00 X19.1008 Y10.0500
G01 Z-0.7000
G01 Z0
G00 Z0.5000
G01 Z-1.4000
G01 Z0
G00 Z0.5000
G01 Z-1.7000
G01 Z0
G00 Z0.5000
G00 X29.2608 Y10.0500
G01 Z-0.7000
G01 Z0
G00 Z0.5000
G01 Z-1.4000
G01 Z0
G00 Z0.5000
G01 Z-1.7000
G01 Z0
G00 Z0.5000
M05
G00 Z40.00
M5         ( spindle off )
M9         ( coolant off - ignored by Shapeoko if unused )
G28 G91 Z0 ( safe Z home )
G90        ( absolute )
G28 G91 X0 Y0 ( XY home )
G90        ( absolute )
M30        ( program end )
%
