(G-CODE GENERATED BY FLATCAM v8.994 - www.flatcam.org - Version Date: 2020/11/7)

(Name: BACK-PTH.drl_cnc)
(Type: G-code from Geometry)
(Units: MM)

(Created on Saturday, 27 June 2026 at 20:17)

(This preprocessor is used with a motion controller loaded with GRBL firmware.)
(It is configured to be compatible with almost any version of GRBL firmware.)


(TOOLS DIAMETER: )
(Tool: 1 -> Dia: 0.8)
(Tool: 2 -> Dia: 1.0)

(FEEDRATE Z: )
(Tool: 1 -> Feedrate: 300)
(Tool: 2 -> Feedrate: 300)

(FEEDRATE RAPIDS: )
(Tool: 1 -> Feedrate Rapids: 1500)
(Tool: 2 -> Feedrate Rapids: 1500)

(Z_CUT: )
(Tool: 1 -> Z_Cut: -1.6)
(Tool: 2 -> Z_Cut: -1.6)

(Tools Offset: )
(Tool: 1 -> Offset Z: 0.0)
(Tool: 2 -> Offset Z: 0.0)

(DEPTH_PER_CUT: )
(Tool: 1 -> DeptPerCut: 0.8)
(Tool: 2 -> DeptPerCut: 0.8)

(Z_MOVE: )
(Tool: 1 -> Z_Move: 0.5)
(Tool: 2 -> Z_Move: 0.5)

(Z Toolchange: 40 mm)
(X,Y Toolchange: 0.0000, 0.0000 mm)
(Z Start: None mm)
(Z End: 40 mm)
(X,Y End: None mm)
(Steps per circle: 64)
(Steps per circle: 64)
(Preprocessor Excellon: grbl_11)

(X range:    7.1509 ...  131.7309  mm)
(Y range:   -1.4500 ...   64.8000  mm)

(Spindle Speed: 0 RPM)
G21
G90
G17
G94


G01 F300.00

M5             
G00 Z40.0000
G00 X0.0000 Y0.0000                
T1
M6
(MSG, Change to Tool Dia = 0.8000 ||| Total drills for tool T1 = 48)
M0
G00 Z40.0000

G01 F300.00
M03
G00 X131.3309 Y36.6000
G01 Z-0.8000
G01 Z0
G00 Z0.5000
G01 Z-1.6000
G01 Z0
G00 Z0.5000
G00 X131.3309 Y34.6000
G01 Z-0.8000
G01 Z0
G00 Z0.5000
G01 Z-1.6000
G01 Z0
G00 Z0.5000
G00 X126.4809 Y21.0500
G01 Z-0.8000
G01 Z0
G00 Z0.5000
G01 Z-1.6000
G01 Z0
G00 Z0.5000
G00 X123.4809 Y21.0500
G01 Z-0.8000
G01 Z0
G00 Z0.5000
G01 Z-1.6000
G01 Z0
G00 Z0.5000
G00 X126.7049 Y11.6000
G01 Z-0.8000
G01 Z0
G00 Z0.5000
G01 Z-1.6000
G01 Z0
G00 Z0.5000
G00 X124.1649 Y11.6000
G01 Z-0.8000
G01 Z0
G00 Z0.5000
G01 Z-1.6000
G01 Z0
G00 Z0.5000
G00 X126.7049 Y2.6000
G01 Z-0.8000
G01 Z0
G00 Z0.5000
G01 Z-1.6000
G01 Z0
G00 Z0.5000
G00 X116.2569 Y2.6000
G01 Z-0.8000
G01 Z0
G00 Z0.5000
G01 Z-1.6000
G01 Z0
G00 Z0.5000
G00 X116.2569 Y11.6000
G01 Z-0.8000
G01 Z0
G00 Z0.5000
G01 Z-1.6000
G01 Z0
G00 Z0.5000
G00 X118.7969 Y11.6000
G01 Z-0.8000
G01 Z0
G00 Z0.5000
G01 Z-1.6000
G01 Z0
G00 Z0.5000
G00 X120.4809 Y21.0500
G01 Z-0.8000
G01 Z0
G00 Z0.5000
G01 Z-1.6000
G01 Z0
G00 Z0.5000
G00 X118.4809 Y25.8000
G01 Z-0.8000
G01 Z0
G00 Z0.5000
G01 Z-1.6000
G01 Z0
G00 Z0.5000
G00 X118.4809 Y30.8000
G01 Z-0.8000
G01 Z0
G00 Z0.5000
G01 Z-1.6000
G01 Z0
G00 Z0.5000
G00 X103.2309 Y34.0500
G01 Z-0.8000
G01 Z0
G00 Z0.5000
G01 Z-1.6000
G01 Z0
G00 Z0.5000
G00 X99.1809 Y36.5000
G01 Z-0.8000
G01 Z0
G00 Z0.5000
G01 Z-1.6000
G01 Z0
G00 Z0.5000
G00 X85.7309 Y27.3000
G01 Z-0.8000
G01 Z0
G00 Z0.5000
G01 Z-1.6000
G01 Z0
G00 Z0.5000
G00 X82.9809 Y27.0500
G01 Z-0.8000
G01 Z0
G00 Z0.5000
G01 Z-1.6000
G01 Z0
G00 Z0.5000
G00 X59.7309 Y36.3000
G01 Z-0.8000
G01 Z0
G00 Z0.5000
G01 Z-1.6000
G01 Z0
G00 Z0.5000
G00 X23.7309 Y-1.0120
G01 Z-0.8000
G01 Z0
G00 Z0.5000
G01 Z-1.6000
G01 Z0
G00 Z0.5000
G00 X21.1909 Y-1.0120
G01 Z-0.8000
G01 Z0
G00 Z0.5000
G01 Z-1.6000
G01 Z0
G00 Z0.5000
G00 X18.6509 Y-1.0120
G01 Z-0.8000
G01 Z0
G00 Z0.5000
G01 Z-1.6000
G01 Z0
G00 Z0.5000
G00 X18.6509 Y13.2370
G01 Z-0.8000
G01 Z0
G00 Z0.5000
G01 Z-1.6000
G01 Z0
G00 Z0.5000
G00 X21.1909 Y13.2370
G01 Z-0.8000
G01 Z0
G00 Z0.5000
G01 Z-1.6000
G01 Z0
G00 Z0.5000
G00 X23.7309 Y13.2370
G01 Z-0.8000
G01 Z0
G00 Z0.5000
G01 Z-1.6000
G01 Z0
G00 Z0.5000
G00 X23.7309 Y27.6750
G01 Z-0.8000
G01 Z0
G00 Z0.5000
G01 Z-1.6000
G01 Z0
G00 Z0.5000
G00 X21.1909 Y27.6750
G01 Z-0.8000
G01 Z0
G00 Z0.5000
G01 Z-1.6000
G01 Z0
G00 Z0.5000
G00 X18.6509 Y27.6750
G01 Z-0.8000
G01 Z0
G00 Z0.5000
G01 Z-1.6000
G01 Z0
G00 Z0.5000
G00 X25.7309 Y52.5500
G01 Z-0.8000
G01 Z0
G00 Z0.5000
G01 Z-1.6000
G01 Z0
G00 Z0.5000
G00 X25.7409 Y56.3000
G01 Z-0.8000
G01 Z0
G00 Z0.5000
G01 Z-1.6000
G01 Z0
G00 Z0.5000
G00 X25.7409 Y60.0500
G01 Z-0.8000
G01 Z0
G00 Z0.5000
G01 Z-1.6000
G01 Z0
G00 Z0.5000
G00 X35.8909 Y52.5500
G01 Z-0.8000
G01 Z0
G00 Z0.5000
G01 Z-1.6000
G01 Z0
G00 Z0.5000
G00 X35.9009 Y56.3000
G01 Z-0.8000
G01 Z0
G00 Z0.5000
G01 Z-1.6000
G01 Z0
G00 Z0.5000
G00 X35.9009 Y60.0500
G01 Z-0.8000
G01 Z0
G00 Z0.5000
G01 Z-1.6000
G01 Z0
G00 Z0.5000
G00 X39.4809 Y63.7000
G01 Z-0.8000
G01 Z0
G00 Z0.5000
G01 Z-1.6000
G01 Z0
G00 Z0.5000
G00 X43.5429 Y63.7000
G01 Z-0.8000
G01 Z0
G00 Z0.5000
G01 Z-1.6000
G01 Z0
G00 Z0.5000
G00 X47.4809 Y63.7000
G01 Z-0.8000
G01 Z0
G00 Z0.5000
G01 Z-1.6000
G01 Z0
G00 Z0.5000
G00 X64.7809 Y64.0500
G01 Z-0.8000
G01 Z0
G00 Z0.5000
G01 Z-1.6000
G01 Z0
G00 Z0.5000
G00 X74.9409 Y64.0500
G01 Z-0.8000
G01 Z0
G00 Z0.5000
G01 Z-1.6000
G01 Z0
G00 Z0.5000
G00 X69.9009 Y52.8000
G01 Z-0.8000
G01 Z0
G00 Z0.5000
G01 Z-1.6000
G01 Z0
G00 Z0.5000
G00 X78.1509 Y48.3000
G01 Z-0.8000
G01 Z0
G00 Z0.5000
G01 Z-1.6000
G01 Z0
G00 Z0.5000
G00 X80.0609 Y52.8000
G01 Z-0.8000
G01 Z0
G00 Z0.5000
G01 Z-1.6000
G01 Z0
G00 Z0.5000
G00 X88.3109 Y48.3000
G01 Z-0.8000
G01 Z0
G00 Z0.5000
G01 Z-1.6000
G01 Z0
G00 Z0.5000
G00 X89.3209 Y50.8000
G01 Z-0.8000
G01 Z0
G00 Z0.5000
G01 Z-1.6000
G01 Z0
G00 Z0.5000
G00 X88.9809 Y56.5500
G01 Z-0.8000
G01 Z0
G00 Z0.5000
G01 Z-1.6000
G01 Z0
G00 Z0.5000
G00 X99.1409 Y56.5500
G01 Z-0.8000
G01 Z0
G00 Z0.5000
G01 Z-1.6000
G01 Z0
G00 Z0.5000
G00 X99.4809 Y50.8000
G01 Z-0.8000
G01 Z0
G00 Z0.5000
G01 Z-1.6000
G01 Z0
G00 Z0.5000
G00 X116.8809 Y41.0000
G01 Z-0.8000
G01 Z0
G00 Z0.5000
G01 Z-1.6000
G01 Z0
G00 Z0.5000
G00 X116.8809 Y43.0000
G01 Z-0.8000
G01 Z0
G00 Z0.5000
G01 Z-1.6000
G01 Z0
G00 Z0.5000
G01 F300.00

M5             
G00 Z40.0000
G00 X0.0000 Y0.0000                
T2
M6
(MSG, Change to Tool Dia = 1.0000 ||| Total drills for tool T2 = 73)
M0
G00 Z40.0000

G01 F300.00
M03
G00 X128.4809 Y29.0500
G01 Z-0.8000
G01 Z0
G00 Z0.5000
G01 Z-1.6000
G01 Z0
G00 Z0.5000
G00 X123.9809 Y15.3000
G01 Z-0.8000
G01 Z0
G00 Z0.5000
G01 Z-1.6000
G01 Z0
G00 Z0.5000
G00 X116.9809 Y15.5500
G01 Z-0.8000
G01 Z0
G00 Z0.5000
G01 Z-1.6000
G01 Z0
G00 Z0.5000
G00 X103.3509 Y30.5500
G01 Z-0.8000
G01 Z0
G00 Z0.5000
G01 Z-1.6000
G01 Z0
G00 Z0.5000
G00 X100.8109 Y30.5500
G01 Z-0.8000
G01 Z0
G00 Z0.5000
G01 Z-1.6000
G01 Z0
G00 Z0.5000
G00 X98.2709 Y30.5500
G01 Z-0.8000
G01 Z0
G00 Z0.5000
G01 Z-1.6000
G01 Z0
G00 Z0.5000
G00 X95.7309 Y30.5500
G01 Z-0.8000
G01 Z0
G00 Z0.5000
G01 Z-1.6000
G01 Z0
G00 Z0.5000
G00 X93.1909 Y30.5500
G01 Z-0.8000
G01 Z0
G00 Z0.5000
G01 Z-1.6000
G01 Z0
G00 Z0.5000
G00 X90.6509 Y30.5500
G01 Z-0.8000
G01 Z0
G00 Z0.5000
G01 Z-1.6000
G01 Z0
G00 Z0.5000
G00 X88.1109 Y30.5500
G01 Z-0.8000
G01 Z0
G00 Z0.5000
G01 Z-1.6000
G01 Z0
G00 Z0.5000
G00 X85.5709 Y30.5500
G01 Z-0.8000
G01 Z0
G00 Z0.5000
G01 Z-1.6000
G01 Z0
G00 Z0.5000
G00 X83.0309 Y30.5500
G01 Z-0.8000
G01 Z0
G00 Z0.5000
G01 Z-1.6000
G01 Z0
G00 Z0.5000
G00 X90.2359 Y39.8900
G01 Z-0.8000
G01 Z0
G00 Z0.5000
G01 Z-1.6000
G01 Z0
G00 Z0.5000
G00 X87.6959 Y39.8900
G01 Z-0.8000
G01 Z0
G00 Z0.5000
G01 Z-1.6000
G01 Z0
G00 Z0.5000
G00 X85.1559 Y39.8900
G01 Z-0.8000
G01 Z0
G00 Z0.5000
G01 Z-1.6000
G01 Z0
G00 Z0.5000
G00 X82.6159 Y39.8900
G01 Z-0.8000
G01 Z0
G00 Z0.5000
G01 Z-1.6000
G01 Z0
G00 Z0.5000
G00 X80.0759 Y39.8900
G01 Z-0.8000
G01 Z0
G00 Z0.5000
G01 Z-1.6000
G01 Z0
G00 Z0.5000
G00 X77.5359 Y39.8900
G01 Z-0.8000
G01 Z0
G00 Z0.5000
G01 Z-1.6000
G01 Z0
G00 Z0.5000
G00 X74.9959 Y39.8900
G01 Z-0.8000
G01 Z0
G00 Z0.5000
G01 Z-1.6000
G01 Z0
G00 Z0.5000
G00 X72.4559 Y39.8900
G01 Z-0.8000
G01 Z0
G00 Z0.5000
G01 Z-1.6000
G01 Z0
G00 Z0.5000
G00 X64.8359 Y39.8900
G01 Z-0.8000
G01 Z0
G00 Z0.5000
G01 Z-1.6000
G01 Z0
G00 Z0.5000
G00 X62.2959 Y39.8900
G01 Z-0.8000
G01 Z0
G00 Z0.5000
G01 Z-1.6000
G01 Z0
G00 Z0.5000
G00 X59.7559 Y39.8900
G01 Z-0.8000
G01 Z0
G00 Z0.5000
G01 Z-1.6000
G01 Z0
G00 Z0.5000
G00 X60.9809 Y27.8000
G01 Z-0.8000
G01 Z0
G00 Z0.5000
G01 Z-1.6000
G01 Z0
G00 Z0.5000
G00 X65.9809 Y27.8000
G01 Z-0.8000
G01 Z0
G00 Z0.5000
G01 Z-1.6000
G01 Z0
G00 Z0.5000
G00 X78.7109 Y21.2500
G01 Z-0.8000
G01 Z0
G00 Z0.5000
G01 Z-1.6000
G01 Z0
G00 Z0.5000
G00 X76.1709 Y21.2500
G01 Z-0.8000
G01 Z0
G00 Z0.5000
G01 Z-1.6000
G01 Z0
G00 Z0.5000
G00 X73.6309 Y21.2500
G01 Z-0.8000
G01 Z0
G00 Z0.5000
G01 Z-1.6000
G01 Z0
G00 Z0.5000
G00 X71.0909 Y21.2500
G01 Z-0.8000
G01 Z0
G00 Z0.5000
G01 Z-1.6000
G01 Z0
G00 Z0.5000
G00 X68.5509 Y21.2500
G01 Z-0.8000
G01 Z0
G00 Z0.5000
G01 Z-1.6000
G01 Z0
G00 Z0.5000
G00 X66.0109 Y21.2500
G01 Z-0.8000
G01 Z0
G00 Z0.5000
G01 Z-1.6000
G01 Z0
G00 Z0.5000
G00 X63.4709 Y21.2500
G01 Z-0.8000
G01 Z0
G00 Z0.5000
G01 Z-1.6000
G01 Z0
G00 Z0.5000
G00 X60.9309 Y21.2500
G01 Z-0.8000
G01 Z0
G00 Z0.5000
G01 Z-1.6000
G01 Z0
G00 Z0.5000
G00 X27.2309 Y13.3000
G01 Z-0.8000
G01 Z0
G00 Z0.5000
G01 Z-1.6000
G01 Z0
G00 Z0.5000
G00 X27.2309 Y-0.9500
G01 Z-0.8000
G01 Z0
G00 Z0.5000
G01 Z-1.6000
G01 Z0
G00 Z0.5000
G00 X15.1509 Y2.6120
G01 Z-0.8000
G01 Z0
G00 Z0.5000
G01 Z-1.6000
G01 Z0
G00 Z0.5000
G00 X7.6509 Y2.3620
G01 Z-0.8000
G01 Z0
G00 Z0.5000
G01 Z-1.6000
G01 Z0
G00 Z0.5000
G00 X15.1509 Y9.6120
G01 Z-0.8000
G01 Z0
G00 Z0.5000
G01 Z-1.6000
G01 Z0
G00 Z0.5000
G00 X7.6509 Y10.3620
G01 Z-0.8000
G01 Z0
G00 Z0.5000
G01 Z-1.6000
G01 Z0
G00 Z0.5000
G00 X7.6509 Y16.7380
G01 Z-0.8000
G01 Z0
G00 Z0.5000
G01 Z-1.6000
G01 Z0
G00 Z0.5000
G00 X15.1509 Y16.9880
G01 Z-0.8000
G01 Z0
G00 Z0.5000
G01 Z-1.6000
G01 Z0
G00 Z0.5000
G00 X15.1509 Y23.9870
G01 Z-0.8000
G01 Z0
G00 Z0.5000
G01 Z-1.6000
G01 Z0
G00 Z0.5000
G00 X7.6509 Y24.7370
G01 Z-0.8000
G01 Z0
G00 Z0.5000
G01 Z-1.6000
G01 Z0
G00 Z0.5000
G00 X7.6509 Y30.9250
G01 Z-0.8000
G01 Z0
G00 Z0.5000
G01 Z-1.6000
G01 Z0
G00 Z0.5000
G00 X7.6509 Y38.9250
G01 Z-0.8000
G01 Z0
G00 Z0.5000
G01 Z-1.6000
G01 Z0
G00 Z0.5000
G00 X15.1509 Y38.1750
G01 Z-0.8000
G01 Z0
G00 Z0.5000
G01 Z-1.6000
G01 Z0
G00 Z0.5000
G00 X15.1509 Y31.1750
G01 Z-0.8000
G01 Z0
G00 Z0.5000
G01 Z-1.6000
G01 Z0
G00 Z0.5000
G00 X27.2309 Y27.8000
G01 Z-0.8000
G01 Z0
G00 Z0.5000
G01 Z-1.6000
G01 Z0
G00 Z0.5000
G00 X47.1809 Y38.4900
G01 Z-0.8000
G01 Z0
G00 Z0.5000
G01 Z-1.6000
G01 Z0
G00 Z0.5000
G00 X47.1809 Y41.0300
G01 Z-0.8000
G01 Z0
G00 Z0.5000
G01 Z-1.6000
G01 Z0
G00 Z0.5000
G00 X47.1809 Y43.5700
G01 Z-0.8000
G01 Z0
G00 Z0.5000
G01 Z-1.6000
G01 Z0
G00 Z0.5000
G00 X47.1809 Y46.1100
G01 Z-0.8000
G01 Z0
G00 Z0.5000
G01 Z-1.6000
G01 Z0
G00 Z0.5000
G00 X40.9009 Y59.8000
G01 Z-0.8000
G01 Z0
G00 Z0.5000
G01 Z-1.6000
G01 Z0
G00 Z0.5000
G00 X43.4409 Y59.8000
G01 Z-0.8000
G01 Z0
G00 Z0.5000
G01 Z-1.6000
G01 Z0
G00 Z0.5000
G00 X45.9809 Y59.8000
G01 Z-0.8000
G01 Z0
G00 Z0.5000
G01 Z-1.6000
G01 Z0
G00 Z0.5000
G00 X59.7309 Y64.3000
G01 Z-0.8000
G01 Z0
G00 Z0.5000
G01 Z-1.6000
G01 Z0
G00 Z0.5000
G00 X59.7559 Y60.2100
G01 Z-0.8000
G01 Z0
G00 Z0.5000
G01 Z-1.6000
G01 Z0
G00 Z0.5000
G00 X62.2959 Y60.2100
G01 Z-0.8000
G01 Z0
G00 Z0.5000
G01 Z-1.6000
G01 Z0
G00 Z0.5000
G00 X64.8359 Y60.2100
G01 Z-0.8000
G01 Z0
G00 Z0.5000
G01 Z-1.6000
G01 Z0
G00 Z0.5000
G00 X67.3759 Y60.2100
G01 Z-0.8000
G01 Z0
G00 Z0.5000
G01 Z-1.6000
G01 Z0
G00 Z0.5000
G00 X69.9159 Y60.2100
G01 Z-0.8000
G01 Z0
G00 Z0.5000
G01 Z-1.6000
G01 Z0
G00 Z0.5000
G00 X72.4559 Y60.2100
G01 Z-0.8000
G01 Z0
G00 Z0.5000
G01 Z-1.6000
G01 Z0
G00 Z0.5000
G00 X74.9959 Y60.2100
G01 Z-0.8000
G01 Z0
G00 Z0.5000
G01 Z-1.6000
G01 Z0
G00 Z0.5000
G00 X77.5359 Y60.2100
G01 Z-0.8000
G01 Z0
G00 Z0.5000
G01 Z-1.6000
G01 Z0
G00 Z0.5000
G00 X80.0759 Y60.2100
G01 Z-0.8000
G01 Z0
G00 Z0.5000
G01 Z-1.6000
G01 Z0
G00 Z0.5000
G00 X82.6159 Y60.2100
G01 Z-0.8000
G01 Z0
G00 Z0.5000
G01 Z-1.6000
G01 Z0
G00 Z0.5000
G00 X85.1559 Y60.2100
G01 Z-0.8000
G01 Z0
G00 Z0.5000
G01 Z-1.6000
G01 Z0
G00 Z0.5000
G00 X87.6959 Y60.2100
G01 Z-0.8000
G01 Z0
G00 Z0.5000
G01 Z-1.6000
G01 Z0
G00 Z0.5000
G00 X97.7309 Y60.0500
G01 Z-0.8000
G01 Z0
G00 Z0.5000
G01 Z-1.6000
G01 Z0
G00 Z0.5000
G00 X85.4809 Y53.0500
G01 Z-0.8000
G01 Z0
G00 Z0.5000
G01 Z-1.6000
G01 Z0
G00 Z0.5000
G00 X93.2309 Y46.3000
G01 Z-0.8000
G01 Z0
G00 Z0.5000
G01 Z-1.6000
G01 Z0
G00 Z0.5000
G00 X95.3159 Y39.8900
G01 Z-0.8000
G01 Z0
G00 Z0.5000
G01 Z-1.6000
G01 Z0
G00 Z0.5000
G00 X97.8559 Y39.8900
G01 Z-0.8000
G01 Z0
G00 Z0.5000
G01 Z-1.6000
G01 Z0
G00 Z0.5000
M05
G00 Z40.00


