(G-CODE GENERATED BY FLATCAM v8.994 - www.flatcam.org - Version Date: 2020/11/7)

(Name: FRONT_0.4mm_ISOLATION_cnc)
(Type: G-code from Geometry)
(Units: MM)

(Created on Saturday, 27 June 2026 at 22:22)

(This preprocessor is used with a motion controller loaded with GRBL firmware.)
(It is configured to be compatible with almost any version of GRBL firmware.)

(TOOL DIAMETER: 0.4 mm)
(Feedrate_XY: 350.0 mm/min)
(Feedrate_Z: 250.0 mm/min)
(Feedrate rapids 1500.0 mm/min)

(Z_Cut: -0.05 mm)
(Z_Move: 0.5 mm)
(Z Start: None mm)
(Z End: 40.0 mm)
(X,Y End: None mm)
(Steps per circle: 64)
(Steps per circle: 64)
(Preprocessor Geometry: grbl_11)

(X range:   -3.7003 ...  125.5300  mm)
(Y range:   -2.7125 ...   67.7503  mm)

(Spindle Speed: 0.0 RPM)
G21
G90
G17
G94


G01 F350.00

M5             
G00 Z40.0000
G00 X0.0000 Y0.0000                
T1
M6
(MSG, Change to Tool Dia = 0.4000)
M0
G00 Z40.0000

M03
G01 F350.00
G00 X3.5830 Y1.8476
G01 F250.00
G01 Z-0.0500
G01 F350.00
G01 X3.5991 Y1.7409 F350.00
G01 X3.6251 Y1.6361 F350.00
G01 X3.6308 Y1.6173 F350.00
G01 X3.6673 Y1.5158 F350.00
G01 X3.7177 Y1.4093 F350.00
G01 X3.7730 Y1.3166 F350.00
G01 X3.7839 Y1.3003 F350.00
G01 X3.8484 Y1.2137 F350.00
G01 X3.9207 Y1.1336 F350.00
G01 X3.9346 Y1.1197 F350.00
G01 X4.0147 Y1.0474 F350.00
G01 X4.1093 Y0.9772 F350.00
G01 X4.2103 Y0.9167 F350.00
G01 X4.3078 Y0.8703 F350.00
G01 X4.3259 Y0.8628 F350.00
G01 X4.4277 Y0.8267 F350.00
G01 X4.5419 Y0.7981 F350.00
G01 X4.6486 Y0.7820 F350.00
G01 X4.6682 Y0.7801 F350.00
G01 X4.7760 Y0.7750 F350.00
G01 X4.8838 Y0.7801 F350.00
G01 X4.9034 Y0.7820 F350.00
G01 X5.0101 Y0.7981 F350.00
G01 X5.1243 Y0.8267 F350.00
G01 X5.2261 Y0.8628 F350.00
G01 X5.2442 Y0.8703 F350.00
G01 X5.3417 Y0.9167 F350.00
G01 X5.4427 Y0.9772 F350.00
G01 X5.5295 Y1.0413 F350.00
G01 X5.5447 Y1.0538 F350.00
G01 X5.6245 Y1.1265 F350.00
G01 X5.7005 Y1.2100 F350.00
G01 X5.7097 Y1.2215 F350.00
G01 X5.7681 Y1.3003 F350.00
G01 X5.7790 Y1.3166 F350.00
G01 X5.8343 Y1.4093 F350.00
G01 X5.8847 Y1.5158 F350.00
G01 X5.9212 Y1.6173 F350.00
G01 X5.9269 Y1.6361 F350.00
G01 X5.9529 Y1.7409 F350.00
G01 X5.9697 Y1.8525 F350.00
G01 X5.9709 Y1.8672 F350.00
G01 X5.9760 Y1.9750 F350.00
G01 X5.9760 Y3.2250 F350.00
G01 X5.9709 Y3.3328 F350.00
G01 X5.9690 Y3.3524 F350.00
G01 X5.9529 Y3.4591 F350.00
G01 X5.9243 Y3.5733 F350.00
G01 X5.8847 Y3.6842 F350.00
G01 X5.8343 Y3.7907 F350.00
G01 X5.7738 Y3.8917 F350.00
G01 X5.7036 Y3.9863 F350.00
G01 X5.6245 Y4.0735 F350.00
G01 X5.5410 Y4.1495 F350.00
G01 X5.5295 Y4.1587 F350.00
G01 X5.4427 Y4.2228 F350.00
G01 X5.3417 Y4.2833 F350.00
G01 X5.2352 Y4.3337 F350.00
G01 X5.1243 Y4.3733 F350.00
G01 X5.0101 Y4.4019 F350.00
G01 X4.8936 Y4.4192 F350.00
G01 X4.7760 Y4.4250 F350.00
G01 X4.6584 Y4.4192 F350.00
G01 X4.5419 Y4.4019 F350.00
G01 X4.4277 Y4.3733 F350.00
G01 X4.3168 Y4.3337 F350.00
G01 X4.2103 Y4.2833 F350.00
G01 X4.1093 Y4.2228 F350.00
G01 X4.0147 Y4.1526 F350.00
G01 X3.9275 Y4.0735 F350.00
G01 X3.8515 Y3.9900 F350.00
G01 X3.8423 Y3.9785 F350.00
G01 X3.7839 Y3.8997 F350.00
G01 X3.7730 Y3.8834 F350.00
G01 X3.7177 Y3.7907 F350.00
G01 X3.6673 Y3.6842 F350.00
G01 X3.6308 Y3.5827 F350.00
G01 X3.6251 Y3.5639 F350.00
G01 X3.5991 Y3.4591 F350.00
G01 X3.5823 Y3.3475 F350.00
G01 X3.5811 Y3.3328 F350.00
G01 X3.5760 Y3.2250 F350.00
G01 X3.5760 Y1.9750 F350.00
G01 X3.5811 Y1.8672 F350.00
G01 X3.5830 Y1.8476 F350.00
G00 Z0.5000
G00 X3.5830 Y10.8476
G01 F250.00
G01 Z-0.0500
G01 F350.00
G01 X3.5991 Y10.7409 F350.00
G01 X3.6251 Y10.6361 F350.00
G01 X3.6308 Y10.6173 F350.00
G01 X3.6673 Y10.5158 F350.00
G01 X3.7177 Y10.4093 F350.00
G01 X3.7730 Y10.3166 F350.00
G01 X3.7839 Y10.3003 F350.00
G01 X3.8484 Y10.2137 F350.00
G01 X3.9207 Y10.1336 F350.00
G01 X3.9346 Y10.1197 F350.00
G01 X4.0147 Y10.0474 F350.00
G01 X4.1093 Y9.9772 F350.00
G01 X4.2103 Y9.9167 F350.00
G01 X4.3078 Y9.8703 F350.00
G01 X4.3259 Y9.8628 F350.00
G01 X4.4277 Y9.8267 F350.00
G01 X4.5419 Y9.7981 F350.00
G01 X4.6486 Y9.7820 F350.00
G01 X4.6682 Y9.7801 F350.00
G01 X4.7760 Y9.7750 F350.00
G01 X4.8838 Y9.7801 F350.00
G01 X4.9034 Y9.7820 F350.00
G01 X5.0101 Y9.7981 F350.00
G01 X5.1243 Y9.8267 F350.00
G01 X5.2261 Y9.8628 F350.00
G01 X5.2442 Y9.8703 F350.00
G01 X5.3417 Y9.9167 F350.00
G01 X5.4427 Y9.9772 F350.00
G01 X5.5295 Y10.0413 F350.00
G01 X5.5447 Y10.0538 F350.00
G01 X5.6245 Y10.1265 F350.00
G01 X5.7005 Y10.2100 F350.00
G01 X5.7097 Y10.2215 F350.00
G01 X5.7681 Y10.3003 F350.00
G01 X5.7790 Y10.3166 F350.00
G01 X5.8343 Y10.4093 F350.00
G01 X5.8847 Y10.5158 F350.00
G01 X5.9212 Y10.6173 F350.00
G01 X5.9269 Y10.6361 F350.00
G01 X5.9529 Y10.7409 F350.00
G01 X5.9697 Y10.8525 F350.00
G01 X5.9709 Y10.8672 F350.00
G01 X5.9760 Y10.9750 F350.00
G01 X5.9760 Y12.2250 F350.00
G01 X5.9709 Y12.3328 F350.00
G01 X5.9690 Y12.3524 F350.00
G01 X5.9529 Y12.4591 F350.00
G01 X5.9243 Y12.5733 F350.00
G01 X5.8847 Y12.6842 F350.00
G01 X5.8343 Y12.7907 F350.00
G01 X5.7738 Y12.8917 F350.00
G01 X5.7036 Y12.9863 F350.00
G01 X5.6245 Y13.0735 F350.00
G01 X5.5410 Y13.1495 F350.00
G01 X5.5295 Y13.1587 F350.00
G01 X5.4427 Y13.2228 F350.00
G01 X5.3417 Y13.2833 F350.00
G01 X5.2352 Y13.3337 F350.00
G01 X5.1243 Y13.3733 F350.00
G01 X5.0101 Y13.4019 F350.00
G01 X4.8936 Y13.4192 F350.00
G01 X4.7760 Y13.4250 F350.00
G01 X4.6584 Y13.4192 F350.00
G01 X4.5419 Y13.4019 F350.00
G01 X4.4277 Y13.3733 F350.00
G01 X4.3168 Y13.3337 F350.00
G01 X4.2103 Y13.2833 F350.00
G01 X4.1093 Y13.2228 F350.00
G01 X4.0147 Y13.1526 F350.00
G01 X3.9275 Y13.0735 F350.00
G01 X3.8515 Y12.9900 F350.00
G01 X3.8423 Y12.9785 F350.00
G01 X3.7839 Y12.8997 F350.00
G01 X3.7730 Y12.8834 F350.00
G01 X3.7177 Y12.7907 F350.00
G01 X3.6673 Y12.6842 F350.00
G01 X3.6308 Y12.5827 F350.00
G01 X3.6251 Y12.5639 F350.00
G01 X3.5991 Y12.4591 F350.00
G01 X3.5823 Y12.3475 F350.00
G01 X3.5811 Y12.3328 F350.00
G01 X3.5760 Y12.2250 F350.00
G01 X3.5760 Y10.9750 F350.00
G01 X3.5811 Y10.8672 F350.00
G01 X3.5830 Y10.8476 F350.00
G00 Z0.5000
G00 X-3.7000 Y14.5402
G01 F250.00
G01 Z-0.0500
G01 F350.00
G01 X-3.6969 Y14.4814 F350.00
G01 X-3.6868 Y14.4134 F350.00
G01 X-3.6701 Y14.3467 F350.00
G01 X-3.6469 Y14.2820 F350.00
G01 X-3.6176 Y14.2199 F350.00
G01 X-3.5822 Y14.1610 F350.00
G01 X-3.5413 Y14.1058 F350.00
G01 X-3.4952 Y14.0548 F350.00
G01 X2.5048 Y8.0548 F350.00
G01 X2.5483 Y8.0151 F350.00
G01 X2.5635 Y8.0027 F350.00
G01 X2.6110 Y7.9678 F350.00
G01 X2.6614 Y7.9373 F350.00
G01 X2.6787 Y7.9280 F350.00
G01 X2.7320 Y7.9031 F350.00
G01 X2.7874 Y7.8830 F350.00
G01 X2.8062 Y7.8773 F350.00
G01 X2.8634 Y7.8632 F350.00
G01 X2.9216 Y7.8543 F350.00
G01 X2.9412 Y7.8524 F350.00
G01 X3.0000 Y7.8497 F350.00
G01 X9.6340 Y7.8497 F350.00
G01 X9.7026 Y7.8531 F350.00
G01 X9.7706 Y7.8632 F350.00
G01 X9.8373 Y7.8799 F350.00
G01 X9.8928 Y7.8995 F350.00
G01 X9.9109 Y7.9070 F350.00
G01 X9.9641 Y7.9324 F350.00
G01 X10.0147 Y7.9625 F350.00
G01 X10.0311 Y7.9734 F350.00
G01 X10.0782 Y8.0087 F350.00
G01 X10.1220 Y8.0481 F350.00
G01 X11.9743 Y9.9000 F350.00
G01 X13.6889 Y9.9001 F350.00
G01 X13.7085 Y9.9015 F350.00
G01 X13.7230 Y9.9038 F350.00
G01 X13.7373 Y9.9072 F350.00
G01 X13.7560 Y9.9134 F350.00
G01 X13.7695 Y9.9192 F350.00
G01 X13.7868 Y9.9285 F350.00
G01 X13.7992 Y9.9365 F350.00
G01 X13.8109 Y9.9454 F350.00
G01 X13.8219 Y9.9552 F350.00
G01 X13.8288 Y9.9621 F350.00
G01 X13.8417 Y9.9770 F350.00
G01 X13.8475 Y9.9848 F350.00
G01 X13.8555 Y9.9972 F350.00
G01 X13.8648 Y10.0145 F350.00
G01 X13.8688 Y10.0235 F350.00
G01 X13.8739 Y10.0373 F350.00
G01 X13.8791 Y10.0562 F350.00
G01 X13.8825 Y10.0755 F350.00
G01 X13.8839 Y10.0951 F350.00
G01 X13.8840 Y13.1000 F350.00
G01 X13.8838 Y13.1098 F350.00
G01 X13.8825 Y13.1245 F350.00
G01 X13.8811 Y13.1342 F350.00
G01 X13.8780 Y13.1486 F350.00
G01 X13.8739 Y13.1627 F350.00
G01 X13.8688 Y13.1765 F350.00
G01 X13.8626 Y13.1899 F350.00
G01 X13.8555 Y13.2028 F350.00
G01 X13.8475 Y13.2152 F350.00
G01 X13.8386 Y13.2269 F350.00
G01 X13.8288 Y13.2379 F350.00
G01 X13.8183 Y13.2482 F350.00
G01 X13.8070 Y13.2577 F350.00
G01 X13.7992 Y13.2635 F350.00
G01 X13.7868 Y13.2715 F350.00
G01 X13.7783 Y13.2764 F350.00
G01 X13.7650 Y13.2828 F350.00
G01 X13.7514 Y13.2883 F350.00
G01 X13.7373 Y13.2928 F350.00
G01 X13.7230 Y13.2962 F350.00
G01 X13.7036 Y13.2990 F350.00
G01 X13.6889 Y13.2999 F350.00
G01 X13.3903 Y13.3000 F350.00
G01 X14.0119 Y13.9216 F350.00
G01 X14.1683 Y13.8827 F350.00
G01 X14.3236 Y13.8594 F350.00
G01 X14.3432 Y13.8575 F350.00
G01 X14.5000 Y13.8500 F350.00
G01 X14.6568 Y13.8575 F350.00
G01 X14.6764 Y13.8594 F350.00
G01 X14.8317 Y13.8827 F350.00
G01 X14.9840 Y13.9206 F350.00
G01 X15.0028 Y13.9263 F350.00
G01 X15.1506 Y13.9794 F350.00
G01 X15.2926 Y14.0463 F350.00
G01 X15.3099 Y14.0556 F350.00
G01 X15.4445 Y14.1365 F350.00
G01 X15.5707 Y14.2298 F350.00
G01 X15.5859 Y14.2423 F350.00
G01 X15.6950 Y14.3411 F350.00
G01 X15.7055 Y14.3514 F350.00
G01 X15.8077 Y14.4641 F350.00
G01 X15.8202 Y14.4793 F350.00
G01 X15.9135 Y14.6055 F350.00
G01 X15.9944 Y14.7401 F350.00
G01 X16.0037 Y14.7574 F350.00
G01 X16.0706 Y14.8994 F350.00
G01 X16.1237 Y15.0472 F350.00
G01 X16.1294 Y15.0660 F350.00
G01 X16.1673 Y15.2183 F350.00
G01 X16.1906 Y15.3736 F350.00
G01 X16.1925 Y15.3932 F350.00
G01 X16.2000 Y15.5500 F350.00
G01 X16.1925 Y15.7068 F350.00
G01 X16.1906 Y15.7264 F350.00
G01 X16.1673 Y15.8817 F350.00
G01 X16.1284 Y16.0381 F350.00
G01 X16.9952 Y16.9048 F350.00
G01 X17.0349 Y16.9483 F350.00
G01 X17.0473 Y16.9635 F350.00
G01 X17.0822 Y17.0110 F350.00
G01 X17.1176 Y17.0699 F350.00
G01 X17.1469 Y17.1320 F350.00
G01 X17.1670 Y17.1874 F350.00
G01 X17.1715 Y17.2014 F350.00
G01 X17.1868 Y17.2634 F350.00
G01 X17.1957 Y17.3216 F350.00
G01 X17.1976 Y17.3412 F350.00
G01 X17.2003 Y17.4000 F350.00
G01 X17.2003 Y22.3000 F350.00
G01 X17.1976 Y22.3588 F350.00
G01 X17.1963 Y22.3735 F350.00
G01 X17.1868 Y22.4366 F350.00
G01 X17.1727 Y22.4938 F350.00
G01 X17.1670 Y22.5126 F350.00
G01 X17.1488 Y22.5634 F350.00
G01 X17.1430 Y22.5769 F350.00
G01 X17.1176 Y22.6301 F350.00
G01 X17.0822 Y22.6890 F350.00
G01 X17.0413 Y22.7442 F350.00
G01 X17.0019 Y22.7880 F350.00
G01 X14.5575 Y25.2328 F350.00
G01 X14.5627 Y25.2431 F350.00
G01 X14.6047 Y25.3318 F350.00
G01 X14.6122 Y25.3499 F350.00
G01 X14.6483 Y25.4517 F350.00
G01 X14.6769 Y25.5659 F350.00
G01 X14.6942 Y25.6824 F350.00
G01 X14.6998 Y25.7902 F350.00
G01 X14.6998 Y25.8098 F350.00
G01 X14.6949 Y25.9078 F350.00
G01 X14.6930 Y25.9274 F350.00
G01 X14.6769 Y26.0341 F350.00
G01 X14.6483 Y26.1483 F350.00
G01 X14.6087 Y26.2592 F350.00
G01 X14.5627 Y26.3569 F350.00
G01 X14.5535 Y26.3742 F350.00
G01 X14.5030 Y26.4584 F350.00
G01 X14.4921 Y26.4747 F350.00
G01 X14.4276 Y26.5613 F350.00
G01 X14.3520 Y26.6450 F350.00
G01 X14.3414 Y26.6553 F350.00
G01 X14.2687 Y26.7212 F350.00
G01 X14.2535 Y26.7337 F350.00
G01 X14.1667 Y26.7978 F350.00
G01 X14.0657 Y26.8583 F350.00
G01 X13.9682 Y26.9047 F350.00
G01 X13.9501 Y26.9122 F350.00
G01 X13.8483 Y26.9483 F350.00
G01 X13.7389 Y26.9759 F350.00
G01 X13.7244 Y26.9786 F350.00
G01 X13.6176 Y26.9942 F350.00
G01 X13.5049 Y26.9999 F350.00
G01 X12.7903 Y27.0000 F350.00
G01 X10.9003 Y28.8901 F350.00
G01 X10.9003 Y32.1099 F350.00
G01 X16.0901 Y37.2997 F350.00
G01 X26.4000 Y37.2997 F350.00
G01 X26.4588 Y37.3024 F350.00
G01 X26.4784 Y37.3043 F350.00
G01 X26.5366 Y37.3132 F350.00
G01 X26.5938 Y37.3273 F350.00
G01 X26.6126 Y37.3330 F350.00
G01 X26.6680 Y37.3531 F350.00
G01 X26.7213 Y37.3780 F350.00
G01 X26.7344 Y37.3848 F350.00
G01 X26.7890 Y37.4178 F350.00
G01 X26.8365 Y37.4527 F350.00
G01 X26.8517 Y37.4651 F350.00
G01 X26.8952 Y37.5048 F350.00
G01 X34.8001 Y45.4097 F350.00
G01 X36.8037 Y45.4097 F350.00
G01 X36.8312 Y45.3638 F350.00
G01 X36.8393 Y45.3515 F350.00
G01 X36.9328 Y45.2254 F350.00
G01 X36.9423 Y45.2141 F350.00
G01 X37.0411 Y45.1050 F350.00
G01 X37.0514 Y45.0945 F350.00
G01 X37.1641 Y44.9923 F350.00
G01 X37.1793 Y44.9798 F350.00
G01 X37.3055 Y44.8865 F350.00
G01 X37.4443 Y44.8031 F350.00
G01 X37.4574 Y44.7963 F350.00
G01 X37.5994 Y44.7294 F350.00
G01 X37.7472 Y44.6763 F350.00
G01 X37.7660 Y44.6706 F350.00
G01 X37.9183 Y44.6327 F350.00
G01 X38.0736 Y44.6094 F350.00
G01 X38.0932 Y44.6075 F350.00
G01 X38.2500 Y44.6000 F350.00
G01 X38.4068 Y44.6075 F350.00
G01 X38.4264 Y44.6094 F350.00
G01 X38.5817 Y44.6327 F350.00
G01 X38.7340 Y44.6706 F350.00
G01 X38.7528 Y44.6763 F350.00
G01 X38.9006 Y44.7294 F350.00
G01 X39.0426 Y44.7963 F350.00
G01 X39.0557 Y44.8031 F350.00
G01 X39.1862 Y44.8812 F350.00
G01 X39.2025 Y44.8922 F350.00
G01 X39.3285 Y44.9859 F350.00
G01 X39.4486 Y45.0945 F350.00
G01 X39.4589 Y45.1050 F350.00
G01 X39.5577 Y45.2141 F350.00
G01 X39.5672 Y45.2254 F350.00
G01 X39.6607 Y45.3515 F350.00
G01 X39.6688 Y45.3638 F350.00
G01 X39.6963 Y45.4097 F350.00
G01 X76.5496 Y45.4097 F350.00
G01 X76.5496 Y34.7503 F350.00
G01 X66.4738 Y34.7503 F350.00
G01 X66.4280 Y34.8116 F350.00
G01 X66.3557 Y34.8918 F350.00
G01 X66.3418 Y34.9057 F350.00
G01 X66.2653 Y34.9748 F350.00
G01 X66.2539 Y34.9840 F350.00
G01 X66.1670 Y35.0482 F350.00
G01 X66.0745 Y35.1039 F350.00
G01 X66.0616 Y35.1110 F350.00
G01 X65.9684 Y35.1551 F350.00
G01 X65.9503 Y35.1627 F350.00
G01 X65.8485 Y35.1988 F350.00
G01 X65.7438 Y35.2253 F350.00
G01 X65.7245 Y35.2291 F350.00
G01 X65.6177 Y35.2447 F350.00
G01 X65.5000 Y35.2505 F350.00
G01 X65.3823 Y35.2447 F350.00
G01 X65.2755 Y35.2291 F350.00
G01 X65.2562 Y35.2253 F350.00
G01 X65.1515 Y35.1988 F350.00
G01 X65.0497 Y35.1627 F350.00
G01 X65.0316 Y35.1551 F350.00
G01 X64.9384 Y35.1110 F350.00
G01 X64.9255 Y35.1039 F350.00
G01 X64.8330 Y35.0482 F350.00
G01 X64.7461 Y34.9840 F350.00
G01 X64.7347 Y34.9748 F350.00
G01 X64.6582 Y34.9057 F350.00
G01 X64.6443 Y34.8918 F350.00
G01 X64.5720 Y34.8116 F350.00
G01 X64.5262 Y34.7503 F350.00
G01 X46.5757 Y34.7503 F350.00
G01 X46.5116 Y34.8080 F350.00
G01 X46.4170 Y34.8782 F350.00
G01 X46.3159 Y34.9387 F350.00
G01 X46.2094 Y34.9891 F350.00
G01 X46.0985 Y35.0288 F350.00
G01 X45.9842 Y35.0574 F350.00
G01 X45.8677 Y35.0747 F350.00
G01 X45.7500 Y35.0805 F350.00
G01 X45.6323 Y35.0747 F350.00
G01 X45.5158 Y35.0574 F350.00
G01 X45.4015 Y35.0288 F350.00
G01 X45.2906 Y34.9891 F350.00
G01 X45.1841 Y34.9387 F350.00
G01 X45.0830 Y34.8782 F350.00
G01 X44.9884 Y34.8080 F350.00
G01 X44.9243 Y34.7503 F350.00
G01 X42.0045 Y34.7503 F350.00
G01 X41.9453 Y34.8095 F350.00
G01 X41.9453 Y38.4168 F350.00
G01 X41.9985 Y38.4563 F350.00
G01 X42.0100 Y38.4655 F350.00
G01 X42.0864 Y38.5347 F350.00
G01 X42.0970 Y38.5450 F350.00
G01 X42.1726 Y38.6287 F350.00
G01 X42.2371 Y38.7153 F350.00
G01 X42.2454 Y38.7274 F350.00
G01 X42.3033 Y38.8243 F350.00
G01 X42.3537 Y38.9308 F350.00
G01 X42.3933 Y39.0417 F350.00
G01 X42.4209 Y39.1511 F350.00
G01 X42.4236 Y39.1656 F350.00
G01 X42.4392 Y39.2724 F350.00
G01 X42.4449 Y39.3851 F350.00
G01 X42.4450 Y40.3900 F350.00
G01 X42.4399 Y40.4978 F350.00
G01 X42.4387 Y40.5125 F350.00
G01 X42.4219 Y40.6241 F350.00
G01 X42.3933 Y40.7383 F350.00
G01 X42.3537 Y40.8492 F350.00
G01 X42.3033 Y40.9557 F350.00
G01 X42.2428 Y41.0567 F350.00
G01 X42.1726 Y41.1513 F350.00
G01 X42.0935 Y41.2385 F350.00
G01 X42.0137 Y41.3112 F350.00
G01 X41.9985 Y41.3237 F350.00
G01 X41.9197 Y41.3821 F350.00
G01 X41.9034 Y41.3930 F350.00
G01 X41.8107 Y41.4483 F350.00
G01 X41.7132 Y41.4947 F350.00
G01 X41.6951 Y41.5022 F350.00
G01 X41.5933 Y41.5383 F350.00
G01 X41.4791 Y41.5669 F350.00
G01 X41.3626 Y41.5842 F350.00
G01 X41.2450 Y41.5900 F350.00
G01 X41.1274 Y41.5842 F350.00
G01 X41.0109 Y41.5669 F350.00
G01 X40.8967 Y41.5383 F350.00
G01 X40.7858 Y41.4987 F350.00
G01 X40.6793 Y41.4483 F350.00
G01 X40.5783 Y41.3878 F350.00
G01 X40.4837 Y41.3176 F350.00
G01 X40.4036 Y41.2453 F350.00
G01 X40.3897 Y41.2314 F350.00
G01 X40.3238 Y41.1587 F350.00
G01 X40.3113 Y41.1435 F350.00
G01 X40.2472 Y41.0567 F350.00
G01 X40.1915 Y40.9642 F350.00
G01 X40.1823 Y40.9469 F350.00
G01 X40.1363 Y40.8492 F350.00
G01 X40.0967 Y40.7383 F350.00
G01 X40.0681 Y40.6241 F350.00
G01 X40.0508 Y40.5076 F350.00
G01 X40.0450 Y40.3900 F350.00
G01 X40.0451 Y39.3851 F350.00
G01 X40.0508 Y39.2724 F350.00
G01 X40.0664 Y39.1656 F350.00
G01 X40.0691 Y39.1511 F350.00
G01 X40.0967 Y39.0417 F350.00
G01 X40.1363 Y38.9308 F350.00
G01 X40.1867 Y38.8243 F350.00
G01 X40.2446 Y38.7274 F350.00
G01 X40.2529 Y38.7153 F350.00
G01 X40.3174 Y38.6287 F350.00
G01 X40.3930 Y38.5450 F350.00
G01 X40.4036 Y38.5347 F350.00
G01 X40.4800 Y38.4655 F350.00
G01 X40.4915 Y38.4563 F350.00
G01 X40.5447 Y38.4168 F350.00
G01 X40.5447 Y34.5195 F350.00
G01 X40.5474 Y34.4606 F350.00
G01 X40.5493 Y34.4411 F350.00
G01 X40.5582 Y34.3829 F350.00
G01 X40.5749 Y34.3162 F350.00
G01 X40.5981 Y34.2515 F350.00
G01 X40.6274 Y34.1894 F350.00
G01 X40.6628 Y34.1304 F350.00
G01 X40.6977 Y34.0830 F350.00
G01 X40.7069 Y34.0715 F350.00
G01 X40.7498 Y34.0243 F350.00
G01 X41.2228 Y33.5514 F350.00
G01 X41.2702 Y33.5087 F350.00
G01 X41.3174 Y33.4734 F350.00
G01 X41.3337 Y33.4625 F350.00
G01 X41.3844 Y33.4324 F350.00
G01 X41.4375 Y33.4070 F350.00
G01 X41.4557 Y33.3995 F350.00
G01 X41.5112 Y33.3799 F350.00
G01 X41.5683 Y33.3654 F350.00
G01 X41.5875 Y33.3615 F350.00
G01 X41.6458 Y33.3531 F350.00
G01 X41.7145 Y33.3497 F350.00
G01 X44.5495 Y33.3497 F350.00
G01 X44.5495 Y32.2055 F350.00
G01 X44.5549 Y32.0928 F350.00
G01 X44.5565 Y32.0781 F350.00
G01 X44.5726 Y31.9713 F350.00
G01 X44.5998 Y31.8618 F350.00
G01 X44.6043 Y31.8477 F350.00
G01 X44.6391 Y31.7507 F350.00
G01 X44.6449 Y31.7371 F350.00
G01 X44.6695 Y31.6851 F350.00
G01 X44.6695 Y29.4149 F350.00
G01 X44.6449 Y29.3629 F350.00
G01 X44.6391 Y29.3493 F350.00
G01 X44.6027 Y29.2476 F350.00
G01 X44.5986 Y29.2335 F350.00
G01 X44.5736 Y29.1335 F350.00
G01 X44.5709 Y29.1190 F350.00
G01 X44.5553 Y29.0121 F350.00
G01 X44.5496 Y28.8994 F350.00
G01 X44.5495 Y27.3000 F350.00
G01 X44.5500 Y27.2849 F350.00
G01 X44.5500 Y26.5941 F350.00
G01 X44.5520 Y26.5506 F350.00
G01 X44.5536 Y26.5359 F350.00
G01 X44.5586 Y26.5025 F350.00
G01 X44.5605 Y26.4929 F350.00
G01 X44.5687 Y26.4601 F350.00
G01 X44.5744 Y26.4414 F350.00
G01 X44.5858 Y26.4096 F350.00
G01 X44.5916 Y26.3961 F350.00
G01 X44.6061 Y26.3655 F350.00
G01 X44.6107 Y26.3569 F350.00
G01 X44.6280 Y26.3279 F350.00
G01 X44.6361 Y26.3156 F350.00
G01 X44.6622 Y26.2807 F350.00
G01 X44.6880 Y26.2518 F350.00
G01 X44.6982 Y26.2413 F350.00
G01 X44.7307 Y26.2122 F350.00
G01 X44.7696 Y26.1833 F350.00
G01 X44.8112 Y26.1583 F350.00
G01 X44.8550 Y26.1376 F350.00
G01 X44.9007 Y26.1213 F350.00
G01 X44.9477 Y26.1095 F350.00
G01 X44.9957 Y26.1024 F350.00
G01 X45.0343 Y26.1002 F350.00
G01 X45.7349 Y26.1000 F350.00
G01 X45.7500 Y26.0995 F350.00
G01 X45.7651 Y26.1000 F350.00
G01 X46.4559 Y26.1000 F350.00
G01 X46.5043 Y26.1024 F350.00
G01 X46.5523 Y26.1095 F350.00
G01 X46.5946 Y26.1199 F350.00
G01 X46.6086 Y26.1244 F350.00
G01 X46.6450 Y26.1376 F350.00
G01 X46.6888 Y26.1583 F350.00
G01 X46.7263 Y26.1806 F350.00
G01 X46.7384 Y26.1889 F350.00
G01 X46.7693 Y26.2122 F350.00
G01 X46.7982 Y26.2380 F350.00
G01 X46.8087 Y26.2482 F350.00
G01 X46.8378 Y26.2807 F350.00
G01 X46.8639 Y26.3156 F350.00
G01 X46.8720 Y26.3279 F350.00
G01 X46.8917 Y26.3612 F350.00
G01 X46.9105 Y26.4005 F350.00
G01 X46.9142 Y26.4096 F350.00
G01 X46.9256 Y26.4414 F350.00
G01 X46.9301 Y26.4554 F350.00
G01 X46.9405 Y26.4977 F350.00
G01 X46.9464 Y26.5359 F350.00
G01 X46.9480 Y26.5506 F350.00
G01 X46.9500 Y26.5941 F350.00
G01 X46.9500 Y27.2849 F350.00
G01 X46.9505 Y27.3000 F350.00
G01 X46.9505 Y28.4940 F350.00
G01 X46.9751 Y28.5461 F350.00
G01 X46.9809 Y28.5596 F350.00
G01 X47.0157 Y28.6567 F350.00
G01 X47.0202 Y28.6707 F350.00
G01 X47.0474 Y28.7803 F350.00
G01 X47.0647 Y28.8968 F350.00
G01 X47.0705 Y29.0145 F350.00
G01 X47.0705 Y29.7493 F350.00
G01 X47.0848 Y29.8063 F350.00
G01 X47.0878 Y29.8207 F350.00
G01 X47.1037 Y29.9275 F350.00
G01 X47.1049 Y29.9422 F350.00
G01 X47.1100 Y30.0500 F350.00
G01 X47.1099 Y31.0549 F350.00
G01 X47.1049 Y31.1578 F350.00
G01 X47.1037 Y31.1725 F350.00
G01 X47.0878 Y31.2793 F350.00
G01 X47.0848 Y31.2937 F350.00
G01 X47.0705 Y31.3507 F350.00
G01 X47.0703 Y32.0953 F350.00
G01 X47.0647 Y32.2032 F350.00
G01 X47.0491 Y32.3101 F350.00
G01 X47.0464 Y32.3245 F350.00
G01 X47.0214 Y32.4246 F350.00
G01 X47.0173 Y32.4387 F350.00
G01 X46.9809 Y32.5404 F350.00
G01 X46.9751 Y32.5539 F350.00
G01 X46.9505 Y32.6060 F350.00
G01 X46.9505 Y33.3497 F350.00
G01 X64.2995 Y33.3497 F350.00
G01 X64.2995 Y29.0036 F350.00
G01 X64.2911 Y28.9950 F350.00
G01 X64.1859 Y28.8785 F350.00
G01 X64.0865 Y28.7445 F350.00
G01 X64.0007 Y28.6014 F350.00
G01 X63.9294 Y28.4506 F350.00
G01 X63.8732 Y28.2935 F350.00
G01 X63.8327 Y28.1317 F350.00
G01 X63.8082 Y27.9666 F350.00
G01 X63.8000 Y27.8000 F350.00
G01 X63.8082 Y27.6334 F350.00
G01 X63.8327 Y27.4683 F350.00
G01 X63.8732 Y27.3065 F350.00
G01 X63.9294 Y27.1494 F350.00
G01 X64.0007 Y26.9986 F350.00
G01 X64.0865 Y26.8555 F350.00
G01 X64.1859 Y26.7215 F350.00
G01 X64.2911 Y26.6050 F350.00
G01 X64.2995 Y26.5964 F350.00
G01 X64.2995 Y22.5108 F350.00
G01 X64.2941 Y22.4889 F350.00
G01 X64.2922 Y22.4793 F350.00
G01 X64.2763 Y22.3725 F350.00
G01 X64.2751 Y22.3578 F350.00
G01 X64.2700 Y22.2500 F350.00
G01 X64.2700 Y21.2651 F350.00
G01 X64.2695 Y21.2500 F350.00
G01 X64.2700 Y21.2349 F350.00
G01 X64.2700 Y20.2500 F350.00
G01 X64.2754 Y20.1373 F350.00
G01 X64.2770 Y20.1226 F350.00
G01 X64.2931 Y20.0159 F350.00
G01 X64.3217 Y19.9017 F350.00
G01 X64.3613 Y19.7908 F350.00
G01 X64.4073 Y19.6931 F350.00
G01 X64.4165 Y19.6758 F350.00
G01 X64.4722 Y19.5833 F350.00
G01 X64.5363 Y19.4965 F350.00
G01 X64.5488 Y19.4813 F350.00
G01 X64.6147 Y19.4086 F350.00
G01 X64.6286 Y19.3947 F350.00
G01 X64.7087 Y19.3224 F350.00
G01 X64.8033 Y19.2522 F350.00
G01 X64.9043 Y19.1917 F350.00
G01 X65.0108 Y19.1413 F350.00
G01 X65.1217 Y19.1017 F350.00
G01 X65.2359 Y19.0731 F350.00
G01 X65.3524 Y19.0558 F350.00
G01 X65.4651 Y19.0501 F350.00
G01 X65.4798 Y19.0502 F350.00
G01 X65.5876 Y19.0558 F350.00
G01 X65.7041 Y19.0731 F350.00
G01 X65.8183 Y19.1017 F350.00
G01 X65.9201 Y19.1378 F350.00
G01 X65.9382 Y19.1453 F350.00
G01 X66.0357 Y19.1917 F350.00
G01 X66.1284 Y19.2470 F350.00
G01 X66.1447 Y19.2579 F350.00
G01 X66.2235 Y19.3163 F350.00
G01 X66.2387 Y19.3288 F350.00
G01 X66.3185 Y19.4015 F350.00
G01 X66.3976 Y19.4887 F350.00
G01 X66.4678 Y19.5833 F350.00
G01 X66.5283 Y19.6843 F350.00
G01 X66.5787 Y19.7908 F350.00
G01 X66.6183 Y19.9017 F350.00
G01 X66.6469 Y20.0159 F350.00
G01 X66.6642 Y20.1324 F350.00
G01 X66.6700 Y20.2500 F350.00
G01 X66.6700 Y21.0151 F350.00
G01 X66.6764 Y21.0410 F350.00
G01 X66.6783 Y21.0506 F350.00
G01 X66.6942 Y21.1575 F350.00
G01 X66.6954 Y21.1721 F350.00
G01 X66.7005 Y21.2800 F350.00
G01 X66.7005 Y26.5964 F350.00
G01 X66.7089 Y26.6050 F350.00
G01 X66.8141 Y26.7215 F350.00
G01 X66.9135 Y26.8555 F350.00
G01 X66.9993 Y26.9986 F350.00
G01 X67.0706 Y27.1494 F350.00
G01 X67.1268 Y27.3065 F350.00
G01 X67.1673 Y27.4683 F350.00
G01 X67.1918 Y27.6334 F350.00
G01 X67.2000 Y27.8000 F350.00
G01 X67.1918 Y27.9666 F350.00
G01 X67.1673 Y28.1317 F350.00
G01 X67.1268 Y28.2935 F350.00
G01 X67.0706 Y28.4506 F350.00
G01 X66.9993 Y28.6014 F350.00
G01 X66.9135 Y28.7445 F350.00
G01 X66.8141 Y28.8785 F350.00
G01 X66.7089 Y28.9950 F350.00
G01 X66.7005 Y29.0036 F350.00
G01 X66.7005 Y33.3497 F350.00
G01 X76.5018 Y33.3497 F350.00
G01 X76.4999 Y33.3098 F350.00
G01 X76.4997 Y33.2951 F350.00
G01 X76.5038 Y33.2117 F350.00
G01 X76.5054 Y33.1971 F350.00
G01 X76.5170 Y33.1194 F350.00
G01 X76.5200 Y33.1050 F350.00
G01 X76.5405 Y33.0241 F350.00
G01 X76.5701 Y32.9409 F350.00
G01 X76.5759 Y32.9273 F350.00
G01 X76.6118 Y32.8520 F350.00
G01 X76.6598 Y32.7720 F350.00
G01 X76.7154 Y32.6971 F350.00
G01 X76.7746 Y32.6315 F350.00
G01 X76.7851 Y32.6212 F350.00
G01 X76.8471 Y32.5654 F350.00
G01 X76.9220 Y32.5098 F350.00
G01 X77.0020 Y32.4618 F350.00
G01 X77.0863 Y32.4220 F350.00
G01 X77.1741 Y32.3905 F350.00
G01 X77.2646 Y32.3679 F350.00
G01 X77.3568 Y32.3542 F350.00
G01 X77.4451 Y32.3497 F350.00
G01 X98.6063 Y32.3496 F350.00
G01 X102.6332 Y28.3222 F350.00
G01 X102.6247 Y28.2982 F350.00
G01 X102.6218 Y28.2888 F350.00
G01 X102.5827 Y28.1317 F350.00
G01 X102.5594 Y27.9764 F350.00
G01 X102.5575 Y27.9568 F350.00
G01 X102.5500 Y27.8000 F350.00
G01 X102.5575 Y27.6432 F350.00
G01 X102.5594 Y27.6236 F350.00
G01 X102.5810 Y27.4780 F350.00
G01 X102.5848 Y27.4588 F350.00
G01 X102.6232 Y27.3065 F350.00
G01 X102.6759 Y27.1586 F350.00
G01 X102.6834 Y27.1405 F350.00
G01 X102.7507 Y26.9986 F350.00
G01 X102.8365 Y26.8555 F350.00
G01 X102.9298 Y26.7293 F350.00
G01 X102.9423 Y26.7141 F350.00
G01 X103.0411 Y26.6050 F350.00
G01 X103.0495 Y26.5964 F350.00
G01 X103.0495 Y14.5036 F350.00
G01 X103.0411 Y14.4950 F350.00
G01 X102.9359 Y14.3785 F350.00
G01 X102.8365 Y14.2445 F350.00
G01 X102.7507 Y14.1014 F350.00
G01 X102.6794 Y13.9506 F350.00
G01 X102.6232 Y13.7935 F350.00
G01 X102.5827 Y13.6317 F350.00
G01 X102.5582 Y13.4666 F350.00
G01 X102.5500 Y13.3000 F350.00
G01 X102.5582 Y13.1334 F350.00
G01 X102.5827 Y12.9683 F350.00
G01 X102.6232 Y12.8065 F350.00
G01 X102.6794 Y12.6494 F350.00
G01 X102.7507 Y12.4986 F350.00
G01 X102.8365 Y12.3555 F350.00
G01 X102.9359 Y12.2215 F350.00
G01 X103.0411 Y12.1050 F350.00
G01 X103.0495 Y12.0964 F350.00
G01 X103.0495 Y0.2536 F350.00
G01 X103.0411 Y0.2450 F350.00
G01 X102.9359 Y0.1285 F350.00
G01 X102.8365 Y-0.0055 F350.00
G01 X102.7507 Y-0.1486 F350.00
G01 X102.6834 Y-0.2905 F350.00
G01 X102.6759 Y-0.3086 F350.00
G01 X102.6263 Y-0.4472 F350.00
G01 X102.6206 Y-0.4660 F350.00
G01 X102.5827 Y-0.6183 F350.00
G01 X102.5594 Y-0.7736 F350.00
G01 X102.5575 Y-0.7932 F350.00
G01 X102.5500 Y-0.9500 F350.00
G01 X102.5578 Y-1.1117 F350.00
G01 X102.5594 Y-1.1264 F350.00
G01 X102.5827 Y-1.2817 F350.00
G01 X102.6206 Y-1.4340 F350.00
G01 X102.6263 Y-1.4528 F350.00
G01 X102.6759 Y-1.5914 F350.00
G01 X102.6834 Y-1.6095 F350.00
G01 X102.7507 Y-1.7514 F350.00
G01 X102.8312 Y-1.8862 F350.00
G01 X102.8422 Y-1.9025 F350.00
G01 X102.9359 Y-2.0285 F350.00
G01 X103.0479 Y-2.1521 F350.00
G01 X103.1715 Y-2.2641 F350.00
G01 X103.2975 Y-2.3578 F350.00
G01 X103.3138 Y-2.3688 F350.00
G01 X103.4486 Y-2.4493 F350.00
G01 X103.5905 Y-2.5166 F350.00
G01 X103.6086 Y-2.5241 F350.00
G01 X103.7472 Y-2.5737 F350.00
G01 X103.7660 Y-2.5794 F350.00
G01 X103.9183 Y-2.6173 F350.00
G01 X104.0834 Y-2.6418 F350.00
G01 X104.2402 Y-2.6498 F350.00
G01 X104.2598 Y-2.6498 F350.00
G01 X104.4166 Y-2.6418 F350.00
G01 X104.5720 Y-2.6190 F350.00
G01 X104.5912 Y-2.6152 F350.00
G01 X104.7435 Y-2.5768 F350.00
G01 X104.9006 Y-2.5206 F350.00
G01 X105.0426 Y-2.4537 F350.00
G01 X105.0599 Y-2.4444 F350.00
G01 X105.1945 Y-2.3635 F350.00
G01 X105.3285 Y-2.2641 F350.00
G01 X105.4450 Y-2.1589 F350.00
G01 X105.4589 Y-2.1450 F350.00
G01 X105.5641 Y-2.0285 F350.00
G01 X105.6635 Y-1.8945 F350.00
G01 X105.7493 Y-1.7514 F350.00
G01 X105.8166 Y-1.6095 F350.00
G01 X105.8241 Y-1.5914 F350.00
G01 X105.8768 Y-1.4435 F350.00
G01 X105.9152 Y-1.2912 F350.00
G01 X105.9190 Y-1.2720 F350.00
G01 X105.9418 Y-1.1166 F350.00
G01 X105.9499 Y-0.9549 F350.00
G01 X105.9498 Y-0.9402 F350.00
G01 X105.9418 Y-0.7834 F350.00
G01 X105.9173 Y-0.6183 F350.00
G01 X105.8768 Y-0.4565 F350.00
G01 X105.8206 Y-0.2994 F350.00
G01 X105.7493 Y-0.1486 F350.00
G01 X105.6635 Y-0.0055 F350.00
G01 X105.5641 Y0.1285 F350.00
G01 X105.4589 Y0.2450 F350.00
G01 X105.4505 Y0.2536 F350.00
G01 X105.4505 Y12.0964 F350.00
G01 X105.4589 Y12.1050 F350.00
G01 X105.5641 Y12.2215 F350.00
G01 X105.6635 Y12.3555 F350.00
G01 X105.7493 Y12.4986 F350.00
G01 X105.8206 Y12.6494 F350.00
G01 X105.8768 Y12.8065 F350.00
G01 X105.9173 Y12.9683 F350.00
G01 X105.9418 Y13.1334 F350.00
G01 X105.9500 Y13.3000 F350.00
G01 X105.9418 Y13.4666 F350.00
G01 X105.9173 Y13.6317 F350.00
G01 X105.8768 Y13.7935 F350.00
G01 X105.8206 Y13.9506 F350.00
G01 X105.7493 Y14.1014 F350.00
G01 X105.6635 Y14.2445 F350.00
G01 X105.5641 Y14.3785 F350.00
G01 X105.4589 Y14.4950 F350.00
G01 X105.4505 Y14.5036 F350.00
G01 X105.4505 Y26.5964 F350.00
G01 X105.4589 Y26.6050 F350.00
G01 X105.5577 Y26.7141 F350.00
G01 X105.5702 Y26.7293 F350.00
G01 X105.6635 Y26.8555 F350.00
G01 X105.7493 Y26.9986 F350.00
G01 X105.8206 Y27.1494 F350.00
G01 X105.8737 Y27.2972 F350.00
G01 X105.8794 Y27.3160 F350.00
G01 X105.9152 Y27.4588 F350.00
G01 X105.9190 Y27.4780 F350.00
G01 X105.9418 Y27.6334 F350.00
G01 X105.9500 Y27.8000 F350.00
G01 X105.9418 Y27.9666 F350.00
G01 X105.9190 Y28.1220 F350.00
G01 X105.9152 Y28.1412 F350.00
G01 X105.8794 Y28.2840 F350.00
G01 X105.8737 Y28.3028 F350.00
G01 X105.8206 Y28.4506 F350.00
G01 X105.7493 Y28.6014 F350.00
G01 X105.6688 Y28.7362 F350.00
G01 X105.6578 Y28.7525 F350.00
G01 X105.5641 Y28.8785 F350.00
G01 X105.4521 Y29.0021 F350.00
G01 X105.3359 Y29.1077 F350.00
G01 X105.3207 Y29.1202 F350.00
G01 X105.1945 Y29.2135 F350.00
G01 X105.0557 Y29.2969 F350.00
G01 X105.0426 Y29.3037 F350.00
G01 X104.9095 Y29.3666 F350.00
G01 X104.8914 Y29.3741 F350.00
G01 X104.7435 Y29.4268 F350.00
G01 X104.5865 Y29.4663 F350.00
G01 X104.5720 Y29.4690 F350.00
G01 X104.4264 Y29.4906 F350.00
G01 X104.4117 Y29.4922 F350.00
G01 X104.2500 Y29.5000 F350.00
G01 X104.1488 Y29.4953 F350.00
G01 X99.6685 Y33.9754 F350.00
G01 X99.6029 Y34.0346 F350.00
G01 X99.5360 Y34.0846 F350.00
G01 X99.5197 Y34.0955 F350.00
G01 X99.4480 Y34.1382 F350.00
G01 X99.3727 Y34.1741 F350.00
G01 X99.3545 Y34.1816 F350.00
G01 X99.2759 Y34.2095 F350.00
G01 X99.1854 Y34.2321 F350.00
G01 X99.0932 Y34.2458 F350.00
G01 X99.0000 Y34.2504 F350.00
G01 X78.4504 Y34.2504 F350.00
G01 X78.4504 Y45.7163 F350.00
G01 X81.2837 Y48.5496 F350.00
G01 X105.7500 Y48.5496 F350.00
G01 X105.8432 Y48.5542 F350.00
G01 X105.9257 Y48.5662 F350.00
G01 X105.9450 Y48.5700 F350.00
G01 X106.0259 Y48.5905 F350.00
G01 X106.1045 Y48.6184 F350.00
G01 X106.1227 Y48.6259 F350.00
G01 X106.1936 Y48.6596 F350.00
G01 X106.2065 Y48.6667 F350.00
G01 X106.2780 Y48.7098 F350.00
G01 X106.3529 Y48.7654 F350.00
G01 X106.4220 Y48.8280 F350.00
G01 X106.4782 Y48.8897 F350.00
G01 X106.4907 Y48.9048 F350.00
G01 X106.5402 Y48.9720 F350.00
G01 X106.5833 Y49.0435 F350.00
G01 X106.5926 Y49.0608 F350.00
G01 X106.6241 Y49.1273 F350.00
G01 X106.6316 Y49.1455 F350.00
G01 X106.6595 Y49.2241 F350.00
G01 X106.6800 Y49.3050 F350.00
G01 X106.6830 Y49.3194 F350.00
G01 X106.6958 Y49.4068 F350.00
G01 X106.7004 Y49.5000 F350.00
G01 X106.7004 Y51.4379 F350.00
G01 X106.7182 Y51.4453 F350.00
G01 X106.8069 Y51.4873 F350.00
G01 X106.8242 Y51.4965 F350.00
G01 X106.9167 Y51.5522 F350.00
G01 X107.0035 Y51.6163 F350.00
G01 X107.0187 Y51.6288 F350.00
G01 X107.0985 Y51.7015 F350.00
G01 X107.1712 Y51.7813 F350.00
G01 X107.1837 Y51.7965 F350.00
G01 X107.2478 Y51.8833 F350.00
G01 X107.3035 Y51.9758 F350.00
G01 X107.3127 Y51.9931 F350.00
G01 X107.3587 Y52.0908 F350.00
G01 X107.3952 Y52.1923 F350.00
G01 X107.4009 Y52.2111 F350.00
G01 X107.4269 Y52.3159 F350.00
G01 X107.4442 Y52.4324 F350.00
G01 X107.4500 Y52.5500 F350.00
G01 X107.4449 Y52.6578 F350.00
G01 X107.4430 Y52.6774 F350.00
G01 X107.4286 Y52.7744 F350.00
G01 X107.4248 Y52.7937 F350.00
G01 X107.3983 Y52.8983 F350.00
G01 X107.3587 Y53.0092 F350.00
G01 X107.3083 Y53.1157 F350.00
G01 X107.2530 Y53.2084 F350.00
G01 X107.2421 Y53.2247 F350.00
G01 X107.1837 Y53.3035 F350.00
G01 X107.1712 Y53.3187 F350.00
G01 X107.0985 Y53.3985 F350.00
G01 X107.0113 Y53.4776 F350.00
G01 X106.9167 Y53.5478 F350.00
G01 X106.8242 Y53.6035 F350.00
G01 X106.8069 Y53.6127 F350.00
G01 X106.7182 Y53.6547 F350.00
G01 X106.7047 Y53.6605 F350.00
G01 X106.6904 Y53.6657 F350.00
G01 X106.6904 Y55.1879 F350.00
G01 X106.7082 Y55.1953 F350.00
G01 X106.7969 Y55.2373 F350.00
G01 X106.8142 Y55.2465 F350.00
G01 X106.9067 Y55.3022 F350.00
G01 X107.0013 Y55.3724 F350.00
G01 X107.0814 Y55.4447 F350.00
G01 X107.0953 Y55.4586 F350.00
G01 X107.1676 Y55.5387 F350.00
G01 X107.2378 Y55.6333 F350.00
G01 X107.2983 Y55.7343 F350.00
G01 X107.3447 Y55.8318 F350.00
G01 X107.3522 Y55.8499 F350.00
G01 X107.3883 Y55.9517 F350.00
G01 X107.4169 Y56.0659 F350.00
G01 X107.4330 Y56.1726 F350.00
G01 X107.4349 Y56.1922 F350.00
G01 X107.4400 Y56.3000 F350.00
G01 X107.4349 Y56.4078 F350.00
G01 X107.4330 Y56.4274 F350.00
G01 X107.4169 Y56.5341 F350.00
G01 X107.3883 Y56.6483 F350.00
G01 X107.3522 Y56.7501 F350.00
G01 X107.3447 Y56.7682 F350.00
G01 X107.2983 Y56.8657 F350.00
G01 X107.2378 Y56.9667 F350.00
G01 X107.1676 Y57.0613 F350.00
G01 X107.0953 Y57.1414 F350.00
G01 X107.0814 Y57.1553 F350.00
G01 X107.0013 Y57.2276 F350.00
G01 X106.9067 Y57.2978 F350.00
G01 X106.8142 Y57.3535 F350.00
G01 X106.7969 Y57.3627 F350.00
G01 X106.7082 Y57.4047 F350.00
G01 X106.6904 Y57.4121 F350.00
G01 X106.6904 Y58.9379 F350.00
G01 X106.7082 Y58.9453 F350.00
G01 X106.8057 Y58.9917 F350.00
G01 X106.9067 Y59.0522 F350.00
G01 X107.0013 Y59.1224 F350.00
G01 X107.0885 Y59.2015 F350.00
G01 X107.1676 Y59.2887 F350.00
G01 X107.2378 Y59.3833 F350.00
G01 X107.2983 Y59.4843 F350.00
G01 X107.3487 Y59.5908 F350.00
G01 X107.3883 Y59.7017 F350.00
G01 X107.4169 Y59.8159 F350.00
G01 X107.4342 Y59.9324 F350.00
G01 X107.4400 Y60.0500 F350.00
G01 X107.4342 Y60.1676 F350.00
G01 X107.4169 Y60.2841 F350.00
G01 X107.3883 Y60.3983 F350.00
G01 X107.3487 Y60.5092 F350.00
G01 X107.2983 Y60.6157 F350.00
G01 X107.2378 Y60.7167 F350.00
G01 X107.1676 Y60.8113 F350.00
G01 X107.0885 Y60.8985 F350.00
G01 X107.0013 Y60.9776 F350.00
G01 X106.9067 Y61.0478 F350.00
G01 X106.8057 Y61.1083 F350.00
G01 X106.6992 Y61.1587 F350.00
G01 X106.5883 Y61.1983 F350.00
G01 X106.4837 Y61.2248 F350.00
G01 X106.4644 Y61.2286 F350.00
G01 X106.3674 Y61.2430 F350.00
G01 X106.3527 Y61.2446 F350.00
G01 X106.2400 Y61.2500 F350.00
G01 X105.5303 Y61.2500 F350.00
G01 X100.3352 Y66.4452 F350.00
G01 X100.2842 Y66.4913 F350.00
G01 X100.2371 Y66.5266 F350.00
G01 X100.2207 Y66.5375 F350.00
G01 X100.1701 Y66.5676 F350.00
G01 X100.1169 Y66.5930 F350.00
G01 X100.1034 Y66.5988 F350.00
G01 X100.0526 Y66.6170 F350.00
G01 X100.0338 Y66.6227 F350.00
G01 X99.9814 Y66.6358 F350.00
G01 X99.9669 Y66.6385 F350.00
G01 X99.9086 Y66.6469 F350.00
G01 X99.8400 Y66.6503 F350.00
G01 X90.1875 Y66.6503 F350.00
G01 X90.1189 Y66.6469 F350.00
G01 X90.0509 Y66.6368 F350.00
G01 X89.9842 Y66.6201 F350.00
G01 X89.9287 Y66.6005 F350.00
G01 X89.9150 Y66.5950 F350.00
G01 X89.8574 Y66.5676 F350.00
G01 X89.7985 Y66.5322 F350.00
G01 X89.7433 Y66.4913 F350.00
G01 X89.6959 Y66.4486 F350.00
G01 X88.3972 Y65.1500 F350.00
G01 X87.0551 Y65.1500 F350.00
G01 X86.9995 Y65.1473 F350.00
G01 X86.9541 Y65.1408 F350.00
G01 X86.9396 Y65.1381 F350.00
G01 X86.8904 Y65.1256 F350.00
G01 X86.8471 Y65.1103 F350.00
G01 X86.8289 Y65.1028 F350.00
G01 X86.7876 Y65.0830 F350.00
G01 X86.7481 Y65.0596 F350.00
G01 X86.7318 Y65.0487 F350.00
G01 X86.6950 Y65.0211 F350.00
G01 X86.6609 Y64.9905 F350.00
G01 X86.6470 Y64.9766 F350.00
G01 X86.6164 Y64.9425 F350.00
G01 X86.5888 Y64.9057 F350.00
G01 X86.5779 Y64.8894 F350.00
G01 X86.5545 Y64.8499 F350.00
G01 X86.5347 Y64.8086 F350.00
G01 X86.5272 Y64.7904 F350.00
G01 X86.5119 Y64.7471 F350.00
G01 X86.5006 Y64.7027 F350.00
G01 X86.4967 Y64.6834 F350.00
G01 X86.4902 Y64.6380 F350.00
G01 X86.4876 Y64.5873 F350.00
G01 X86.4875 Y62.8176 F350.00
G01 X86.4902 Y62.7620 F350.00
G01 X86.4967 Y62.7166 F350.00
G01 X86.5006 Y62.6973 F350.00
G01 X86.5119 Y62.6529 F350.00
G01 X86.5307 Y62.6004 F350.00
G01 X86.5545 Y62.5501 F350.00
G01 X86.5832 Y62.5023 F350.00
G01 X86.6164 Y62.4575 F350.00
G01 X86.6538 Y62.4163 F350.00
G01 X86.6950 Y62.3789 F350.00
G01 X86.7398 Y62.3457 F350.00
G01 X86.7833 Y62.3194 F350.00
G01 X86.7963 Y62.3126 F350.00
G01 X86.8379 Y62.2932 F350.00
G01 X86.8810 Y62.2775 F350.00
G01 X86.8998 Y62.2718 F350.00
G01 X86.9396 Y62.2619 F350.00
G01 X86.9541 Y62.2592 F350.00
G01 X86.9995 Y62.2527 F350.00
G01 X87.0502 Y62.2501 F350.00
G01 X87.2372 Y62.2500 F350.00
G01 X87.2372 Y61.6903 F350.00
G01 X87.1986 Y61.6553 F350.00
G01 X87.1880 Y61.6450 F350.00
G01 X87.1155 Y61.5650 F350.00
G01 X87.1063 Y61.5535 F350.00
G01 X87.0450 Y61.4707 F350.00
G01 X87.0370 Y61.4584 F350.00
G01 X86.9817 Y61.3657 F350.00
G01 X86.9333 Y61.2637 F350.00
G01 X86.9278 Y61.2501 F350.00
G01 X86.8917 Y61.1483 F350.00
G01 X86.8631 Y61.0341 F350.00
G01 X86.8458 Y60.9176 F350.00
G01 X86.8400 Y60.8000 F350.00
G01 X86.8400 Y58.8000 F350.00
G01 X86.8451 Y58.6922 F350.00
G01 X86.8463 Y58.6775 F350.00
G01 X86.8631 Y58.5659 F350.00
G01 X86.8891 Y58.4611 F350.00
G01 X86.8948 Y58.4423 F350.00
G01 X86.9278 Y58.3499 F350.00
G01 X86.9353 Y58.3318 F350.00
G01 X86.9817 Y58.2343 F350.00
G01 X87.0422 Y58.1333 F350.00
G01 X87.1124 Y58.0387 F350.00
G01 X87.1847 Y57.9586 F350.00
G01 X87.1986 Y57.9447 F350.00
G01 X87.2787 Y57.8724 F350.00
G01 X87.3653 Y57.8079 F350.00
G01 X87.3816 Y57.7970 F350.00
G01 X87.4743 Y57.7417 F350.00
G01 X87.5718 Y57.6953 F350.00
G01 X87.5899 Y57.6878 F350.00
G01 X87.6917 Y57.6517 F350.00
G01 X87.7963 Y57.6252 F350.00
G01 X87.8156 Y57.6214 F350.00
G01 X87.9224 Y57.6058 F350.00
G01 X88.0302 Y57.6002 F350.00
G01 X88.0498 Y57.6002 F350.00
G01 X88.1576 Y57.6058 F350.00
G01 X88.2741 Y57.6231 F350.00
G01 X88.3883 Y57.6517 F350.00
G01 X88.4901 Y57.6878 F350.00
G01 X88.5082 Y57.6953 F350.00
G01 X88.6057 Y57.7417 F350.00
G01 X88.6984 Y57.7970 F350.00
G01 X88.7147 Y57.8079 F350.00
G01 X88.8013 Y57.8724 F350.00
G01 X88.8885 Y57.9515 F350.00
G01 X88.9612 Y58.0313 F350.00
G01 X88.9737 Y58.0465 F350.00
G01 X89.0378 Y58.1333 F350.00
G01 X89.0935 Y58.2258 F350.00
G01 X89.1027 Y58.2431 F350.00
G01 X89.1467 Y58.3363 F350.00
G01 X89.1522 Y58.3499 F350.00
G01 X89.1883 Y58.4517 F350.00
G01 X89.2169 Y58.5659 F350.00
G01 X89.2342 Y58.6824 F350.00
G01 X89.2399 Y58.7951 F350.00
G01 X89.2400 Y60.8000 F350.00
G01 X89.2349 Y60.9078 F350.00
G01 X89.2337 Y60.9225 F350.00
G01 X89.2186 Y61.0244 F350.00
G01 X89.2148 Y61.0437 F350.00
G01 X89.1883 Y61.1483 F350.00
G01 X89.1522 Y61.2501 F350.00
G01 X89.1447 Y61.2682 F350.00
G01 X89.0983 Y61.3657 F350.00
G01 X89.0404 Y61.4626 F350.00
G01 X89.0321 Y61.4747 F350.00
G01 X88.9676 Y61.5613 F350.00
G01 X88.8953 Y61.6414 F350.00
G01 X88.8850 Y61.6520 F350.00
G01 X88.8087 Y61.7212 F350.00
G01 X88.7935 Y61.7337 F350.00
G01 X88.7067 Y61.7978 F350.00
G01 X88.6378 Y61.8394 F350.00
G01 X88.6378 Y62.2500 F350.00
G01 X88.8199 Y62.2500 F350.00
G01 X88.8755 Y62.2527 F350.00
G01 X88.9209 Y62.2592 F350.00
G01 X88.9402 Y62.2631 F350.00
G01 X88.9846 Y62.2744 F350.00
G01 X89.0325 Y62.2914 F350.00
G01 X89.0461 Y62.2972 F350.00
G01 X89.0787 Y62.3126 F350.00
G01 X89.0960 Y62.3219 F350.00
G01 X89.1352 Y62.3457 F350.00
G01 X89.1800 Y62.3789 F350.00
G01 X89.2212 Y62.4163 F350.00
G01 X89.2522 Y62.4501 F350.00
G01 X89.2617 Y62.4614 F350.00
G01 X89.2862 Y62.4943 F350.00
G01 X89.2971 Y62.5106 F350.00
G01 X89.3205 Y62.5501 F350.00
G01 X89.3403 Y62.5914 F350.00
G01 X89.3461 Y62.6050 F350.00
G01 X89.3616 Y62.6482 F350.00
G01 X89.3657 Y62.6623 F350.00
G01 X89.3766 Y62.7069 F350.00
G01 X89.3836 Y62.7523 F350.00
G01 X89.3855 Y62.7718 F350.00
G01 X89.3875 Y62.8176 F350.00
G01 X89.3875 Y64.1597 F350.00
G01 X90.4776 Y65.2497 F350.00
G01 X99.5499 Y65.2497 F350.00
G01 X104.1825 Y60.6172 F350.00
G01 X104.1773 Y60.6069 F350.00
G01 X104.1313 Y60.5092 F350.00
G01 X104.0917 Y60.3983 F350.00
G01 X104.0631 Y60.2841 F350.00
G01 X104.0470 Y60.1774 F350.00
G01 X104.0451 Y60.1578 F350.00
G01 X104.0400 Y60.0500 F350.00
G01 X104.0451 Y59.9422 F350.00
G01 X104.0470 Y59.9226 F350.00
G01 X104.0631 Y59.8159 F350.00
G01 X104.0891 Y59.7111 F350.00
G01 X104.0948 Y59.6923 F350.00
G01 X104.1278 Y59.5999 F350.00
G01 X104.1353 Y59.5818 F350.00
G01 X104.1817 Y59.4843 F350.00
G01 X104.2422 Y59.3833 F350.00
G01 X104.3124 Y59.2887 F350.00
G01 X104.3915 Y59.2015 F350.00
G01 X104.4787 Y59.1224 F350.00
G01 X104.5733 Y59.0522 F350.00
G01 X104.6743 Y58.9917 F350.00
G01 X104.7718 Y58.9453 F350.00
G01 X104.7896 Y58.9379 F350.00
G01 X104.7896 Y57.4121 F350.00
G01 X104.7718 Y57.4047 F350.00
G01 X104.6831 Y57.3627 F350.00
G01 X104.6658 Y57.3535 F350.00
G01 X104.5733 Y57.2978 F350.00
G01 X104.4787 Y57.2276 F350.00
G01 X104.3986 Y57.1553 F350.00
G01 X104.3847 Y57.1414 F350.00
G01 X104.3124 Y57.0613 F350.00
G01 X104.2422 Y56.9667 F350.00
G01 X104.1817 Y56.8657 F350.00
G01 X104.1353 Y56.7682 F350.00
G01 X104.1278 Y56.7501 F350.00
G01 X104.0917 Y56.6483 F350.00
G01 X104.0631 Y56.5341 F350.00
G01 X104.0470 Y56.4274 F350.00
G01 X104.0451 Y56.4078 F350.00
G01 X104.0400 Y56.3000 F350.00
G01 X104.0451 Y56.1922 F350.00
G01 X104.0470 Y56.1726 F350.00
G01 X104.0631 Y56.0659 F350.00
G01 X104.0917 Y55.9517 F350.00
G01 X104.1278 Y55.8499 F350.00
G01 X104.1353 Y55.8318 F350.00
G01 X104.1817 Y55.7343 F350.00
G01 X104.2422 Y55.6333 F350.00
G01 X104.3124 Y55.5387 F350.00
G01 X104.3847 Y55.4586 F350.00
G01 X104.3986 Y55.4447 F350.00
G01 X104.4787 Y55.3724 F350.00
G01 X104.5733 Y55.3022 F350.00
G01 X104.6658 Y55.2465 F350.00
G01 X104.6831 Y55.2373 F350.00
G01 X104.7718 Y55.1953 F350.00
G01 X104.7896 Y55.1879 F350.00
G01 X104.7896 Y53.6582 F350.00
G01 X104.6843 Y53.6083 F350.00
G01 X104.5916 Y53.5530 F350.00
G01 X104.5753 Y53.5421 F350.00
G01 X104.4887 Y53.4776 F350.00
G01 X104.4086 Y53.4053 F350.00
G01 X104.3947 Y53.3914 F350.00
G01 X104.3224 Y53.3113 F350.00
G01 X104.2522 Y53.2167 F350.00
G01 X104.1917 Y53.1157 F350.00
G01 X104.1453 Y53.0182 F350.00
G01 X104.1378 Y53.0001 F350.00
G01 X104.1017 Y52.8983 F350.00
G01 X104.0731 Y52.7841 F350.00
G01 X104.0570 Y52.6774 F350.00
G01 X104.0551 Y52.6578 F350.00
G01 X104.0500 Y52.5500 F350.00
G01 X104.0551 Y52.4422 F350.00
G01 X104.0570 Y52.4226 F350.00
G01 X104.0731 Y52.3159 F350.00
G01 X104.1017 Y52.2017 F350.00
G01 X104.1378 Y52.0999 F350.00
G01 X104.1453 Y52.0818 F350.00
G01 X104.1917 Y51.9843 F350.00
G01 X104.2522 Y51.8833 F350.00
G01 X104.3224 Y51.7887 F350.00
G01 X104.3947 Y51.7086 F350.00
G01 X104.4086 Y51.6947 F350.00
G01 X104.4887 Y51.6224 F350.00
G01 X104.5833 Y51.5522 F350.00
G01 X104.6758 Y51.4965 F350.00
G01 X104.6931 Y51.4873 F350.00
G01 X104.7818 Y51.4453 F350.00
G01 X104.7996 Y51.4379 F350.00
G01 X104.7996 Y50.4504 F350.00
G01 X80.8900 Y50.4504 F350.00
G01 X80.8066 Y50.4465 F350.00
G01 X80.7920 Y50.4453 F350.00
G01 X80.7046 Y50.4321 F350.00
G01 X80.6236 Y50.4121 F350.00
G01 X80.6048 Y50.4064 F350.00
G01 X80.5355 Y50.3816 F350.00
G01 X80.5173 Y50.3741 F350.00
G01 X80.4420 Y50.3382 F350.00
G01 X80.3620 Y50.2902 F350.00
G01 X80.2871 Y50.2346 F350.00
G01 X80.2251 Y50.1788 F350.00
G01 X76.8562 Y46.8103 F350.00
G01 X39.8711 Y46.8103 F350.00
G01 X39.8206 Y46.9506 F350.00
G01 X39.7493 Y47.1014 F350.00
G01 X39.6635 Y47.2445 F350.00
G01 X39.5702 Y47.3707 F350.00
G01 X39.5577 Y47.3859 F350.00
G01 X39.4589 Y47.4950 F350.00
G01 X39.4450 Y47.5089 F350.00
G01 X39.3285 Y47.6141 F350.00
G01 X39.2025 Y47.7078 F350.00
G01 X39.1862 Y47.7188 F350.00
G01 X39.0599 Y47.7944 F350.00
G01 X39.0426 Y47.8037 F350.00
G01 X38.9006 Y47.8706 F350.00
G01 X38.7435 Y47.9268 F350.00
G01 X38.5817 Y47.9673 F350.00
G01 X38.4264 Y47.9906 F350.00
G01 X38.4068 Y47.9925 F350.00
G01 X38.2598 Y47.9998 F350.00
G01 X38.2402 Y47.9998 F350.00
G01 X38.0834 Y47.9918 F350.00
G01 X37.9280 Y47.9690 F350.00
G01 X37.9088 Y47.9652 F350.00
G01 X37.7565 Y47.9268 F350.00
G01 X37.5994 Y47.8706 F350.00
G01 X37.4574 Y47.8037 F350.00
G01 X37.4401 Y47.7944 F350.00
G01 X37.3138 Y47.7188 F350.00
G01 X37.2975 Y47.7078 F350.00
G01 X37.1715 Y47.6141 F350.00
G01 X37.0550 Y47.5089 F350.00
G01 X37.0411 Y47.4950 F350.00
G01 X36.9423 Y47.3859 F350.00
G01 X36.9298 Y47.3707 F350.00
G01 X36.8365 Y47.2445 F350.00
G01 X36.7507 Y47.1014 F350.00
G01 X36.6794 Y46.9506 F350.00
G01 X36.6289 Y46.8103 F350.00
G01 X34.5051 Y46.8102 F350.00
G01 X34.4512 Y46.8076 F350.00
G01 X34.4316 Y46.8057 F350.00
G01 X34.3734 Y46.7968 F350.00
G01 X34.3162 Y46.7827 F350.00
G01 X34.2974 Y46.7770 F350.00
G01 X34.2420 Y46.7569 F350.00
G01 X34.1843 Y46.7298 F350.00
G01 X34.1714 Y46.7227 F350.00
G01 X34.1293 Y46.6975 F350.00
G01 X34.1129 Y46.6866 F350.00
G01 X34.0658 Y46.6513 F350.00
G01 X34.0184 Y46.6086 F350.00
G01 X32.5303 Y45.1206 F350.00
G01 X32.5303 Y49.6012 F350.00
G01 X32.6176 Y49.6058 F350.00
G01 X32.7244 Y49.6214 F350.00
G01 X32.7437 Y49.6252 F350.00
G01 X32.8389 Y49.6491 F350.00
G01 X32.8577 Y49.6548 F350.00
G01 X32.9592 Y49.6913 F350.00
G01 X33.0613 Y49.7394 F350.00
G01 X33.0742 Y49.7465 F350.00
G01 X33.1667 Y49.8022 F350.00
G01 X33.2613 Y49.8724 F350.00
G01 X33.3485 Y49.9515 F350.00
G01 X33.4212 Y50.0313 F350.00
G01 X33.4307 Y50.0426 F350.00
G01 X33.4978 Y50.1333 F350.00
G01 X33.5535 Y50.2258 F350.00
G01 X33.5627 Y50.2431 F350.00
G01 X33.6047 Y50.3318 F350.00
G01 X33.6122 Y50.3499 F350.00
G01 X33.6483 Y50.4517 F350.00
G01 X33.6748 Y50.5563 F350.00
G01 X33.6786 Y50.5756 F350.00
G01 X33.6942 Y50.6824 F350.00
G01 X33.7000 Y50.8000 F350.00
G01 X33.6942 Y50.9176 F350.00
G01 X33.6786 Y51.0244 F350.00
G01 X33.6759 Y51.0389 F350.00
G01 X33.6483 Y51.1483 F350.00
G01 X33.6122 Y51.2501 F350.00
G01 X33.6047 Y51.2682 F350.00
G01 X33.5583 Y51.3657 F350.00
G01 X33.5030 Y51.4584 F350.00
G01 X33.4921 Y51.4747 F350.00
G01 X33.4276 Y51.5613 F350.00
G01 X33.3553 Y51.6414 F350.00
G01 X33.3414 Y51.6553 F350.00
G01 X33.2613 Y51.7276 F350.00
G01 X33.1747 Y51.7921 F350.00
G01 X33.1584 Y51.8030 F350.00
G01 X33.0657 Y51.8583 F350.00
G01 X32.9682 Y51.9047 F350.00
G01 X32.9501 Y51.9122 F350.00
G01 X32.8483 Y51.9483 F350.00
G01 X32.7437 Y51.9748 F350.00
G01 X32.7244 Y51.9786 F350.00
G01 X32.6176 Y51.9942 F350.00
G01 X32.5098 Y51.9998 F350.00
G01 X31.4902 Y51.9998 F350.00
G01 X31.3922 Y51.9949 F350.00
G01 X31.3726 Y51.9930 F350.00
G01 X31.2659 Y51.9769 F350.00
G01 X31.1611 Y51.9509 F350.00
G01 X31.1423 Y51.9452 F350.00
G01 X31.0408 Y51.9087 F350.00
G01 X30.9343 Y51.8583 F350.00
G01 X30.8333 Y51.7978 F350.00
G01 X30.7465 Y51.7337 F350.00
G01 X30.7313 Y51.7212 F350.00
G01 X30.6515 Y51.6485 F350.00
G01 X30.5788 Y51.5687 F350.00
G01 X30.5663 Y51.5535 F350.00
G01 X30.5022 Y51.4667 F350.00
G01 X30.4465 Y51.3742 F350.00
G01 X30.4373 Y51.3569 F350.00
G01 X30.3913 Y51.2592 F350.00
G01 X30.3548 Y51.1577 F350.00
G01 X30.3491 Y51.1389 F350.00
G01 X30.3231 Y51.0341 F350.00
G01 X30.3070 Y50.9274 F350.00
G01 X30.3051 Y50.9078 F350.00
G01 X30.3002 Y50.8098 F350.00
G01 X30.3001 Y50.7951 F350.00
G01 X30.3058 Y50.6824 F350.00
G01 X30.3214 Y50.5756 F350.00
G01 X30.3252 Y50.5563 F350.00
G01 X30.3517 Y50.4517 F350.00
G01 X30.3913 Y50.3408 F350.00
G01 X30.4373 Y50.2431 F350.00
G01 X30.4465 Y50.2258 F350.00
G01 X30.4970 Y50.1416 F350.00
G01 X30.5079 Y50.1253 F350.00
G01 X30.5724 Y50.0387 F350.00
G01 X30.6447 Y49.9586 F350.00
G01 X30.6586 Y49.9447 F350.00
G01 X30.7313 Y49.8788 F350.00
G01 X30.7465 Y49.8663 F350.00
G01 X30.8333 Y49.8022 F350.00
G01 X30.9343 Y49.7417 F350.00
G01 X31.0408 Y49.6913 F350.00
G01 X31.1297 Y49.6593 F350.00
G01 X31.1297 Y43.7201 F350.00
G01 X26.1099 Y38.7003 F350.00
G01 X15.8000 Y38.7003 F350.00
G01 X15.7314 Y38.6969 F350.00
G01 X15.6634 Y38.6868 F350.00
G01 X15.5967 Y38.6701 F350.00
G01 X15.5412 Y38.6505 F350.00
G01 X15.5231 Y38.6430 F350.00
G01 X15.4699 Y38.6176 F350.00
G01 X15.4110 Y38.5822 F350.00
G01 X15.3558 Y38.5413 F350.00
G01 X15.3048 Y38.4952 F350.00
G01 X9.7048 Y32.8952 F350.00
G01 X9.6587 Y32.8442 F350.00
G01 X9.6234 Y32.7971 F350.00
G01 X9.6125 Y32.7807 F350.00
G01 X9.5873 Y32.7386 F350.00
G01 X9.5802 Y32.7257 F350.00
G01 X9.5570 Y32.6769 F350.00
G01 X9.5495 Y32.6588 F350.00
G01 X9.5299 Y32.6033 F350.00
G01 X9.5154 Y32.5462 F350.00
G01 X9.5115 Y32.5269 F350.00
G01 X9.5031 Y32.4686 F350.00
G01 X9.4997 Y32.4000 F350.00
G01 X9.4998 Y28.5951 F350.00
G01 X9.5031 Y28.5314 F350.00
G01 X9.5132 Y28.4634 F350.00
G01 X9.5299 Y28.3967 F350.00
G01 X9.5531 Y28.3320 F350.00
G01 X9.5824 Y28.2699 F350.00
G01 X9.6178 Y28.2110 F350.00
G01 X9.6587 Y28.1558 F350.00
G01 X9.7014 Y28.1084 F350.00
G01 X11.4425 Y26.3672 F350.00
G01 X11.4373 Y26.3569 F350.00
G01 X11.3953 Y26.2682 F350.00
G01 X11.3878 Y26.2501 F350.00
G01 X11.3517 Y26.1483 F350.00
G01 X11.3231 Y26.0341 F350.00
G01 X11.3058 Y25.9176 F350.00
G01 X11.3002 Y25.8098 F350.00
G01 X11.3002 Y25.7902 F350.00
G01 X11.3051 Y25.6922 F350.00
G01 X11.3070 Y25.6726 F350.00
G01 X11.3231 Y25.5659 F350.00
G01 X11.3517 Y25.4517 F350.00
G01 X11.3913 Y25.3408 F350.00
G01 X11.4373 Y25.2431 F350.00
G01 X11.4465 Y25.2258 F350.00
G01 X11.4970 Y25.1416 F350.00
G01 X11.5079 Y25.1253 F350.00
G01 X11.5724 Y25.0387 F350.00
G01 X11.6515 Y24.9515 F350.00
G01 X11.7313 Y24.8788 F350.00
G01 X11.7465 Y24.8663 F350.00
G01 X11.8333 Y24.8022 F350.00
G01 X11.9343 Y24.7417 F350.00
G01 X12.0318 Y24.6953 F350.00
G01 X12.0499 Y24.6878 F350.00
G01 X12.1517 Y24.6517 F350.00
G01 X12.2611 Y24.6241 F350.00
G01 X12.2756 Y24.6214 F350.00
G01 X12.3824 Y24.6058 F350.00
G01 X12.4951 Y24.6001 F350.00
G01 X13.2097 Y24.6000 F350.00
G01 X15.7997 Y22.0099 F350.00
G01 X15.7997 Y17.6901 F350.00
G01 X15.2049 Y17.0952 F350.00
G01 X15.1595 Y17.1166 F350.00
G01 X15.1460 Y17.1224 F350.00
G01 X15.0028 Y17.1737 F350.00
G01 X14.9888 Y17.1782 F350.00
G01 X14.8317 Y17.2173 F350.00
G01 X14.6715 Y17.2413 F350.00
G01 X14.6568 Y17.2425 F350.00
G01 X14.5098 Y17.2498 F350.00
G01 X14.4902 Y17.2498 F350.00
G01 X14.3334 Y17.2418 F350.00
G01 X14.1780 Y17.2190 F350.00
G01 X14.1635 Y17.2163 F350.00
G01 X14.0065 Y17.1768 F350.00
G01 X13.8494 Y17.1206 F350.00
G01 X13.6986 Y17.0493 F350.00
G01 X13.5638 Y16.9688 F350.00
G01 X13.5475 Y16.9578 F350.00
G01 X13.4293 Y16.8702 F350.00
G01 X13.4141 Y16.8577 F350.00
G01 X13.2979 Y16.7521 F350.00
G01 X13.1923 Y16.6359 F350.00
G01 X13.1828 Y16.6246 F350.00
G01 X13.0865 Y16.4945 F350.00
G01 X13.0056 Y16.3599 F350.00
G01 X12.9963 Y16.3426 F350.00
G01 X12.9294 Y16.2006 F350.00
G01 X12.8763 Y16.0528 F350.00
G01 X12.8706 Y16.0340 F350.00
G01 X12.8327 Y15.8817 F350.00
G01 X12.8087 Y15.7215 F350.00
G01 X12.8075 Y15.7068 F350.00
G01 X12.8002 Y15.5598 F350.00
G01 X12.8002 Y15.5402 F350.00
G01 X12.8082 Y15.3834 F350.00
G01 X12.8318 Y15.2232 F350.00
G01 X12.8348 Y15.2088 F350.00
G01 X12.8706 Y15.0660 F350.00
G01 X12.8747 Y15.0518 F350.00
G01 X12.9276 Y14.9040 F350.00
G01 X12.9334 Y14.8905 F350.00
G01 X12.9548 Y14.8451 F350.00
G01 X12.1888 Y14.0792 F350.00
G01 X12.1427 Y14.0282 F350.00
G01 X12.1074 Y13.9811 F350.00
G01 X12.0991 Y13.9689 F350.00
G01 X12.0664 Y13.9141 F350.00
G01 X12.0371 Y13.8520 F350.00
G01 X12.0139 Y13.7873 F350.00
G01 X11.9994 Y13.7302 F350.00
G01 X11.9963 Y13.7158 F350.00
G01 X11.9871 Y13.6526 F350.00
G01 X11.9838 Y13.5889 F350.00
G01 X11.9837 Y13.3000 F350.00
G01 X11.6791 Y13.2999 F350.00
G01 X11.6644 Y13.2990 F350.00
G01 X11.6547 Y13.2978 F350.00
G01 X11.6450 Y13.2962 F350.00
G01 X11.6307 Y13.2928 F350.00
G01 X11.6213 Y13.2899 F350.00
G01 X11.6075 Y13.2848 F350.00
G01 X11.5985 Y13.2808 F350.00
G01 X11.5854 Y13.2740 F350.00
G01 X11.5729 Y13.2663 F350.00
G01 X11.5649 Y13.2606 F350.00
G01 X11.5534 Y13.2514 F350.00
G01 X11.5461 Y13.2448 F350.00
G01 X11.5358 Y13.2343 F350.00
G01 X11.5294 Y13.2269 F350.00
G01 X11.5205 Y13.2152 F350.00
G01 X11.5150 Y13.2070 F350.00
G01 X11.5076 Y13.1943 F350.00
G01 X11.5032 Y13.1855 F350.00
G01 X11.4974 Y13.1720 F350.00
G01 X11.4941 Y13.1627 F350.00
G01 X11.4900 Y13.1486 F350.00
G01 X11.4862 Y13.1293 F350.00
G01 X11.4845 Y13.1147 F350.00
G01 X11.4840 Y13.1000 F350.00
G01 X11.4840 Y11.3903 F350.00
G01 X9.3439 Y9.2503 F350.00
G01 X3.2901 Y9.2503 F350.00
G01 X-2.2997 Y14.8401 F350.00
G01 X-2.2997 Y35.8997 F350.00
G01 X-1.7285 Y35.8997 F350.00
G01 X-1.7156 Y35.8881 F350.00
G01 X-1.7041 Y35.8789 F350.00
G01 X-1.6469 Y35.8365 F350.00
G01 X-1.6306 Y35.8256 F350.00
G01 X-1.5610 Y35.7842 F350.00
G01 X-1.4880 Y35.7494 F350.00
G01 X-1.4744 Y35.7436 F350.00
G01 X-1.3935 Y35.7148 F350.00
G01 X-1.3055 Y35.6928 F350.00
G01 X-1.2157 Y35.6795 F350.00
G01 X-1.1299 Y35.6751 F350.00
G01 X1.4250 Y35.6750 F350.00
G01 X1.5059 Y35.6787 F350.00
G01 X1.5254 Y35.6807 F350.00
G01 X1.6055 Y35.6928 F350.00
G01 X1.6841 Y35.7122 F350.00
G01 X1.7028 Y35.7179 F350.00
G01 X1.7790 Y35.7454 F350.00
G01 X1.8523 Y35.7798 F350.00
G01 X1.8696 Y35.7891 F350.00
G01 X1.9306 Y35.8256 F350.00
G01 X1.9429 Y35.8337 F350.00
G01 X2.0041 Y35.8789 F350.00
G01 X2.0192 Y35.8914 F350.00
G01 X2.0791 Y35.9459 F350.00
G01 X2.1336 Y36.0058 F350.00
G01 X2.1461 Y36.0209 F350.00
G01 X2.1941 Y36.0861 F350.00
G01 X2.2408 Y36.1640 F350.00
G01 X2.2756 Y36.2370 F350.00
G01 X2.2831 Y36.2552 F350.00
G01 X2.3102 Y36.3315 F350.00
G01 X2.3301 Y36.4100 F350.00
G01 X2.3339 Y36.4292 F350.00
G01 X2.3455 Y36.5093 F350.00
G01 X2.3498 Y36.5902 F350.00
G01 X2.3499 Y36.6049 F350.00
G01 X2.3463 Y36.6809 F350.00
G01 X2.3443 Y36.7004 F350.00
G01 X2.3322 Y36.7805 F350.00
G01 X2.3128 Y36.8591 F350.00
G01 X2.3071 Y36.8778 F350.00
G01 X2.2796 Y36.9540 F350.00
G01 X2.2452 Y37.0273 F350.00
G01 X2.2384 Y37.0403 F350.00
G01 X2.1941 Y37.1139 F350.00
G01 X2.1461 Y37.1791 F350.00
G01 X2.1336 Y37.1942 F350.00
G01 X2.0825 Y37.2506 F350.00
G01 X2.0720 Y37.2608 F350.00
G01 X2.0118 Y37.3150 F350.00
G01 X1.9429 Y37.3663 F350.00
G01 X1.9348 Y37.3718 F350.00
G01 X1.9206 Y37.3803 F350.00
G01 X6.8401 Y42.2997 F350.00
G01 X13.2093 Y42.2997 F350.00
G01 X13.2399 Y42.2721 F350.00
G01 X13.2512 Y42.2626 F350.00
G01 X13.3142 Y42.2158 F350.00
G01 X13.3263 Y42.2074 F350.00
G01 X13.4022 Y42.1622 F350.00
G01 X13.4819 Y42.1242 F350.00
G01 X13.4956 Y42.1188 F350.00
G01 X13.5649 Y42.0940 F350.00
G01 X13.5837 Y42.0883 F350.00
G01 X13.6647 Y42.0683 F350.00
G01 X13.7569 Y42.0546 F350.00
G01 X13.8500 Y42.0500 F350.00
G01 X15.3500 Y42.0500 F350.00
G01 X15.4382 Y42.0542 F350.00
G01 X15.4529 Y42.0558 F350.00
G01 X15.5353 Y42.0683 F350.00
G01 X15.6163 Y42.0883 F350.00
G01 X15.6351 Y42.0940 F350.00
G01 X15.7044 Y42.1188 F350.00
G01 X15.7225 Y42.1263 F350.00
G01 X15.7978 Y42.1622 F350.00
G01 X15.8778 Y42.2101 F350.00
G01 X15.9527 Y42.2656 F350.00
G01 X16.0218 Y42.3282 F350.00
G01 X16.0844 Y42.3973 F350.00
G01 X16.1399 Y42.4722 F350.00
G01 X16.1878 Y42.5522 F350.00
G01 X16.2237 Y42.6275 F350.00
G01 X16.2312 Y42.6456 F350.00
G01 X16.2560 Y42.7149 F350.00
G01 X16.2617 Y42.7337 F350.00
G01 X16.2817 Y42.8147 F350.00
G01 X16.2942 Y42.8971 F350.00
G01 X16.2958 Y42.9118 F350.00
G01 X16.3000 Y43.0000 F350.00
G01 X16.2954 Y43.0931 F350.00
G01 X16.2817 Y43.1853 F350.00
G01 X16.2591 Y43.2758 F350.00
G01 X16.2277 Y43.3635 F350.00
G01 X16.1878 Y43.4478 F350.00
G01 X16.1399 Y43.5278 F350.00
G01 X16.0844 Y43.6027 F350.00
G01 X16.0218 Y43.6718 F350.00
G01 X15.9527 Y43.7344 F350.00
G01 X15.8778 Y43.7899 F350.00
G01 X15.7978 Y43.8378 F350.00
G01 X15.7135 Y43.8777 F350.00
G01 X15.6258 Y43.9091 F350.00
G01 X15.5353 Y43.9317 F350.00
G01 X15.4529 Y43.9442 F350.00
G01 X15.4382 Y43.9458 F350.00
G01 X15.3500 Y43.9500 F350.00
G01 X13.8500 Y43.9500 F350.00
G01 X13.7569 Y43.9454 F350.00
G01 X13.6647 Y43.9317 F350.00
G01 X13.5837 Y43.9117 F350.00
G01 X13.5649 Y43.9060 F350.00
G01 X13.4956 Y43.8812 F350.00
G01 X13.4819 Y43.8758 F350.00
G01 X13.4022 Y43.8378 F350.00
G01 X13.3263 Y43.7926 F350.00
G01 X13.3142 Y43.7842 F350.00
G01 X13.2512 Y43.7374 F350.00
G01 X13.2399 Y43.7279 F350.00
G01 X13.2093 Y43.7003 F350.00
G01 X6.5500 Y43.7003 F350.00
G01 X6.4814 Y43.6969 F350.00
G01 X6.4134 Y43.6868 F350.00
G01 X6.3467 Y43.6701 F350.00
G01 X6.2820 Y43.6469 F350.00
G01 X6.2199 Y43.6176 F350.00
G01 X6.1610 Y43.5822 F350.00
G01 X6.1058 Y43.5413 F350.00
G01 X6.0548 Y43.4952 F350.00
G01 X0.0847 Y37.5250 F350.00
G01 X-1.1250 Y37.5250 F350.00
G01 X-1.2108 Y37.5210 F350.00
G01 X-1.2254 Y37.5193 F350.00
G01 X-1.2958 Y37.5089 F350.00
G01 X-1.3150 Y37.5051 F350.00
G01 X-1.3935 Y37.4852 F350.00
G01 X-1.4790 Y37.4546 F350.00
G01 X-1.5610 Y37.4158 F350.00
G01 X-1.6348 Y37.3718 F350.00
G01 X-1.6469 Y37.3635 F350.00
G01 X-1.7080 Y37.3181 F350.00
G01 X-1.7156 Y37.3119 F350.00
G01 X-1.7285 Y37.3003 F350.00
G01 X-3.0000 Y37.3003 F350.00
G01 X-3.0686 Y37.2969 F350.00
G01 X-3.1366 Y37.2868 F350.00
G01 X-3.1938 Y37.2727 F350.00
G01 X-3.2126 Y37.2670 F350.00
G01 X-3.2680 Y37.2469 F350.00
G01 X-3.3213 Y37.2220 F350.00
G01 X-3.3386 Y37.2127 F350.00
G01 X-3.3890 Y37.1822 F350.00
G01 X-3.4365 Y37.1473 F350.00
G01 X-3.4517 Y37.1349 F350.00
G01 X-3.4952 Y37.0952 F350.00
G01 X-3.5349 Y37.0517 F350.00
G01 X-3.5473 Y37.0365 F350.00
G01 X-3.5822 Y36.9890 F350.00
G01 X-3.6127 Y36.9386 F350.00
G01 X-3.6220 Y36.9213 F350.00
G01 X-3.6469 Y36.8680 F350.00
G01 X-3.6686 Y36.8080 F350.00
G01 X-3.6727 Y36.7938 F350.00
G01 X-3.6846 Y36.7462 F350.00
G01 X-3.6885 Y36.7269 F350.00
G01 X-3.6969 Y36.6686 F350.00
G01 X-3.7003 Y36.6000 F350.00
G01 X-3.7000 Y14.5402 F350.00
G00 Z0.5000
G00 X3.6079 Y20.1030
G01 F250.00
G01 Z-0.0500
G01 F350.00
G01 X3.6269 Y19.9769 F350.00
G01 X3.6577 Y19.8531 F350.00
G01 X3.6634 Y19.8343 F350.00
G01 X3.7066 Y19.7142 F350.00
G01 X3.7653 Y19.5900 F350.00
G01 X3.8307 Y19.4805 F350.00
G01 X3.8416 Y19.4642 F350.00
G01 X3.9178 Y19.3618 F350.00
G01 X4.0101 Y19.2601 F350.00
G01 X4.1044 Y19.1742 F350.00
G01 X4.1196 Y19.1617 F350.00
G01 X4.2222 Y19.0859 F350.00
G01 X4.3400 Y19.0153 F350.00
G01 X4.4553 Y18.9605 F350.00
G01 X4.4734 Y18.9530 F350.00
G01 X4.5936 Y18.9103 F350.00
G01 X4.7269 Y18.8769 F350.00
G01 X4.8530 Y18.8579 F350.00
G01 X4.8726 Y18.8560 F350.00
G01 X5.0000 Y18.8500 F350.00
G01 X5.1274 Y18.8560 F350.00
G01 X5.1470 Y18.8579 F350.00
G01 X5.2731 Y18.8769 F350.00
G01 X5.4064 Y18.9103 F350.00
G01 X5.5266 Y18.9530 F350.00
G01 X5.5447 Y18.9605 F350.00
G01 X5.6600 Y19.0153 F350.00
G01 X5.7778 Y19.0859 F350.00
G01 X5.8804 Y19.1617 F350.00
G01 X5.8956 Y19.1742 F350.00
G01 X5.9899 Y19.2601 F350.00
G01 X6.0822 Y19.3618 F350.00
G01 X6.1584 Y19.4642 F350.00
G01 X6.1693 Y19.4805 F350.00
G01 X6.2347 Y19.5900 F350.00
G01 X6.2934 Y19.7142 F350.00
G01 X6.3366 Y19.8343 F350.00
G01 X6.3423 Y19.8531 F350.00
G01 X6.3731 Y19.9769 F350.00
G01 X6.3927 Y20.1079 F350.00
G01 X6.3940 Y20.1226 F350.00
G01 X6.4000 Y20.2500 F350.00
G01 X6.4000 Y21.8500 F350.00
G01 X6.3940 Y21.9774 F350.00
G01 X6.3921 Y21.9970 F350.00
G01 X6.3731 Y22.1231 F350.00
G01 X6.3397 Y22.2564 F350.00
G01 X6.2934 Y22.3858 F350.00
G01 X6.2347 Y22.5100 F350.00
G01 X6.1641 Y22.6278 F350.00
G01 X6.0822 Y22.7382 F350.00
G01 X5.9899 Y22.8399 F350.00
G01 X5.8882 Y22.9322 F350.00
G01 X5.7778 Y23.0141 F350.00
G01 X5.6600 Y23.0847 F350.00
G01 X5.5358 Y23.1434 F350.00
G01 X5.4064 Y23.1897 F350.00
G01 X5.2731 Y23.2231 F350.00
G01 X5.1372 Y23.2433 F350.00
G01 X5.0000 Y23.2500 F350.00
G01 X4.8628 Y23.2433 F350.00
G01 X4.7269 Y23.2231 F350.00
G01 X4.5936 Y23.1897 F350.00
G01 X4.4642 Y23.1434 F350.00
G01 X4.3400 Y23.0847 F350.00
G01 X4.2222 Y23.0141 F350.00
G01 X4.1118 Y22.9322 F350.00
G01 X4.0101 Y22.8399 F350.00
G01 X3.9178 Y22.7382 F350.00
G01 X3.8416 Y22.6358 F350.00
G01 X3.8307 Y22.6195 F350.00
G01 X3.7653 Y22.5100 F350.00
G01 X3.7066 Y22.3858 F350.00
G01 X3.6634 Y22.2657 F350.00
G01 X3.6577 Y22.2469 F350.00
G01 X3.6269 Y22.1231 F350.00
G01 X3.6073 Y21.9921 F350.00
G01 X3.6060 Y21.9774 F350.00
G01 X3.6000 Y21.8500 F350.00
G01 X3.6000 Y20.2500 F350.00
G01 X3.6060 Y20.1226 F350.00
G01 X3.6079 Y20.1030 F350.00
G00 Z0.5000
G00 X6.6079 Y20.1030
G01 F250.00
G01 Z-0.0500
G01 F350.00
G01 X6.6269 Y19.9769 F350.00
G01 X6.6577 Y19.8531 F350.00
G01 X6.6634 Y19.8343 F350.00
G01 X6.7066 Y19.7142 F350.00
G01 X6.7653 Y19.5900 F350.00
G01 X6.8307 Y19.4805 F350.00
G01 X6.8416 Y19.4642 F350.00
G01 X6.9178 Y19.3618 F350.00
G01 X7.0101 Y19.2601 F350.00
G01 X7.1044 Y19.1742 F350.00
G01 X7.1196 Y19.1617 F350.00
G01 X7.2222 Y19.0859 F350.00
G01 X7.3400 Y19.0153 F350.00
G01 X7.4553 Y18.9605 F350.00
G01 X7.4734 Y18.9530 F350.00
G01 X7.5936 Y18.9103 F350.00
G01 X7.7269 Y18.8769 F350.00
G01 X7.8530 Y18.8579 F350.00
G01 X7.8726 Y18.8560 F350.00
G01 X8.0000 Y18.8500 F350.00
G01 X8.1274 Y18.8560 F350.00
G01 X8.1470 Y18.8579 F350.00
G01 X8.2731 Y18.8769 F350.00
G01 X8.4064 Y18.9103 F350.00
G01 X8.5266 Y18.9530 F350.00
G01 X8.5447 Y18.9605 F350.00
G01 X8.6600 Y19.0153 F350.00
G01 X8.7778 Y19.0859 F350.00
G01 X8.8804 Y19.1617 F350.00
G01 X8.8956 Y19.1742 F350.00
G01 X8.9899 Y19.2601 F350.00
G01 X9.0822 Y19.3618 F350.00
G01 X9.1584 Y19.4642 F350.00
G01 X9.1693 Y19.4805 F350.00
G01 X9.2347 Y19.5900 F350.00
G01 X9.2934 Y19.7142 F350.00
G01 X9.3366 Y19.8343 F350.00
G01 X9.3423 Y19.8531 F350.00
G01 X9.3731 Y19.9769 F350.00
G01 X9.3927 Y20.1079 F350.00
G01 X9.3940 Y20.1226 F350.00
G01 X9.4000 Y20.2500 F350.00
G01 X9.4000 Y21.8500 F350.00
G01 X9.3940 Y21.9774 F350.00
G01 X9.3921 Y21.9970 F350.00
G01 X9.3731 Y22.1231 F350.00
G01 X9.3397 Y22.2564 F350.00
G01 X9.2934 Y22.3858 F350.00
G01 X9.2347 Y22.5100 F350.00
G01 X9.1641 Y22.6278 F350.00
G01 X9.0822 Y22.7382 F350.00
G01 X8.9899 Y22.8399 F350.00
G01 X8.8882 Y22.9322 F350.00
G01 X8.7778 Y23.0141 F350.00
G01 X8.6600 Y23.0847 F350.00
G01 X8.5358 Y23.1434 F350.00
G01 X8.4064 Y23.1897 F350.00
G01 X8.2731 Y23.2231 F350.00
G01 X8.1372 Y23.2433 F350.00
G01 X8.0000 Y23.2500 F350.00
G01 X7.8628 Y23.2433 F350.00
G01 X7.7269 Y23.2231 F350.00
G01 X7.5936 Y23.1897 F350.00
G01 X7.4642 Y23.1434 F350.00
G01 X7.3400 Y23.0847 F350.00
G01 X7.2222 Y23.0141 F350.00
G01 X7.1118 Y22.9322 F350.00
G01 X7.0101 Y22.8399 F350.00
G01 X6.9178 Y22.7382 F350.00
G01 X6.8416 Y22.6358 F350.00
G01 X6.8307 Y22.6195 F350.00
G01 X6.7653 Y22.5100 F350.00
G01 X6.7066 Y22.3858 F350.00
G01 X6.6634 Y22.2657 F350.00
G01 X6.6577 Y22.2469 F350.00
G01 X6.6269 Y22.1231 F350.00
G01 X6.6073 Y21.9921 F350.00
G01 X6.6060 Y21.9774 F350.00
G01 X6.6000 Y21.8500 F350.00
G01 X6.6000 Y20.2500 F350.00
G01 X6.6060 Y20.1226 F350.00
G01 X6.6079 Y20.1030 F350.00
G00 Z0.5000
G00 X9.6079 Y20.1030
G01 F250.00
G01 Z-0.0500
G01 F350.00
G01 X9.6269 Y19.9769 F350.00
G01 X9.6577 Y19.8531 F350.00
G01 X9.6634 Y19.8343 F350.00
G01 X9.7066 Y19.7142 F350.00
G01 X9.7653 Y19.5900 F350.00
G01 X9.8307 Y19.4805 F350.00
G01 X9.8416 Y19.4642 F350.00
G01 X9.9178 Y19.3618 F350.00
G01 X10.0101 Y19.2601 F350.00
G01 X10.1044 Y19.1742 F350.00
G01 X10.1196 Y19.1617 F350.00
G01 X10.2222 Y19.0859 F350.00
G01 X10.3400 Y19.0153 F350.00
G01 X10.4553 Y18.9605 F350.00
G01 X10.4734 Y18.9530 F350.00
G01 X10.5936 Y18.9103 F350.00
G01 X10.7269 Y18.8769 F350.00
G01 X10.8530 Y18.8579 F350.00
G01 X10.8726 Y18.8560 F350.00
G01 X11.0000 Y18.8500 F350.00
G01 X11.1274 Y18.8560 F350.00
G01 X11.1470 Y18.8579 F350.00
G01 X11.2731 Y18.8769 F350.00
G01 X11.4064 Y18.9103 F350.00
G01 X11.5266 Y18.9530 F350.00
G01 X11.5447 Y18.9605 F350.00
G01 X11.6600 Y19.0153 F350.00
G01 X11.7778 Y19.0859 F350.00
G01 X11.8804 Y19.1617 F350.00
G01 X11.8956 Y19.1742 F350.00
G01 X11.9899 Y19.2601 F350.00
G01 X12.0822 Y19.3618 F350.00
G01 X12.1584 Y19.4642 F350.00
G01 X12.1693 Y19.4805 F350.00
G01 X12.2347 Y19.5900 F350.00
G01 X12.2934 Y19.7142 F350.00
G01 X12.3366 Y19.8343 F350.00
G01 X12.3423 Y19.8531 F350.00
G01 X12.3731 Y19.9769 F350.00
G01 X12.3927 Y20.1079 F350.00
G01 X12.3940 Y20.1226 F350.00
G01 X12.4000 Y20.2500 F350.00
G01 X12.4000 Y21.8500 F350.00
G01 X12.3940 Y21.9774 F350.00
G01 X12.3921 Y21.9970 F350.00
G01 X12.3731 Y22.1231 F350.00
G01 X12.3397 Y22.2564 F350.00
G01 X12.2934 Y22.3858 F350.00
G01 X12.2347 Y22.5100 F350.00
G01 X12.1641 Y22.6278 F350.00
G01 X12.0822 Y22.7382 F350.00
G01 X11.9899 Y22.8399 F350.00
G01 X11.8882 Y22.9322 F350.00
G01 X11.7778 Y23.0141 F350.00
G01 X11.6600 Y23.0847 F350.00
G01 X11.5358 Y23.1434 F350.00
G01 X11.4064 Y23.1897 F350.00
G01 X11.2731 Y23.2231 F350.00
G01 X11.1372 Y23.2433 F350.00
G01 X11.0000 Y23.2500 F350.00
G01 X10.8628 Y23.2433 F350.00
G01 X10.7269 Y23.2231 F350.00
G01 X10.5936 Y23.1897 F350.00
G01 X10.4642 Y23.1434 F350.00
G01 X10.3400 Y23.0847 F350.00
G01 X10.2222 Y23.0141 F350.00
G01 X10.1118 Y22.9322 F350.00
G01 X10.0101 Y22.8399 F350.00
G01 X9.9178 Y22.7382 F350.00
G01 X9.8416 Y22.6358 F350.00
G01 X9.8307 Y22.6195 F350.00
G01 X9.7653 Y22.5100 F350.00
G01 X9.7066 Y22.3858 F350.00
G01 X9.6634 Y22.2657 F350.00
G01 X9.6577 Y22.2469 F350.00
G01 X9.6269 Y22.1231 F350.00
G01 X9.6073 Y21.9921 F350.00
G01 X9.6060 Y21.9774 F350.00
G01 X9.6000 Y21.8500 F350.00
G01 X9.6000 Y20.2500 F350.00
G01 X9.6060 Y20.1226 F350.00
G01 X9.6079 Y20.1030 F350.00
G00 Z0.5000
G00 X14.0310 Y10.8476
G01 F250.00
G01 Z-0.0500
G01 F350.00
G01 X14.0471 Y10.7409 F350.00
G01 X14.0731 Y10.6361 F350.00
G01 X14.0788 Y10.6173 F350.00
G01 X14.1153 Y10.5158 F350.00
G01 X14.1657 Y10.4093 F350.00
G01 X14.2210 Y10.3166 F350.00
G01 X14.2319 Y10.3003 F350.00
G01 X14.2964 Y10.2137 F350.00
G01 X14.3687 Y10.1336 F350.00
G01 X14.3826 Y10.1197 F350.00
G01 X14.4627 Y10.0474 F350.00
G01 X14.5573 Y9.9772 F350.00
G01 X14.6583 Y9.9167 F350.00
G01 X14.7558 Y9.8703 F350.00
G01 X14.7739 Y9.8628 F350.00
G01 X14.8757 Y9.8267 F350.00
G01 X14.9899 Y9.7981 F350.00
G01 X15.0966 Y9.7820 F350.00
G01 X15.1162 Y9.7801 F350.00
G01 X15.2240 Y9.7750 F350.00
G01 X15.3318 Y9.7801 F350.00
G01 X15.3514 Y9.7820 F350.00
G01 X15.4581 Y9.7981 F350.00
G01 X15.5723 Y9.8267 F350.00
G01 X15.6741 Y9.8628 F350.00
G01 X15.6922 Y9.8703 F350.00
G01 X15.7897 Y9.9167 F350.00
G01 X15.8907 Y9.9772 F350.00
G01 X15.9775 Y10.0413 F350.00
G01 X15.9927 Y10.0538 F350.00
G01 X16.0725 Y10.1265 F350.00
G01 X16.1485 Y10.2100 F350.00
G01 X16.1577 Y10.2215 F350.00
G01 X16.2161 Y10.3003 F350.00
G01 X16.2270 Y10.3166 F350.00
G01 X16.2823 Y10.4093 F350.00
G01 X16.3327 Y10.5158 F350.00
G01 X16.3692 Y10.6173 F350.00
G01 X16.3749 Y10.6361 F350.00
G01 X16.4009 Y10.7409 F350.00
G01 X16.4177 Y10.8525 F350.00
G01 X16.4189 Y10.8672 F350.00
G01 X16.4240 Y10.9750 F350.00
G01 X16.4240 Y12.2250 F350.00
G01 X16.4189 Y12.3328 F350.00
G01 X16.4170 Y12.3524 F350.00
G01 X16.4009 Y12.4591 F350.00
G01 X16.3723 Y12.5733 F350.00
G01 X16.3327 Y12.6842 F350.00
G01 X16.2823 Y12.7907 F350.00
G01 X16.2218 Y12.8917 F350.00
G01 X16.1516 Y12.9863 F350.00
G01 X16.0725 Y13.0735 F350.00
G01 X15.9890 Y13.1495 F350.00
G01 X15.9775 Y13.1587 F350.00
G01 X15.8907 Y13.2228 F350.00
G01 X15.7897 Y13.2833 F350.00
G01 X15.6832 Y13.3337 F350.00
G01 X15.5723 Y13.3733 F350.00
G01 X15.4581 Y13.4019 F350.00
G01 X15.3416 Y13.4192 F350.00
G01 X15.2240 Y13.4250 F350.00
G01 X15.1064 Y13.4192 F350.00
G01 X14.9899 Y13.4019 F350.00
G01 X14.8757 Y13.3733 F350.00
G01 X14.7648 Y13.3337 F350.00
G01 X14.6583 Y13.2833 F350.00
G01 X14.5573 Y13.2228 F350.00
G01 X14.4627 Y13.1526 F350.00
G01 X14.3755 Y13.0735 F350.00
G01 X14.2995 Y12.9900 F350.00
G01 X14.2903 Y12.9785 F350.00
G01 X14.2319 Y12.8997 F350.00
G01 X14.2210 Y12.8834 F350.00
G01 X14.1657 Y12.7907 F350.00
G01 X14.1153 Y12.6842 F350.00
G01 X14.0788 Y12.5827 F350.00
G01 X14.0731 Y12.5639 F350.00
G01 X14.0471 Y12.4591 F350.00
G01 X14.0303 Y12.3475 F350.00
G01 X14.0291 Y12.3328 F350.00
G01 X14.0240 Y12.2250 F350.00
G01 X14.0240 Y10.9750 F350.00
G01 X14.0291 Y10.8672 F350.00
G01 X14.0310 Y10.8476 F350.00
G00 Z0.5000
G00 X14.0310 Y1.8476
G01 F250.00
G01 Z-0.0500
G01 F350.00
G01 X14.0471 Y1.7409 F350.00
G01 X14.0731 Y1.6361 F350.00
G01 X14.0788 Y1.6173 F350.00
G01 X14.1153 Y1.5158 F350.00
G01 X14.1657 Y1.4093 F350.00
G01 X14.2210 Y1.3166 F350.00
G01 X14.2319 Y1.3003 F350.00
G01 X14.2964 Y1.2137 F350.00
G01 X14.3687 Y1.1336 F350.00
G01 X14.3826 Y1.1197 F350.00
G01 X14.4627 Y1.0474 F350.00
G01 X14.5573 Y0.9772 F350.00
G01 X14.6583 Y0.9167 F350.00
G01 X14.7558 Y0.8703 F350.00
G01 X14.7739 Y0.8628 F350.00
G01 X14.8757 Y0.8267 F350.00
G01 X14.9899 Y0.7981 F350.00
G01 X15.0966 Y0.7820 F350.00
G01 X15.1162 Y0.7801 F350.00
G01 X15.2240 Y0.7750 F350.00
G01 X15.3318 Y0.7801 F350.00
G01 X15.3514 Y0.7820 F350.00
G01 X15.4581 Y0.7981 F350.00
G01 X15.5723 Y0.8267 F350.00
G01 X15.6741 Y0.8628 F350.00
G01 X15.6922 Y0.8703 F350.00
G01 X15.7897 Y0.9167 F350.00
G01 X15.8907 Y0.9772 F350.00
G01 X15.9775 Y1.0413 F350.00
G01 X15.9927 Y1.0538 F350.00
G01 X16.0725 Y1.1265 F350.00
G01 X16.1485 Y1.2100 F350.00
G01 X16.1577 Y1.2215 F350.00
G01 X16.2161 Y1.3003 F350.00
G01 X16.2270 Y1.3166 F350.00
G01 X16.2823 Y1.4093 F350.00
G01 X16.3327 Y1.5158 F350.00
G01 X16.3692 Y1.6173 F350.00
G01 X16.3749 Y1.6361 F350.00
G01 X16.4009 Y1.7409 F350.00
G01 X16.4177 Y1.8525 F350.00
G01 X16.4189 Y1.8672 F350.00
G01 X16.4240 Y1.9750 F350.00
G01 X16.4240 Y3.2250 F350.00
G01 X16.4189 Y3.3328 F350.00
G01 X16.4170 Y3.3524 F350.00
G01 X16.4009 Y3.4591 F350.00
G01 X16.3723 Y3.5733 F350.00
G01 X16.3327 Y3.6842 F350.00
G01 X16.2823 Y3.7907 F350.00
G01 X16.2218 Y3.8917 F350.00
G01 X16.1516 Y3.9863 F350.00
G01 X16.0725 Y4.0735 F350.00
G01 X15.9890 Y4.1495 F350.00
G01 X15.9775 Y4.1587 F350.00
G01 X15.8907 Y4.2228 F350.00
G01 X15.7897 Y4.2833 F350.00
G01 X15.6832 Y4.3337 F350.00
G01 X15.5723 Y4.3733 F350.00
G01 X15.4581 Y4.4019 F350.00
G01 X15.3416 Y4.4192 F350.00
G01 X15.2240 Y4.4250 F350.00
G01 X15.1064 Y4.4192 F350.00
G01 X14.9899 Y4.4019 F350.00
G01 X14.8757 Y4.3733 F350.00
G01 X14.7648 Y4.3337 F350.00
G01 X14.6583 Y4.2833 F350.00
G01 X14.5573 Y4.2228 F350.00
G01 X14.4627 Y4.1526 F350.00
G01 X14.3755 Y4.0735 F350.00
G01 X14.2995 Y3.9900 F350.00
G01 X14.2903 Y3.9785 F350.00
G01 X14.2319 Y3.8997 F350.00
G01 X14.2210 Y3.8834 F350.00
G01 X14.1657 Y3.7907 F350.00
G01 X14.1153 Y3.6842 F350.00
G01 X14.0788 Y3.5827 F350.00
G01 X14.0731 Y3.5639 F350.00
G01 X14.0471 Y3.4591 F350.00
G01 X14.0303 Y3.3475 F350.00
G01 X14.0291 Y3.3328 F350.00
G01 X14.0240 Y3.2250 F350.00
G01 X14.0240 Y1.9750 F350.00
G01 X14.0291 Y1.8672 F350.00
G01 X14.0310 Y1.8476 F350.00
G00 Z0.5000
G00 X11.3070 Y30.6726
G01 F250.00
G01 Z-0.0500
G01 F350.00
G01 X11.3231 Y30.5659 F350.00
G01 X11.3491 Y30.4611 F350.00
G01 X11.3548 Y30.4423 F350.00
G01 X11.3878 Y30.3499 F350.00
G01 X11.3953 Y30.3318 F350.00
G01 X11.4417 Y30.2343 F350.00
G01 X11.5022 Y30.1333 F350.00
G01 X11.5724 Y30.0387 F350.00
G01 X11.6447 Y29.9586 F350.00
G01 X11.6586 Y29.9447 F350.00
G01 X11.7387 Y29.8724 F350.00
G01 X11.8253 Y29.8079 F350.00
G01 X11.8416 Y29.7970 F350.00
G01 X11.9300 Y29.7441 F350.00
G01 X11.9431 Y29.7373 F350.00
G01 X12.0408 Y29.6913 F350.00
G01 X12.1517 Y29.6517 F350.00
G01 X12.2659 Y29.6231 F350.00
G01 X12.3775 Y29.6063 F350.00
G01 X12.3922 Y29.6051 F350.00
G01 X12.5000 Y29.6000 F350.00
G01 X13.2097 Y29.6000 F350.00
G01 X17.5048 Y25.3048 F350.00
G01 X17.5558 Y25.2587 F350.00
G01 X17.6110 Y25.2178 F350.00
G01 X17.6699 Y25.1824 F350.00
G01 X17.7320 Y25.1531 F350.00
G01 X17.7967 Y25.1299 F350.00
G01 X17.8634 Y25.1132 F350.00
G01 X17.9314 Y25.1031 F350.00
G01 X18.0000 Y25.0997 F350.00
G01 X24.4599 Y25.0997 F350.00
G01 X31.6048 Y17.9548 F350.00
G01 X31.6558 Y17.9087 F350.00
G01 X31.7029 Y17.8734 F350.00
G01 X31.7193 Y17.8625 F350.00
G01 X31.7699 Y17.8324 F350.00
G01 X31.8231 Y17.8070 F350.00
G01 X31.8412 Y17.7995 F350.00
G01 X31.8967 Y17.7799 F350.00
G01 X31.9586 Y17.7642 F350.00
G01 X31.9731 Y17.7615 F350.00
G01 X32.0314 Y17.7531 F350.00
G01 X32.1000 Y17.7497 F350.00
G01 X46.0277 Y17.7497 F350.00
G01 X46.9726 Y16.8048 F350.00
G01 X47.0235 Y16.7587 F350.00
G01 X47.0787 Y16.7178 F350.00
G01 X47.1291 Y16.6873 F350.00
G01 X47.1464 Y16.6780 F350.00
G01 X47.1953 Y16.6550 F350.00
G01 X47.2090 Y16.6495 F350.00
G01 X47.2645 Y16.6299 F350.00
G01 X47.3312 Y16.6132 F350.00
G01 X47.3991 Y16.6031 F350.00
G01 X47.4629 Y16.5998 F350.00
G01 X70.5849 Y16.5998 F350.00
G01 X70.6486 Y16.6031 F350.00
G01 X70.7166 Y16.6132 F350.00
G01 X70.7833 Y16.6299 F350.00
G01 X70.8388 Y16.6495 F350.00
G01 X70.8525 Y16.6550 F350.00
G01 X70.9013 Y16.6780 F350.00
G01 X70.9186 Y16.6873 F350.00
G01 X70.9690 Y16.7178 F350.00
G01 X71.0242 Y16.7587 F350.00
G01 X71.0752 Y16.8048 F350.00
G01 X71.1149 Y16.8483 F350.00
G01 X71.1244 Y16.8596 F350.00
G01 X71.1566 Y16.9029 F350.00
G01 X71.1675 Y16.9193 F350.00
G01 X71.1976 Y16.9699 F350.00
G01 X71.2269 Y17.0320 F350.00
G01 X71.2501 Y17.0967 F350.00
G01 X71.2658 Y17.1586 F350.00
G01 X71.2685 Y17.1731 F350.00
G01 X71.2769 Y17.2314 F350.00
G01 X71.2803 Y17.3000 F350.00
G01 X71.2803 Y19.2991 F350.00
G01 X71.3074 Y19.3193 F350.00
G01 X71.3150 Y19.3255 F350.00
G01 X71.3950 Y19.3980 F350.00
G01 X71.4053 Y19.4086 F350.00
G01 X71.4745 Y19.4850 F350.00
G01 X71.4837 Y19.4965 F350.00
G01 X71.5478 Y19.5833 F350.00
G01 X71.6059 Y19.6800 F350.00
G01 X71.6127 Y19.6931 F350.00
G01 X71.6587 Y19.7908 F350.00
G01 X71.6983 Y19.9017 F350.00
G01 X71.7269 Y20.0159 F350.00
G01 X71.7430 Y20.1226 F350.00
G01 X71.7449 Y20.1422 F350.00
G01 X71.7500 Y20.2500 F350.00
G01 X71.7500 Y21.3851 F350.00
G01 X71.7564 Y21.4110 F350.00
G01 X71.7583 Y21.4206 F350.00
G01 X71.7742 Y21.5275 F350.00
G01 X71.7754 Y21.5421 F350.00
G01 X71.7805 Y21.6500 F350.00
G01 X71.7805 Y26.6841 F350.00
G01 X71.8077 Y26.7141 F350.00
G01 X71.8172 Y26.7254 F350.00
G01 X71.9107 Y26.8515 F350.00
G01 X71.9188 Y26.8638 F350.00
G01 X71.9969 Y26.9943 F350.00
G01 X72.0037 Y27.0074 F350.00
G01 X72.0706 Y27.1494 F350.00
G01 X72.1253 Y27.3018 F350.00
G01 X72.1294 Y27.3160 F350.00
G01 X72.1673 Y27.4683 F350.00
G01 X72.1918 Y27.6334 F350.00
G01 X72.2000 Y27.8000 F350.00
G01 X72.1922 Y27.9617 F350.00
G01 X72.1906 Y27.9764 F350.00
G01 X72.1673 Y28.1317 F350.00
G01 X72.1268 Y28.2935 F350.00
G01 X72.0706 Y28.4506 F350.00
G01 X72.0037 Y28.5926 F350.00
G01 X71.9944 Y28.6099 F350.00
G01 X71.9135 Y28.7445 F350.00
G01 X71.8202 Y28.8707 F350.00
G01 X71.8077 Y28.8859 F350.00
G01 X71.7089 Y28.9950 F350.00
G01 X71.6950 Y29.0089 F350.00
G01 X71.5785 Y29.1141 F350.00
G01 X71.4445 Y29.2135 F350.00
G01 X71.3014 Y29.2993 F350.00
G01 X71.1506 Y29.3706 F350.00
G01 X70.9935 Y29.4268 F350.00
G01 X70.8317 Y29.4673 F350.00
G01 X70.6666 Y29.4918 F350.00
G01 X70.5049 Y29.4999 F350.00
G01 X70.4902 Y29.4998 F350.00
G01 X70.3334 Y29.4918 F350.00
G01 X70.1683 Y29.4673 F350.00
G01 X70.0065 Y29.4268 F350.00
G01 X69.8494 Y29.3706 F350.00
G01 X69.6986 Y29.2993 F350.00
G01 X69.5555 Y29.2135 F350.00
G01 X69.4215 Y29.1141 F350.00
G01 X69.3050 Y29.0089 F350.00
G01 X69.2911 Y28.9950 F350.00
G01 X69.1859 Y28.8785 F350.00
G01 X69.0922 Y28.7525 F350.00
G01 X69.0812 Y28.7362 F350.00
G01 X69.0056 Y28.6099 F350.00
G01 X68.9963 Y28.5926 F350.00
G01 X68.9294 Y28.4506 F350.00
G01 X68.8732 Y28.2935 F350.00
G01 X68.8327 Y28.1317 F350.00
G01 X68.8094 Y27.9764 F350.00
G01 X68.8075 Y27.9568 F350.00
G01 X68.8002 Y27.8098 F350.00
G01 X68.8002 Y27.7902 F350.00
G01 X68.8082 Y27.6334 F350.00
G01 X68.8310 Y27.4780 F350.00
G01 X68.8348 Y27.4588 F350.00
G01 X68.8732 Y27.3065 F350.00
G01 X68.9276 Y27.1540 F350.00
G01 X68.9334 Y27.1405 F350.00
G01 X69.0007 Y26.9986 F350.00
G01 X69.0812 Y26.8638 F350.00
G01 X69.0893 Y26.8515 F350.00
G01 X69.1798 Y26.7293 F350.00
G01 X69.1923 Y26.7141 F350.00
G01 X69.2979 Y26.5979 F350.00
G01 X69.3795 Y26.5237 F350.00
G01 X69.3795 Y22.5108 F350.00
G01 X69.3741 Y22.4889 F350.00
G01 X69.3722 Y22.4793 F350.00
G01 X69.3563 Y22.3725 F350.00
G01 X69.3551 Y22.3578 F350.00
G01 X69.3500 Y22.2500 F350.00
G01 X69.3500 Y20.2500 F350.00
G01 X69.3551 Y20.1422 F350.00
G01 X69.3570 Y20.1226 F350.00
G01 X69.3731 Y20.0159 F350.00
G01 X69.4017 Y19.9017 F350.00
G01 X69.4413 Y19.7908 F350.00
G01 X69.4873 Y19.6931 F350.00
G01 X69.4965 Y19.6758 F350.00
G01 X69.5470 Y19.5916 F350.00
G01 X69.5579 Y19.5753 F350.00
G01 X69.6224 Y19.4887 F350.00
G01 X69.6947 Y19.4086 F350.00
G01 X69.7086 Y19.3947 F350.00
G01 X69.7887 Y19.3224 F350.00
G01 X69.8797 Y19.2547 F350.00
G01 X69.8797 Y18.0003 F350.00
G01 X47.7578 Y18.0003 F350.00
G01 X47.3081 Y18.4500 F350.00
G01 X48.2566 Y19.3985 F350.00
G01 X48.3323 Y19.3875 F350.00
G01 X48.4402 Y19.3820 F350.00
G01 X48.4598 Y19.3820 F350.00
G01 X48.5628 Y19.3871 F350.00
G01 X48.5774 Y19.3887 F350.00
G01 X48.6842 Y19.4048 F350.00
G01 X48.7938 Y19.4321 F350.00
G01 X48.8078 Y19.4365 F350.00
G01 X48.9094 Y19.4731 F350.00
G01 X49.0159 Y19.5235 F350.00
G01 X49.1170 Y19.5841 F350.00
G01 X49.2039 Y19.6482 F350.00
G01 X49.2153 Y19.6574 F350.00
G01 X49.2989 Y19.7334 F350.00
G01 X49.3780 Y19.8206 F350.00
G01 X49.4482 Y19.9153 F350.00
G01 X49.5087 Y20.0163 F350.00
G01 X49.5591 Y20.1228 F350.00
G01 X49.5988 Y20.2337 F350.00
G01 X49.6274 Y20.3480 F350.00
G01 X49.6435 Y20.4548 F350.00
G01 X49.6454 Y20.4744 F350.00
G01 X49.6505 Y20.5822 F350.00
G01 X49.6505 Y26.1293 F350.00
G01 X49.6624 Y26.1550 F350.00
G01 X49.6772 Y26.1960 F350.00
G01 X49.6813 Y26.2101 F350.00
G01 X49.6895 Y26.2429 F350.00
G01 X49.6922 Y26.2574 F350.00
G01 X49.6976 Y26.2957 F350.00
G01 X49.6999 Y26.3392 F350.00
G01 X49.7000 Y27.7559 F350.00
G01 X49.6976 Y27.8043 F350.00
G01 X49.6922 Y27.8426 F350.00
G01 X49.6895 Y27.8571 F350.00
G01 X49.6813 Y27.8899 F350.00
G01 X49.6772 Y27.9040 F350.00
G01 X49.6624 Y27.9450 F350.00
G01 X49.6505 Y27.9707 F350.00
G01 X49.6505 Y30.5500 F350.00
G01 X49.6500 Y30.5651 F350.00
G01 X49.6500 Y31.3000 F350.00
G01 X49.6442 Y31.4176 F350.00
G01 X49.6269 Y31.5341 F350.00
G01 X49.6009 Y31.6389 F350.00
G01 X49.5952 Y31.6577 F350.00
G01 X49.5622 Y31.7501 F350.00
G01 X49.5547 Y31.7682 F350.00
G01 X49.5083 Y31.8657 F350.00
G01 X49.4478 Y31.9667 F350.00
G01 X49.3776 Y32.0613 F350.00
G01 X49.2985 Y32.1485 F350.00
G01 X49.2113 Y32.2276 F350.00
G01 X49.1167 Y32.2978 F350.00
G01 X49.0157 Y32.3583 F350.00
G01 X48.9182 Y32.4047 F350.00
G01 X48.9001 Y32.4122 F350.00
G01 X48.8077 Y32.4452 F350.00
G01 X48.7889 Y32.4509 F350.00
G01 X48.6841 Y32.4769 F350.00
G01 X48.5774 Y32.4930 F350.00
G01 X48.5578 Y32.4949 F350.00
G01 X48.4500 Y32.5000 F350.00
G01 X48.3324 Y32.4942 F350.00
G01 X48.2159 Y32.4769 F350.00
G01 X48.1017 Y32.4483 F350.00
G01 X47.9908 Y32.4087 F350.00
G01 X47.8843 Y32.3583 F350.00
G01 X47.7833 Y32.2978 F350.00
G01 X47.6965 Y32.2337 F350.00
G01 X47.6813 Y32.2212 F350.00
G01 X47.6086 Y32.1553 F350.00
G01 X47.5947 Y32.1414 F350.00
G01 X47.5224 Y32.0613 F350.00
G01 X47.4579 Y31.9747 F350.00
G01 X47.4470 Y31.9584 F350.00
G01 X47.3917 Y31.8657 F350.00
G01 X47.3413 Y31.7592 F350.00
G01 X47.3017 Y31.6483 F350.00
G01 X47.2731 Y31.5341 F350.00
G01 X47.2558 Y31.4176 F350.00
G01 X47.2501 Y31.3049 F350.00
G01 X47.2500 Y30.5651 F350.00
G01 X47.2495 Y30.5500 F350.00
G01 X47.2495 Y20.5822 F350.00
G01 X47.2553 Y20.4646 F350.00
G01 X47.2663 Y20.3888 F350.00
G01 X46.0277 Y19.1503 F350.00
G01 X32.3901 Y19.1503 F350.00
G01 X25.4503 Y26.0901 F350.00
G01 X25.4503 Y34.5099 F350.00
G01 X26.7401 Y35.7997 F350.00
G01 X30.8500 Y35.7997 F350.00
G01 X30.8501 Y35.6127 F350.00
G01 X30.8527 Y35.5620 F350.00
G01 X30.8592 Y35.5166 F350.00
G01 X30.8631 Y35.4973 F350.00
G01 X30.8731 Y35.4576 F350.00
G01 X30.8775 Y35.4435 F350.00
G01 X30.8932 Y35.4004 F350.00
G01 X30.9170 Y35.3501 F350.00
G01 X30.9457 Y35.3023 F350.00
G01 X30.9789 Y35.2575 F350.00
G01 X31.0163 Y35.2163 F350.00
G01 X31.0575 Y35.1789 F350.00
G01 X31.1023 Y35.1457 F350.00
G01 X31.1501 Y35.1170 F350.00
G01 X31.2004 Y35.0932 F350.00
G01 X31.2482 Y35.0759 F350.00
G01 X31.2623 Y35.0718 F350.00
G01 X31.2973 Y35.0631 F350.00
G01 X31.3166 Y35.0592 F350.00
G01 X31.3620 Y35.0527 F350.00
G01 X31.4127 Y35.0501 F350.00
G01 X33.1873 Y35.0501 F350.00
G01 X33.2282 Y35.0520 F350.00
G01 X33.2429 Y35.0533 F350.00
G01 X33.2883 Y35.0600 F350.00
G01 X33.3027 Y35.0631 F350.00
G01 X33.3471 Y35.0744 F350.00
G01 X33.3904 Y35.0897 F350.00
G01 X33.4041 Y35.0951 F350.00
G01 X33.4456 Y35.1148 F350.00
G01 X33.4585 Y35.1219 F350.00
G01 X33.4977 Y35.1457 F350.00
G01 X33.5425 Y35.1789 F350.00
G01 X33.5837 Y35.2163 F350.00
G01 X33.6147 Y35.2501 F350.00
G01 X33.6272 Y35.2653 F350.00
G01 X33.6543 Y35.3023 F350.00
G01 X33.6781 Y35.3415 F350.00
G01 X33.6852 Y35.3544 F350.00
G01 X33.7028 Y35.3914 F350.00
G01 X33.7086 Y35.4050 F350.00
G01 X33.7241 Y35.4482 F350.00
G01 X33.7282 Y35.4623 F350.00
G01 X33.7381 Y35.5021 F350.00
G01 X33.7408 Y35.5166 F350.00
G01 X33.7473 Y35.5620 F350.00
G01 X33.7498 Y35.6078 F350.00
G01 X33.7500 Y35.7997 F350.00
G01 X35.2000 Y35.7997 F350.00
G01 X35.2637 Y35.8027 F350.00
G01 X35.2784 Y35.8043 F350.00
G01 X35.3366 Y35.8132 F350.00
G01 X35.3938 Y35.8273 F350.00
G01 X35.4126 Y35.8330 F350.00
G01 X35.4680 Y35.8531 F350.00
G01 X35.5213 Y35.8780 F350.00
G01 X35.5386 Y35.8873 F350.00
G01 X35.5849 Y35.9151 F350.00
G01 X35.5971 Y35.9234 F350.00
G01 X35.6442 Y35.9587 F350.00
G01 X35.6952 Y36.0048 F350.00
G01 X36.6602 Y36.9698 F350.00
G01 X36.7063 Y37.0208 F350.00
G01 X36.7416 Y37.0679 F350.00
G01 X36.7525 Y37.0843 F350.00
G01 X36.7826 Y37.1349 F350.00
G01 X36.8119 Y37.1970 F350.00
G01 X36.8351 Y37.2617 F350.00
G01 X36.8518 Y37.3284 F350.00
G01 X36.8607 Y37.3866 F350.00
G01 X36.8623 Y37.4013 F350.00
G01 X36.8653 Y37.4650 F350.00
G01 X36.8653 Y38.4168 F350.00
G01 X36.9263 Y38.4624 F350.00
G01 X37.0064 Y38.5347 F350.00
G01 X37.0203 Y38.5486 F350.00
G01 X37.0895 Y38.6250 F350.00
G01 X37.0987 Y38.6365 F350.00
G01 X37.1628 Y38.7233 F350.00
G01 X37.2209 Y38.8200 F350.00
G01 X37.2277 Y38.8331 F350.00
G01 X37.2737 Y38.9308 F350.00
G01 X37.3133 Y39.0417 F350.00
G01 X37.3419 Y39.1559 F350.00
G01 X37.3580 Y39.2626 F350.00
G01 X37.3599 Y39.2822 F350.00
G01 X37.3650 Y39.3900 F350.00
G01 X37.3650 Y40.3900 F350.00
G01 X37.3599 Y40.4978 F350.00
G01 X37.3580 Y40.5174 F350.00
G01 X37.3436 Y40.6144 F350.00
G01 X37.3398 Y40.6337 F350.00
G01 X37.3133 Y40.7383 F350.00
G01 X37.2737 Y40.8492 F350.00
G01 X37.2233 Y40.9557 F350.00
G01 X37.1680 Y41.0484 F350.00
G01 X37.1571 Y41.0647 F350.00
G01 X37.0926 Y41.1513 F350.00
G01 X37.0203 Y41.2314 F350.00
G01 X37.0064 Y41.2453 F350.00
G01 X36.9263 Y41.3176 F350.00
G01 X36.8317 Y41.3878 F350.00
G01 X36.7392 Y41.4435 F350.00
G01 X36.7219 Y41.4527 F350.00
G01 X36.6242 Y41.4987 F350.00
G01 X36.5227 Y41.5352 F350.00
G01 X36.5039 Y41.5409 F350.00
G01 X36.4039 Y41.5659 F350.00
G01 X36.3894 Y41.5686 F350.00
G01 X36.2826 Y41.5842 F350.00
G01 X36.1650 Y41.5900 F350.00
G01 X36.0474 Y41.5842 F350.00
G01 X35.9406 Y41.5686 F350.00
G01 X35.9213 Y41.5648 F350.00
G01 X35.8167 Y41.5383 F350.00
G01 X35.7149 Y41.5022 F350.00
G01 X35.6968 Y41.4947 F350.00
G01 X35.6081 Y41.4527 F350.00
G01 X35.5908 Y41.4435 F350.00
G01 X35.4983 Y41.3878 F350.00
G01 X35.4037 Y41.3176 F350.00
G01 X35.3165 Y41.2385 F350.00
G01 X35.2374 Y41.1513 F350.00
G01 X35.1672 Y41.0567 F350.00
G01 X35.1067 Y40.9557 F350.00
G01 X35.0563 Y40.8492 F350.00
G01 X35.0182 Y40.7430 F350.00
G01 X35.0141 Y40.7289 F350.00
G01 X34.9902 Y40.6337 F350.00
G01 X34.9864 Y40.6144 F350.00
G01 X34.9708 Y40.5076 F350.00
G01 X34.9651 Y40.3949 F350.00
G01 X34.9651 Y39.3851 F350.00
G01 X34.9708 Y39.2724 F350.00
G01 X34.9864 Y39.1656 F350.00
G01 X34.9902 Y39.1463 F350.00
G01 X35.0167 Y39.0417 F350.00
G01 X35.0563 Y38.9308 F350.00
G01 X35.1067 Y38.8243 F350.00
G01 X35.1646 Y38.7274 F350.00
G01 X35.1729 Y38.7153 F350.00
G01 X35.2374 Y38.6287 F350.00
G01 X35.3130 Y38.5450 F350.00
G01 X35.3236 Y38.5347 F350.00
G01 X35.4000 Y38.4655 F350.00
G01 X35.4115 Y38.4563 F350.00
G01 X35.4647 Y38.4168 F350.00
G01 X35.4647 Y37.7551 F350.00
G01 X34.9099 Y37.2003 F350.00
G01 X33.7500 Y37.2003 F350.00
G01 X33.7499 Y37.3873 F350.00
G01 X33.7473 Y37.4380 F350.00
G01 X33.7400 Y37.4883 F350.00
G01 X33.7369 Y37.5027 F350.00
G01 X33.7256 Y37.5471 F350.00
G01 X33.7086 Y37.5950 F350.00
G01 X33.7028 Y37.6086 F350.00
G01 X33.6830 Y37.6499 F350.00
G01 X33.6596 Y37.6894 F350.00
G01 X33.6516 Y37.7018 F350.00
G01 X33.6242 Y37.7386 F350.00
G01 X33.6147 Y37.7499 F350.00
G01 X33.5872 Y37.7802 F350.00
G01 X33.5766 Y37.7905 F350.00
G01 X33.5425 Y37.8211 F350.00
G01 X33.5018 Y37.8516 F350.00
G01 X33.4894 Y37.8596 F350.00
G01 X33.4499 Y37.8830 F350.00
G01 X33.3996 Y37.9068 F350.00
G01 X33.3471 Y37.9256 F350.00
G01 X33.2979 Y37.9381 F350.00
G01 X33.2834 Y37.9408 F350.00
G01 X33.2380 Y37.9473 F350.00
G01 X33.1824 Y37.9500 F350.00
G01 X31.4176 Y37.9500 F350.00
G01 X31.3620 Y37.9473 F350.00
G01 X31.3166 Y37.9408 F350.00
G01 X31.2973 Y37.9369 F350.00
G01 X31.2576 Y37.9269 F350.00
G01 X31.2435 Y37.9225 F350.00
G01 X31.2004 Y37.9068 F350.00
G01 X31.1588 Y37.8874 F350.00
G01 X31.1415 Y37.8781 F350.00
G01 X31.1023 Y37.8543 F350.00
G01 X31.0575 Y37.8211 F350.00
G01 X31.0163 Y37.7837 F350.00
G01 X30.9853 Y37.7499 F350.00
G01 X30.9728 Y37.7347 F350.00
G01 X30.9457 Y37.6977 F350.00
G01 X30.9219 Y37.6585 F350.00
G01 X30.9148 Y37.6456 F350.00
G01 X30.8972 Y37.6086 F350.00
G01 X30.8914 Y37.5950 F350.00
G01 X30.8759 Y37.5518 F350.00
G01 X30.8718 Y37.5377 F350.00
G01 X30.8619 Y37.4979 F350.00
G01 X30.8592 Y37.4834 F350.00
G01 X30.8527 Y37.4380 F350.00
G01 X30.8502 Y37.3922 F350.00
G01 X30.8500 Y37.2003 F350.00
G01 X26.4500 Y37.2003 F350.00
G01 X26.3814 Y37.1969 F350.00
G01 X26.3182 Y37.1877 F350.00
G01 X26.3038 Y37.1846 F350.00
G01 X26.2562 Y37.1727 F350.00
G01 X26.2374 Y37.1670 F350.00
G01 X26.1820 Y37.1469 F350.00
G01 X26.1199 Y37.1176 F350.00
G01 X26.0693 Y37.0875 F350.00
G01 X26.0529 Y37.0766 F350.00
G01 X26.0058 Y37.0413 F350.00
G01 X25.9620 Y37.0019 F350.00
G01 X24.2548 Y35.2952 F350.00
G01 X24.2087 Y35.2442 F350.00
G01 X24.1678 Y35.1890 F350.00
G01 X24.1373 Y35.1386 F350.00
G01 X24.1280 Y35.1213 F350.00
G01 X24.1050 Y35.0725 F350.00
G01 X24.0995 Y35.0588 F350.00
G01 X24.0799 Y35.0033 F350.00
G01 X24.0632 Y34.9366 F350.00
G01 X24.0531 Y34.8686 F350.00
G01 X24.0498 Y34.8049 F350.00
G01 X24.0497 Y26.5003 F350.00
G01 X18.2901 Y26.5003 F350.00
G01 X14.5575 Y30.2328 F350.00
G01 X14.5627 Y30.2431 F350.00
G01 X14.6087 Y30.3408 F350.00
G01 X14.6483 Y30.4517 F350.00
G01 X14.6769 Y30.5659 F350.00
G01 X14.6930 Y30.6726 F350.00
G01 X14.6949 Y30.6922 F350.00
G01 X14.7000 Y30.8000 F350.00
G01 X14.6949 Y30.9078 F350.00
G01 X14.6930 Y30.9274 F350.00
G01 X14.6786 Y31.0244 F350.00
G01 X14.6748 Y31.0437 F350.00
G01 X14.6483 Y31.1483 F350.00
G01 X14.6087 Y31.2592 F350.00
G01 X14.5583 Y31.3657 F350.00
G01 X14.4978 Y31.4667 F350.00
G01 X14.4276 Y31.5613 F350.00
G01 X14.3553 Y31.6414 F350.00
G01 X14.3414 Y31.6553 F350.00
G01 X14.2687 Y31.7212 F350.00
G01 X14.2535 Y31.7337 F350.00
G01 X14.1667 Y31.7978 F350.00
G01 X14.0742 Y31.8535 F350.00
G01 X14.0569 Y31.8627 F350.00
G01 X13.9592 Y31.9087 F350.00
G01 X13.8530 Y31.9468 F350.00
G01 X13.8389 Y31.9509 F350.00
G01 X13.7437 Y31.9748 F350.00
G01 X13.7244 Y31.9786 F350.00
G01 X13.6176 Y31.9942 F350.00
G01 X13.5098 Y31.9998 F350.00
G01 X12.4902 Y31.9998 F350.00
G01 X12.3922 Y31.9949 F350.00
G01 X12.3726 Y31.9930 F350.00
G01 X12.2659 Y31.9769 F350.00
G01 X12.1611 Y31.9509 F350.00
G01 X12.1423 Y31.9452 F350.00
G01 X12.0408 Y31.9087 F350.00
G01 X11.9387 Y31.8606 F350.00
G01 X11.9258 Y31.8535 F350.00
G01 X11.8416 Y31.8030 F350.00
G01 X11.8253 Y31.7921 F350.00
G01 X11.7387 Y31.7276 F350.00
G01 X11.6515 Y31.6485 F350.00
G01 X11.5724 Y31.5613 F350.00
G01 X11.5079 Y31.4747 F350.00
G01 X11.4970 Y31.4584 F350.00
G01 X11.4417 Y31.3657 F350.00
G01 X11.3953 Y31.2682 F350.00
G01 X11.3878 Y31.2501 F350.00
G01 X11.3517 Y31.1483 F350.00
G01 X11.3231 Y31.0341 F350.00
G01 X11.3058 Y30.9176 F350.00
G01 X11.3002 Y30.8098 F350.00
G01 X11.3002 Y30.7902 F350.00
G01 X11.3051 Y30.6922 F350.00
G01 X11.3070 Y30.6726 F350.00
G00 Z0.5000
G00 X1.3094 Y28.8736
G01 F250.00
G01 Z-0.0500
G01 F350.00
G01 X1.3327 Y28.7183 F350.00
G01 X1.3706 Y28.5660 F350.00
G01 X1.3763 Y28.5472 F350.00
G01 X1.4294 Y28.3994 F350.00
G01 X1.4963 Y28.2574 F350.00
G01 X1.5056 Y28.2401 F350.00
G01 X1.5865 Y28.1055 F350.00
G01 X1.6798 Y27.9793 F350.00
G01 X1.6923 Y27.9641 F350.00
G01 X1.7979 Y27.8479 F350.00
G01 X1.9141 Y27.7423 F350.00
G01 X1.9293 Y27.7298 F350.00
G01 X2.0555 Y27.6365 F350.00
G01 X2.1901 Y27.5556 F350.00
G01 X2.2074 Y27.5463 F350.00
G01 X2.3494 Y27.4794 F350.00
G01 X2.4972 Y27.4263 F350.00
G01 X2.5160 Y27.4206 F350.00
G01 X2.6683 Y27.3827 F350.00
G01 X2.8236 Y27.3594 F350.00
G01 X2.8432 Y27.3575 F350.00
G01 X3.0000 Y27.3500 F350.00
G01 X3.1568 Y27.3575 F350.00
G01 X3.1764 Y27.3594 F350.00
G01 X3.3317 Y27.3827 F350.00
G01 X3.4840 Y27.4206 F350.00
G01 X3.5028 Y27.4263 F350.00
G01 X3.6506 Y27.4794 F350.00
G01 X3.7926 Y27.5463 F350.00
G01 X3.8099 Y27.5556 F350.00
G01 X3.9445 Y27.6365 F350.00
G01 X4.0746 Y27.7328 F350.00
G01 X4.0859 Y27.7423 F350.00
G01 X4.1950 Y27.8411 F350.00
G01 X4.2089 Y27.8550 F350.00
G01 X4.3141 Y27.9715 F350.00
G01 X4.4135 Y28.1055 F350.00
G01 X4.4993 Y28.2486 F350.00
G01 X4.5666 Y28.3905 F350.00
G01 X4.5741 Y28.4086 F350.00
G01 X4.6237 Y28.5472 F350.00
G01 X4.6282 Y28.5612 F350.00
G01 X4.6673 Y28.7183 F350.00
G01 X4.6906 Y28.8736 F350.00
G01 X4.6925 Y28.8932 F350.00
G01 X4.6998 Y29.0402 F350.00
G01 X4.6999 Y29.0549 F350.00
G01 X4.6918 Y29.2166 F350.00
G01 X4.6673 Y29.3817 F350.00
G01 X4.6268 Y29.5435 F350.00
G01 X4.5893 Y29.6490 F350.00
G01 X7.3156 Y32.3753 F350.00
G01 X7.3301 Y32.3824 F350.00
G01 X7.3386 Y32.3873 F350.00
G01 X7.3807 Y32.4125 F350.00
G01 X7.3931 Y32.4205 F350.00
G01 X7.4442 Y32.4587 F350.00
G01 X7.4952 Y32.5048 F350.00
G01 X15.0403 Y40.0500 F350.00
G01 X15.3500 Y40.0500 F350.00
G01 X15.4382 Y40.0542 F350.00
G01 X15.4529 Y40.0558 F350.00
G01 X15.5353 Y40.0683 F350.00
G01 X15.6163 Y40.0883 F350.00
G01 X15.6351 Y40.0940 F350.00
G01 X15.7135 Y40.1223 F350.00
G01 X15.7891 Y40.1578 F350.00
G01 X15.8021 Y40.1645 F350.00
G01 X15.8695 Y40.2049 F350.00
G01 X15.8818 Y40.2129 F350.00
G01 X15.9488 Y40.2626 F350.00
G01 X15.9601 Y40.2721 F350.00
G01 X15.9907 Y40.2997 F350.00
G01 X16.8000 Y40.2997 F350.00
G01 X16.8686 Y40.3031 F350.00
G01 X16.9269 Y40.3115 F350.00
G01 X16.9462 Y40.3154 F350.00
G01 X17.0033 Y40.3299 F350.00
G01 X17.0588 Y40.3495 F350.00
G01 X17.0769 Y40.3570 F350.00
G01 X17.1301 Y40.3824 F350.00
G01 X17.1807 Y40.4125 F350.00
G01 X17.1931 Y40.4205 F350.00
G01 X17.2442 Y40.4587 F350.00
G01 X17.2952 Y40.5048 F350.00
G01 X21.3901 Y44.5997 F350.00
G01 X26.5049 Y44.5998 F350.00
G01 X26.5686 Y44.6031 F350.00
G01 X26.6366 Y44.6132 F350.00
G01 X26.7033 Y44.6299 F350.00
G01 X26.7680 Y44.6531 F350.00
G01 X26.8301 Y44.6824 F350.00
G01 X26.8890 Y44.7178 F350.00
G01 X26.9442 Y44.7587 F350.00
G01 X26.9916 Y44.8014 F350.00
G01 X27.0019 Y44.8120 F350.00
G01 X27.0413 Y44.8558 F350.00
G01 X27.0822 Y44.9110 F350.00
G01 X27.1176 Y44.9699 F350.00
G01 X27.1469 Y45.0320 F350.00
G01 X27.1701 Y45.0967 F350.00
G01 X27.1868 Y45.1634 F350.00
G01 X27.1969 Y45.2314 F350.00
G01 X27.2002 Y45.2951 F350.00
G01 X27.2003 Y54.0997 F350.00
G01 X31.2688 Y54.0997 F350.00
G01 X31.2997 Y54.0718 F350.00
G01 X31.3109 Y54.0623 F350.00
G01 X31.3740 Y54.0154 F350.00
G01 X31.3861 Y54.0071 F350.00
G01 X31.4620 Y53.9618 F350.00
G01 X31.5373 Y53.9259 F350.00
G01 X31.5509 Y53.9201 F350.00
G01 X31.6341 Y53.8905 F350.00
G01 X31.7246 Y53.8679 F350.00
G01 X31.8168 Y53.8542 F350.00
G01 X31.9051 Y53.8497 F350.00
G01 X31.9198 Y53.8499 F350.00
G01 X31.9934 Y53.8535 F350.00
G01 X32.0129 Y53.8554 F350.00
G01 X32.0954 Y53.8679 F350.00
G01 X32.1859 Y53.8905 F350.00
G01 X32.2645 Y53.9184 F350.00
G01 X32.2827 Y53.9259 F350.00
G01 X32.3580 Y53.9618 F350.00
G01 X32.4339 Y54.0071 F350.00
G01 X32.4460 Y54.0154 F350.00
G01 X32.5129 Y54.0654 F350.00
G01 X32.5749 Y54.1212 F350.00
G01 X32.5888 Y54.1351 F350.00
G01 X32.6382 Y54.1897 F350.00
G01 X32.6507 Y54.2048 F350.00
G01 X32.7002 Y54.2720 F350.00
G01 X32.7482 Y54.3520 F350.00
G01 X32.7880 Y54.4363 F350.00
G01 X32.8180 Y54.5194 F350.00
G01 X32.8221 Y54.5336 F350.00
G01 X32.8421 Y54.6146 F350.00
G01 X32.8546 Y54.6971 F350.00
G01 X32.8565 Y54.7166 F350.00
G01 X32.8604 Y54.8000 F350.00
G01 X32.8604 Y55.3508 F350.00
G01 X32.9576 Y55.3558 F350.00
G01 X33.0741 Y55.3731 F350.00
G01 X33.1883 Y55.4017 F350.00
G01 X33.2992 Y55.4413 F350.00
G01 X33.4057 Y55.4917 F350.00
G01 X33.5067 Y55.5522 F350.00
G01 X33.6013 Y55.6224 F350.00
G01 X33.6814 Y55.6947 F350.00
G01 X33.6953 Y55.7086 F350.00
G01 X33.7612 Y55.7813 F350.00
G01 X33.7737 Y55.7965 F350.00
G01 X33.8378 Y55.8833 F350.00
G01 X33.8935 Y55.9758 F350.00
G01 X33.9027 Y55.9931 F350.00
G01 X33.9487 Y56.0908 F350.00
G01 X33.9883 Y56.2017 F350.00
G01 X34.0169 Y56.3159 F350.00
G01 X34.0337 Y56.4275 F350.00
G01 X34.0349 Y56.4422 F350.00
G01 X34.0400 Y56.5500 F350.00
G01 X34.0342 Y56.6676 F350.00
G01 X34.0169 Y56.7841 F350.00
G01 X33.9883 Y56.8983 F350.00
G01 X33.9487 Y57.0092 F350.00
G01 X33.8983 Y57.1157 F350.00
G01 X33.8378 Y57.2167 F350.00
G01 X33.7737 Y57.3035 F350.00
G01 X33.7645 Y57.3150 F350.00
G01 X33.6885 Y57.3985 F350.00
G01 X33.6013 Y57.4776 F350.00
G01 X33.5067 Y57.5478 F350.00
G01 X33.4100 Y57.6059 F350.00
G01 X33.3969 Y57.6127 F350.00
G01 X33.2992 Y57.6587 F350.00
G01 X33.1977 Y57.6952 F350.00
G01 X33.1789 Y57.7009 F350.00
G01 X33.0837 Y57.7248 F350.00
G01 X33.0644 Y57.7286 F350.00
G01 X32.9576 Y57.7442 F350.00
G01 X32.8604 Y57.7492 F350.00
G01 X32.8604 Y57.8163 F350.00
G01 X33.4254 Y58.3814 F350.00
G01 X33.5834 Y58.3582 F350.00
G01 X33.7500 Y58.3500 F350.00
G01 X33.9166 Y58.3582 F350.00
G01 X34.0720 Y58.3810 F350.00
G01 X34.0912 Y58.3848 F350.00
G01 X34.2435 Y58.4232 F350.00
G01 X34.3914 Y58.4759 F350.00
G01 X34.4095 Y58.4834 F350.00
G01 X34.5426 Y58.5463 F350.00
G01 X34.5599 Y58.5556 F350.00
G01 X34.6945 Y58.6365 F350.00
G01 X34.8207 Y58.7298 F350.00
G01 X34.8359 Y58.7423 F350.00
G01 X34.9521 Y58.8479 F350.00
G01 X35.0577 Y58.9641 F350.00
G01 X35.0702 Y58.9793 F350.00
G01 X35.1635 Y59.1055 F350.00
G01 X35.2352 Y59.2246 F350.00
G01 X42.6884 Y59.2246 F350.00
G01 X42.7267 Y59.1443 F350.00
G01 X42.7820 Y59.0516 F350.00
G01 X42.7929 Y59.0353 F350.00
G01 X42.8513 Y58.9565 F350.00
G01 X42.8638 Y58.9413 F350.00
G01 X42.9365 Y58.8615 F350.00
G01 X43.0163 Y58.7888 F350.00
G01 X43.0315 Y58.7763 F350.00
G01 X43.1183 Y58.7122 F350.00
G01 X43.2193 Y58.6517 F350.00
G01 X43.3258 Y58.6013 F350.00
G01 X43.4320 Y58.5632 F350.00
G01 X43.4461 Y58.5591 F350.00
G01 X43.5509 Y58.5331 F350.00
G01 X43.6674 Y58.5158 F350.00
G01 X43.7850 Y58.5100 F350.00
G01 X43.9026 Y58.5158 F350.00
G01 X44.0191 Y58.5331 F350.00
G01 X44.1333 Y58.5617 F350.00
G01 X44.2442 Y58.6013 F350.00
G01 X44.3419 Y58.6473 F350.00
G01 X44.3550 Y58.6541 F350.00
G01 X44.4517 Y58.7122 F350.00
G01 X44.5385 Y58.7763 F350.00
G01 X44.5537 Y58.7888 F350.00
G01 X44.6335 Y58.8615 F350.00
G01 X44.7062 Y58.9413 F350.00
G01 X44.7187 Y58.9565 F350.00
G01 X44.7828 Y59.0433 F350.00
G01 X44.8385 Y59.1358 F350.00
G01 X44.8477 Y59.1531 F350.00
G01 X44.8937 Y59.2508 F350.00
G01 X44.9302 Y59.3523 F350.00
G01 X44.9359 Y59.3711 F350.00
G01 X44.9619 Y59.4759 F350.00
G01 X44.9780 Y59.5826 F350.00
G01 X44.9799 Y59.6022 F350.00
G01 X44.9849 Y59.7051 F350.00
G01 X44.9849 Y60.7149 F350.00
G01 X44.9792 Y60.8276 F350.00
G01 X44.9636 Y60.9344 F350.00
G01 X44.9609 Y60.9489 F350.00
G01 X44.9333 Y61.0583 F350.00
G01 X44.8937 Y61.1692 F350.00
G01 X44.8433 Y61.2757 F350.00
G01 X44.7880 Y61.3684 F350.00
G01 X44.7800 Y61.3807 F350.00
G01 X44.7126 Y61.4713 F350.00
G01 X44.6403 Y61.5514 F350.00
G01 X44.6300 Y61.5620 F350.00
G01 X44.5537 Y61.6312 F350.00
G01 X44.5424 Y61.6407 F350.00
G01 X44.4557 Y61.7050 F350.00
G01 X44.4434 Y61.7130 F350.00
G01 X44.4003 Y61.7389 F350.00
G01 X44.4003 Y62.2099 F350.00
G01 X48.5401 Y66.3497 F350.00
G01 X78.2997 Y66.3497 F350.00
G01 X78.2997 Y56.3000 F350.00
G01 X78.3027 Y56.2363 F350.00
G01 X78.3043 Y56.2216 F350.00
G01 X78.3132 Y56.1634 F350.00
G01 X78.3299 Y56.0967 F350.00
G01 X78.3531 Y56.0320 F350.00
G01 X78.3780 Y55.9787 F350.00
G01 X78.3848 Y55.9656 F350.00
G01 X78.4125 Y55.9193 F350.00
G01 X78.4234 Y55.9029 F350.00
G01 X78.4527 Y55.8635 F350.00
G01 X78.4619 Y55.8520 F350.00
G01 X78.4981 Y55.8120 F350.00
G01 X78.5120 Y55.7981 F350.00
G01 X78.5558 Y55.7587 F350.00
G01 X78.6110 Y55.7178 F350.00
G01 X78.6699 Y55.6824 F350.00
G01 X78.7320 Y55.6531 F350.00
G01 X78.7967 Y55.6299 F350.00
G01 X78.8634 Y55.6132 F350.00
G01 X78.9314 Y55.6031 F350.00
G01 X78.9951 Y55.5998 F350.00
G01 X90.5800 Y55.5997 F350.00
G01 X90.6388 Y55.6024 F350.00
G01 X90.6584 Y55.6043 F350.00
G01 X90.7166 Y55.6132 F350.00
G01 X90.7833 Y55.6299 F350.00
G01 X90.8388 Y55.6495 F350.00
G01 X90.8569 Y55.6570 F350.00
G01 X90.9101 Y55.6824 F350.00
G01 X90.9649 Y55.7151 F350.00
G01 X90.9771 Y55.7234 F350.00
G01 X91.0242 Y55.7587 F350.00
G01 X91.0752 Y55.8048 F350.00
G01 X91.1213 Y55.8558 F350.00
G01 X91.1622 Y55.9110 F350.00
G01 X91.1976 Y55.9699 F350.00
G01 X91.2269 Y56.0320 F350.00
G01 X91.2501 Y56.0967 F350.00
G01 X91.2646 Y56.1538 F350.00
G01 X91.2677 Y56.1682 F350.00
G01 X91.2769 Y56.2314 F350.00
G01 X91.2803 Y56.3000 F350.00
G01 X91.2803 Y57.6000 F350.00
G01 X91.5849 Y57.6001 F350.00
G01 X91.5996 Y57.6010 F350.00
G01 X91.6142 Y57.6029 F350.00
G01 X91.6286 Y57.6060 F350.00
G01 X91.6427 Y57.6101 F350.00
G01 X91.6520 Y57.6134 F350.00
G01 X91.6655 Y57.6192 F350.00
G01 X91.6786 Y57.6260 F350.00
G01 X91.6911 Y57.6337 F350.00
G01 X91.6991 Y57.6394 F350.00
G01 X91.7106 Y57.6486 F350.00
G01 X91.7214 Y57.6586 F350.00
G01 X91.7282 Y57.6657 F350.00
G01 X91.7346 Y57.6731 F350.00
G01 X91.7435 Y57.6848 F350.00
G01 X91.7515 Y57.6972 F350.00
G01 X91.7586 Y57.7101 F350.00
G01 X91.7648 Y57.7235 F350.00
G01 X91.7699 Y57.7373 F350.00
G01 X91.7740 Y57.7514 F350.00
G01 X91.7762 Y57.7610 F350.00
G01 X91.7790 Y57.7804 F350.00
G01 X91.7800 Y57.8000 F350.00
G01 X91.7800 Y60.0097 F350.00
G01 X92.5019 Y60.7320 F350.00
G01 X92.5413 Y60.7758 F350.00
G01 X92.5822 Y60.8310 F350.00
G01 X92.6176 Y60.8899 F350.00
G01 X92.6469 Y60.9520 F350.00
G01 X92.6701 Y61.0167 F350.00
G01 X92.6868 Y61.0834 F350.00
G01 X92.6969 Y61.1514 F350.00
G01 X92.7000 Y61.2102 F350.00
G01 X92.7003 Y62.2500 F350.00
G01 X92.8873 Y62.2501 F350.00
G01 X92.9380 Y62.2527 F350.00
G01 X92.9834 Y62.2592 F350.00
G01 X93.0027 Y62.2631 F350.00
G01 X93.0424 Y62.2731 F350.00
G01 X93.0565 Y62.2775 F350.00
G01 X93.0996 Y62.2932 F350.00
G01 X93.1412 Y62.3126 F350.00
G01 X93.1542 Y62.3194 F350.00
G01 X93.1977 Y62.3457 F350.00
G01 X93.2425 Y62.3789 F350.00
G01 X93.2837 Y62.4163 F350.00
G01 X93.3211 Y62.4575 F350.00
G01 X93.3543 Y62.5023 F350.00
G01 X93.3830 Y62.5501 F350.00
G01 X93.4068 Y62.6004 F350.00
G01 X93.4225 Y62.6435 F350.00
G01 X93.4269 Y62.6576 F350.00
G01 X93.4391 Y62.7069 F350.00
G01 X93.4461 Y62.7523 F350.00
G01 X93.4480 Y62.7718 F350.00
G01 X93.4500 Y62.8176 F350.00
G01 X93.4500 Y64.5824 F350.00
G01 X93.4473 Y64.6380 F350.00
G01 X93.4391 Y64.6931 F350.00
G01 X93.4256 Y64.7471 F350.00
G01 X93.4086 Y64.7950 F350.00
G01 X93.4028 Y64.8086 F350.00
G01 X93.3874 Y64.8412 F350.00
G01 X93.3781 Y64.8585 F350.00
G01 X93.3543 Y64.8977 F350.00
G01 X93.3211 Y64.9425 F350.00
G01 X93.2905 Y64.9766 F350.00
G01 X93.2766 Y64.9905 F350.00
G01 X93.2425 Y65.0211 F350.00
G01 X93.1977 Y65.0543 F350.00
G01 X93.1585 Y65.0781 F350.00
G01 X93.1412 Y65.0874 F350.00
G01 X93.0996 Y65.1068 F350.00
G01 X93.0471 Y65.1256 F350.00
G01 X93.0027 Y65.1369 F350.00
G01 X92.9834 Y65.1408 F350.00
G01 X92.9380 Y65.1473 F350.00
G01 X92.8824 Y65.1500 F350.00
G01 X91.1176 Y65.1500 F350.00
G01 X91.0620 Y65.1473 F350.00
G01 X91.0166 Y65.1408 F350.00
G01 X90.9973 Y65.1369 F350.00
G01 X90.9529 Y65.1256 F350.00
G01 X90.9096 Y65.1103 F350.00
G01 X90.8959 Y65.1049 F350.00
G01 X90.8544 Y65.0852 F350.00
G01 X90.8415 Y65.0781 F350.00
G01 X90.8023 Y65.0543 F350.00
G01 X90.7614 Y65.0242 F350.00
G01 X90.7501 Y65.0147 F350.00
G01 X90.7163 Y64.9837 F350.00
G01 X90.6853 Y64.9499 F350.00
G01 X90.6728 Y64.9347 F350.00
G01 X90.6457 Y64.8977 F350.00
G01 X90.6219 Y64.8585 F350.00
G01 X90.6148 Y64.8456 F350.00
G01 X90.5951 Y64.8041 F350.00
G01 X90.5897 Y64.7904 F350.00
G01 X90.5744 Y64.7471 F350.00
G01 X90.5609 Y64.6931 F350.00
G01 X90.5527 Y64.6380 F350.00
G01 X90.5500 Y64.5824 F350.00
G01 X90.5500 Y62.8176 F350.00
G01 X90.5520 Y62.7718 F350.00
G01 X90.5539 Y62.7523 F350.00
G01 X90.5609 Y62.7069 F350.00
G01 X90.5718 Y62.6623 F350.00
G01 X90.5759 Y62.6482 F350.00
G01 X90.5914 Y62.6050 F350.00
G01 X90.5972 Y62.5914 F350.00
G01 X90.6148 Y62.5544 F350.00
G01 X90.6219 Y62.5415 F350.00
G01 X90.6457 Y62.5023 F350.00
G01 X90.6758 Y62.4614 F350.00
G01 X90.6853 Y62.4501 F350.00
G01 X90.7163 Y62.4163 F350.00
G01 X90.7575 Y62.3789 F350.00
G01 X90.8023 Y62.3457 F350.00
G01 X90.8458 Y62.3194 F350.00
G01 X90.8588 Y62.3126 F350.00
G01 X90.9004 Y62.2932 F350.00
G01 X90.9435 Y62.2775 F350.00
G01 X90.9623 Y62.2718 F350.00
G01 X91.0021 Y62.2619 F350.00
G01 X91.0166 Y62.2592 F350.00
G01 X91.0620 Y62.2527 F350.00
G01 X91.1127 Y62.2501 F350.00
G01 X91.2997 Y62.2500 F350.00
G01 X91.2997 Y62.0000 F350.00
G01 X89.5800 Y62.0000 F350.00
G01 X89.5653 Y61.9995 F350.00
G01 X89.5507 Y61.9978 F350.00
G01 X89.5362 Y61.9951 F350.00
G01 X89.5219 Y61.9914 F350.00
G01 X89.5035 Y61.9848 F350.00
G01 X89.4901 Y61.9786 F350.00
G01 X89.4772 Y61.9715 F350.00
G01 X89.4648 Y61.9635 F350.00
G01 X89.4531 Y61.9546 F350.00
G01 X89.4421 Y61.9448 F350.00
G01 X89.4318 Y61.9343 F350.00
G01 X89.4194 Y61.9191 F350.00
G01 X89.4110 Y61.9070 F350.00
G01 X89.4036 Y61.8943 F350.00
G01 X89.3972 Y61.8810 F350.00
G01 X89.3917 Y61.8674 F350.00
G01 X89.3872 Y61.8533 F350.00
G01 X89.3849 Y61.8438 F350.00
G01 X89.3822 Y61.8293 F350.00
G01 X89.3805 Y61.8147 F350.00
G01 X89.3800 Y61.8000 F350.00
G01 X89.3800 Y57.8000 F350.00
G01 X89.3810 Y57.7804 F350.00
G01 X89.3829 Y57.7658 F350.00
G01 X89.3860 Y57.7514 F350.00
G01 X89.3901 Y57.7373 F350.00
G01 X89.3934 Y57.7280 F350.00
G01 X89.3992 Y57.7145 F350.00
G01 X89.4060 Y57.7014 F350.00
G01 X89.4137 Y57.6889 F350.00
G01 X89.4223 Y57.6770 F350.00
G01 X89.4318 Y57.6657 F350.00
G01 X89.4421 Y57.6552 F350.00
G01 X89.4531 Y57.6454 F350.00
G01 X89.4648 Y57.6365 F350.00
G01 X89.4730 Y57.6310 F350.00
G01 X89.4857 Y57.6236 F350.00
G01 X89.4990 Y57.6172 F350.00
G01 X89.5126 Y57.6117 F350.00
G01 X89.5314 Y57.6060 F350.00
G01 X89.5458 Y57.6029 F350.00
G01 X89.5604 Y57.6010 F350.00
G01 X89.5751 Y57.6001 F350.00
G01 X89.8797 Y57.6000 F350.00
G01 X89.8797 Y57.0003 F350.00
G01 X79.7003 Y57.0003 F350.00
G01 X79.7000 Y67.0598 F350.00
G01 X79.6969 Y67.1186 F350.00
G01 X79.6868 Y67.1866 F350.00
G01 X79.6701 Y67.2533 F350.00
G01 X79.6505 Y67.3088 F350.00
G01 X79.6430 Y67.3269 F350.00
G01 X79.6220 Y67.3713 F350.00
G01 X79.6152 Y67.3844 F350.00
G01 X79.5822 Y67.4390 F350.00
