(G-CODE GENERATED BY FLATCAM v8.994 - www.flatcam.org - Version Date: 2020/11/7)

(Name: Buzzer PCB V3 (rerouted traces)-F_Cu.gbr_iso_combined_cnc)
(Type: G-code from Geometry)
(Units: MM)

(Created on Saturday, 27 June 2026 at 20:04)

(This preprocessor is used with a motion controller loaded with GRBL firmware.)
(It is configured to be compatible with almost any version of GRBL firmware.)

(TOOL DIAMETER: 0.5 mm)
(Feedrate_XY: 350.0 mm/min)
(Feedrate_Z: 250.0 mm/min)
(Feedrate rapids 1500.0 mm/min)

(Z_Cut: -0.05 mm)
(Z_Move: 0.5 mm)
(Z Start: None mm)
(Z End: 40.0 mm)
(X,Y End: None mm)
(Steps per circle: 64)
(Steps per circle: 64)
(Preprocessor Geometry: grbl_11)

(X range:   -4.1502 ...  125.9800  mm)
(Y range:   -3.1625 ...   68.2002  mm)

(Spindle Speed: 0.0 RPM)
G21
G90
G17
G94


G01 F350.00

M5             
G00 Z40.0000
G00 X0.0000 Y0.0000                
T1
M6
(MSG, Change to Tool Dia = 0.5000)
M0
G00 Z40.0000

M03
G01 F350.00
G00 X3.1379 Y1.7816
G01 F250.00
G01 Z-0.0500
G01 F350.00
G01 X3.1523 Y1.6845 F350.00
G01 X3.1577 Y1.6531 F350.00
G01 X3.1647 Y1.6220 F350.00
G01 X3.1885 Y1.5268 F350.00
G01 X3.1970 Y1.4960 F350.00
G01 X3.2071 Y1.4657 F350.00
G01 X3.2401 Y1.3733 F350.00
G01 X3.2516 Y1.3436 F350.00
G01 X3.2645 Y1.3144 F350.00
G01 X3.3065 Y1.2257 F350.00
G01 X3.3208 Y1.1972 F350.00
G01 X3.3366 Y1.1694 F350.00
G01 X3.3870 Y1.0853 F350.00
G01 X3.4041 Y1.0583 F350.00
G01 X3.4224 Y1.0322 F350.00
G01 X3.4906 Y0.9407 F350.00
G01 X3.5005 Y0.9283 F350.00
G01 X3.5214 Y0.9041 F350.00
G01 X3.5873 Y0.8314 F350.00
G01 X3.5981 Y0.8197 F350.00
G01 X3.6207 Y0.7971 F350.00
G01 X3.7051 Y0.7204 F350.00
G01 X3.7293 Y0.6995 F350.00
G01 X3.7544 Y0.6799 F350.00
G01 X3.8332 Y0.6214 F350.00
G01 X3.8593 Y0.6031 F350.00
G01 X3.8863 Y0.5860 F350.00
G01 X3.9704 Y0.5356 F350.00
G01 X3.9982 Y0.5198 F350.00
G01 X4.0267 Y0.5055 F350.00
G01 X4.1154 Y0.4635 F350.00
G01 X4.1299 Y0.4569 F350.00
G01 X4.1594 Y0.4447 F350.00
G01 X4.2667 Y0.4061 F350.00
G01 X4.2970 Y0.3960 F350.00
G01 X4.3278 Y0.3875 F350.00
G01 X4.4230 Y0.3637 F350.00
G01 X4.4541 Y0.3567 F350.00
G01 X4.4855 Y0.3513 F350.00
G01 X4.5826 Y0.3369 F350.00
G01 X4.6143 Y0.3329 F350.00
G01 X4.6461 Y0.3306 F350.00
G01 X4.7441 Y0.3258 F350.00
G01 X4.7760 Y0.3250 F350.00
G01 X4.8079 Y0.3258 F350.00
G01 X4.9059 Y0.3306 F350.00
G01 X4.9377 Y0.3329 F350.00
G01 X4.9694 Y0.3369 F350.00
G01 X5.0665 Y0.3513 F350.00
G01 X5.0979 Y0.3567 F350.00
G01 X5.1290 Y0.3637 F350.00
G01 X5.2242 Y0.3875 F350.00
G01 X5.2550 Y0.3960 F350.00
G01 X5.2853 Y0.4061 F350.00
G01 X5.3777 Y0.4391 F350.00
G01 X5.4074 Y0.4506 F350.00
G01 X5.4366 Y0.4635 F350.00
G01 X5.5253 Y0.5055 F350.00
G01 X5.5538 Y0.5198 F350.00
G01 X5.5816 Y0.5356 F350.00
G01 X5.6793 Y0.5944 F350.00
G01 X5.6927 Y0.6031 F350.00
G01 X5.7188 Y0.6214 F350.00
G01 X5.7976 Y0.6799 F350.00
G01 X5.8227 Y0.6995 F350.00
G01 X5.8350 Y0.7098 F350.00
G01 X5.9196 Y0.7863 F350.00
G01 X5.9427 Y0.8083 F350.00
G01 X5.9647 Y0.8314 F350.00
G01 X6.0306 Y0.9041 F350.00
G01 X6.0515 Y0.9283 F350.00
G01 X6.0711 Y0.9534 F350.00
G01 X6.1296 Y1.0322 F350.00
G01 X6.1479 Y1.0583 F350.00
G01 X6.1650 Y1.0853 F350.00
G01 X6.2154 Y1.1694 F350.00
G01 X6.2235 Y1.1832 F350.00
G01 X6.2385 Y1.2114 F350.00
G01 X6.2875 Y1.3144 F350.00
G01 X6.3004 Y1.3436 F350.00
G01 X6.3119 Y1.3733 F350.00
G01 X6.3449 Y1.4657 F350.00
G01 X6.3501 Y1.4808 F350.00
G01 X6.3594 Y1.5114 F350.00
G01 X6.3873 Y1.6220 F350.00
G01 X6.3910 Y1.6375 F350.00
G01 X6.3972 Y1.6688 F350.00
G01 X6.4163 Y1.7974 F350.00
G01 X6.4181 Y1.8133 F350.00
G01 X6.4204 Y1.8451 F350.00
G01 X6.4252 Y1.9431 F350.00
G01 X6.4260 Y1.9750 F350.00
G01 X6.4258 Y3.2410 F350.00
G01 X6.4204 Y3.3549 F350.00
G01 X6.4181 Y3.3867 F350.00
G01 X6.4141 Y3.4184 F350.00
G01 X6.3997 Y3.5155 F350.00
G01 X6.3943 Y3.5469 F350.00
G01 X6.3873 Y3.5780 F350.00
G01 X6.3635 Y3.6732 F350.00
G01 X6.3550 Y3.7040 F350.00
G01 X6.3449 Y3.7343 F350.00
G01 X6.3119 Y3.8267 F350.00
G01 X6.3004 Y3.8564 F350.00
G01 X6.2875 Y3.8856 F350.00
G01 X6.2455 Y3.9743 F350.00
G01 X6.2312 Y4.0028 F350.00
G01 X6.2154 Y4.0306 F350.00
G01 X6.1566 Y4.1283 F350.00
G01 X6.1479 Y4.1417 F350.00
G01 X6.1296 Y4.1678 F350.00
G01 X6.0711 Y4.2466 F350.00
G01 X6.0515 Y4.2717 F350.00
G01 X6.0412 Y4.2840 F350.00
G01 X5.9647 Y4.3686 F350.00
G01 X5.9427 Y4.3917 F350.00
G01 X5.9196 Y4.4137 F350.00
G01 X5.8469 Y4.4796 F350.00
G01 X5.8227 Y4.5005 F350.00
G01 X5.7976 Y4.5201 F350.00
G01 X5.7188 Y4.5786 F350.00
G01 X5.6927 Y4.5969 F350.00
G01 X5.6657 Y4.6140 F350.00
G01 X5.5816 Y4.6644 F350.00
G01 X5.5538 Y4.6802 F350.00
G01 X5.5253 Y4.6945 F350.00
G01 X5.4366 Y4.7365 F350.00
G01 X5.4074 Y4.7494 F350.00
G01 X5.3777 Y4.7609 F350.00
G01 X5.2853 Y4.7939 F350.00
G01 X5.2550 Y4.8040 F350.00
G01 X5.2242 Y4.8125 F350.00
G01 X5.1290 Y4.8363 F350.00
G01 X5.0979 Y4.8433 F350.00
G01 X5.0665 Y4.8487 F350.00
G01 X4.9694 Y4.8631 F350.00
G01 X4.9377 Y4.8671 F350.00
G01 X4.9059 Y4.8694 F350.00
G01 X4.8079 Y4.8742 F350.00
G01 X4.7760 Y4.8750 F350.00
G01 X4.7441 Y4.8742 F350.00
G01 X4.6461 Y4.8694 F350.00
G01 X4.6143 Y4.8671 F350.00
G01 X4.5826 Y4.8631 F350.00
G01 X4.4855 Y4.8487 F350.00
G01 X4.4541 Y4.8433 F350.00
G01 X4.4230 Y4.8363 F350.00
G01 X4.3278 Y4.8125 F350.00
G01 X4.2970 Y4.8040 F350.00
G01 X4.2667 Y4.7939 F350.00
G01 X4.1743 Y4.7609 F350.00
G01 X4.1446 Y4.7494 F350.00
G01 X4.1154 Y4.7365 F350.00
G01 X4.0267 Y4.6945 F350.00
G01 X3.9982 Y4.6802 F350.00
G01 X3.9704 Y4.6644 F350.00
G01 X3.8863 Y4.6140 F350.00
G01 X3.8593 Y4.5969 F350.00
G01 X3.8332 Y4.5786 F350.00
G01 X3.7544 Y4.5201 F350.00
G01 X3.7417 Y4.5104 F350.00
G01 X3.7170 Y4.4902 F350.00
G01 X3.6324 Y4.4137 F350.00
G01 X3.6093 Y4.3917 F350.00
G01 X3.5873 Y4.3686 F350.00
G01 X3.5108 Y4.2840 F350.00
G01 X3.4906 Y4.2593 F350.00
G01 X3.4809 Y4.2466 F350.00
G01 X3.4224 Y4.1678 F350.00
G01 X3.4041 Y4.1417 F350.00
G01 X3.3870 Y4.1147 F350.00
G01 X3.3366 Y4.0306 F350.00
G01 X3.3208 Y4.0028 F350.00
G01 X3.3065 Y3.9743 F350.00
G01 X3.2645 Y3.8856 F350.00
G01 X3.2516 Y3.8564 F350.00
G01 X3.2401 Y3.8267 F350.00
G01 X3.2071 Y3.7343 F350.00
G01 X3.1970 Y3.7040 F350.00
G01 X3.1885 Y3.6732 F350.00
G01 X3.1610 Y3.5625 F350.00
G01 X3.1548 Y3.5312 F350.00
G01 X3.1523 Y3.5155 F350.00
G01 X3.1379 Y3.4184 F350.00
G01 X3.1339 Y3.3867 F350.00
G01 X3.1316 Y3.3549 F350.00
G01 X3.1262 Y3.2410 F350.00
G01 X3.1260 Y1.9750 F350.00
G01 X3.1268 Y1.9431 F350.00
G01 X3.1316 Y1.8451 F350.00
G01 X3.1339 Y1.8133 F350.00
G01 X3.1379 Y1.7816 F350.00
G00 Z0.5000
G00 X3.5335 Y1.8403
G01 F250.00
G01 Z-0.0500
G01 F350.00
G01 X3.5479 Y1.7432 F350.00
G01 X3.5500 Y1.7311 F350.00
G01 X3.5527 Y1.7192 F350.00
G01 X3.5766 Y1.6240 F350.00
G01 X3.5798 Y1.6121 F350.00
G01 X3.5837 Y1.6005 F350.00
G01 X3.6167 Y1.5081 F350.00
G01 X3.6212 Y1.4966 F350.00
G01 X3.6261 Y1.4854 F350.00
G01 X3.6681 Y1.3967 F350.00
G01 X3.6736 Y1.3858 F350.00
G01 X3.6796 Y1.3751 F350.00
G01 X3.7301 Y1.2909 F350.00
G01 X3.7367 Y1.2805 F350.00
G01 X3.7437 Y1.2705 F350.00
G01 X3.8022 Y1.1917 F350.00
G01 X3.8097 Y1.1820 F350.00
G01 X3.8178 Y1.1727 F350.00
G01 X3.8837 Y1.1000 F350.00
G01 X3.8921 Y1.0911 F350.00
G01 X3.9010 Y1.0827 F350.00
G01 X3.9737 Y1.0168 F350.00
G01 X3.9830 Y1.0087 F350.00
G01 X3.9927 Y1.0012 F350.00
G01 X4.0715 Y0.9427 F350.00
G01 X4.0815 Y0.9357 F350.00
G01 X4.0919 Y0.9291 F350.00
G01 X4.1761 Y0.8786 F350.00
G01 X4.1868 Y0.8726 F350.00
G01 X4.1977 Y0.8671 F350.00
G01 X4.2864 Y0.8251 F350.00
G01 X4.2976 Y0.8202 F350.00
G01 X4.3091 Y0.8157 F350.00
G01 X4.4015 Y0.7827 F350.00
G01 X4.4131 Y0.7788 F350.00
G01 X4.4250 Y0.7756 F350.00
G01 X4.5202 Y0.7517 F350.00
G01 X4.5321 Y0.7490 F350.00
G01 X4.5442 Y0.7469 F350.00
G01 X4.6413 Y0.7325 F350.00
G01 X4.6535 Y0.7310 F350.00
G01 X4.6657 Y0.7301 F350.00
G01 X4.7637 Y0.7253 F350.00
G01 X4.7760 Y0.7250 F350.00
G01 X4.7883 Y0.7253 F350.00
G01 X4.8863 Y0.7301 F350.00
G01 X4.8985 Y0.7310 F350.00
G01 X4.9107 Y0.7325 F350.00
G01 X5.0078 Y0.7469 F350.00
G01 X5.0199 Y0.7490 F350.00
G01 X5.0318 Y0.7517 F350.00
G01 X5.1270 Y0.7756 F350.00
G01 X5.1389 Y0.7788 F350.00
G01 X5.1505 Y0.7827 F350.00
G01 X5.2429 Y0.8157 F350.00
G01 X5.2544 Y0.8202 F350.00
G01 X5.2656 Y0.8251 F350.00
G01 X5.3543 Y0.8671 F350.00
G01 X5.3652 Y0.8726 F350.00
G01 X5.3759 Y0.8786 F350.00
G01 X5.4601 Y0.9291 F350.00
G01 X5.4705 Y0.9357 F350.00
G01 X5.4805 Y0.9427 F350.00
G01 X5.5593 Y1.0012 F350.00
G01 X5.5690 Y1.0087 F350.00
G01 X5.5783 Y1.0168 F350.00
G01 X5.6510 Y1.0827 F350.00
G01 X5.6599 Y1.0911 F350.00
G01 X5.6683 Y1.1000 F350.00
G01 X5.7383 Y1.1773 F350.00
G01 X5.7498 Y1.1917 F350.00
G01 X5.8083 Y1.2705 F350.00
G01 X5.8153 Y1.2805 F350.00
G01 X5.8219 Y1.2909 F350.00
G01 X5.8724 Y1.3751 F350.00
G01 X5.8784 Y1.3858 F350.00
G01 X5.8839 Y1.3967 F350.00
G01 X5.9259 Y1.4854 F350.00
G01 X5.9308 Y1.4966 F350.00
G01 X5.9353 Y1.5081 F350.00
G01 X5.9683 Y1.6005 F350.00
G01 X5.9722 Y1.6121 F350.00
G01 X5.9754 Y1.6240 F350.00
G01 X5.9993 Y1.7192 F350.00
G01 X6.0020 Y1.7311 F350.00
G01 X6.0041 Y1.7432 F350.00
G01 X6.0193 Y1.8464 F350.00
G01 X6.0209 Y1.8647 F350.00
G01 X6.0257 Y1.9627 F350.00
G01 X6.0260 Y1.9750 F350.00
G01 X6.0260 Y3.2250 F350.00
G01 X6.0257 Y3.2373 F350.00
G01 X6.0209 Y3.3353 F350.00
G01 X6.0200 Y3.3475 F350.00
G01 X6.0185 Y3.3597 F350.00
G01 X6.0041 Y3.4568 F350.00
G01 X6.0020 Y3.4689 F350.00
G01 X5.9993 Y3.4808 F350.00
G01 X5.9754 Y3.5760 F350.00
G01 X5.9722 Y3.5879 F350.00
G01 X5.9683 Y3.5995 F350.00
G01 X5.9353 Y3.6919 F350.00
G01 X5.9308 Y3.7034 F350.00
G01 X5.9259 Y3.7146 F350.00
G01 X5.8839 Y3.8033 F350.00
G01 X5.8784 Y3.8142 F350.00
G01 X5.8724 Y3.8249 F350.00
G01 X5.8219 Y3.9091 F350.00
G01 X5.8153 Y3.9195 F350.00
G01 X5.8083 Y3.9295 F350.00
G01 X5.7498 Y4.0083 F350.00
G01 X5.7423 Y4.0180 F350.00
G01 X5.7342 Y4.0273 F350.00
G01 X5.6683 Y4.1000 F350.00
G01 X5.6599 Y4.1089 F350.00
G01 X5.6510 Y4.1173 F350.00
G01 X5.5737 Y4.1873 F350.00
G01 X5.5593 Y4.1988 F350.00
G01 X5.4805 Y4.2573 F350.00
G01 X5.4705 Y4.2643 F350.00
G01 X5.4601 Y4.2709 F350.00
G01 X5.3759 Y4.3214 F350.00
G01 X5.3652 Y4.3274 F350.00
G01 X5.3543 Y4.3329 F350.00
G01 X5.2656 Y4.3749 F350.00
G01 X5.2544 Y4.3798 F350.00
G01 X5.2429 Y4.3843 F350.00
G01 X5.1505 Y4.4173 F350.00
G01 X5.1389 Y4.4212 F350.00
G01 X5.1270 Y4.4244 F350.00
G01 X5.0318 Y4.4483 F350.00
G01 X5.0199 Y4.4510 F350.00
G01 X5.0078 Y4.4531 F350.00
G01 X4.9107 Y4.4675 F350.00
G01 X4.8985 Y4.4690 F350.00
G01 X4.8863 Y4.4699 F350.00
G01 X4.7883 Y4.4747 F350.00
G01 X4.7760 Y4.4750 F350.00
G01 X4.7637 Y4.4747 F350.00
G01 X4.6657 Y4.4699 F350.00
G01 X4.6535 Y4.4690 F350.00
G01 X4.6413 Y4.4675 F350.00
G01 X4.5442 Y4.4531 F350.00
G01 X4.5321 Y4.4510 F350.00
G01 X4.5202 Y4.4483 F350.00
G01 X4.4250 Y4.4244 F350.00
G01 X4.4131 Y4.4212 F350.00
G01 X4.4015 Y4.4173 F350.00
G01 X4.3091 Y4.3843 F350.00
G01 X4.2976 Y4.3798 F350.00
G01 X4.2864 Y4.3749 F350.00
G01 X4.1977 Y4.3329 F350.00
G01 X4.1868 Y4.3274 F350.00
G01 X4.1761 Y4.3214 F350.00
G01 X4.0919 Y4.2709 F350.00
G01 X4.0815 Y4.2643 F350.00
G01 X4.0715 Y4.2573 F350.00
G01 X3.9927 Y4.1988 F350.00
G01 X3.9830 Y4.1913 F350.00
G01 X3.9737 Y4.1832 F350.00
G01 X3.9010 Y4.1173 F350.00
G01 X3.8921 Y4.1089 F350.00
G01 X3.8837 Y4.1000 F350.00
G01 X3.8137 Y4.0227 F350.00
G01 X3.8022 Y4.0083 F350.00
G01 X3.7437 Y3.9295 F350.00
G01 X3.7367 Y3.9195 F350.00
G01 X3.7301 Y3.9091 F350.00
G01 X3.6796 Y3.8249 F350.00
G01 X3.6736 Y3.8142 F350.00
G01 X3.6681 Y3.8033 F350.00
G01 X3.6261 Y3.7146 F350.00
G01 X3.6212 Y3.7034 F350.00
G01 X3.6167 Y3.6919 F350.00
G01 X3.5837 Y3.5995 F350.00
G01 X3.5798 Y3.5879 F350.00
G01 X3.5766 Y3.5760 F350.00
G01 X3.5527 Y3.4808 F350.00
G01 X3.5500 Y3.4689 F350.00
G01 X3.5479 Y3.4568 F350.00
G01 X3.5327 Y3.3536 F350.00
G01 X3.5311 Y3.3353 F350.00
G01 X3.5263 Y3.2373 F350.00
G01 X3.5260 Y3.2250 F350.00
G01 X3.5260 Y1.9750 F350.00
G01 X3.5263 Y1.9627 F350.00
G01 X3.5311 Y1.8647 F350.00
G01 X3.5320 Y1.8525 F350.00
G01 X3.5335 Y1.8403 F350.00
G00 Z0.5000
G00 X6.0460 Y9.9218
G01 F250.00
G01 Z-0.0500
G01 F350.00
G01 X6.0306 Y9.9041 F350.00
G01 X5.9647 Y9.8314 F350.00
G01 X5.9427 Y9.8083 F350.00
G01 X5.9196 Y9.7863 F350.00
G01 X5.8469 Y9.7204 F350.00
G01 X5.8236 Y9.7003 F350.00
G01 X6.2684 Y9.7003 F350.00
G01 X6.2451 Y9.7204 F350.00
G01 X6.1724 Y9.7863 F350.00
G01 X6.1493 Y9.8083 F350.00
G01 X6.1273 Y9.8314 F350.00
G01 X6.0614 Y9.9041 F350.00
G01 X6.0460 Y9.9218 F350.00
G00 Z0.5000
G00 X3.5335 Y10.8403
G01 F250.00
G01 Z-0.0500
G01 F350.00
G01 X3.5479 Y10.7432 F350.00
G01 X3.5500 Y10.7311 F350.00
G01 X3.5527 Y10.7192 F350.00
G01 X3.5766 Y10.6240 F350.00
G01 X3.5798 Y10.6121 F350.00
G01 X3.5837 Y10.6005 F350.00
G01 X3.6167 Y10.5081 F350.00
G01 X3.6212 Y10.4966 F350.00
G01 X3.6261 Y10.4854 F350.00
G01 X3.6681 Y10.3967 F350.00
G01 X3.6736 Y10.3858 F350.00
G01 X3.6796 Y10.3751 F350.00
G01 X3.7301 Y10.2909 F350.00
G01 X3.7367 Y10.2805 F350.00
G01 X3.7437 Y10.2705 F350.00
G01 X3.8022 Y10.1917 F350.00
G01 X3.8097 Y10.1820 F350.00
G01 X3.8178 Y10.1727 F350.00
G01 X3.8837 Y10.1000 F350.00
G01 X3.8921 Y10.0911 F350.00
G01 X3.9010 Y10.0827 F350.00
G01 X3.9737 Y10.0168 F350.00
G01 X3.9830 Y10.0087 F350.00
G01 X3.9927 Y10.0012 F350.00
G01 X4.0715 Y9.9427 F350.00
G01 X4.0815 Y9.9357 F350.00
G01 X4.0919 Y9.9291 F350.00
G01 X4.1761 Y9.8786 F350.00
G01 X4.1868 Y9.8726 F350.00
G01 X4.1977 Y9.8671 F350.00
G01 X4.2864 Y9.8251 F350.00
G01 X4.2976 Y9.8202 F350.00
G01 X4.3091 Y9.8157 F350.00
G01 X4.4015 Y9.7827 F350.00
G01 X4.4131 Y9.7788 F350.00
G01 X4.4250 Y9.7756 F350.00
G01 X4.5202 Y9.7517 F350.00
G01 X4.5321 Y9.7490 F350.00
G01 X4.5442 Y9.7469 F350.00
G01 X4.6413 Y9.7325 F350.00
G01 X4.6535 Y9.7310 F350.00
G01 X4.6657 Y9.7301 F350.00
G01 X4.7637 Y9.7253 F350.00
G01 X4.7760 Y9.7250 F350.00
G01 X4.7883 Y9.7253 F350.00
G01 X4.8863 Y9.7301 F350.00
G01 X4.8985 Y9.7310 F350.00
G01 X4.9107 Y9.7325 F350.00
G01 X5.0078 Y9.7469 F350.00
G01 X5.0199 Y9.7490 F350.00
G01 X5.0318 Y9.7517 F350.00
G01 X5.1270 Y9.7756 F350.00
G01 X5.1389 Y9.7788 F350.00
G01 X5.1505 Y9.7827 F350.00
G01 X5.2429 Y9.8157 F350.00
G01 X5.2544 Y9.8202 F350.00
G01 X5.2656 Y9.8251 F350.00
G01 X5.3543 Y9.8671 F350.00
G01 X5.3652 Y9.8726 F350.00
G01 X5.3759 Y9.8786 F350.00
G01 X5.4601 Y9.9291 F350.00
G01 X5.4705 Y9.9357 F350.00
G01 X5.4805 Y9.9427 F350.00
G01 X5.5593 Y10.0012 F350.00
G01 X5.5690 Y10.0087 F350.00
G01 X5.5783 Y10.0168 F350.00
G01 X5.6510 Y10.0827 F350.00
G01 X5.6599 Y10.0911 F350.00
G01 X5.6683 Y10.1000 F350.00
G01 X5.7383 Y10.1773 F350.00
G01 X5.7498 Y10.1917 F350.00
G01 X5.8083 Y10.2705 F350.00
G01 X5.8153 Y10.2805 F350.00
G01 X5.8219 Y10.2909 F350.00
G01 X5.8724 Y10.3751 F350.00
G01 X5.8784 Y10.3858 F350.00
G01 X5.8839 Y10.3967 F350.00
G01 X5.9259 Y10.4854 F350.00
G01 X5.9308 Y10.4966 F350.00
G01 X5.9353 Y10.5081 F350.00
G01 X5.9683 Y10.6005 F350.00
G01 X5.9722 Y10.6121 F350.00
G01 X5.9754 Y10.6240 F350.00
G01 X5.9993 Y10.7192 F350.00
G01 X6.0020 Y10.7311 F350.00
G01 X6.0041 Y10.7432 F350.00
G01 X6.0193 Y10.8464 F350.00
G01 X6.0209 Y10.8647 F350.00
G01 X6.0257 Y10.9627 F350.00
G01 X6.0260 Y10.9750 F350.00
G01 X6.0260 Y12.2250 F350.00
G01 X6.0257 Y12.2373 F350.00
G01 X6.0209 Y12.3353 F350.00
G01 X6.0200 Y12.3475 F350.00
G01 X6.0185 Y12.3597 F350.00
G01 X6.0041 Y12.4568 F350.00
G01 X6.0020 Y12.4689 F350.00
G01 X5.9993 Y12.4808 F350.00
G01 X5.9754 Y12.5760 F350.00
G01 X5.9722 Y12.5879 F350.00
G01 X5.9683 Y12.5995 F350.00
G01 X5.9353 Y12.6919 F350.00
G01 X5.9308 Y12.7034 F350.00
G01 X5.9259 Y12.7146 F350.00
G01 X5.8839 Y12.8033 F350.00
G01 X5.8784 Y12.8142 F350.00
G01 X5.8724 Y12.8249 F350.00
G01 X5.8219 Y12.9091 F350.00
G01 X5.8153 Y12.9195 F350.00
G01 X5.8083 Y12.9295 F350.00
G01 X5.7498 Y13.0083 F350.00
G01 X5.7423 Y13.0180 F350.00
G01 X5.7342 Y13.0273 F350.00
G01 X5.6683 Y13.1000 F350.00
G01 X5.6599 Y13.1089 F350.00
G01 X5.6510 Y13.1173 F350.00
G01 X5.5737 Y13.1873 F350.00
G01 X5.5593 Y13.1988 F350.00
G01 X5.4805 Y13.2573 F350.00
G01 X5.4705 Y13.2643 F350.00
G01 X5.4601 Y13.2709 F350.00
G01 X5.3759 Y13.3214 F350.00
G01 X5.3652 Y13.3274 F350.00
G01 X5.3543 Y13.3329 F350.00
G01 X5.2656 Y13.3749 F350.00
G01 X5.2544 Y13.3798 F350.00
G01 X5.2429 Y13.3843 F350.00
G01 X5.1505 Y13.4173 F350.00
G01 X5.1389 Y13.4212 F350.00
G01 X5.1270 Y13.4244 F350.00
G01 X5.0318 Y13.4483 F350.00
G01 X5.0199 Y13.4510 F350.00
G01 X5.0078 Y13.4531 F350.00
G01 X4.9107 Y13.4675 F350.00
G01 X4.8985 Y13.4690 F350.00
G01 X4.8863 Y13.4699 F350.00
G01 X4.7883 Y13.4747 F350.00
G01 X4.7760 Y13.4750 F350.00
G01 X4.7637 Y13.4747 F350.00
G01 X4.6657 Y13.4699 F350.00
G01 X4.6535 Y13.4690 F350.00
G01 X4.6413 Y13.4675 F350.00
G01 X4.5442 Y13.4531 F350.00
G01 X4.5321 Y13.4510 F350.00
G01 X4.5202 Y13.4483 F350.00
G01 X4.4250 Y13.4244 F350.00
G01 X4.4131 Y13.4212 F350.00
G01 X4.4015 Y13.4173 F350.00
G01 X4.3091 Y13.3843 F350.00
G01 X4.2976 Y13.3798 F350.00
G01 X4.2864 Y13.3749 F350.00
G01 X4.1977 Y13.3329 F350.00
G01 X4.1868 Y13.3274 F350.00
G01 X4.1761 Y13.3214 F350.00
G01 X4.0919 Y13.2709 F350.00
G01 X4.0815 Y13.2643 F350.00
G01 X4.0715 Y13.2573 F350.00
G01 X3.9927 Y13.1988 F350.00
G01 X3.9830 Y13.1913 F350.00
G01 X3.9737 Y13.1832 F350.00
G01 X3.9010 Y13.1173 F350.00
G01 X3.8921 Y13.1089 F350.00
G01 X3.8837 Y13.1000 F350.00
G01 X3.8137 Y13.0227 F350.00
G01 X3.8022 Y13.0083 F350.00
G01 X3.7437 Y12.9295 F350.00
G01 X3.7367 Y12.9195 F350.00
G01 X3.7301 Y12.9091 F350.00
G01 X3.6796 Y12.8249 F350.00
G01 X3.6736 Y12.8142 F350.00
G01 X3.6681 Y12.8033 F350.00
G01 X3.6261 Y12.7146 F350.00
G01 X3.6212 Y12.7034 F350.00
G01 X3.6167 Y12.6919 F350.00
G01 X3.5837 Y12.5995 F350.00
G01 X3.5798 Y12.5879 F350.00
G01 X3.5766 Y12.5760 F350.00
G01 X3.5527 Y12.4808 F350.00
G01 X3.5500 Y12.4689 F350.00
G01 X3.5479 Y12.4568 F350.00
G01 X3.5327 Y12.3536 F350.00
G01 X3.5311 Y12.3353 F350.00
G01 X3.5263 Y12.2373 F350.00
G01 X3.5260 Y12.2250 F350.00
G01 X3.5260 Y10.9750 F350.00
G01 X3.5263 Y10.9627 F350.00
G01 X3.5311 Y10.8647 F350.00
G01 X3.5320 Y10.8525 F350.00
G01 X3.5335 Y10.8403 F350.00
G00 Z0.5000
G00 X3.1379 Y10.7816
G01 F250.00
G01 Z-0.0500
G01 F350.00
G01 X3.1339 Y10.8133 F350.00
G01 X3.1316 Y10.8451 F350.00
G01 X3.1268 Y10.9431 F350.00
G01 X3.1260 Y10.9750 F350.00
G01 X3.1262 Y12.2410 F350.00
G01 X3.1316 Y12.3549 F350.00
G01 X3.1339 Y12.3867 F350.00
G01 X3.1379 Y12.4184 F350.00
G01 X3.1523 Y12.5155 F350.00
G01 X3.1548 Y12.5312 F350.00
G01 X3.1610 Y12.5625 F350.00
G01 X3.1885 Y12.6732 F350.00
G01 X3.1970 Y12.7040 F350.00
G01 X3.2071 Y12.7343 F350.00
G01 X3.2457 Y12.8416 F350.00
G01 X3.2516 Y12.8564 F350.00
G01 X3.2645 Y12.8856 F350.00
G01 X3.3065 Y12.9743 F350.00
G01 X3.3208 Y13.0028 F350.00
G01 X3.3366 Y13.0306 F350.00
G01 X3.3870 Y13.1147 F350.00
G01 X3.4041 Y13.1417 F350.00
G01 X3.4224 Y13.1678 F350.00
G01 X3.4809 Y13.2466 F350.00
G01 X3.5005 Y13.2717 F350.00
G01 X3.5214 Y13.2959 F350.00
G01 X3.5873 Y13.3686 F350.00
G01 X3.6093 Y13.3917 F350.00
G01 X3.6324 Y13.4137 F350.00
G01 X3.7170 Y13.4902 F350.00
G01 X3.7417 Y13.5104 F350.00
G01 X3.7544 Y13.5201 F350.00
G01 X3.8462 Y13.5879 F350.00
G01 X3.8727 Y13.6056 F350.00
G01 X3.8863 Y13.6140 F350.00
G01 X3.9704 Y13.6644 F350.00
G01 X3.9982 Y13.6802 F350.00
G01 X4.0124 Y13.6875 F350.00
G01 X4.1154 Y13.7365 F350.00
G01 X4.1446 Y13.7494 F350.00
G01 X4.1743 Y13.7609 F350.00
G01 X4.2667 Y13.7939 F350.00
G01 X4.2970 Y13.8040 F350.00
G01 X4.3278 Y13.8125 F350.00
G01 X4.4230 Y13.8363 F350.00
G01 X4.4541 Y13.8433 F350.00
G01 X4.4855 Y13.8487 F350.00
G01 X4.5826 Y13.8631 F350.00
G01 X4.6143 Y13.8671 F350.00
G01 X4.6461 Y13.8694 F350.00
G01 X4.7441 Y13.8742 F350.00
G01 X4.7760 Y13.8750 F350.00
G01 X4.8079 Y13.8742 F350.00
G01 X4.9059 Y13.8694 F350.00
G01 X4.9377 Y13.8671 F350.00
G01 X4.9694 Y13.8631 F350.00
G01 X5.0665 Y13.8487 F350.00
G01 X5.0979 Y13.8433 F350.00
G01 X5.1290 Y13.8363 F350.00
G01 X5.2242 Y13.8125 F350.00
G01 X5.2550 Y13.8040 F350.00
G01 X5.2853 Y13.7939 F350.00
G01 X5.3777 Y13.7609 F350.00
G01 X5.4074 Y13.7494 F350.00
G01 X5.4366 Y13.7365 F350.00
G01 X5.5396 Y13.6875 F350.00
G01 X5.5678 Y13.6725 F350.00
G01 X5.5816 Y13.6644 F350.00
G01 X5.6657 Y13.6140 F350.00
G01 X5.6927 Y13.5969 F350.00
G01 X5.7188 Y13.5786 F350.00
G01 X5.7976 Y13.5201 F350.00
G01 X5.8103 Y13.5104 F350.00
G01 X5.8350 Y13.4902 F350.00
G01 X5.9313 Y13.4029 F350.00
G01 X5.9539 Y13.3803 F350.00
G01 X5.9647 Y13.3686 F350.00
G01 X6.0306 Y13.2959 F350.00
G01 X6.0460 Y13.2782 F350.00
G01 X6.0614 Y13.2959 F350.00
G01 X6.1273 Y13.3686 F350.00
G01 X6.1381 Y13.3803 F350.00
G01 X6.1607 Y13.4029 F350.00
G01 X6.2570 Y13.4902 F350.00
G01 X6.2693 Y13.5005 F350.00
G01 X6.2943 Y13.5200 F350.00
G01 X6.2794 Y13.5307 F350.00
G01 X6.1612 Y13.6184 F350.00
G01 X6.1361 Y13.6380 F350.00
G01 X6.1119 Y13.6589 F350.00
G01 X6.0028 Y13.7577 F350.00
G01 X5.9911 Y13.7686 F350.00
G01 X5.9686 Y13.7911 F350.00
G01 X5.8589 Y13.9119 F350.00
G01 X5.8483 Y13.9238 F350.00
G01 X5.8281 Y13.9485 F350.00
G01 X5.7214 Y14.0924 F350.00
G01 X5.7036 Y14.1189 F350.00
G01 X5.6849 Y14.1497 F350.00
G01 X3.7500 Y14.1498 F350.00
G01 X3.7181 Y14.1505 F350.00
G01 X3.6531 Y14.1539 F350.00
G01 X3.6214 Y14.1570 F350.00
G01 X3.6056 Y14.1592 F350.00
G01 X3.5570 Y14.1664 F350.00
G01 X3.5256 Y14.1719 F350.00
G01 X3.4945 Y14.1788 F350.00
G01 X3.4314 Y14.1948 F350.00
G01 X3.4009 Y14.2041 F350.00
G01 X3.3858 Y14.2093 F350.00
G01 X3.3396 Y14.2258 F350.00
G01 X3.3098 Y14.2373 F350.00
G01 X3.2807 Y14.2502 F350.00
G01 X3.2219 Y14.2782 F350.00
G01 X3.2078 Y14.2856 F350.00
G01 X3.1800 Y14.3013 F350.00
G01 X3.1379 Y14.3265 F350.00
G01 X3.1110 Y14.3436 F350.00
G01 X3.0849 Y14.3620 F350.00
G01 X3.0454 Y14.3912 F350.00
G01 X3.0203 Y14.4108 F350.00
G01 X2.9961 Y14.4317 F350.00
G01 X2.9598 Y14.4647 F350.00
G01 X2.9367 Y14.4867 F350.00
G01 X-0.6633 Y18.0867 F350.00
G01 X-0.6853 Y18.1098 F350.00
G01 X-0.7183 Y18.1461 F350.00
G01 X-0.7392 Y18.1703 F350.00
G01 X-0.7588 Y18.1954 F350.00
G01 X-0.7880 Y18.2349 F350.00
G01 X-0.8064 Y18.2610 F350.00
G01 X-0.8235 Y18.2879 F350.00
G01 X-0.8487 Y18.3300 F350.00
G01 X-0.8644 Y18.3578 F350.00
G01 X-0.8788 Y18.3863 F350.00
G01 X-0.8998 Y18.4307 F350.00
G01 X-0.9127 Y18.4598 F350.00
G01 X-0.9242 Y18.4896 F350.00
G01 X-0.9407 Y18.5358 F350.00
G01 X-0.9507 Y18.5661 F350.00
G01 X-0.9592 Y18.5968 F350.00
G01 X-0.9712 Y18.6445 F350.00
G01 X-0.9781 Y18.6756 F350.00
G01 X-0.9836 Y18.7070 F350.00
G01 X-0.9908 Y18.7556 F350.00
G01 X-0.9947 Y18.7873 F350.00
G01 X-0.9971 Y18.8191 F350.00
G01 X-0.9995 Y18.8681 F350.00
G01 X-1.0002 Y18.9000 F350.00
G01 X-1.0002 Y33.2250 F350.00
G01 X-1.1410 Y33.2252 F350.00
G01 X-1.2439 Y33.2303 F350.00
G01 X-1.2756 Y33.2334 F350.00
G01 X-1.3618 Y33.2460 F350.00
G01 X-1.3932 Y33.2514 F350.00
G01 X-1.4244 Y33.2584 F350.00
G01 X-1.4934 Y33.2757 F350.00
G01 X-1.5241 Y33.2842 F350.00
G01 X-1.5544 Y33.2942 F350.00
G01 X-1.6214 Y33.3182 F350.00
G01 X-1.6512 Y33.3297 F350.00
G01 X-1.6804 Y33.3426 F350.00
G01 X-1.7590 Y33.3800 F350.00
G01 X-1.7871 Y33.3951 F350.00
G01 X-1.8497 Y33.4323 F350.00
G01 X-1.8498 Y15.0264 F350.00
G01 X3.4764 Y9.7003 F350.00
G01 X3.7284 Y9.7003 F350.00
G01 X3.7051 Y9.7204 F350.00
G01 X3.6324 Y9.7863 F350.00
G01 X3.6093 Y9.8083 F350.00
G01 X3.5873 Y9.8314 F350.00
G01 X3.5214 Y9.9041 F350.00
G01 X3.5005 Y9.9283 F350.00
G01 X3.4809 Y9.9534 F350.00
G01 X3.4224 Y10.0322 F350.00
G01 X3.4041 Y10.0583 F350.00
G01 X3.3870 Y10.0853 F350.00
G01 X3.3366 Y10.1694 F350.00
G01 X3.3208 Y10.1972 F350.00
G01 X3.3065 Y10.2257 F350.00
G01 X3.2645 Y10.3144 F350.00
G01 X3.2516 Y10.3436 F350.00
G01 X3.2401 Y10.3733 F350.00
G01 X3.2071 Y10.4657 F350.00
G01 X3.1970 Y10.4960 F350.00
G01 X3.1885 Y10.5268 F350.00
G01 X3.1647 Y10.6220 F350.00
G01 X3.1577 Y10.6531 F350.00
G01 X3.1523 Y10.6845 F350.00
G01 X3.1379 Y10.7816 F350.00
G00 Z0.5000
G00 X3.1628 Y20.0370
G01 F250.00
G01 Z-0.0500
G01 F350.00
G01 X3.1801 Y19.9205 F350.00
G01 X3.1855 Y19.8891 F350.00
G01 X3.1925 Y19.8580 F350.00
G01 X3.2252 Y19.7283 F350.00
G01 X3.2345 Y19.6978 F350.00
G01 X3.2397 Y19.6827 F350.00
G01 X3.2793 Y19.5718 F350.00
G01 X3.2908 Y19.5420 F350.00
G01 X3.3038 Y19.5129 F350.00
G01 X3.3541 Y19.4064 F350.00
G01 X3.3684 Y19.3779 F350.00
G01 X3.3842 Y19.3502 F350.00
G01 X3.4447 Y19.2491 F350.00
G01 X3.4618 Y19.2222 F350.00
G01 X3.4802 Y19.1961 F350.00
G01 X3.5503 Y19.1015 F350.00
G01 X3.5699 Y19.0764 F350.00
G01 X3.5908 Y19.0522 F350.00
G01 X3.6699 Y18.9650 F350.00
G01 X3.6919 Y18.9419 F350.00
G01 X3.7033 Y18.9307 F350.00
G01 X3.8022 Y18.8408 F350.00
G01 X3.8264 Y18.8199 F350.00
G01 X3.8515 Y18.8003 F350.00
G01 X3.9461 Y18.7302 F350.00
G01 X3.9722 Y18.7118 F350.00
G01 X3.9991 Y18.6947 F350.00
G01 X4.1002 Y18.6342 F350.00
G01 X4.1279 Y18.6184 F350.00
G01 X4.1564 Y18.6041 F350.00
G01 X4.2629 Y18.5538 F350.00
G01 X4.2920 Y18.5408 F350.00
G01 X4.3218 Y18.5293 F350.00
G01 X4.4327 Y18.4897 F350.00
G01 X4.4630 Y18.4797 F350.00
G01 X4.4937 Y18.4712 F350.00
G01 X4.6080 Y18.4425 F350.00
G01 X4.6391 Y18.4355 F350.00
G01 X4.6705 Y18.4301 F350.00
G01 X4.7870 Y18.4128 F350.00
G01 X4.8187 Y18.4089 F350.00
G01 X4.8505 Y18.4066 F350.00
G01 X4.9681 Y18.4008 F350.00
G01 X5.0000 Y18.4000 F350.00
G01 X5.0319 Y18.4008 F350.00
G01 X5.1495 Y18.4066 F350.00
G01 X5.1813 Y18.4089 F350.00
G01 X5.2130 Y18.4128 F350.00
G01 X5.3295 Y18.4301 F350.00
G01 X5.3609 Y18.4355 F350.00
G01 X5.3920 Y18.4425 F350.00
G01 X5.5063 Y18.4712 F350.00
G01 X5.5370 Y18.4797 F350.00
G01 X5.5673 Y18.4897 F350.00
G01 X5.6932 Y18.5349 F350.00
G01 X5.7080 Y18.5408 F350.00
G01 X5.7371 Y18.5538 F350.00
G01 X5.8436 Y18.6041 F350.00
G01 X5.8721 Y18.6184 F350.00
G01 X5.8998 Y18.6342 F350.00
G01 X6.0009 Y18.6947 F350.00
G01 X6.0278 Y18.7118 F350.00
G01 X6.0539 Y18.7302 F350.00
G01 X6.1612 Y18.8100 F350.00
G01 X6.1858 Y18.8302 F350.00
G01 X6.1978 Y18.8408 F350.00
G01 X6.2850 Y18.9199 F350.00
G01 X6.2967 Y18.9307 F350.00
G01 X6.3193 Y18.9533 F350.00
G01 X6.4092 Y19.0522 F350.00
G01 X6.4301 Y19.0764 F350.00
G01 X6.4497 Y19.1015 F350.00
G01 X6.5000 Y19.1693 F350.00
G01 X6.5600 Y19.0888 F350.00
G01 X6.5802 Y19.0642 F350.00
G01 X6.6699 Y18.9650 F350.00
G01 X6.6919 Y18.9419 F350.00
G01 X6.7033 Y18.9307 F350.00
G01 X6.8022 Y18.8408 F350.00
G01 X6.8264 Y18.8199 F350.00
G01 X6.8515 Y18.8003 F350.00
G01 X6.9461 Y18.7302 F350.00
G01 X6.9590 Y18.7208 F350.00
G01 X6.9856 Y18.7031 F350.00
G01 X7.1002 Y18.6342 F350.00
G01 X7.1279 Y18.6184 F350.00
G01 X7.1564 Y18.6041 F350.00
G01 X7.2629 Y18.5538 F350.00
G01 X7.2920 Y18.5408 F350.00
G01 X7.3068 Y18.5349 F350.00
G01 X7.4327 Y18.4897 F350.00
G01 X7.4630 Y18.4797 F350.00
G01 X7.4783 Y18.4752 F350.00
G01 X7.6235 Y18.4389 F350.00
G01 X7.6548 Y18.4326 F350.00
G01 X7.6705 Y18.4301 F350.00
G01 X7.7870 Y18.4128 F350.00
G01 X7.8187 Y18.4089 F350.00
G01 X7.8505 Y18.4066 F350.00
G01 X7.9681 Y18.4008 F350.00
G01 X8.0000 Y18.4000 F350.00
G01 X8.0319 Y18.4008 F350.00
G01 X8.1495 Y18.4066 F350.00
G01 X8.1813 Y18.4089 F350.00
G01 X8.2130 Y18.4128 F350.00
G01 X8.3295 Y18.4301 F350.00
G01 X8.3609 Y18.4355 F350.00
G01 X8.3920 Y18.4425 F350.00
G01 X8.5063 Y18.4712 F350.00
G01 X8.5370 Y18.4797 F350.00
G01 X8.5673 Y18.4897 F350.00
G01 X8.6782 Y18.5293 F350.00
G01 X8.7080 Y18.5408 F350.00
G01 X8.7371 Y18.5538 F350.00
G01 X8.8436 Y18.6041 F350.00
G01 X8.8721 Y18.6184 F350.00
G01 X8.8998 Y18.6342 F350.00
G01 X9.0009 Y18.6947 F350.00
G01 X9.0278 Y18.7118 F350.00
G01 X9.0539 Y18.7302 F350.00
G01 X9.1612 Y18.8100 F350.00
G01 X9.1736 Y18.8199 F350.00
G01 X9.1978 Y18.8408 F350.00
G01 X9.2850 Y18.9199 F350.00
G01 X9.2967 Y18.9307 F350.00
G01 X9.3193 Y18.9533 F350.00
G01 X9.4092 Y19.0522 F350.00
G01 X9.4301 Y19.0764 F350.00
G01 X9.4497 Y19.1015 F350.00
G01 X9.5000 Y19.1693 F350.00
G01 X9.5503 Y19.1015 F350.00
G01 X9.5699 Y19.0764 F350.00
G01 X9.5908 Y19.0522 F350.00
G01 X9.6807 Y18.9533 F350.00
G01 X9.7033 Y18.9307 F350.00
G01 X9.7150 Y18.9199 F350.00
G01 X9.8022 Y18.8408 F350.00
G01 X9.8142 Y18.8302 F350.00
G01 X9.8388 Y18.8100 F350.00
G01 X9.9461 Y18.7302 F350.00
G01 X9.9722 Y18.7118 F350.00
G01 X9.9991 Y18.6947 F350.00
G01 X10.1002 Y18.6342 F350.00
G01 X10.1279 Y18.6184 F350.00
G01 X10.1564 Y18.6041 F350.00
G01 X10.2629 Y18.5538 F350.00
G01 X10.2774 Y18.5471 F350.00
G01 X10.3068 Y18.5349 F350.00
G01 X10.4327 Y18.4897 F350.00
G01 X10.4630 Y18.4797 F350.00
G01 X10.4937 Y18.4712 F350.00
G01 X10.6080 Y18.4425 F350.00
G01 X10.6391 Y18.4355 F350.00
G01 X10.6705 Y18.4301 F350.00
G01 X10.7870 Y18.4128 F350.00
G01 X10.8187 Y18.4089 F350.00
G01 X10.8505 Y18.4066 F350.00
G01 X10.9681 Y18.4008 F350.00
G01 X11.0000 Y18.4000 F350.00
G01 X11.0319 Y18.4008 F350.00
G01 X11.1495 Y18.4066 F350.00
G01 X11.1813 Y18.4089 F350.00
G01 X11.2130 Y18.4128 F350.00
G01 X11.3295 Y18.4301 F350.00
G01 X11.3609 Y18.4355 F350.00
G01 X11.3765 Y18.4389 F350.00
G01 X11.5217 Y18.4752 F350.00
G01 X11.5370 Y18.4797 F350.00
G01 X11.5673 Y18.4897 F350.00
G01 X11.6782 Y18.5293 F350.00
G01 X11.7080 Y18.5408 F350.00
G01 X11.7371 Y18.5538 F350.00
G01 X11.8436 Y18.6041 F350.00
G01 X11.8721 Y18.6184 F350.00
G01 X11.8998 Y18.6342 F350.00
G01 X12.0009 Y18.6947 F350.00
G01 X12.0278 Y18.7118 F350.00
G01 X12.0539 Y18.7302 F350.00
G01 X12.1485 Y18.8003 F350.00
G01 X12.1736 Y18.8199 F350.00
G01 X12.1978 Y18.8408 F350.00
G01 X12.2850 Y18.9199 F350.00
G01 X12.3081 Y18.9419 F350.00
G01 X12.3301 Y18.9650 F350.00
G01 X12.4092 Y19.0522 F350.00
G01 X12.4301 Y19.0764 F350.00
G01 X12.4497 Y19.1015 F350.00
G01 X12.5198 Y19.1961 F350.00
G01 X12.5382 Y19.2222 F350.00
G01 X12.5553 Y19.2491 F350.00
G01 X12.6158 Y19.3502 F350.00
G01 X12.6316 Y19.3779 F350.00
G01 X12.6459 Y19.4064 F350.00
G01 X12.6962 Y19.5129 F350.00
G01 X12.7029 Y19.5274 F350.00
G01 X12.7151 Y19.5568 F350.00
G01 X12.7603 Y19.6827 F350.00
G01 X12.7703 Y19.7130 F350.00
G01 X12.7788 Y19.7437 F350.00
G01 X12.8075 Y19.8580 F350.00
G01 X12.8145 Y19.8891 F350.00
G01 X12.8199 Y19.9205 F350.00
G01 X12.8372 Y20.0370 F350.00
G01 X12.8411 Y20.0687 F350.00
G01 X12.8434 Y20.1005 F350.00
G01 X12.8498 Y20.2340 F350.00
G01 X12.8498 Y21.8660 F350.00
G01 X12.8434 Y21.9995 F350.00
G01 X12.8411 Y22.0313 F350.00
G01 X12.8372 Y22.0630 F350.00
G01 X12.8199 Y22.1795 F350.00
G01 X12.8145 Y22.2109 F350.00
G01 X12.8111 Y22.2265 F350.00
G01 X12.7788 Y22.3563 F350.00
G01 X12.7703 Y22.3870 F350.00
G01 X12.7603 Y22.4173 F350.00
G01 X12.7207 Y22.5282 F350.00
G01 X12.7092 Y22.5580 F350.00
G01 X12.6962 Y22.5871 F350.00
G01 X12.6459 Y22.6936 F350.00
G01 X12.6316 Y22.7221 F350.00
G01 X12.6158 Y22.7498 F350.00
G01 X12.5553 Y22.8509 F350.00
G01 X12.5382 Y22.8778 F350.00
G01 X12.5198 Y22.9039 F350.00
G01 X12.4497 Y22.9985 F350.00
G01 X12.4301 Y23.0236 F350.00
G01 X12.4092 Y23.0478 F350.00
G01 X12.3301 Y23.1350 F350.00
G01 X12.3081 Y23.1581 F350.00
G01 X12.2850 Y23.1801 F350.00
G01 X12.1978 Y23.2592 F350.00
G01 X12.1736 Y23.2801 F350.00
G01 X12.1485 Y23.2997 F350.00
G01 X12.0539 Y23.3698 F350.00
G01 X12.0278 Y23.3882 F350.00
G01 X12.0009 Y23.4053 F350.00
G01 X11.8998 Y23.4658 F350.00
G01 X11.8721 Y23.4816 F350.00
G01 X11.8436 Y23.4959 F350.00
G01 X11.7371 Y23.5462 F350.00
G01 X11.7080 Y23.5592 F350.00
G01 X11.6782 Y23.5707 F350.00
G01 X11.5673 Y23.6103 F350.00
G01 X11.5370 Y23.6203 F350.00
G01 X11.5063 Y23.6288 F350.00
G01 X11.3920 Y23.6575 F350.00
G01 X11.3609 Y23.6645 F350.00
G01 X11.3452 Y23.6674 F350.00
G01 X11.2130 Y23.6872 F350.00
G01 X11.1813 Y23.6911 F350.00
G01 X11.1495 Y23.6934 F350.00
G01 X11.0319 Y23.6992 F350.00
G01 X11.0000 Y23.7000 F350.00
G01 X10.9681 Y23.6992 F350.00
G01 X10.8505 Y23.6934 F350.00
G01 X10.8187 Y23.6911 F350.00
G01 X10.7870 Y23.6872 F350.00
G01 X10.6705 Y23.6699 F350.00
G01 X10.6391 Y23.6645 F350.00
G01 X10.6080 Y23.6575 F350.00
G01 X10.4937 Y23.6288 F350.00
G01 X10.4630 Y23.6203 F350.00
G01 X10.4327 Y23.6103 F350.00
G01 X10.3068 Y23.5651 F350.00
G01 X10.2774 Y23.5529 F350.00
G01 X10.2629 Y23.5462 F350.00
G01 X10.1564 Y23.4959 F350.00
G01 X10.1279 Y23.4816 F350.00
G01 X10.1002 Y23.4658 F350.00
G01 X9.9991 Y23.4053 F350.00
G01 X9.9722 Y23.3882 F350.00
G01 X9.9461 Y23.3698 F350.00
G01 X9.8388 Y23.2900 F350.00
G01 X9.8142 Y23.2698 F350.00
G01 X9.8022 Y23.2592 F350.00
G01 X9.7150 Y23.1801 F350.00
G01 X9.7033 Y23.1693 F350.00
G01 X9.6807 Y23.1467 F350.00
G01 X9.5908 Y23.0478 F350.00
G01 X9.5699 Y23.0236 F350.00
G01 X9.5503 Y22.9985 F350.00
G01 X9.5000 Y22.9307 F350.00
G01 X9.4400 Y23.0112 F350.00
G01 X9.4198 Y23.0358 F350.00
G01 X9.3301 Y23.1350 F350.00
G01 X9.3081 Y23.1581 F350.00
G01 X9.2967 Y23.1693 F350.00
G01 X9.1978 Y23.2592 F350.00
G01 X9.1736 Y23.2801 F350.00
G01 X9.1485 Y23.2997 F350.00
G01 X9.0539 Y23.3698 F350.00
G01 X9.0410 Y23.3792 F350.00
G01 X9.0144 Y23.3969 F350.00
G01 X8.8998 Y23.4658 F350.00
G01 X8.8721 Y23.4816 F350.00
G01 X8.8436 Y23.4959 F350.00
G01 X8.7371 Y23.5462 F350.00
G01 X8.7226 Y23.5529 F350.00
G01 X8.6932 Y23.5651 F350.00
G01 X8.5673 Y23.6103 F350.00
G01 X8.5370 Y23.6203 F350.00
G01 X8.5217 Y23.6248 F350.00
G01 X8.3765 Y23.6611 F350.00
G01 X8.3609 Y23.6645 F350.00
G01 X8.3295 Y23.6699 F350.00
G01 X8.2130 Y23.6872 F350.00
G01 X8.1813 Y23.6911 F350.00
G01 X8.1495 Y23.6934 F350.00
G01 X8.0319 Y23.6992 F350.00
G01 X8.0000 Y23.7000 F350.00
G01 X7.9681 Y23.6992 F350.00
G01 X7.8505 Y23.6934 F350.00
G01 X7.8187 Y23.6911 F350.00
G01 X7.7870 Y23.6872 F350.00
G01 X7.6705 Y23.6699 F350.00
G01 X7.6391 Y23.6645 F350.00
G01 X7.6080 Y23.6575 F350.00
G01 X7.4937 Y23.6288 F350.00
G01 X7.4630 Y23.6203 F350.00
G01 X7.4327 Y23.6103 F350.00
G01 X7.3218 Y23.5707 F350.00
G01 X7.2920 Y23.5592 F350.00
G01 X7.2629 Y23.5462 F350.00
G01 X7.1564 Y23.4959 F350.00
G01 X7.1279 Y23.4816 F350.00
G01 X7.1002 Y23.4658 F350.00
G01 X6.9991 Y23.4053 F350.00
G01 X6.9722 Y23.3882 F350.00
G01 X6.9461 Y23.3698 F350.00
G01 X6.8388 Y23.2900 F350.00
G01 X6.8142 Y23.2698 F350.00
G01 X6.8022 Y23.2592 F350.00
G01 X6.7150 Y23.1801 F350.00
G01 X6.7033 Y23.1693 F350.00
G01 X6.6807 Y23.1467 F350.00
G01 X6.5908 Y23.0478 F350.00
G01 X6.5699 Y23.0236 F350.00
G01 X6.5503 Y22.9985 F350.00
G01 X6.5000 Y22.9307 F350.00
G01 X6.4497 Y22.9985 F350.00
G01 X6.4301 Y23.0236 F350.00
G01 X6.4092 Y23.0478 F350.00
G01 X6.3193 Y23.1467 F350.00
G01 X6.3081 Y23.1581 F350.00
G01 X6.2850 Y23.1801 F350.00
G01 X6.1978 Y23.2592 F350.00
G01 X6.1736 Y23.2801 F350.00
G01 X6.1612 Y23.2900 F350.00
G01 X6.0539 Y23.3698 F350.00
G01 X6.0278 Y23.3882 F350.00
G01 X6.0009 Y23.4053 F350.00
G01 X5.8998 Y23.4658 F350.00
G01 X5.8721 Y23.4816 F350.00
G01 X5.8436 Y23.4959 F350.00
G01 X5.7371 Y23.5462 F350.00
G01 X5.7080 Y23.5592 F350.00
G01 X5.6932 Y23.5651 F350.00
G01 X5.5673 Y23.6103 F350.00
G01 X5.5370 Y23.6203 F350.00
G01 X5.5063 Y23.6288 F350.00
G01 X5.3920 Y23.6575 F350.00
G01 X5.3609 Y23.6645 F350.00
G01 X5.3295 Y23.6699 F350.00
G01 X5.2130 Y23.6872 F350.00
G01 X5.1813 Y23.6911 F350.00
G01 X5.1495 Y23.6934 F350.00
G01 X5.0319 Y23.6992 F350.00
G01 X5.0000 Y23.7000 F350.00
G01 X4.9681 Y23.6992 F350.00
G01 X4.8505 Y23.6934 F350.00
G01 X4.8187 Y23.6911 F350.00
G01 X4.7870 Y23.6872 F350.00
G01 X4.6705 Y23.6699 F350.00
G01 X4.6548 Y23.6674 F350.00
G01 X4.6235 Y23.6611 F350.00
G01 X4.4783 Y23.6248 F350.00
G01 X4.4478 Y23.6155 F350.00
G01 X4.4327 Y23.6103 F350.00
G01 X4.3218 Y23.5707 F350.00
G01 X4.2920 Y23.5592 F350.00
G01 X4.2629 Y23.5462 F350.00
G01 X4.1564 Y23.4959 F350.00
G01 X4.1279 Y23.4816 F350.00
G01 X4.1002 Y23.4658 F350.00
G01 X3.9991 Y23.4053 F350.00
G01 X3.9722 Y23.3882 F350.00
G01 X3.9461 Y23.3698 F350.00
G01 X3.8515 Y23.2997 F350.00
G01 X3.8264 Y23.2801 F350.00
G01 X3.8022 Y23.2592 F350.00
G01 X3.7150 Y23.1801 F350.00
G01 X3.6919 Y23.1581 F350.00
G01 X3.6699 Y23.1350 F350.00
G01 X3.5908 Y23.0478 F350.00
G01 X3.5699 Y23.0236 F350.00
G01 X3.5503 Y22.9985 F350.00
G01 X3.4802 Y22.9039 F350.00
G01 X3.4618 Y22.8778 F350.00
G01 X3.4447 Y22.8509 F350.00
G01 X3.3842 Y22.7498 F350.00
G01 X3.3684 Y22.7221 F350.00
G01 X3.3541 Y22.6936 F350.00
G01 X3.3038 Y22.5871 F350.00
G01 X3.2908 Y22.5580 F350.00
G01 X3.2793 Y22.5282 F350.00
G01 X3.2397 Y22.4173 F350.00
G01 X3.2297 Y22.3870 F350.00
G01 X3.2212 Y22.3563 F350.00
G01 X3.1925 Y22.2420 F350.00
G01 X3.1889 Y22.2265 F350.00
G01 X3.1826 Y22.1952 F350.00
G01 X3.1628 Y22.0630 F350.00
G01 X3.1589 Y22.0313 F350.00
G01 X3.1566 Y21.9995 F350.00
G01 X3.1508 Y21.8819 F350.00
G01 X3.1500 Y21.8500 F350.00
G01 X3.1500 Y20.2500 F350.00
G01 X3.1508 Y20.2181 F350.00
G01 X3.1566 Y20.1005 F350.00
G01 X3.1589 Y20.0687 F350.00
G01 X3.1628 Y20.0370 F350.00
G00 Z0.5000
G00 X3.5585 Y20.0957
G01 F250.00
G01 Z-0.0500
G01 F350.00
G01 X3.5758 Y19.9792 F350.00
G01 X3.5779 Y19.9671 F350.00
G01 X3.5805 Y19.9551 F350.00
G01 X3.6092 Y19.8409 F350.00
G01 X3.6124 Y19.8291 F350.00
G01 X3.6163 Y19.8174 F350.00
G01 X3.6560 Y19.7066 F350.00
G01 X3.6604 Y19.6951 F350.00
G01 X3.6653 Y19.6839 F350.00
G01 X3.7157 Y19.5774 F350.00
G01 X3.7212 Y19.5665 F350.00
G01 X3.7273 Y19.5558 F350.00
G01 X3.7878 Y19.4548 F350.00
G01 X3.7944 Y19.4444 F350.00
G01 X3.8014 Y19.4344 F350.00
G01 X3.8716 Y19.3398 F350.00
G01 X3.8791 Y19.3301 F350.00
G01 X3.8871 Y19.3208 F350.00
G01 X3.9662 Y19.2336 F350.00
G01 X3.9747 Y19.2247 F350.00
G01 X3.9836 Y19.2162 F350.00
G01 X4.0708 Y19.1371 F350.00
G01 X4.0801 Y19.1291 F350.00
G01 X4.0898 Y19.1216 F350.00
G01 X4.1844 Y19.0514 F350.00
G01 X4.1944 Y19.0444 F350.00
G01 X4.2048 Y19.0378 F350.00
G01 X4.3058 Y18.9773 F350.00
G01 X4.3165 Y18.9712 F350.00
G01 X4.3274 Y18.9657 F350.00
G01 X4.4339 Y18.9153 F350.00
G01 X4.4451 Y18.9104 F350.00
G01 X4.4566 Y18.9060 F350.00
G01 X4.5674 Y18.8663 F350.00
G01 X4.5791 Y18.8624 F350.00
G01 X4.5909 Y18.8592 F350.00
G01 X4.7051 Y18.8305 F350.00
G01 X4.7171 Y18.8279 F350.00
G01 X4.7292 Y18.8258 F350.00
G01 X4.8457 Y18.8085 F350.00
G01 X4.8579 Y18.8070 F350.00
G01 X4.8701 Y18.8061 F350.00
G01 X4.9877 Y18.8003 F350.00
G01 X5.0000 Y18.8000 F350.00
G01 X5.0123 Y18.8003 F350.00
G01 X5.1299 Y18.8061 F350.00
G01 X5.1421 Y18.8070 F350.00
G01 X5.1543 Y18.8085 F350.00
G01 X5.2708 Y18.8258 F350.00
G01 X5.2829 Y18.8279 F350.00
G01 X5.2949 Y18.8305 F350.00
G01 X5.4091 Y18.8592 F350.00
G01 X5.4209 Y18.8624 F350.00
G01 X5.4326 Y18.8663 F350.00
G01 X5.5434 Y18.9060 F350.00
G01 X5.5549 Y18.9104 F350.00
G01 X5.5661 Y18.9153 F350.00
G01 X5.6726 Y18.9657 F350.00
G01 X5.6835 Y18.9712 F350.00
G01 X5.6942 Y18.9773 F350.00
G01 X5.7952 Y19.0378 F350.00
G01 X5.8056 Y19.0444 F350.00
G01 X5.8156 Y19.0514 F350.00
G01 X5.9102 Y19.1216 F350.00
G01 X5.9199 Y19.1291 F350.00
G01 X5.9292 Y19.1371 F350.00
G01 X6.0164 Y19.2162 F350.00
G01 X6.0253 Y19.2247 F350.00
G01 X6.0338 Y19.2336 F350.00
G01 X6.1129 Y19.3208 F350.00
G01 X6.1209 Y19.3301 F350.00
G01 X6.1284 Y19.3398 F350.00
G01 X6.1986 Y19.4344 F350.00
G01 X6.2056 Y19.4444 F350.00
G01 X6.2122 Y19.4548 F350.00
G01 X6.2727 Y19.5558 F350.00
G01 X6.2788 Y19.5665 F350.00
G01 X6.2843 Y19.5774 F350.00
G01 X6.3347 Y19.6839 F350.00
G01 X6.3396 Y19.6951 F350.00
G01 X6.3440 Y19.7066 F350.00
G01 X6.3837 Y19.8174 F350.00
G01 X6.3876 Y19.8291 F350.00
G01 X6.3908 Y19.8409 F350.00
G01 X6.4195 Y19.9551 F350.00
G01 X6.4221 Y19.9671 F350.00
G01 X6.4242 Y19.9792 F350.00
G01 X6.4423 Y20.1018 F350.00
G01 X6.4439 Y20.1201 F350.00
G01 X6.4497 Y20.2377 F350.00
G01 X6.4500 Y20.2500 F350.00
G01 X6.4500 Y21.8500 F350.00
G01 X6.4497 Y21.8623 F350.00
G01 X6.4439 Y21.9799 F350.00
G01 X6.4430 Y21.9921 F350.00
G01 X6.4415 Y22.0043 F350.00
G01 X6.4242 Y22.1208 F350.00
G01 X6.4221 Y22.1329 F350.00
G01 X6.4195 Y22.1449 F350.00
G01 X6.3908 Y22.2591 F350.00
G01 X6.3876 Y22.2709 F350.00
G01 X6.3837 Y22.2826 F350.00
G01 X6.3440 Y22.3934 F350.00
G01 X6.3396 Y22.4049 F350.00
G01 X6.3347 Y22.4161 F350.00
G01 X6.2843 Y22.5226 F350.00
G01 X6.2788 Y22.5335 F350.00
G01 X6.2727 Y22.5442 F350.00
G01 X6.2122 Y22.6452 F350.00
G01 X6.2056 Y22.6556 F350.00
G01 X6.1986 Y22.6656 F350.00
G01 X6.1284 Y22.7602 F350.00
G01 X6.1209 Y22.7699 F350.00
G01 X6.1129 Y22.7792 F350.00
G01 X6.0338 Y22.8664 F350.00
G01 X6.0253 Y22.8753 F350.00
G01 X6.0164 Y22.8838 F350.00
G01 X5.9292 Y22.9629 F350.00
G01 X5.9199 Y22.9709 F350.00
G01 X5.9102 Y22.9784 F350.00
G01 X5.8156 Y23.0486 F350.00
G01 X5.8056 Y23.0556 F350.00
G01 X5.7952 Y23.0622 F350.00
G01 X5.6942 Y23.1227 F350.00
G01 X5.6835 Y23.1288 F350.00
G01 X5.6726 Y23.1343 F350.00
G01 X5.5661 Y23.1847 F350.00
G01 X5.5549 Y23.1896 F350.00
G01 X5.5434 Y23.1940 F350.00
G01 X5.4326 Y23.2337 F350.00
G01 X5.4209 Y23.2376 F350.00
G01 X5.4091 Y23.2408 F350.00
G01 X5.2949 Y23.2695 F350.00
G01 X5.2829 Y23.2721 F350.00
G01 X5.2708 Y23.2742 F350.00
G01 X5.1543 Y23.2915 F350.00
G01 X5.1421 Y23.2930 F350.00
G01 X5.1299 Y23.2939 F350.00
G01 X5.0123 Y23.2997 F350.00
G01 X5.0000 Y23.3000 F350.00
G01 X4.9877 Y23.2997 F350.00
G01 X4.8701 Y23.2939 F350.00
G01 X4.8579 Y23.2930 F350.00
G01 X4.8457 Y23.2915 F350.00
G01 X4.7292 Y23.2742 F350.00
G01 X4.7171 Y23.2721 F350.00
G01 X4.7051 Y23.2695 F350.00
G01 X4.5909 Y23.2408 F350.00
G01 X4.5791 Y23.2376 F350.00
G01 X4.5674 Y23.2337 F350.00
G01 X4.4566 Y23.1940 F350.00
G01 X4.4451 Y23.1896 F350.00
G01 X4.4339 Y23.1847 F350.00
G01 X4.3274 Y23.1343 F350.00
G01 X4.3165 Y23.1288 F350.00
G01 X4.3058 Y23.1227 F350.00
G01 X4.2048 Y23.0622 F350.00
G01 X4.1944 Y23.0556 F350.00
G01 X4.1844 Y23.0486 F350.00
G01 X4.0898 Y22.9784 F350.00
G01 X4.0801 Y22.9709 F350.00
G01 X4.0708 Y22.9629 F350.00
G01 X3.9836 Y22.8838 F350.00
G01 X3.9747 Y22.8753 F350.00
G01 X3.9662 Y22.8664 F350.00
G01 X3.8871 Y22.7792 F350.00
G01 X3.8791 Y22.7699 F350.00
G01 X3.8716 Y22.7602 F350.00
G01 X3.8014 Y22.6656 F350.00
G01 X3.7944 Y22.6556 F350.00
G01 X3.7878 Y22.6452 F350.00
G01 X3.7273 Y22.5442 F350.00
G01 X3.7212 Y22.5335 F350.00
G01 X3.7157 Y22.5226 F350.00
G01 X3.6653 Y22.4161 F350.00
G01 X3.6604 Y22.4049 F350.00
G01 X3.6560 Y22.3934 F350.00
G01 X3.6163 Y22.2826 F350.00
G01 X3.6124 Y22.2709 F350.00
G01 X3.6092 Y22.2591 F350.00
G01 X3.5805 Y22.1449 F350.00
G01 X3.5779 Y22.1329 F350.00
G01 X3.5758 Y22.1208 F350.00
G01 X3.5577 Y21.9982 F350.00
G01 X3.5561 Y21.9799 F350.00
G01 X3.5503 Y21.8623 F350.00
G01 X3.5500 Y21.8500 F350.00
G01 X3.5500 Y20.2500 F350.00
G01 X3.5503 Y20.2377 F350.00
G01 X3.5561 Y20.1201 F350.00
G01 X3.5570 Y20.1079 F350.00
G01 X3.5585 Y20.0957 F350.00
G00 Z0.5000
G00 X6.5585 Y20.0957
G01 F250.00
G01 Z-0.0500
G01 F350.00
G01 X6.5758 Y19.9792 F350.00
G01 X6.5779 Y19.9671 F350.00
G01 X6.5805 Y19.9551 F350.00
G01 X6.6092 Y19.8409 F350.00
G01 X6.6124 Y19.8291 F350.00
G01 X6.6163 Y19.8174 F350.00
G01 X6.6560 Y19.7066 F350.00
G01 X6.6604 Y19.6951 F350.00
G01 X6.6653 Y19.6839 F350.00
G01 X6.7157 Y19.5774 F350.00
G01 X6.7212 Y19.5665 F350.00
G01 X6.7273 Y19.5558 F350.00
G01 X6.7878 Y19.4548 F350.00
G01 X6.7944 Y19.4444 F350.00
G01 X6.8014 Y19.4344 F350.00
G01 X6.8716 Y19.3398 F350.00
G01 X6.8791 Y19.3301 F350.00
G01 X6.8871 Y19.3208 F350.00
G01 X6.9662 Y19.2336 F350.00
G01 X6.9747 Y19.2247 F350.00
G01 X6.9836 Y19.2162 F350.00
G01 X7.0708 Y19.1371 F350.00
G01 X7.0801 Y19.1291 F350.00
G01 X7.0898 Y19.1216 F350.00
G01 X7.1844 Y19.0514 F350.00
G01 X7.1944 Y19.0444 F350.00
G01 X7.2048 Y19.0378 F350.00
G01 X7.3058 Y18.9773 F350.00
G01 X7.3165 Y18.9712 F350.00
G01 X7.3274 Y18.9657 F350.00
G01 X7.4339 Y18.9153 F350.00
G01 X7.4451 Y18.9104 F350.00
G01 X7.4566 Y18.9060 F350.00
G01 X7.5674 Y18.8663 F350.00
G01 X7.5791 Y18.8624 F350.00
G01 X7.5909 Y18.8592 F350.00
G01 X7.7051 Y18.8305 F350.00
G01 X7.7171 Y18.8279 F350.00
G01 X7.7292 Y18.8258 F350.00
G01 X7.8457 Y18.8085 F350.00
G01 X7.8579 Y18.8070 F350.00
G01 X7.8701 Y18.8061 F350.00
G01 X7.9877 Y18.8003 F350.00
G01 X8.0000 Y18.8000 F350.00
G01 X8.0123 Y18.8003 F350.00
G01 X8.1299 Y18.8061 F350.00
G01 X8.1421 Y18.8070 F350.00
G01 X8.1543 Y18.8085 F350.00
G01 X8.2708 Y18.8258 F350.00
G01 X8.2829 Y18.8279 F350.00
G01 X8.2949 Y18.8305 F350.00
G01 X8.4091 Y18.8592 F350.00
G01 X8.4209 Y18.8624 F350.00
G01 X8.4326 Y18.8663 F350.00
G01 X8.5434 Y18.9060 F350.00
G01 X8.5549 Y18.9104 F350.00
G01 X8.5661 Y18.9153 F350.00
G01 X8.6726 Y18.9657 F350.00
G01 X8.6835 Y18.9712 F350.00
G01 X8.6942 Y18.9773 F350.00
G01 X8.7952 Y19.0378 F350.00
G01 X8.8056 Y19.0444 F350.00
G01 X8.8156 Y19.0514 F350.00
G01 X8.9102 Y19.1216 F350.00
G01 X8.9199 Y19.1291 F350.00
G01 X8.9292 Y19.1371 F350.00
G01 X9.0164 Y19.2162 F350.00
G01 X9.0253 Y19.2247 F350.00
G01 X9.0338 Y19.2336 F350.00
G01 X9.1129 Y19.3208 F350.00
G01 X9.1209 Y19.3301 F350.00
G01 X9.1284 Y19.3398 F350.00
G01 X9.1986 Y19.4344 F350.00
G01 X9.2056 Y19.4444 F350.00
G01 X9.2122 Y19.4548 F350.00
G01 X9.2727 Y19.5558 F350.00
G01 X9.2788 Y19.5665 F350.00
G01 X9.2843 Y19.5774 F350.00
G01 X9.3347 Y19.6839 F350.00
G01 X9.3396 Y19.6951 F350.00
G01 X9.3440 Y19.7066 F350.00
G01 X9.3837 Y19.8174 F350.00
G01 X9.3876 Y19.8291 F350.00
G01 X9.3908 Y19.8409 F350.00
G01 X9.4195 Y19.9551 F350.00
G01 X9.4221 Y19.9671 F350.00
G01 X9.4242 Y19.9792 F350.00
G01 X9.4423 Y20.1018 F350.00
G01 X9.4439 Y20.1201 F350.00
G01 X9.4497 Y20.2377 F350.00
G01 X9.4500 Y20.2500 F350.00
G01 X9.4500 Y21.8500 F350.00
G01 X9.4497 Y21.8623 F350.00
G01 X9.4439 Y21.9799 F350.00
G01 X9.4430 Y21.9921 F350.00
G01 X9.4415 Y22.0043 F350.00
G01 X9.4242 Y22.1208 F350.00
G01 X9.4221 Y22.1329 F350.00
G01 X9.4195 Y22.1449 F350.00
G01 X9.3908 Y22.2591 F350.00
G01 X9.3876 Y22.2709 F350.00
G01 X9.3837 Y22.2826 F350.00
G01 X9.3440 Y22.3934 F350.00
G01 X9.3396 Y22.4049 F350.00
G01 X9.3347 Y22.4161 F350.00
G01 X9.2843 Y22.5226 F350.00
G01 X9.2788 Y22.5335 F350.00
G01 X9.2727 Y22.5442 F350.00
G01 X9.2122 Y22.6452 F350.00
G01 X9.2056 Y22.6556 F350.00
G01 X9.1986 Y22.6656 F350.00
G01 X9.1284 Y22.7602 F350.00
G01 X9.1209 Y22.7699 F350.00
G01 X9.1129 Y22.7792 F350.00
G01 X9.0338 Y22.8664 F350.00
G01 X9.0253 Y22.8753 F350.00
G01 X9.0164 Y22.8838 F350.00
G01 X8.9292 Y22.9629 F350.00
G01 X8.9199 Y22.9709 F350.00
G01 X8.9102 Y22.9784 F350.00
G01 X8.8156 Y23.0486 F350.00
G01 X8.8056 Y23.0556 F350.00
G01 X8.7952 Y23.0622 F350.00
G01 X8.6942 Y23.1227 F350.00
G01 X8.6835 Y23.1288 F350.00
G01 X8.6726 Y23.1343 F350.00
G01 X8.5661 Y23.1847 F350.00
G01 X8.5549 Y23.1896 F350.00
G01 X8.5434 Y23.1940 F350.00
G01 X8.4326 Y23.2337 F350.00
G01 X8.4209 Y23.2376 F350.00
G01 X8.4091 Y23.2408 F350.00
G01 X8.2949 Y23.2695 F350.00
G01 X8.2829 Y23.2721 F350.00
G01 X8.2708 Y23.2742 F350.00
G01 X8.1543 Y23.2915 F350.00
G01 X8.1421 Y23.2930 F350.00
G01 X8.1299 Y23.2939 F350.00
G01 X8.0123 Y23.2997 F350.00
G01 X8.0000 Y23.3000 F350.00
G01 X7.9877 Y23.2997 F350.00
G01 X7.8701 Y23.2939 F350.00
G01 X7.8579 Y23.2930 F350.00
G01 X7.8457 Y23.2915 F350.00
G01 X7.7292 Y23.2742 F350.00
G01 X7.7171 Y23.2721 F350.00
G01 X7.7051 Y23.2695 F350.00
G01 X7.5909 Y23.2408 F350.00
G01 X7.5791 Y23.2376 F350.00
G01 X7.5674 Y23.2337 F350.00
G01 X7.4566 Y23.1940 F350.00
G01 X7.4451 Y23.1896 F350.00
G01 X7.4339 Y23.1847 F350.00
G01 X7.3274 Y23.1343 F350.00
G01 X7.3165 Y23.1288 F350.00
G01 X7.3058 Y23.1227 F350.00
G01 X7.2048 Y23.0622 F350.00
G01 X7.1944 Y23.0556 F350.00
G01 X7.1844 Y23.0486 F350.00
G01 X7.0898 Y22.9784 F350.00
G01 X7.0801 Y22.9709 F350.00
G01 X7.0708 Y22.9629 F350.00
G01 X6.9836 Y22.8838 F350.00
G01 X6.9747 Y22.8753 F350.00
G01 X6.9662 Y22.8664 F350.00
G01 X6.8871 Y22.7792 F350.00
G01 X6.8791 Y22.7699 F350.00
G01 X6.8716 Y22.7602 F350.00
G01 X6.8014 Y22.6656 F350.00
G01 X6.7944 Y22.6556 F350.00
G01 X6.7878 Y22.6452 F350.00
G01 X6.7273 Y22.5442 F350.00
G01 X6.7212 Y22.5335 F350.00
G01 X6.7157 Y22.5226 F350.00
G01 X6.6653 Y22.4161 F350.00
G01 X6.6604 Y22.4049 F350.00
G01 X6.6560 Y22.3934 F350.00
G01 X6.6163 Y22.2826 F350.00
G01 X6.6124 Y22.2709 F350.00
G01 X6.6092 Y22.2591 F350.00
G01 X6.5805 Y22.1449 F350.00
G01 X6.5779 Y22.1329 F350.00
G01 X6.5758 Y22.1208 F350.00
G01 X6.5577 Y21.9982 F350.00
G01 X6.5561 Y21.9799 F350.00
G01 X6.5503 Y21.8623 F350.00
G01 X6.5500 Y21.8500 F350.00
G01 X6.5500 Y20.2500 F350.00
G01 X6.5503 Y20.2377 F350.00
G01 X6.5561 Y20.1201 F350.00
G01 X6.5570 Y20.1079 F350.00
G01 X6.5585 Y20.0957 F350.00
G00 Z0.5000
G00 X9.5585 Y20.0957
G01 F250.00
G01 Z-0.0500
G01 F350.00
G01 X9.5758 Y19.9792 F350.00
G01 X9.5779 Y19.9671 F350.00
G01 X9.5805 Y19.9551 F350.00
G01 X9.6092 Y19.8409 F350.00
G01 X9.6124 Y19.8291 F350.00
G01 X9.6163 Y19.8174 F350.00
G01 X9.6560 Y19.7066 F350.00
G01 X9.6604 Y19.6951 F350.00
G01 X9.6653 Y19.6839 F350.00
G01 X9.7157 Y19.5774 F350.00
G01 X9.7212 Y19.5665 F350.00
G01 X9.7273 Y19.5558 F350.00
G01 X9.7878 Y19.4548 F350.00
G01 X9.7944 Y19.4444 F350.00
G01 X9.8014 Y19.4344 F350.00
G01 X9.8716 Y19.3398 F350.00
G01 X9.8791 Y19.3301 F350.00
G01 X9.8871 Y19.3208 F350.00
G01 X9.9662 Y19.2336 F350.00
G01 X9.9747 Y19.2247 F350.00
G01 X9.9836 Y19.2162 F350.00
G01 X10.0708 Y19.1371 F350.00
G01 X10.0801 Y19.1291 F350.00
G01 X10.0898 Y19.1216 F350.00
G01 X10.1844 Y19.0514 F350.00
G01 X10.1944 Y19.0444 F350.00
G01 X10.2048 Y19.0378 F350.00
G01 X10.3058 Y18.9773 F350.00
G01 X10.3165 Y18.9712 F350.00
G01 X10.3274 Y18.9657 F350.00
G01 X10.4339 Y18.9153 F350.00
G01 X10.4451 Y18.9104 F350.00
G01 X10.4566 Y18.9060 F350.00
G01 X10.5674 Y18.8663 F350.00
G01 X10.5791 Y18.8624 F350.00
G01 X10.5909 Y18.8592 F350.00
G01 X10.7051 Y18.8305 F350.00
G01 X10.7171 Y18.8279 F350.00
G01 X10.7292 Y18.8258 F350.00
G01 X10.8457 Y18.8085 F350.00
G01 X10.8579 Y18.8070 F350.00
G01 X10.8701 Y18.8061 F350.00
G01 X10.9877 Y18.8003 F350.00
G01 X11.0000 Y18.8000 F350.00
G01 X11.0123 Y18.8003 F350.00
G01 X11.1299 Y18.8061 F350.00
G01 X11.1421 Y18.8070 F350.00
G01 X11.1543 Y18.8085 F350.00
G01 X11.2708 Y18.8258 F350.00
G01 X11.2829 Y18.8279 F350.00
G01 X11.2949 Y18.8305 F350.00
G01 X11.4091 Y18.8592 F350.00
G01 X11.4209 Y18.8624 F350.00
G01 X11.4326 Y18.8663 F350.00
G01 X11.5434 Y18.9060 F350.00
G01 X11.5549 Y18.9104 F350.00
G01 X11.5661 Y18.9153 F350.00
G01 X11.6726 Y18.9657 F350.00
G01 X11.6835 Y18.9712 F350.00
G01 X11.6942 Y18.9773 F350.00
G01 X11.7952 Y19.0378 F350.00
G01 X11.8056 Y19.0444 F350.00
G01 X11.8156 Y19.0514 F350.00
G01 X11.9102 Y19.1216 F350.00
G01 X11.9199 Y19.1291 F350.00
G01 X11.9292 Y19.1371 F350.00
G01 X12.0164 Y19.2162 F350.00
G01 X12.0253 Y19.2247 F350.00
G01 X12.0338 Y19.2336 F350.00
G01 X12.1129 Y19.3208 F350.00
G01 X12.1209 Y19.3301 F350.00
G01 X12.1284 Y19.3398 F350.00
G01 X12.1986 Y19.4344 F350.00
G01 X12.2056 Y19.4444 F350.00
G01 X12.2122 Y19.4548 F350.00
G01 X12.2727 Y19.5558 F350.00
G01 X12.2788 Y19.5665 F350.00
G01 X12.2843 Y19.5774 F350.00
G01 X12.3347 Y19.6839 F350.00
G01 X12.3396 Y19.6951 F350.00
G01 X12.3440 Y19.7066 F350.00
G01 X12.3837 Y19.8174 F350.00
G01 X12.3876 Y19.8291 F350.00
G01 X12.3908 Y19.8409 F350.00
G01 X12.4195 Y19.9551 F350.00
G01 X12.4221 Y19.9671 F350.00
G01 X12.4242 Y19.9792 F350.00
G01 X12.4423 Y20.1018 F350.00
G01 X12.4439 Y20.1201 F350.00
G01 X12.4497 Y20.2377 F350.00
G01 X12.4500 Y20.2500 F350.00
G01 X12.4500 Y21.8500 F350.00
G01 X12.4497 Y21.8623 F350.00
G01 X12.4439 Y21.9799 F350.00
G01 X12.4430 Y21.9921 F350.00
G01 X12.4415 Y22.0043 F350.00
G01 X12.4242 Y22.1208 F350.00
G01 X12.4221 Y22.1329 F350.00
G01 X12.4195 Y22.1449 F350.00
G01 X12.3908 Y22.2591 F350.00
G01 X12.3876 Y22.2709 F350.00
G01 X12.3837 Y22.2826 F350.00
G01 X12.3440 Y22.3934 F350.00
G01 X12.3396 Y22.4049 F350.00
G01 X12.3347 Y22.4161 F350.00
G01 X12.2843 Y22.5226 F350.00
G01 X12.2788 Y22.5335 F350.00
G01 X12.2727 Y22.5442 F350.00
G01 X12.2122 Y22.6452 F350.00
G01 X12.2056 Y22.6556 F350.00
G01 X12.1986 Y22.6656 F350.00
G01 X12.1284 Y22.7602 F350.00
G01 X12.1209 Y22.7699 F350.00
G01 X12.1129 Y22.7792 F350.00
G01 X12.0338 Y22.8664 F350.00
G01 X12.0253 Y22.8753 F350.00
G01 X12.0164 Y22.8838 F350.00
G01 X11.9292 Y22.9629 F350.00
G01 X11.9199 Y22.9709 F350.00
G01 X11.9102 Y22.9784 F350.00
G01 X11.8156 Y23.0486 F350.00
G01 X11.8056 Y23.0556 F350.00
G01 X11.7952 Y23.0622 F350.00
G01 X11.6942 Y23.1227 F350.00
G01 X11.6835 Y23.1288 F350.00
G01 X11.6726 Y23.1343 F350.00
G01 X11.5661 Y23.1847 F350.00
G01 X11.5549 Y23.1896 F350.00
G01 X11.5434 Y23.1940 F350.00
G01 X11.4326 Y23.2337 F350.00
G01 X11.4209 Y23.2376 F350.00
G01 X11.4091 Y23.2408 F350.00
G01 X11.2949 Y23.2695 F350.00
G01 X11.2829 Y23.2721 F350.00
G01 X11.2708 Y23.2742 F350.00
G01 X11.1543 Y23.2915 F350.00
G01 X11.1421 Y23.2930 F350.00
G01 X11.1299 Y23.2939 F350.00
G01 X11.0123 Y23.2997 F350.00
G01 X11.0000 Y23.3000 F350.00
G01 X10.9877 Y23.2997 F350.00
G01 X10.8701 Y23.2939 F350.00
G01 X10.8579 Y23.2930 F350.00
G01 X10.8457 Y23.2915 F350.00
G01 X10.7292 Y23.2742 F350.00
G01 X10.7171 Y23.2721 F350.00
G01 X10.7051 Y23.2695 F350.00
G01 X10.5909 Y23.2408 F350.00
G01 X10.5791 Y23.2376 F350.00
G01 X10.5674 Y23.2337 F350.00
G01 X10.4566 Y23.1940 F350.00
G01 X10.4451 Y23.1896 F350.00
G01 X10.4339 Y23.1847 F350.00
G01 X10.3274 Y23.1343 F350.00
G01 X10.3165 Y23.1288 F350.00
G01 X10.3058 Y23.1227 F350.00
G01 X10.2048 Y23.0622 F350.00
G01 X10.1944 Y23.0556 F350.00
G01 X10.1844 Y23.0486 F350.00
G01 X10.0898 Y22.9784 F350.00
G01 X10.0801 Y22.9709 F350.00
G01 X10.0708 Y22.9629 F350.00
G01 X9.9836 Y22.8838 F350.00
G01 X9.9747 Y22.8753 F350.00
G01 X9.9662 Y22.8664 F350.00
G01 X9.8871 Y22.7792 F350.00
G01 X9.8791 Y22.7699 F350.00
G01 X9.8716 Y22.7602 F350.00
G01 X9.8014 Y22.6656 F350.00
G01 X9.7944 Y22.6556 F350.00
G01 X9.7878 Y22.6452 F350.00
G01 X9.7273 Y22.5442 F350.00
G01 X9.7212 Y22.5335 F350.00
G01 X9.7157 Y22.5226 F350.00
G01 X9.6653 Y22.4161 F350.00
G01 X9.6604 Y22.4049 F350.00
G01 X9.6560 Y22.3934 F350.00
G01 X9.6163 Y22.2826 F350.00
G01 X9.6124 Y22.2709 F350.00
G01 X9.6092 Y22.2591 F350.00
G01 X9.5805 Y22.1449 F350.00
G01 X9.5779 Y22.1329 F350.00
G01 X9.5758 Y22.1208 F350.00
G01 X9.5577 Y21.9982 F350.00
G01 X9.5561 Y21.9799 F350.00
G01 X9.5503 Y21.8623 F350.00
G01 X9.5500 Y21.8500 F350.00
G01 X9.5500 Y20.2500 F350.00
G01 X9.5503 Y20.2377 F350.00
G01 X9.5561 Y20.1201 F350.00
G01 X9.5570 Y20.1079 F350.00
G01 X9.5585 Y20.0957 F350.00
G00 Z0.5000
G00 X13.9815 Y10.8403
G01 F250.00
G01 Z-0.0500
G01 F350.00
G01 X13.9959 Y10.7432 F350.00
G01 X13.9980 Y10.7311 F350.00
G01 X14.0007 Y10.7192 F350.00
G01 X14.0246 Y10.6240 F350.00
G01 X14.0278 Y10.6121 F350.00
G01 X14.0317 Y10.6005 F350.00
G01 X14.0647 Y10.5081 F350.00
G01 X14.0692 Y10.4966 F350.00
G01 X14.0741 Y10.4854 F350.00
G01 X14.1161 Y10.3967 F350.00
G01 X14.1216 Y10.3858 F350.00
G01 X14.1276 Y10.3751 F350.00
G01 X14.1781 Y10.2909 F350.00
G01 X14.1847 Y10.2805 F350.00
G01 X14.1917 Y10.2705 F350.00
G01 X14.2502 Y10.1917 F350.00
G01 X14.2577 Y10.1820 F350.00
G01 X14.2658 Y10.1727 F350.00
G01 X14.3317 Y10.1000 F350.00
G01 X14.3401 Y10.0911 F350.00
G01 X14.3490 Y10.0827 F350.00
G01 X14.4217 Y10.0168 F350.00
G01 X14.4310 Y10.0087 F350.00
G01 X14.4407 Y10.0012 F350.00
G01 X14.5195 Y9.9427 F350.00
G01 X14.5295 Y9.9357 F350.00
G01 X14.5399 Y9.9291 F350.00
G01 X14.6241 Y9.8786 F350.00
G01 X14.6348 Y9.8726 F350.00
G01 X14.6457 Y9.8671 F350.00
G01 X14.7344 Y9.8251 F350.00
G01 X14.7456 Y9.8202 F350.00
G01 X14.7571 Y9.8157 F350.00
G01 X14.8495 Y9.7827 F350.00
G01 X14.8611 Y9.7788 F350.00
G01 X14.8730 Y9.7756 F350.00
G01 X14.9682 Y9.7517 F350.00
G01 X14.9801 Y9.7490 F350.00
G01 X14.9922 Y9.7469 F350.00
G01 X15.0893 Y9.7325 F350.00
G01 X15.1015 Y9.7310 F350.00
G01 X15.1137 Y9.7301 F350.00
G01 X15.2117 Y9.7253 F350.00
G01 X15.2240 Y9.7250 F350.00
G01 X15.2363 Y9.7253 F350.00
G01 X15.3343 Y9.7301 F350.00
G01 X15.3465 Y9.7310 F350.00
G01 X15.3587 Y9.7325 F350.00
G01 X15.4558 Y9.7469 F350.00
G01 X15.4679 Y9.7490 F350.00
G01 X15.4798 Y9.7517 F350.00
G01 X15.5750 Y9.7756 F350.00
G01 X15.5869 Y9.7788 F350.00
G01 X15.5985 Y9.7827 F350.00
G01 X15.6909 Y9.8157 F350.00
G01 X15.7024 Y9.8202 F350.00
G01 X15.7136 Y9.8251 F350.00
G01 X15.8023 Y9.8671 F350.00
G01 X15.8132 Y9.8726 F350.00
G01 X15.8239 Y9.8786 F350.00
G01 X15.9081 Y9.9291 F350.00
G01 X15.9185 Y9.9357 F350.00
G01 X15.9285 Y9.9427 F350.00
G01 X16.0073 Y10.0012 F350.00
G01 X16.0170 Y10.0087 F350.00
G01 X16.0263 Y10.0168 F350.00
G01 X16.0990 Y10.0827 F350.00
G01 X16.1079 Y10.0911 F350.00
G01 X16.1163 Y10.1000 F350.00
G01 X16.1863 Y10.1773 F350.00
G01 X16.1978 Y10.1917 F350.00
G01 X16.2563 Y10.2705 F350.00
G01 X16.2633 Y10.2805 F350.00
G01 X16.2699 Y10.2909 F350.00
G01 X16.3204 Y10.3751 F350.00
G01 X16.3264 Y10.3858 F350.00
G01 X16.3319 Y10.3967 F350.00
G01 X16.3739 Y10.4854 F350.00
G01 X16.3788 Y10.4966 F350.00
G01 X16.3833 Y10.5081 F350.00
G01 X16.4163 Y10.6005 F350.00
G01 X16.4202 Y10.6121 F350.00
G01 X16.4234 Y10.6240 F350.00
G01 X16.4473 Y10.7192 F350.00
G01 X16.4500 Y10.7311 F350.00
G01 X16.4521 Y10.7432 F350.00
G01 X16.4673 Y10.8464 F350.00
G01 X16.4689 Y10.8647 F350.00
G01 X16.4737 Y10.9627 F350.00
G01 X16.4740 Y10.9750 F350.00
G01 X16.4740 Y12.2250 F350.00
G01 X16.4737 Y12.2373 F350.00
G01 X16.4689 Y12.3353 F350.00
G01 X16.4680 Y12.3475 F350.00
G01 X16.4665 Y12.3597 F350.00
G01 X16.4521 Y12.4568 F350.00
G01 X16.4500 Y12.4689 F350.00
G01 X16.4473 Y12.4808 F350.00
G01 X16.4234 Y12.5760 F350.00
G01 X16.4202 Y12.5879 F350.00
G01 X16.4163 Y12.5995 F350.00
G01 X16.3833 Y12.6919 F350.00
G01 X16.3788 Y12.7034 F350.00
G01 X16.3739 Y12.7146 F350.00
G01 X16.3319 Y12.8033 F350.00
G01 X16.3264 Y12.8142 F350.00
G01 X16.3204 Y12.8249 F350.00
G01 X16.2699 Y12.9091 F350.00
G01 X16.2633 Y12.9195 F350.00
G01 X16.2563 Y12.9295 F350.00
G01 X16.1978 Y13.0083 F350.00
G01 X16.1903 Y13.0180 F350.00
G01 X16.1822 Y13.0273 F350.00
G01 X16.1163 Y13.1000 F350.00
G01 X16.1079 Y13.1089 F350.00
G01 X16.0990 Y13.1173 F350.00
G01 X16.0217 Y13.1873 F350.00
G01 X16.0073 Y13.1988 F350.00
G01 X15.9285 Y13.2573 F350.00
G01 X15.9185 Y13.2643 F350.00
G01 X15.9081 Y13.2709 F350.00
G01 X15.8239 Y13.3214 F350.00
G01 X15.8132 Y13.3274 F350.00
G01 X15.8023 Y13.3329 F350.00
G01 X15.7136 Y13.3749 F350.00
G01 X15.7024 Y13.3798 F350.00
G01 X15.6909 Y13.3843 F350.00
G01 X15.5985 Y13.4173 F350.00
G01 X15.5869 Y13.4212 F350.00
G01 X15.5750 Y13.4244 F350.00
G01 X15.4798 Y13.4483 F350.00
G01 X15.4679 Y13.4510 F350.00
G01 X15.4558 Y13.4531 F350.00
G01 X15.3587 Y13.4675 F350.00
G01 X15.3465 Y13.4690 F350.00
G01 X15.3343 Y13.4699 F350.00
G01 X15.2363 Y13.4747 F350.00
G01 X15.2240 Y13.4750 F350.00
G01 X15.2117 Y13.4747 F350.00
G01 X15.1137 Y13.4699 F350.00
G01 X15.1015 Y13.4690 F350.00
G01 X15.0893 Y13.4675 F350.00
G01 X14.9922 Y13.4531 F350.00
G01 X14.9801 Y13.4510 F350.00
G01 X14.9682 Y13.4483 F350.00
G01 X14.8730 Y13.4244 F350.00
G01 X14.8611 Y13.4212 F350.00
G01 X14.8495 Y13.4173 F350.00
G01 X14.7571 Y13.3843 F350.00
G01 X14.7456 Y13.3798 F350.00
G01 X14.7344 Y13.3749 F350.00
G01 X14.6457 Y13.3329 F350.00
G01 X14.6348 Y13.3274 F350.00
G01 X14.6241 Y13.3214 F350.00
G01 X14.5399 Y13.2709 F350.00
G01 X14.5295 Y13.2643 F350.00
G01 X14.5195 Y13.2573 F350.00
G01 X14.4407 Y13.1988 F350.00
G01 X14.4310 Y13.1913 F350.00
G01 X14.4217 Y13.1832 F350.00
G01 X14.3490 Y13.1173 F350.00
G01 X14.3401 Y13.1089 F350.00
G01 X14.3317 Y13.1000 F350.00
G01 X14.2617 Y13.0227 F350.00
G01 X14.2502 Y13.0083 F350.00
G01 X14.1917 Y12.9295 F350.00
G01 X14.1847 Y12.9195 F350.00
G01 X14.1781 Y12.9091 F350.00
G01 X14.1276 Y12.8249 F350.00
G01 X14.1216 Y12.8142 F350.00
G01 X14.1161 Y12.8033 F350.00
G01 X14.0741 Y12.7146 F350.00
G01 X14.0692 Y12.7034 F350.00
G01 X14.0647 Y12.6919 F350.00
G01 X14.0317 Y12.5995 F350.00
G01 X14.0278 Y12.5879 F350.00
G01 X14.0246 Y12.5760 F350.00
G01 X14.0007 Y12.4808 F350.00
G01 X13.9980 Y12.4689 F350.00
G01 X13.9959 Y12.4568 F350.00
G01 X13.9807 Y12.3536 F350.00
G01 X13.9791 Y12.3353 F350.00
G01 X13.9743 Y12.2373 F350.00
G01 X13.9740 Y12.2250 F350.00
G01 X13.9740 Y10.9750 F350.00
G01 X13.9743 Y10.9627 F350.00
G01 X13.9791 Y10.8647 F350.00
G01 X13.9800 Y10.8525 F350.00
G01 X13.9815 Y10.8403 F350.00
G00 Z0.5000
G00 X13.9815 Y1.8403
G01 F250.00
G01 Z-0.0500
G01 F350.00
G01 X13.9959 Y1.7432 F350.00
G01 X13.9980 Y1.7311 F350.00
G01 X14.0007 Y1.7192 F350.00
G01 X14.0246 Y1.6240 F350.00
G01 X14.0278 Y1.6121 F350.00
G01 X14.0317 Y1.6005 F350.00
G01 X14.0647 Y1.5081 F350.00
G01 X14.0692 Y1.4966 F350.00
G01 X14.0741 Y1.4854 F350.00
G01 X14.1161 Y1.3967 F350.00
G01 X14.1216 Y1.3858 F350.00
G01 X14.1276 Y1.3751 F350.00
G01 X14.1781 Y1.2909 F350.00
G01 X14.1847 Y1.2805 F350.00
G01 X14.1917 Y1.2705 F350.00
G01 X14.2502 Y1.1917 F350.00
G01 X14.2577 Y1.1820 F350.00
G01 X14.2658 Y1.1727 F350.00
G01 X14.3317 Y1.1000 F350.00
G01 X14.3401 Y1.0911 F350.00
G01 X14.3490 Y1.0827 F350.00
G01 X14.4217 Y1.0168 F350.00
G01 X14.4310 Y1.0087 F350.00
G01 X14.4407 Y1.0012 F350.00
G01 X14.5195 Y0.9427 F350.00
G01 X14.5295 Y0.9357 F350.00
G01 X14.5399 Y0.9291 F350.00
G01 X14.6241 Y0.8786 F350.00
G01 X14.6348 Y0.8726 F350.00
G01 X14.6457 Y0.8671 F350.00
G01 X14.7344 Y0.8251 F350.00
G01 X14.7456 Y0.8202 F350.00
G01 X14.7571 Y0.8157 F350.00
G01 X14.8495 Y0.7827 F350.00
G01 X14.8611 Y0.7788 F350.00
G01 X14.8730 Y0.7756 F350.00
G01 X14.9682 Y0.7517 F350.00
G01 X14.9801 Y0.7490 F350.00
G01 X14.9922 Y0.7469 F350.00
G01 X15.0893 Y0.7325 F350.00
G01 X15.1015 Y0.7310 F350.00
G01 X15.1137 Y0.7301 F350.00
G01 X15.2117 Y0.7253 F350.00
G01 X15.2240 Y0.7250 F350.00
G01 X15.2363 Y0.7253 F350.00
G01 X15.3343 Y0.7301 F350.00
G01 X15.3465 Y0.7310 F350.00
G01 X15.3587 Y0.7325 F350.00
G01 X15.4558 Y0.7469 F350.00
G01 X15.4679 Y0.7490 F350.00
G01 X15.4798 Y0.7517 F350.00
G01 X15.5750 Y0.7756 F350.00
G01 X15.5869 Y0.7788 F350.00
G01 X15.5985 Y0.7827 F350.00
G01 X15.6909 Y0.8157 F350.00
G01 X15.7024 Y0.8202 F350.00
G01 X15.7136 Y0.8251 F350.00
G01 X15.8023 Y0.8671 F350.00
G01 X15.8132 Y0.8726 F350.00
G01 X15.8239 Y0.8786 F350.00
G01 X15.9081 Y0.9291 F350.00
G01 X15.9185 Y0.9357 F350.00
G01 X15.9285 Y0.9427 F350.00
G01 X16.0073 Y1.0012 F350.00
G01 X16.0170 Y1.0087 F350.00
G01 X16.0263 Y1.0168 F350.00
G01 X16.0990 Y1.0827 F350.00
G01 X16.1079 Y1.0911 F350.00
G01 X16.1163 Y1.1000 F350.00
G01 X16.1863 Y1.1773 F350.00
G01 X16.1978 Y1.1917 F350.00
G01 X16.2563 Y1.2705 F350.00
G01 X16.2633 Y1.2805 F350.00
G01 X16.2699 Y1.2909 F350.00
G01 X16.3204 Y1.3751 F350.00
G01 X16.3264 Y1.3858 F350.00
G01 X16.3319 Y1.3967 F350.00
G01 X16.3739 Y1.4854 F350.00
G01 X16.3788 Y1.4966 F350.00
G01 X16.3833 Y1.5081 F350.00
G01 X16.4163 Y1.6005 F350.00
G01 X16.4202 Y1.6121 F350.00
G01 X16.4234 Y1.6240 F350.00
G01 X16.4473 Y1.7192 F350.00
G01 X16.4500 Y1.7311 F350.00
G01 X16.4521 Y1.7432 F350.00
G01 X16.4673 Y1.8464 F350.00
G01 X16.4689 Y1.8647 F350.00
G01 X16.4737 Y1.9627 F350.00
G01 X16.4740 Y1.9750 F350.00
G01 X16.4740 Y3.2250 F350.00
G01 X16.4737 Y3.2373 F350.00
G01 X16.4689 Y3.3353 F350.00
G01 X16.4680 Y3.3475 F350.00
G01 X16.4665 Y3.3597 F350.00
G01 X16.4521 Y3.4568 F350.00
G01 X16.4500 Y3.4689 F350.00
G01 X16.4473 Y3.4808 F350.00
G01 X16.4234 Y3.5760 F350.00
G01 X16.4202 Y3.5879 F350.00
G01 X16.4163 Y3.5995 F350.00
G01 X16.3833 Y3.6919 F350.00
G01 X16.3788 Y3.7034 F350.00
G01 X16.3739 Y3.7146 F350.00
G01 X16.3319 Y3.8033 F350.00
G01 X16.3264 Y3.8142 F350.00
G01 X16.3204 Y3.8249 F350.00
G01 X16.2699 Y3.9091 F350.00
G01 X16.2633 Y3.9195 F350.00
G01 X16.2563 Y3.9295 F350.00
G01 X16.1978 Y4.0083 F350.00
G01 X16.1903 Y4.0180 F350.00
G01 X16.1822 Y4.0273 F350.00
G01 X16.1163 Y4.1000 F350.00
G01 X16.1079 Y4.1089 F350.00
G01 X16.0990 Y4.1173 F350.00
G01 X16.0217 Y4.1873 F350.00
G01 X16.0073 Y4.1988 F350.00
G01 X15.9285 Y4.2573 F350.00
G01 X15.9185 Y4.2643 F350.00
G01 X15.9081 Y4.2709 F350.00
G01 X15.8239 Y4.3214 F350.00
G01 X15.8132 Y4.3274 F350.00
G01 X15.8023 Y4.3329 F350.00
G01 X15.7136 Y4.3749 F350.00
G01 X15.7024 Y4.3798 F350.00
G01 X15.6909 Y4.3843 F350.00
G01 X15.5985 Y4.4173 F350.00
G01 X15.5869 Y4.4212 F350.00
G01 X15.5750 Y4.4244 F350.00
G01 X15.4798 Y4.4483 F350.00
G01 X15.4679 Y4.4510 F350.00
G01 X15.4558 Y4.4531 F350.00
G01 X15.3587 Y4.4675 F350.00
G01 X15.3465 Y4.4690 F350.00
G01 X15.3343 Y4.4699 F350.00
G01 X15.2363 Y4.4747 F350.00
G01 X15.2240 Y4.4750 F350.00
G01 X15.2117 Y4.4747 F350.00
G01 X15.1137 Y4.4699 F350.00
G01 X15.1015 Y4.4690 F350.00
G01 X15.0893 Y4.4675 F350.00
G01 X14.9922 Y4.4531 F350.00
G01 X14.9801 Y4.4510 F350.00
G01 X14.9682 Y4.4483 F350.00
G01 X14.8730 Y4.4244 F350.00
G01 X14.8611 Y4.4212 F350.00
G01 X14.8495 Y4.4173 F350.00
G01 X14.7571 Y4.3843 F350.00
G01 X14.7456 Y4.3798 F350.00
G01 X14.7344 Y4.3749 F350.00
G01 X14.6457 Y4.3329 F350.00
G01 X14.6348 Y4.3274 F350.00
G01 X14.6241 Y4.3214 F350.00
G01 X14.5399 Y4.2709 F350.00
G01 X14.5295 Y4.2643 F350.00
G01 X14.5195 Y4.2573 F350.00
G01 X14.4407 Y4.1988 F350.00
G01 X14.4310 Y4.1913 F350.00
G01 X14.4217 Y4.1832 F350.00
G01 X14.3490 Y4.1173 F350.00
G01 X14.3401 Y4.1089 F350.00
G01 X14.3317 Y4.1000 F350.00
G01 X14.2617 Y4.0227 F350.00
G01 X14.2502 Y4.0083 F350.00
G01 X14.1917 Y3.9295 F350.00
G01 X14.1847 Y3.9195 F350.00
G01 X14.1781 Y3.9091 F350.00
G01 X14.1276 Y3.8249 F350.00
G01 X14.1216 Y3.8142 F350.00
G01 X14.1161 Y3.8033 F350.00
G01 X14.0741 Y3.7146 F350.00
G01 X14.0692 Y3.7034 F350.00
G01 X14.0647 Y3.6919 F350.00
G01 X14.0317 Y3.5995 F350.00
G01 X14.0278 Y3.5879 F350.00
G01 X14.0246 Y3.5760 F350.00
G01 X14.0007 Y3.4808 F350.00
G01 X13.9980 Y3.4689 F350.00
G01 X13.9959 Y3.4568 F350.00
G01 X13.9807 Y3.3536 F350.00
G01 X13.9791 Y3.3353 F350.00
G01 X13.9743 Y3.2373 F350.00
G01 X13.9740 Y3.2250 F350.00
G01 X13.9740 Y1.9750 F350.00
G01 X13.9743 Y1.9627 F350.00
G01 X13.9791 Y1.8647 F350.00
G01 X13.9800 Y1.8525 F350.00
G01 X13.9815 Y1.8403 F350.00
G00 Z0.5000
G00 X13.5859 Y1.7816
G01 F250.00
G01 Z-0.0500
G01 F350.00
G01 X13.6003 Y1.6845 F350.00
G01 X13.6057 Y1.6531 F350.00
G01 X13.6127 Y1.6220 F350.00
G01 X13.6365 Y1.5268 F350.00
G01 X13.6450 Y1.4960 F350.00
G01 X13.6551 Y1.4657 F350.00
G01 X13.6881 Y1.3733 F350.00
G01 X13.6996 Y1.3436 F350.00
G01 X13.7125 Y1.3144 F350.00
G01 X13.7545 Y1.2257 F350.00
G01 X13.7688 Y1.1972 F350.00
G01 X13.7846 Y1.1694 F350.00
G01 X13.8350 Y1.0853 F350.00
G01 X13.8521 Y1.0583 F350.00
G01 X13.8704 Y1.0322 F350.00
G01 X13.9386 Y0.9407 F350.00
G01 X13.9485 Y0.9283 F350.00
G01 X13.9694 Y0.9041 F350.00
G01 X14.0353 Y0.8314 F350.00
G01 X14.0573 Y0.8083 F350.00
G01 X14.0687 Y0.7971 F350.00
G01 X14.1531 Y0.7204 F350.00
G01 X14.1773 Y0.6995 F350.00
G01 X14.2024 Y0.6799 F350.00
G01 X14.2812 Y0.6214 F350.00
G01 X14.3073 Y0.6031 F350.00
G01 X14.3343 Y0.5860 F350.00
G01 X14.4184 Y0.5356 F350.00
G01 X14.4462 Y0.5198 F350.00
G01 X14.4747 Y0.5055 F350.00
G01 X14.5634 Y0.4635 F350.00
G01 X14.5779 Y0.4569 F350.00
G01 X14.6074 Y0.4447 F350.00
G01 X14.7147 Y0.4061 F350.00
G01 X14.7450 Y0.3960 F350.00
G01 X14.7758 Y0.3875 F350.00
G01 X14.8710 Y0.3637 F350.00
G01 X14.9021 Y0.3567 F350.00
G01 X14.9335 Y0.3513 F350.00
G01 X15.0306 Y0.3369 F350.00
G01 X15.0623 Y0.3329 F350.00
G01 X15.0941 Y0.3306 F350.00
G01 X15.1921 Y0.3258 F350.00
G01 X15.2240 Y0.3250 F350.00
G01 X15.2559 Y0.3258 F350.00
G01 X15.3539 Y0.3306 F350.00
G01 X15.3857 Y0.3329 F350.00
G01 X15.4174 Y0.3369 F350.00
G01 X15.5145 Y0.3513 F350.00
G01 X15.5459 Y0.3567 F350.00
G01 X15.5770 Y0.3637 F350.00
G01 X15.6722 Y0.3875 F350.00
G01 X15.7030 Y0.3960 F350.00
G01 X15.7333 Y0.4061 F350.00
G01 X15.8257 Y0.4391 F350.00
G01 X15.8554 Y0.4506 F350.00
G01 X15.8846 Y0.4635 F350.00
G01 X15.9733 Y0.5055 F350.00
G01 X16.0018 Y0.5198 F350.00
G01 X16.0296 Y0.5356 F350.00
G01 X16.1273 Y0.5944 F350.00
G01 X16.1538 Y0.6121 F350.00
G01 X16.1668 Y0.6214 F350.00
G01 X16.2456 Y0.6799 F350.00
G01 X16.2707 Y0.6995 F350.00
G01 X16.2830 Y0.7098 F350.00
G01 X16.3676 Y0.7863 F350.00
G01 X16.3907 Y0.8083 F350.00
G01 X16.4127 Y0.8314 F350.00
G01 X16.4786 Y0.9041 F350.00
G01 X16.4995 Y0.9283 F350.00
G01 X16.5191 Y0.9534 F350.00
G01 X16.5776 Y1.0322 F350.00
G01 X16.5959 Y1.0583 F350.00
G01 X16.6130 Y1.0853 F350.00
G01 X16.6634 Y1.1694 F350.00
G01 X16.6792 Y1.1972 F350.00
G01 X16.6865 Y1.2114 F350.00
G01 X16.7355 Y1.3144 F350.00
G01 X16.7484 Y1.3436 F350.00
G01 X16.7599 Y1.3733 F350.00
G01 X16.7929 Y1.4657 F350.00
G01 X16.7981 Y1.4808 F350.00
G01 X16.8074 Y1.5114 F350.00
G01 X16.8353 Y1.6220 F350.00
G01 X16.8390 Y1.6375 F350.00
G01 X16.8452 Y1.6688 F350.00
G01 X16.8643 Y1.7974 F350.00
G01 X16.8674 Y1.8292 F350.00
G01 X16.8684 Y1.8451 F350.00
G01 X16.8732 Y1.9431 F350.00
G01 X16.8740 Y1.9750 F350.00
G01 X16.8738 Y3.2410 F350.00
G01 X16.8684 Y3.3549 F350.00
G01 X16.8661 Y3.3867 F350.00
G01 X16.8621 Y3.4184 F350.00
G01 X16.8477 Y3.5155 F350.00
G01 X16.8423 Y3.5469 F350.00
G01 X16.8353 Y3.5780 F350.00
G01 X16.8115 Y3.6732 F350.00
G01 X16.8030 Y3.7040 F350.00
G01 X16.7929 Y3.7343 F350.00
G01 X16.7599 Y3.8267 F350.00
G01 X16.7484 Y3.8564 F350.00
G01 X16.7355 Y3.8856 F350.00
G01 X16.6935 Y3.9743 F350.00
G01 X16.6792 Y4.0028 F350.00
G01 X16.6634 Y4.0306 F350.00
G01 X16.6046 Y4.1283 F350.00
G01 X16.5959 Y4.1417 F350.00
G01 X16.5776 Y4.1678 F350.00
G01 X16.5191 Y4.2466 F350.00
G01 X16.4995 Y4.2717 F350.00
G01 X16.4892 Y4.2840 F350.00
G01 X16.4127 Y4.3686 F350.00
G01 X16.3907 Y4.3917 F350.00
G01 X16.3676 Y4.4137 F350.00
G01 X16.2949 Y4.4796 F350.00
G01 X16.2707 Y4.5005 F350.00
G01 X16.2456 Y4.5201 F350.00
G01 X16.1668 Y4.5786 F350.00
G01 X16.1407 Y4.5969 F350.00
G01 X16.1137 Y4.6140 F350.00
G01 X16.0296 Y4.6644 F350.00
G01 X16.0018 Y4.6802 F350.00
G01 X15.9733 Y4.6945 F350.00
G01 X15.8846 Y4.7365 F350.00
G01 X15.8554 Y4.7494 F350.00
G01 X15.8257 Y4.7609 F350.00
G01 X15.7333 Y4.7939 F350.00
G01 X15.7030 Y4.8040 F350.00
G01 X15.6722 Y4.8125 F350.00
G01 X15.5770 Y4.8363 F350.00
G01 X15.5459 Y4.8433 F350.00
G01 X15.5145 Y4.8487 F350.00
G01 X15.4174 Y4.8631 F350.00
G01 X15.3857 Y4.8671 F350.00
G01 X15.3539 Y4.8694 F350.00
G01 X15.2559 Y4.8742 F350.00
G01 X15.2240 Y4.8750 F350.00
G01 X15.1921 Y4.8742 F350.00
G01 X15.0941 Y4.8694 F350.00
G01 X15.0623 Y4.8671 F350.00
G01 X15.0306 Y4.8631 F350.00
G01 X14.9335 Y4.8487 F350.00
G01 X14.9021 Y4.8433 F350.00
G01 X14.8710 Y4.8363 F350.00
G01 X14.7758 Y4.8125 F350.00
G01 X14.7450 Y4.8040 F350.00
G01 X14.7147 Y4.7939 F350.00
G01 X14.6223 Y4.7609 F350.00
G01 X14.5926 Y4.7494 F350.00
G01 X14.5634 Y4.7365 F350.00
G01 X14.4747 Y4.6945 F350.00
G01 X14.4462 Y4.6802 F350.00
G01 X14.4184 Y4.6644 F350.00
G01 X14.3343 Y4.6140 F350.00
G01 X14.3073 Y4.5969 F350.00
G01 X14.2812 Y4.5786 F350.00
G01 X14.2024 Y4.5201 F350.00
G01 X14.1897 Y4.5104 F350.00
G01 X14.1650 Y4.4902 F350.00
G01 X14.0804 Y4.4137 F350.00
G01 X14.0573 Y4.3917 F350.00
G01 X14.0353 Y4.3686 F350.00
G01 X13.9588 Y4.2840 F350.00
G01 X13.9485 Y4.2717 F350.00
G01 X13.9289 Y4.2466 F350.00
G01 X13.8704 Y4.1678 F350.00
G01 X13.8521 Y4.1417 F350.00
G01 X13.8350 Y4.1147 F350.00
G01 X13.7846 Y4.0306 F350.00
G01 X13.7688 Y4.0028 F350.00
G01 X13.7545 Y3.9743 F350.00
G01 X13.7125 Y3.8856 F350.00
G01 X13.6996 Y3.8564 F350.00
G01 X13.6881 Y3.8267 F350.00
G01 X13.6551 Y3.7343 F350.00
G01 X13.6450 Y3.7040 F350.00
G01 X13.6365 Y3.6732 F350.00
G01 X13.6090 Y3.5625 F350.00
G01 X13.6028 Y3.5312 F350.00
G01 X13.6003 Y3.5155 F350.00
G01 X13.5859 Y3.4184 F350.00
G01 X13.5819 Y3.3867 F350.00
G01 X13.5796 Y3.3549 F350.00
G01 X13.5742 Y3.2410 F350.00
G01 X13.5740 Y1.9750 F350.00
G01 X13.5748 Y1.9431 F350.00
G01 X13.5796 Y1.8451 F350.00
G01 X13.5819 Y1.8133 F350.00
G01 X13.5859 Y1.7816 F350.00
G00 Z0.5000
G00 X1.3003 Y27.7357
G01 F250.00
G01 Z-0.0500
G01 F350.00
G01 X1.3002 Y19.3764 F350.00
G01 X4.2264 Y16.4503 F350.00
G01 X5.6849 Y16.4502 F350.00
G01 X5.7036 Y16.4811 F350.00
G01 X5.7214 Y16.5076 F350.00
G01 X5.8184 Y16.6388 F350.00
G01 X5.8380 Y16.6639 F350.00
G01 X5.8589 Y16.6881 F350.00
G01 X5.9577 Y16.7972 F350.00
G01 X5.9686 Y16.8089 F350.00
G01 X5.9911 Y16.8314 F350.00
G01 X6.1119 Y16.9411 F350.00
G01 X6.1361 Y16.9620 F350.00
G01 X6.1612 Y16.9816 F350.00
G01 X6.2794 Y17.0693 F350.00
G01 X6.2924 Y17.0786 F350.00
G01 X6.3189 Y17.0964 F350.00
G01 X6.4725 Y17.1884 F350.00
G01 X6.5007 Y17.2035 F350.00
G01 X6.5150 Y17.2105 F350.00
G01 X6.6481 Y17.2734 F350.00
G01 X6.6772 Y17.2863 F350.00
G01 X6.7070 Y17.2978 F350.00
G01 X6.8456 Y17.3474 F350.00
G01 X6.8759 Y17.3574 F350.00
G01 X6.9066 Y17.3659 F350.00
G01 X7.0649 Y17.4054 F350.00
G01 X7.0962 Y17.4116 F350.00
G01 X7.1120 Y17.4141 F350.00
G01 X7.2576 Y17.4357 F350.00
G01 X7.2893 Y17.4396 F350.00
G01 X7.3211 Y17.4420 F350.00
G01 X7.4681 Y17.4492 F350.00
G01 X7.5000 Y17.4500 F350.00
G01 X7.5319 Y17.4492 F350.00
G01 X7.6789 Y17.4420 F350.00
G01 X7.7107 Y17.4396 F350.00
G01 X7.7424 Y17.4357 F350.00
G01 X7.8880 Y17.4141 F350.00
G01 X7.9194 Y17.4087 F350.00
G01 X7.9506 Y17.4017 F350.00
G01 X8.0934 Y17.3659 F350.00
G01 X8.1241 Y17.3574 F350.00
G01 X8.1544 Y17.3474 F350.00
G01 X8.2930 Y17.2978 F350.00
G01 X8.3228 Y17.2863 F350.00
G01 X8.3519 Y17.2734 F350.00
G01 X8.4993 Y17.2035 F350.00
G01 X8.5275 Y17.1884 F350.00
G01 X8.5413 Y17.1804 F350.00
G01 X8.6675 Y17.1047 F350.00
G01 X8.6945 Y17.0877 F350.00
G01 X8.7206 Y17.0693 F350.00
G01 X8.8388 Y16.9816 F350.00
G01 X8.8639 Y16.9620 F350.00
G01 X8.8881 Y16.9411 F350.00
G01 X8.9972 Y16.8423 F350.00
G01 X9.0203 Y16.8203 F350.00
G01 X9.0423 Y16.7972 F350.00
G01 X9.1411 Y16.6881 F350.00
G01 X9.1620 Y16.6639 F350.00
G01 X9.1816 Y16.6388 F350.00
G01 X9.2693 Y16.5206 F350.00
G01 X9.2877 Y16.4945 F350.00
G01 X9.3047 Y16.4675 F350.00
G01 X9.3804 Y16.3413 F350.00
G01 X9.3961 Y16.3135 F350.00
G01 X9.4105 Y16.2850 F350.00
G01 X9.4734 Y16.1519 F350.00
G01 X9.4863 Y16.1228 F350.00
G01 X9.4978 Y16.0930 F350.00
G01 X9.5474 Y15.9544 F350.00
G01 X9.5574 Y15.9241 F350.00
G01 X9.5659 Y15.8934 F350.00
G01 X9.6017 Y15.7506 F350.00
G01 X9.6087 Y15.7194 F350.00
G01 X9.6141 Y15.6880 F350.00
G01 X9.6357 Y15.5424 F350.00
G01 X9.6396 Y15.5107 F350.00
G01 X9.6420 Y15.4789 F350.00
G01 X9.6492 Y15.3319 F350.00
G01 X9.6500 Y15.3000 F350.00
G01 X9.6492 Y15.2681 F350.00
G01 X9.6420 Y15.1211 F350.00
G01 X9.6410 Y15.1052 F350.00
G01 X9.6379 Y15.0734 F350.00
G01 X9.6141 Y14.9120 F350.00
G01 X9.6087 Y14.8806 F350.00
G01 X9.6017 Y14.8494 F350.00
G01 X9.5659 Y14.7066 F350.00
G01 X9.5574 Y14.6759 F350.00
G01 X9.5474 Y14.6456 F350.00
G01 X9.4978 Y14.5070 F350.00
G01 X9.4863 Y14.4772 F350.00
G01 X9.4734 Y14.4481 F350.00
G01 X9.4105 Y14.3150 F350.00
G01 X9.3961 Y14.2865 F350.00
G01 X9.3804 Y14.2587 F350.00
G01 X9.3047 Y14.1325 F350.00
G01 X9.2877 Y14.1055 F350.00
G01 X9.2786 Y14.0924 F350.00
G01 X9.1719 Y13.9485 F350.00
G01 X9.1620 Y13.9361 F350.00
G01 X9.1411 Y13.9119 F350.00
G01 X9.0314 Y13.7911 F350.00
G01 X9.0089 Y13.7686 F350.00
G01 X8.9972 Y13.7577 F350.00
G01 X8.8881 Y13.6589 F350.00
G01 X8.8639 Y13.6380 F350.00
G01 X8.8388 Y13.6184 F350.00
G01 X8.7503 Y13.5527 F350.00
G01 X8.7502 Y13.0392 F350.00
G01 X8.7635 Y13.0168 F350.00
G01 X8.7785 Y12.9886 F350.00
G01 X8.8341 Y12.8711 F350.00
G01 X8.8463 Y12.8416 F350.00
G01 X8.8519 Y12.8267 F350.00
G01 X8.8849 Y12.7343 F350.00
G01 X8.8950 Y12.7040 F350.00
G01 X8.9035 Y12.6732 F350.00
G01 X8.9273 Y12.5780 F350.00
G01 X8.9343 Y12.5469 F350.00
G01 X8.9397 Y12.5155 F350.00
G01 X8.9541 Y12.4184 F350.00
G01 X8.9563 Y12.4026 F350.00
G01 X8.9594 Y12.3708 F350.00
G01 X8.9652 Y12.2569 F350.00
G01 X8.9660 Y12.2250 F350.00
G01 X8.9660 Y10.9750 F350.00
G01 X8.9652 Y10.9431 F350.00
G01 X8.9604 Y10.8451 F350.00
G01 X8.9581 Y10.8133 F350.00
G01 X8.9541 Y10.7816 F350.00
G01 X8.9397 Y10.6845 F350.00
G01 X8.9343 Y10.6531 F350.00
G01 X8.9273 Y10.6220 F350.00
G01 X8.9035 Y10.5268 F350.00
G01 X8.8950 Y10.4960 F350.00
G01 X8.8849 Y10.4657 F350.00
G01 X8.8519 Y10.3733 F350.00
G01 X8.8404 Y10.3436 F350.00
G01 X8.8275 Y10.3144 F350.00
G01 X8.7855 Y10.2257 F350.00
G01 X8.7712 Y10.1972 F350.00
G01 X8.7554 Y10.1694 F350.00
G01 X8.7050 Y10.0853 F350.00
G01 X8.6879 Y10.0583 F350.00
G01 X8.6696 Y10.0322 F350.00
G01 X8.6111 Y9.9534 F350.00
G01 X8.5915 Y9.9283 F350.00
G01 X8.5706 Y9.9041 F350.00
G01 X8.5047 Y9.8314 F350.00
G01 X8.4827 Y9.8083 F350.00
G01 X8.4596 Y9.7863 F350.00
G01 X8.3869 Y9.7204 F350.00
G01 X8.3636 Y9.7002 F350.00
G01 X9.1576 Y9.7002 F350.00
G01 X11.0340 Y11.5767 F350.00
G01 X11.0342 Y13.1160 F350.00
G01 X11.0348 Y13.1319 F350.00
G01 X11.0371 Y13.1637 F350.00
G01 X11.0389 Y13.1796 F350.00
G01 X11.0436 Y13.2111 F350.00
G01 X11.0498 Y13.2424 F350.00
G01 X11.0535 Y13.2579 F350.00
G01 X11.0620 Y13.2887 F350.00
G01 X11.0668 Y13.3039 F350.00
G01 X11.0776 Y13.3339 F350.00
G01 X11.0898 Y13.3634 F350.00
G01 X11.0964 Y13.3779 F350.00
G01 X11.1108 Y13.4064 F350.00
G01 X11.1184 Y13.4204 F350.00
G01 X11.1348 Y13.4477 F350.00
G01 X11.1526 Y13.4743 F350.00
G01 X11.1619 Y13.4872 F350.00
G01 X11.1815 Y13.5124 F350.00
G01 X11.1918 Y13.5246 F350.00
G01 X11.2132 Y13.5482 F350.00
G01 X11.2358 Y13.5708 F350.00
G01 X11.2475 Y13.5816 F350.00
G01 X11.2716 Y13.6025 F350.00
G01 X11.2968 Y13.6221 F350.00
G01 X11.3097 Y13.6314 F350.00
G01 X11.3229 Y13.6405 F350.00
G01 X11.3498 Y13.6575 F350.00
G01 X11.3776 Y13.6732 F350.00
G01 X11.3918 Y13.6806 F350.00
G01 X11.4206 Y13.6942 F350.00
G01 X11.4501 Y13.7064 F350.00
G01 X11.4650 Y13.7120 F350.00
G01 X11.4801 Y13.7172 F350.00
G01 X11.5106 Y13.7265 F350.00
G01 X11.5441 Y13.7347 F350.00
G01 X11.5504 Y13.7770 F350.00
G01 X11.5559 Y13.8084 F350.00
G01 X11.5628 Y13.8395 F350.00
G01 X11.5748 Y13.8872 F350.00
G01 X11.5788 Y13.9026 F350.00
G01 X11.5881 Y13.9331 F350.00
G01 X11.6154 Y14.0094 F350.00
G01 X11.6213 Y14.0242 F350.00
G01 X11.6342 Y14.0533 F350.00
G01 X11.6552 Y14.0977 F350.00
G01 X11.6696 Y14.1262 F350.00
G01 X11.6853 Y14.1540 F350.00
G01 X11.7189 Y14.2097 F350.00
G01 X11.7366 Y14.2362 F350.00
G01 X11.7460 Y14.2491 F350.00
G01 X11.7752 Y14.2886 F350.00
G01 X11.7948 Y14.3137 F350.00
G01 X11.8157 Y14.3379 F350.00
G01 X11.8595 Y14.3859 F350.00
G01 X12.4332 Y14.9599 F350.00
G01 X12.3983 Y15.0994 F350.00
G01 X12.3913 Y15.1306 F350.00
G01 X12.3859 Y15.1620 F350.00
G01 X12.3643 Y15.3076 F350.00
G01 X12.3604 Y15.3393 F350.00
G01 X12.3590 Y15.3552 F350.00
G01 X12.3508 Y15.5181 F350.00
G01 X12.3500 Y15.5500 F350.00
G01 X12.3508 Y15.5819 F350.00
G01 X12.3580 Y15.7289 F350.00
G01 X12.3604 Y15.7607 F350.00
G01 X12.3643 Y15.7924 F350.00
G01 X12.3859 Y15.9380 F350.00
G01 X12.3913 Y15.9694 F350.00
G01 X12.3983 Y16.0006 F350.00
G01 X12.4341 Y16.1434 F350.00
G01 X12.4426 Y16.1741 F350.00
G01 X12.4526 Y16.2044 F350.00
G01 X12.5022 Y16.3430 F350.00
G01 X12.5137 Y16.3728 F350.00
G01 X12.5266 Y16.4019 F350.00
G01 X12.5965 Y16.5493 F350.00
G01 X12.6116 Y16.5775 F350.00
G01 X12.6196 Y16.5913 F350.00
G01 X12.6953 Y16.7175 F350.00
G01 X12.7123 Y16.7445 F350.00
G01 X12.7307 Y16.7706 F350.00
G01 X12.8184 Y16.8888 F350.00
G01 X12.8380 Y16.9139 F350.00
G01 X12.8589 Y16.9381 F350.00
G01 X12.9577 Y17.0472 F350.00
G01 X12.9797 Y17.0703 F350.00
G01 X13.0028 Y17.0923 F350.00
G01 X13.1119 Y17.1911 F350.00
G01 X13.1361 Y17.2120 F350.00
G01 X13.1612 Y17.2316 F350.00
G01 X13.2794 Y17.3193 F350.00
G01 X13.3055 Y17.3377 F350.00
G01 X13.3325 Y17.3547 F350.00
G01 X13.4587 Y17.4304 F350.00
G01 X13.4865 Y17.4461 F350.00
G01 X13.5150 Y17.4605 F350.00
G01 X13.6481 Y17.5234 F350.00
G01 X13.6772 Y17.5363 F350.00
G01 X13.6920 Y17.5423 F350.00
G01 X13.8456 Y17.5974 F350.00
G01 X13.8759 Y17.6074 F350.00
G01 X13.9066 Y17.6159 F350.00
G01 X14.0494 Y17.6517 F350.00
G01 X14.0806 Y17.6587 F350.00
G01 X14.1120 Y17.6641 F350.00
G01 X14.2734 Y17.6879 F350.00
G01 X14.3052 Y17.6910 F350.00
G01 X14.3211 Y17.6920 F350.00
G01 X14.4681 Y17.6992 F350.00
G01 X14.5000 Y17.7000 F350.00
G01 X14.5319 Y17.6992 F350.00
G01 X14.6789 Y17.6920 F350.00
G01 X14.7107 Y17.6896 F350.00
G01 X14.7424 Y17.6857 F350.00
G01 X14.8880 Y17.6641 F350.00
G01 X14.9194 Y17.6587 F350.00
G01 X14.9506 Y17.6517 F350.00
G01 X15.0901 Y17.6168 F350.00
G01 X15.3497 Y17.8764 F350.00
G01 X15.3498 Y21.8236 F350.00
G01 X13.0233 Y24.1500 F350.00
G01 X12.5000 Y24.1500 F350.00
G01 X12.4681 Y24.1508 F350.00
G01 X12.3542 Y24.1566 F350.00
G01 X12.3224 Y24.1597 F350.00
G01 X12.3066 Y24.1619 F350.00
G01 X12.2095 Y24.1763 F350.00
G01 X12.1781 Y24.1817 F350.00
G01 X12.1470 Y24.1887 F350.00
G01 X12.0364 Y24.2166 F350.00
G01 X12.0058 Y24.2259 F350.00
G01 X11.9907 Y24.2311 F350.00
G01 X11.8983 Y24.2641 F350.00
G01 X11.8686 Y24.2756 F350.00
G01 X11.8394 Y24.2885 F350.00
G01 X11.7507 Y24.3305 F350.00
G01 X11.7222 Y24.3448 F350.00
G01 X11.6944 Y24.3606 F350.00
G01 X11.6103 Y24.4110 F350.00
G01 X11.5833 Y24.4281 F350.00
G01 X11.5572 Y24.4464 F350.00
G01 X11.4784 Y24.5049 F350.00
G01 X11.4533 Y24.5245 F350.00
G01 X11.4291 Y24.5454 F350.00
G01 X11.3564 Y24.6113 F350.00
G01 X11.3333 Y24.6333 F350.00
G01 X11.3113 Y24.6564 F350.00
G01 X11.2454 Y24.7291 F350.00
G01 X11.2245 Y24.7533 F350.00
G01 X11.2049 Y24.7784 F350.00
G01 X11.1464 Y24.8572 F350.00
G01 X11.1281 Y24.8833 F350.00
G01 X11.1110 Y24.9103 F350.00
G01 X11.0606 Y24.9944 F350.00
G01 X11.0448 Y25.0222 F350.00
G01 X11.0305 Y25.0507 F350.00
G01 X10.9885 Y25.1394 F350.00
G01 X10.9756 Y25.1686 F350.00
G01 X10.9641 Y25.1983 F350.00
G01 X10.9311 Y25.2907 F350.00
G01 X10.9210 Y25.3210 F350.00
G01 X10.9125 Y25.3518 F350.00
G01 X10.8887 Y25.4470 F350.00
G01 X10.8817 Y25.4781 F350.00
G01 X10.8763 Y25.5095 F350.00
G01 X10.8619 Y25.6066 F350.00
G01 X10.8579 Y25.6383 F350.00
G01 X10.8556 Y25.6701 F350.00
G01 X10.8508 Y25.7681 F350.00
G01 X10.8500 Y25.8000 F350.00
G01 X10.8508 Y25.8319 F350.00
G01 X10.8556 Y25.9299 F350.00
G01 X10.8579 Y25.9617 F350.00
G01 X10.8619 Y25.9934 F350.00
G01 X10.8763 Y26.0905 F350.00
G01 X10.8817 Y26.1219 F350.00
G01 X10.8887 Y26.1530 F350.00
G01 X10.9152 Y26.2581 F350.00
G01 X9.3755 Y27.7981 F350.00
G01 X9.3317 Y27.8461 F350.00
G01 X9.3108 Y27.8703 F350.00
G01 X9.2912 Y27.8954 F350.00
G01 X9.2620 Y27.9349 F350.00
G01 X9.2436 Y27.9610 F350.00
G01 X9.2265 Y27.9879 F350.00
G01 X9.2013 Y28.0300 F350.00
G01 X9.1856 Y28.0578 F350.00
G01 X9.1712 Y28.0863 F350.00
G01 X9.1502 Y28.1307 F350.00
G01 X9.1373 Y28.1598 F350.00
G01 X9.1258 Y28.1896 F350.00
G01 X9.1093 Y28.2358 F350.00
G01 X9.0993 Y28.2661 F350.00
G01 X9.0908 Y28.2968 F350.00
G01 X9.0788 Y28.3445 F350.00
G01 X9.0719 Y28.3756 F350.00
G01 X9.0664 Y28.4070 F350.00
G01 X9.0592 Y28.4556 F350.00
G01 X9.0553 Y28.4873 F350.00
G01 X9.0529 Y28.5191 F350.00
G01 X9.0499 Y28.5840 F350.00
G01 X9.0499 Y32.4160 F350.00
G01 X9.0529 Y32.4809 F350.00
G01 X9.0553 Y32.5127 F350.00
G01 X9.0592 Y32.5444 F350.00
G01 X9.0689 Y32.6087 F350.00
G01 X9.0752 Y32.6400 F350.00
G01 X9.0908 Y32.7032 F350.00
G01 X9.0993 Y32.7339 F350.00
G01 X9.1041 Y32.7491 F350.00
G01 X9.1258 Y32.8104 F350.00
G01 X9.1373 Y32.8402 F350.00
G01 X9.1502 Y32.8693 F350.00
G01 X9.1782 Y32.9281 F350.00
G01 X9.1933 Y32.9562 F350.00
G01 X9.2265 Y33.0121 F350.00
G01 X9.2349 Y33.0257 F350.00
G01 X9.2526 Y33.0522 F350.00
G01 X9.2912 Y33.1046 F350.00
G01 X9.3108 Y33.1297 F350.00
G01 X9.3317 Y33.1539 F350.00
G01 X9.3647 Y33.1902 F350.00
G01 X9.3867 Y33.2133 F350.00
G01 X14.9867 Y38.8133 F350.00
G01 X15.0098 Y38.8353 F350.00
G01 X15.0461 Y38.8683 F350.00
G01 X15.0703 Y38.8892 F350.00
G01 X15.0954 Y38.9088 F350.00
G01 X15.1349 Y38.9380 F350.00
G01 X15.1610 Y38.9564 F350.00
G01 X15.1743 Y38.9651 F350.00
G01 X15.2438 Y39.0067 F350.00
G01 X15.2719 Y39.0218 F350.00
G01 X15.3452 Y39.0564 F350.00
G01 X15.3746 Y39.0686 F350.00
G01 X15.3896 Y39.0742 F350.00
G01 X15.4509 Y39.0959 F350.00
G01 X15.4814 Y39.1052 F350.00
G01 X15.5600 Y39.1248 F350.00
G01 X15.5913 Y39.1311 F350.00
G01 X15.6556 Y39.1408 F350.00
G01 X15.6873 Y39.1447 F350.00
G01 X15.7191 Y39.1471 F350.00
G01 X15.7681 Y39.1495 F350.00
G01 X15.8000 Y39.1502 F350.00
G01 X25.9236 Y39.1502 F350.00
G01 X30.6797 Y43.9064 F350.00
G01 X30.6798 Y49.3694 F350.00
G01 X30.6103 Y49.4110 F350.00
G01 X30.5833 Y49.4281 F350.00
G01 X30.5572 Y49.4464 F350.00
G01 X30.4657 Y49.5146 F350.00
G01 X30.4533 Y49.5245 F350.00
G01 X30.4291 Y49.5454 F350.00
G01 X30.3564 Y49.6113 F350.00
G01 X30.3333 Y49.6333 F350.00
G01 X30.3113 Y49.6564 F350.00
G01 X30.2454 Y49.7291 F350.00
G01 X30.2245 Y49.7533 F350.00
G01 X30.2049 Y49.7784 F350.00
G01 X30.1464 Y49.8572 F350.00
G01 X30.1281 Y49.8833 F350.00
G01 X30.1110 Y49.9103 F350.00
G01 X30.0525 Y50.0082 F350.00
G01 X30.0448 Y50.0222 F350.00
G01 X30.0305 Y50.0507 F350.00
G01 X29.9885 Y50.1394 F350.00
G01 X29.9756 Y50.1686 F350.00
G01 X29.9641 Y50.1983 F350.00
G01 X29.9311 Y50.2907 F350.00
G01 X29.9210 Y50.3210 F350.00
G01 X29.9125 Y50.3518 F350.00
G01 X29.8887 Y50.4470 F350.00
G01 X29.8817 Y50.4781 F350.00
G01 X29.8763 Y50.5095 F350.00
G01 X29.8597 Y50.6224 F350.00
G01 X29.8579 Y50.6383 F350.00
G01 X29.8556 Y50.6701 F350.00
G01 X29.8508 Y50.7681 F350.00
G01 X29.8502 Y50.7840 F350.00
G01 X29.8502 Y50.8160 F350.00
G01 X29.8556 Y50.9299 F350.00
G01 X29.8579 Y50.9617 F350.00
G01 X29.8619 Y50.9934 F350.00
G01 X29.8763 Y51.0905 F350.00
G01 X29.8817 Y51.1219 F350.00
G01 X29.8887 Y51.1530 F350.00
G01 X29.9125 Y51.2482 F350.00
G01 X29.9210 Y51.2790 F350.00
G01 X29.9311 Y51.3093 F350.00
G01 X29.9641 Y51.4017 F350.00
G01 X29.9756 Y51.4314 F350.00
G01 X29.9885 Y51.4606 F350.00
G01 X30.0305 Y51.5493 F350.00
G01 X30.0448 Y51.5778 F350.00
G01 X30.0606 Y51.6056 F350.00
G01 X30.1110 Y51.6897 F350.00
G01 X30.1281 Y51.7167 F350.00
G01 X30.1464 Y51.7428 F350.00
G01 X30.2049 Y51.8216 F350.00
G01 X30.2245 Y51.8467 F350.00
G01 X30.2454 Y51.8709 F350.00
G01 X30.3113 Y51.9436 F350.00
G01 X30.3333 Y51.9667 F350.00
G01 X30.3564 Y51.9887 F350.00
G01 X30.4291 Y52.0546 F350.00
G01 X30.4533 Y52.0755 F350.00
G01 X30.4784 Y52.0951 F350.00
G01 X30.5572 Y52.1536 F350.00
G01 X30.5833 Y52.1719 F350.00
G01 X30.6103 Y52.1890 F350.00
G01 X30.6944 Y52.2394 F350.00
G01 X30.7222 Y52.2552 F350.00
G01 X30.7507 Y52.2695 F350.00
G01 X30.8539 Y52.3181 F350.00
G01 X30.8834 Y52.3303 F350.00
G01 X30.8983 Y52.3359 F350.00
G01 X30.9907 Y52.3689 F350.00
G01 X31.0210 Y52.3790 F350.00
G01 X31.0518 Y52.3875 F350.00
G01 X31.1470 Y52.4113 F350.00
G01 X31.1781 Y52.4183 F350.00
G01 X31.2095 Y52.4237 F350.00
G01 X31.3066 Y52.4381 F350.00
G01 X31.3383 Y52.4421 F350.00
G01 X31.3701 Y52.4444 F350.00
G01 X31.4840 Y52.4498 F350.00
G01 X32.5000 Y52.4500 F350.00
G01 X32.5319 Y52.4492 F350.00
G01 X32.6299 Y52.4444 F350.00
G01 X32.6617 Y52.4421 F350.00
G01 X32.6934 Y52.4381 F350.00
G01 X32.7905 Y52.4237 F350.00
G01 X32.8219 Y52.4183 F350.00
G01 X32.8530 Y52.4113 F350.00
G01 X32.9482 Y52.3875 F350.00
G01 X32.9790 Y52.3790 F350.00
G01 X33.0093 Y52.3689 F350.00
G01 X33.1017 Y52.3359 F350.00
G01 X33.1314 Y52.3244 F350.00
G01 X33.1606 Y52.3115 F350.00
G01 X33.2493 Y52.2695 F350.00
G01 X33.2778 Y52.2552 F350.00
G01 X33.3056 Y52.2394 F350.00
G01 X33.3897 Y52.1890 F350.00
G01 X33.4167 Y52.1719 F350.00
G01 X33.4428 Y52.1536 F350.00
G01 X33.5216 Y52.0951 F350.00
G01 X33.5467 Y52.0755 F350.00
G01 X33.5709 Y52.0546 F350.00
G01 X33.6436 Y51.9887 F350.00
G01 X33.6667 Y51.9667 F350.00
G01 X33.6887 Y51.9436 F350.00
G01 X33.7546 Y51.8709 F350.00
G01 X33.7755 Y51.8467 F350.00
G01 X33.7951 Y51.8216 F350.00
G01 X33.8536 Y51.7428 F350.00
G01 X33.8719 Y51.7167 F350.00
G01 X33.8890 Y51.6897 F350.00
G01 X33.9394 Y51.6056 F350.00
G01 X33.9552 Y51.5778 F350.00
G01 X33.9695 Y51.5493 F350.00
G01 X34.0115 Y51.4606 F350.00
G01 X34.0181 Y51.4461 F350.00
G01 X34.0303 Y51.4166 F350.00
G01 X34.0689 Y51.3093 F350.00
G01 X34.0790 Y51.2790 F350.00
G01 X34.0875 Y51.2482 F350.00
G01 X34.1113 Y51.1530 F350.00
G01 X34.1183 Y51.1219 F350.00
G01 X34.1237 Y51.0905 F350.00
G01 X34.1381 Y50.9934 F350.00
G01 X34.1421 Y50.9617 F350.00
G01 X34.1444 Y50.9299 F350.00
G01 X34.1492 Y50.8319 F350.00
G01 X34.1500 Y50.8000 F350.00
G01 X34.1492 Y50.7681 F350.00
G01 X34.1444 Y50.6701 F350.00
G01 X34.1421 Y50.6383 F350.00
G01 X34.1381 Y50.6066 F350.00
G01 X34.1237 Y50.5095 F350.00
G01 X34.1183 Y50.4781 F350.00
G01 X34.1113 Y50.4470 F350.00
G01 X34.0875 Y50.3518 F350.00
G01 X34.0790 Y50.3210 F350.00
G01 X34.0689 Y50.2907 F350.00
G01 X34.0359 Y50.1983 F350.00
G01 X34.0244 Y50.1686 F350.00
G01 X34.0115 Y50.1394 F350.00
G01 X33.9695 Y50.0507 F350.00
G01 X33.9552 Y50.0222 F350.00
G01 X33.9394 Y49.9944 F350.00
G01 X33.8890 Y49.9103 F350.00
G01 X33.8719 Y49.8833 F350.00
G01 X33.8536 Y49.8572 F350.00
G01 X33.7951 Y49.7784 F350.00
G01 X33.7755 Y49.7533 F350.00
G01 X33.7546 Y49.7291 F350.00
G01 X33.6887 Y49.6564 F350.00
G01 X33.6667 Y49.6333 F350.00
G01 X33.6436 Y49.6113 F350.00
G01 X33.5709 Y49.5454 F350.00
G01 X33.5467 Y49.5245 F350.00
G01 X33.5216 Y49.5049 F350.00
G01 X33.4428 Y49.4464 F350.00
G01 X33.4167 Y49.4281 F350.00
G01 X33.3897 Y49.4110 F350.00
G01 X33.3056 Y49.3606 F350.00
G01 X33.2778 Y49.3448 F350.00
G01 X33.2493 Y49.3305 F350.00
G01 X33.1606 Y49.2885 F350.00
G01 X33.1314 Y49.2756 F350.00
G01 X33.1017 Y49.2641 F350.00
G01 X33.0093 Y49.2311 F350.00
G01 X32.9803 Y49.2215 F350.00
G01 X32.9803 Y46.2069 F350.00
G01 X33.6967 Y46.9233 F350.00
G01 X33.7198 Y46.9453 F350.00
G01 X33.7561 Y46.9783 F350.00
G01 X33.7803 Y46.9992 F350.00
G01 X33.8054 Y47.0188 F350.00
G01 X33.8578 Y47.0574 F350.00
G01 X33.8843 Y47.0751 F350.00
G01 X33.9400 Y47.1087 F350.00
G01 X33.9678 Y47.1244 F350.00
G01 X33.9963 Y47.1388 F350.00
G01 X34.0552 Y47.1664 F350.00
G01 X34.0846 Y47.1786 F350.00
G01 X34.1609 Y47.2059 F350.00
G01 X34.1914 Y47.2152 F350.00
G01 X34.2700 Y47.2348 F350.00
G01 X34.3013 Y47.2411 F350.00
G01 X34.3814 Y47.2530 F350.00
G01 X34.4131 Y47.2561 F350.00
G01 X34.4781 Y47.2595 F350.00
G01 X34.5100 Y47.2602 F350.00
G01 X36.3278 Y47.2602 F350.00
G01 X36.3465 Y47.2993 F350.00
G01 X36.3616 Y47.3275 F350.00
G01 X36.4536 Y47.4811 F350.00
G01 X36.4623 Y47.4945 F350.00
G01 X36.4807 Y47.5206 F350.00
G01 X36.5684 Y47.6388 F350.00
G01 X36.5781 Y47.6515 F350.00
G01 X36.5983 Y47.6762 F350.00
G01 X36.7186 Y47.8089 F350.00
G01 X36.7411 Y47.8314 F350.00
G01 X36.7528 Y47.8423 F350.00
G01 X36.8619 Y47.9411 F350.00
G01 X36.8861 Y47.9620 F350.00
G01 X36.9112 Y47.9816 F350.00
G01 X37.0424 Y48.0786 F350.00
G01 X37.0689 Y48.0964 F350.00
G01 X37.0825 Y48.1047 F350.00
G01 X37.2087 Y48.1804 F350.00
G01 X37.2365 Y48.1961 F350.00
G01 X37.2650 Y48.2105 F350.00
G01 X37.3981 Y48.2734 F350.00
G01 X37.4272 Y48.2863 F350.00
G01 X37.4570 Y48.2978 F350.00
G01 X37.5956 Y48.3474 F350.00
G01 X37.6259 Y48.3574 F350.00
G01 X37.6566 Y48.3659 F350.00
G01 X37.7994 Y48.4017 F350.00
G01 X37.8149 Y48.4054 F350.00
G01 X37.8462 Y48.4116 F350.00
G01 X38.0234 Y48.4379 F350.00
G01 X38.0393 Y48.4396 F350.00
G01 X38.0711 Y48.4420 F350.00
G01 X38.2181 Y48.4492 F350.00
G01 X38.2500 Y48.4500 F350.00
G01 X38.2819 Y48.4492 F350.00
G01 X38.4289 Y48.4420 F350.00
G01 X38.4607 Y48.4396 F350.00
G01 X38.4924 Y48.4357 F350.00
G01 X38.6380 Y48.4141 F350.00
G01 X38.6694 Y48.4087 F350.00
G01 X38.7006 Y48.4017 F350.00
G01 X38.8434 Y48.3659 F350.00
G01 X38.8741 Y48.3574 F350.00
G01 X38.9044 Y48.3474 F350.00
G01 X39.0430 Y48.2978 F350.00
G01 X39.0728 Y48.2863 F350.00
G01 X39.1019 Y48.2734 F350.00
G01 X39.2350 Y48.2105 F350.00
G01 X39.2635 Y48.1961 F350.00
G01 X39.2913 Y48.1804 F350.00
G01 X39.4175 Y48.1047 F350.00
G01 X39.4445 Y48.0877 F350.00
G01 X39.4706 Y48.0693 F350.00
G01 X39.5888 Y47.9816 F350.00
G01 X39.6139 Y47.9620 F350.00
G01 X39.6381 Y47.9411 F350.00
G01 X39.7472 Y47.8423 F350.00
G01 X39.7703 Y47.8203 F350.00
G01 X39.7814 Y47.8089 F350.00
G01 X39.8911 Y47.6881 F350.00
G01 X39.9120 Y47.6639 F350.00
G01 X39.9316 Y47.6388 F350.00
G01 X40.0286 Y47.5076 F350.00
G01 X40.0377 Y47.4945 F350.00
G01 X40.0547 Y47.4675 F350.00
G01 X40.1384 Y47.3275 F350.00
G01 X40.1535 Y47.2993 F350.00
G01 X40.1722 Y47.2603 F350.00
G01 X41.3889 Y47.2603 F350.00
G01 X41.3749 Y47.2784 F350.00
G01 X41.3164 Y47.3572 F350.00
G01 X41.2981 Y47.3833 F350.00
G01 X41.2810 Y47.4103 F350.00
G01 X41.2306 Y47.4944 F350.00
G01 X41.2148 Y47.5222 F350.00
G01 X41.2005 Y47.5507 F350.00
G01 X41.1585 Y47.6394 F350.00
G01 X41.1456 Y47.6686 F350.00
G01 X41.1397 Y47.6834 F350.00
G01 X41.1011 Y47.7907 F350.00
G01 X41.0910 Y47.8210 F350.00
G01 X41.0825 Y47.8518 F350.00
G01 X41.0550 Y47.9625 F350.00
G01 X41.0488 Y47.9938 F350.00
G01 X41.0463 Y48.0095 F350.00
G01 X41.0319 Y48.1066 F350.00
G01 X41.0279 Y48.1383 F350.00
G01 X41.0256 Y48.1701 F350.00
G01 X41.0208 Y48.2681 F350.00
G01 X41.0200 Y48.3000 F350.00
G01 X41.0208 Y48.3319 F350.00
G01 X41.0256 Y48.4299 F350.00
G01 X41.0279 Y48.4617 F350.00
G01 X41.0319 Y48.4934 F350.00
G01 X41.0463 Y48.5905 F350.00
G01 X41.0517 Y48.6219 F350.00
G01 X41.0587 Y48.6530 F350.00
G01 X41.0825 Y48.7482 F350.00
G01 X41.0910 Y48.7790 F350.00
G01 X41.1011 Y48.8093 F350.00
G01 X41.1341 Y48.9017 F350.00
G01 X41.1397 Y48.9166 F350.00
G01 X41.1519 Y48.9461 F350.00
G01 X41.2005 Y49.0493 F350.00
G01 X41.2148 Y49.0778 F350.00
G01 X41.2306 Y49.1056 F350.00
G01 X41.2839 Y49.1945 F350.00
G01 X41.2118 Y49.2125 F350.00
G01 X41.1810 Y49.2210 F350.00
G01 X41.1507 Y49.2311 F350.00
G01 X41.0583 Y49.2641 F350.00
G01 X41.0286 Y49.2756 F350.00
G01 X41.0139 Y49.2819 F350.00
G01 X40.9107 Y49.3305 F350.00
G01 X40.8822 Y49.3448 F350.00
G01 X40.8682 Y49.3525 F350.00
G01 X40.7567 Y49.4194 F350.00
G01 X40.7433 Y49.4281 F350.00
G01 X40.7172 Y49.4464 F350.00
G01 X40.6257 Y49.5146 F350.00
G01 X40.6010 Y49.5348 F350.00
G01 X40.5891 Y49.5454 F350.00
G01 X40.5164 Y49.6113 F350.00
G01 X40.4933 Y49.6333 F350.00
G01 X40.4713 Y49.6564 F350.00
G01 X40.4054 Y49.7291 F350.00
G01 X40.3845 Y49.7533 F350.00
G01 X40.3649 Y49.7784 F350.00
G01 X40.3064 Y49.8572 F350.00
G01 X40.2881 Y49.8833 F350.00
G01 X40.2710 Y49.9103 F350.00
G01 X40.2206 Y49.9944 F350.00
G01 X40.2125 Y50.0082 F350.00
G01 X40.1975 Y50.0364 F350.00
G01 X40.1485 Y50.1394 F350.00
G01 X40.1356 Y50.1686 F350.00
G01 X40.1297 Y50.1834 F350.00
G01 X40.0859 Y50.3058 F350.00
G01 X40.0810 Y50.3210 F350.00
G01 X40.0725 Y50.3518 F350.00
G01 X40.0487 Y50.4470 F350.00
G01 X40.0417 Y50.4781 F350.00
G01 X40.0363 Y50.5095 F350.00
G01 X40.0219 Y50.6066 F350.00
G01 X40.0179 Y50.6383 F350.00
G01 X40.0166 Y50.6542 F350.00
G01 X40.0108 Y50.7681 F350.00
G01 X40.0100 Y50.8000 F350.00
G01 X40.0108 Y50.8319 F350.00
G01 X40.0156 Y50.9299 F350.00
G01 X40.0179 Y50.9617 F350.00
G01 X40.0219 Y50.9934 F350.00
G01 X40.0363 Y51.0905 F350.00
G01 X40.0417 Y51.1219 F350.00
G01 X40.0487 Y51.1530 F350.00
G01 X40.0725 Y51.2482 F350.00
G01 X40.0810 Y51.2790 F350.00
G01 X40.0911 Y51.3093 F350.00
G01 X40.1241 Y51.4017 F350.00
G01 X40.1356 Y51.4314 F350.00
G01 X40.1485 Y51.4606 F350.00
G01 X40.1905 Y51.5493 F350.00
G01 X40.2048 Y51.5778 F350.00
G01 X40.2206 Y51.6056 F350.00
G01 X40.2710 Y51.6897 F350.00
G01 X40.2881 Y51.7167 F350.00
G01 X40.3064 Y51.7428 F350.00
G01 X40.3649 Y51.8216 F350.00
G01 X40.3845 Y51.8467 F350.00
G01 X40.4054 Y51.8709 F350.00
G01 X40.4713 Y51.9436 F350.00
G01 X40.4933 Y51.9667 F350.00
G01 X40.5164 Y51.9887 F350.00
G01 X40.5891 Y52.0546 F350.00
G01 X40.6133 Y52.0755 F350.00
G01 X40.6384 Y52.0951 F350.00
G01 X40.7172 Y52.1536 F350.00
G01 X40.7433 Y52.1719 F350.00
G01 X40.7703 Y52.1890 F350.00
G01 X40.8544 Y52.2394 F350.00
G01 X40.8822 Y52.2552 F350.00
G01 X40.9107 Y52.2695 F350.00
G01 X40.9994 Y52.3115 F350.00
G01 X41.0286 Y52.3244 F350.00
G01 X41.0583 Y52.3359 F350.00
G01 X41.1507 Y52.3689 F350.00
G01 X41.1810 Y52.3790 F350.00
G01 X41.2118 Y52.3875 F350.00
G01 X41.3070 Y52.4113 F350.00
G01 X41.3381 Y52.4183 F350.00
G01 X41.3695 Y52.4237 F350.00
G01 X41.4666 Y52.4381 F350.00
G01 X41.4983 Y52.4421 F350.00
G01 X41.5301 Y52.4444 F350.00
G01 X41.6281 Y52.4492 F350.00
G01 X41.6600 Y52.4500 F350.00
G01 X42.1833 Y52.4500 F350.00
G01 X42.3467 Y52.6133 F350.00
G01 X42.3698 Y52.6353 F350.00
G01 X42.4061 Y52.6683 F350.00
G01 X42.4303 Y52.6892 F350.00
G01 X42.4554 Y52.7088 F350.00
G01 X42.5078 Y52.7474 F350.00
G01 X42.5343 Y52.7651 F350.00
G01 X42.5900 Y52.7987 F350.00
G01 X42.6178 Y52.8144 F350.00
G01 X42.6463 Y52.8288 F350.00
G01 X42.6907 Y52.8498 F350.00
G01 X42.7198 Y52.8627 F350.00
G01 X42.7496 Y52.8742 F350.00
G01 X42.7958 Y52.8907 F350.00
G01 X42.8261 Y52.9007 F350.00
G01 X42.8568 Y52.9092 F350.00
G01 X42.9200 Y52.9248 F350.00
G01 X42.9513 Y52.9311 F350.00
G01 X43.0314 Y52.9430 F350.00
G01 X43.0631 Y52.9461 F350.00
G01 X43.1440 Y52.9501 F350.00
G01 X43.8541 Y52.9502 F350.00
G01 X43.8502 Y53.0340 F350.00
G01 X43.8502 Y53.0660 F350.00
G01 X43.8580 Y53.2289 F350.00
G01 X43.8604 Y53.2607 F350.00
G01 X43.8643 Y53.2924 F350.00
G01 X43.8884 Y53.4538 F350.00
G01 X43.8946 Y53.4851 F350.00
G01 X43.9032 Y53.5201 F350.00
G01 X42.5233 Y54.9000 F350.00
G01 X42.0000 Y54.9000 F350.00
G01 X41.9681 Y54.9008 F350.00
G01 X41.8542 Y54.9066 F350.00
G01 X41.8383 Y54.9079 F350.00
G01 X41.8066 Y54.9119 F350.00
G01 X41.7095 Y54.9263 F350.00
G01 X41.6781 Y54.9317 F350.00
G01 X41.6470 Y54.9387 F350.00
G01 X41.5364 Y54.9666 F350.00
G01 X41.5058 Y54.9759 F350.00
G01 X41.4907 Y54.9811 F350.00
G01 X41.3983 Y55.0141 F350.00
G01 X41.3686 Y55.0256 F350.00
G01 X41.3394 Y55.0385 F350.00
G01 X41.2507 Y55.0805 F350.00
G01 X41.2222 Y55.0948 F350.00
G01 X41.1944 Y55.1106 F350.00
G01 X41.1103 Y55.1610 F350.00
G01 X41.0833 Y55.1781 F350.00
G01 X41.0572 Y55.1964 F350.00
G01 X40.9784 Y55.2549 F350.00
G01 X40.9533 Y55.2745 F350.00
G01 X40.9410 Y55.2848 F350.00
G01 X40.8447 Y55.3721 F350.00
G01 X40.8333 Y55.3833 F350.00
G01 X40.8113 Y55.4064 F350.00
G01 X40.7454 Y55.4791 F350.00
G01 X40.7245 Y55.5033 F350.00
G01 X40.7049 Y55.5284 F350.00
G01 X40.6464 Y55.6072 F350.00
G01 X40.6281 Y55.6333 F350.00
G01 X40.6110 Y55.6603 F350.00
G01 X40.5606 Y55.7444 F350.00
G01 X40.5448 Y55.7722 F350.00
G01 X40.5305 Y55.8007 F350.00
G01 X40.4885 Y55.8894 F350.00
G01 X40.4756 Y55.9186 F350.00
G01 X40.4697 Y55.9334 F350.00
G01 X40.4259 Y56.0558 F350.00
G01 X40.4210 Y56.0710 F350.00
G01 X40.4125 Y56.1018 F350.00
G01 X40.3887 Y56.1970 F350.00
G01 X40.3817 Y56.2281 F350.00
G01 X40.3763 Y56.2595 F350.00
G01 X40.3619 Y56.3566 F350.00
G01 X40.3597 Y56.3724 F350.00
G01 X40.3566 Y56.4042 F350.00
G01 X40.3502 Y56.5340 F350.00
G01 X40.3500 Y56.5500 F350.00
G01 X40.3508 Y56.5819 F350.00
G01 X40.3556 Y56.6799 F350.00
G01 X40.3579 Y56.7117 F350.00
G01 X40.3619 Y56.7434 F350.00
G01 X40.3763 Y56.8405 F350.00
G01 X40.3817 Y56.8719 F350.00
G01 X40.3887 Y56.9030 F350.00
G01 X40.4125 Y56.9982 F350.00
G01 X40.4210 Y57.0290 F350.00
G01 X40.4311 Y57.0593 F350.00
G01 X40.4641 Y57.1517 F350.00
G01 X40.4756 Y57.1814 F350.00
G01 X40.4885 Y57.2106 F350.00
G01 X40.5305 Y57.2993 F350.00
G01 X40.5448 Y57.3278 F350.00
G01 X40.5606 Y57.3556 F350.00
G01 X40.6110 Y57.4397 F350.00
G01 X40.6281 Y57.4667 F350.00
G01 X40.6464 Y57.4928 F350.00
G01 X40.7049 Y57.5716 F350.00
G01 X40.7245 Y57.5967 F350.00
G01 X40.7454 Y57.6209 F350.00
G01 X40.8113 Y57.6936 F350.00
G01 X40.8333 Y57.7167 F350.00
G01 X40.8447 Y57.7279 F350.00
G01 X40.9410 Y57.8152 F350.00
G01 X40.9657 Y57.8354 F350.00
G01 X40.9784 Y57.8451 F350.00
G01 X41.0572 Y57.9036 F350.00
G01 X41.0833 Y57.9219 F350.00
G01 X41.1103 Y57.9390 F350.00
G01 X41.1944 Y57.9894 F350.00
G01 X41.2082 Y57.9975 F350.00
G01 X41.2364 Y58.0125 F350.00
G01 X41.3394 Y58.0615 F350.00
G01 X41.3686 Y58.0744 F350.00
G01 X41.3983 Y58.0859 F350.00
G01 X41.4907 Y58.1189 F350.00
G01 X41.5210 Y58.1290 F350.00
G01 X41.5518 Y58.1375 F350.00
G01 X41.6470 Y58.1613 F350.00
G01 X41.6781 Y58.1683 F350.00
G01 X41.7095 Y58.1737 F350.00
G01 X41.8066 Y58.1881 F350.00
G01 X41.8383 Y58.1921 F350.00
G01 X41.8701 Y58.1944 F350.00
G01 X41.9681 Y58.1992 F350.00
G01 X42.0000 Y58.2000 F350.00
G01 X43.0000 Y58.2000 F350.00
G01 X43.0319 Y58.1992 F350.00
G01 X43.1340 Y58.1942 F350.00
G01 X43.0357 Y58.2405 F350.00
G01 X43.0072 Y58.2548 F350.00
G01 X42.9794 Y58.2706 F350.00
G01 X42.8953 Y58.3210 F350.00
G01 X42.8683 Y58.3381 F350.00
G01 X42.8422 Y58.3564 F350.00
G01 X42.7634 Y58.4149 F350.00
G01 X42.7383 Y58.4345 F350.00
G01 X42.7141 Y58.4554 F350.00
G01 X42.6414 Y58.5213 F350.00
G01 X42.6183 Y58.5433 F350.00
G01 X42.5963 Y58.5664 F350.00
G01 X42.5304 Y58.6391 F350.00
G01 X42.5095 Y58.6633 F350.00
G01 X42.4899 Y58.6884 F350.00
G01 X42.4295 Y58.7700 F350.00
G01 X35.4785 Y58.7744 F350.00
G01 X35.4219 Y58.6985 F350.00
G01 X35.4017 Y58.6738 F350.00
G01 X35.2814 Y58.5411 F350.00
G01 X35.2589 Y58.5186 F350.00
G01 X35.2472 Y58.5077 F350.00
G01 X35.1262 Y58.3983 F350.00
G01 X35.1015 Y58.3781 F350.00
G01 X35.0888 Y58.3684 F350.00
G01 X34.9706 Y58.2807 F350.00
G01 X34.9445 Y58.2623 F350.00
G01 X34.9175 Y58.2453 F350.00
G01 X34.7913 Y58.1696 F350.00
G01 X34.7635 Y58.1539 F350.00
G01 X34.7493 Y58.1465 F350.00
G01 X34.6019 Y58.0766 F350.00
G01 X34.5728 Y58.0637 F350.00
G01 X34.5430 Y58.0522 F350.00
G01 X34.4044 Y58.0026 F350.00
G01 X34.3741 Y57.9926 F350.00
G01 X34.3434 Y57.9841 F350.00
G01 X34.1851 Y57.9446 F350.00
G01 X34.1694 Y57.9413 F350.00
G01 X34.1380 Y57.9359 F350.00
G01 X33.9924 Y57.9143 F350.00
G01 X33.9607 Y57.9104 F350.00
G01 X33.9289 Y57.9080 F350.00
G01 X33.7862 Y57.9010 F350.00
G01 X33.8616 Y57.8451 F350.00
G01 X33.8867 Y57.8255 F350.00
G01 X33.9109 Y57.8046 F350.00
G01 X33.9836 Y57.7387 F350.00
G01 X34.0067 Y57.7167 F350.00
G01 X34.0287 Y57.6936 F350.00
G01 X34.0946 Y57.6209 F350.00
G01 X34.1155 Y57.5967 F350.00
G01 X34.1351 Y57.5716 F350.00
G01 X34.1936 Y57.4928 F350.00
G01 X34.2119 Y57.4667 F350.00
G01 X34.2290 Y57.4397 F350.00
G01 X34.2794 Y57.3556 F350.00
G01 X34.2875 Y57.3418 F350.00
G01 X34.3025 Y57.3136 F350.00
G01 X34.3515 Y57.2106 F350.00
G01 X34.3644 Y57.1814 F350.00
G01 X34.3759 Y57.1517 F350.00
G01 X34.4089 Y57.0593 F350.00
G01 X34.4190 Y57.0290 F350.00
G01 X34.4275 Y56.9982 F350.00
G01 X34.4513 Y56.9030 F350.00
G01 X34.4583 Y56.8719 F350.00
G01 X34.4612 Y56.8562 F350.00
G01 X34.4781 Y56.7434 F350.00
G01 X34.4821 Y56.7117 F350.00
G01 X34.4844 Y56.6799 F350.00
G01 X34.4898 Y56.5660 F350.00
G01 X34.4900 Y56.5500 F350.00
G01 X34.4892 Y56.5181 F350.00
G01 X34.4844 Y56.4201 F350.00
G01 X34.4834 Y56.4042 F350.00
G01 X34.4803 Y56.3724 F350.00
G01 X34.4637 Y56.2595 F350.00
G01 X34.4583 Y56.2281 F350.00
G01 X34.4513 Y56.1970 F350.00
G01 X34.4275 Y56.1018 F350.00
G01 X34.4190 Y56.0710 F350.00
G01 X34.4089 Y56.0407 F350.00
G01 X34.3759 Y55.9483 F350.00
G01 X34.3644 Y55.9186 F350.00
G01 X34.3515 Y55.8894 F350.00
G01 X34.3095 Y55.8007 F350.00
G01 X34.2952 Y55.7722 F350.00
G01 X34.2794 Y55.7444 F350.00
G01 X34.2290 Y55.6603 F350.00
