%
(; SHAPEOKO POSTPROCESSED v1)
( Source: F.Cu_0.4mm.nc )
( Stripped: M30 only - kept T#/M6/M0/M1/MSG for Shapeoko/Carbide Motion )
( Wrapped with Shapeoko start/end blocks - mirrors 1001.nc structure )
G90        ( absolute positioning )
G17        ( XY plane select )
G21        ( mm units )
G94        ( feedrate units/min )
G28 G91 Z0 ( safe Z home - assumes machine has been homed )
G90        ( back to absolute )
G54        ( work coordinate system 1 )
M5         ( ensure spindle off at start )

(G-CODE GENERATED BY FLATCAM v8.994 - www.flatcam.org - Version Date: 2020/11/7)

(Name: Buzzer PCB-F_Cu.gbr_ncc_cnc)
(Type: G-code from Geometry)
(Units: MM)

(Created on Sunday, 21 June 2026 at 18:29)

(This preprocessor is used with a motion controller loaded with GRBL firmware.)
(It is configured to be compatible with almost any version of GRBL firmware.)

(TOOL DIAMETER: 0.4 mm)
(Feedrate_XY: 350.0 mm/min)
(Feedrate_Z: 250.0 mm/min)
(Feedrate rapids 1500.0 mm/min)

(Z_Cut: -0.05 mm)
(Z_Move: 0.4 mm)
(Z Start: None mm)
(Z End: 40.0 mm)
(X,Y End: None mm)
(Steps per circle: 64)
(Steps per circle: 64)
(Preprocessor Geometry: grbl_11)

(X range:    5.7304 ...   33.6113  mm)
(Y range:    6.5986 ...   32.2627  mm)

(Spindle Speed: 0.0 RPM)
G21
G90
G17
G94


G01 F350.00

M5             
G00 Z40.0000
G00 X0.0000 Y0.0000                
T2 M6
(MSG, Change to Tool Dia = 0.4000)
M0
G00 Z40.0000

M03
G01 F350.00
G00 X7.8764 Y10.9029
G01 F250.00
G01 Z-0.0500
G01 F350.00
G01 X13.1339 Y10.9029 F350.00
G01 X13.3494 Y10.6629 F350.00
G01 X8.2217 Y10.6629 F350.00
G01 X8.6383 Y10.4229 F350.00
G01 X13.4329 Y10.4229 F350.00
G00 Z0.4000
G00 X13.6046 Y10.1829
G01 F250.00
G01 Z-0.0500
G01 F350.00
G01 X9.0558 Y10.1829 F350.00
G01 X9.4734 Y9.9429 F350.00
G01 X13.7303 Y9.9429 F350.00
G00 Z0.4000
G00 X13.9627 Y9.7029
G01 F250.00
G01 Z-0.0500
G01 F350.00
G01 X9.8910 Y9.7029 F350.00
G01 X10.3086 Y9.4629 F350.00
G01 X14.2027 Y9.4629 F350.00
G01 X14.4427 Y9.2229 F350.00
G01 X10.7262 Y9.2229 F350.00
G01 X11.1438 Y8.9829 F350.00
G01 X14.6827 Y8.9829 F350.00
G01 X14.9227 Y8.7429 F350.00
G01 X11.5614 Y8.7429 F350.00
G01 X11.9790 Y8.5029 F350.00
G01 X15.1912 Y8.5029 F350.00
G00 Z0.4000
G00 X15.7033 Y9.9429
G01 F250.00
G01 Z-0.0500
G01 F350.00
G01 X15.9989 Y9.9429 F350.00
G00 Z0.4000
G00 X15.6046 Y10.1829
G01 F250.00
G01 Z-0.0500
G01 F350.00
G01 X15.4633 Y10.1829 F350.00
G01 X15.4329 Y10.4229 F350.00
G01 X15.2233 Y10.4229 F350.00
G00 Z0.4000
G00 X15.2122 Y10.6629
G01 F250.00
G01 Z-0.0500
G01 F350.00
G01 X15.3494 Y10.6629 F350.00
G00 Z0.4000
G00 X15.3308 Y10.9029
G01 F250.00
G01 Z-0.0500
G01 F350.00
G01 X15.2308 Y10.9029 F350.00
G00 Z0.4000
G00 X15.2312 Y11.1429
G01 F250.00
G01 Z-0.0500
G01 F350.00
G01 X15.3308 Y11.1429 F350.00
G00 Z0.4000
G00 X15.3322 Y11.3829
G01 F250.00
G01 Z-0.0500
G01 F350.00
G01 X15.2312 Y11.3829 F350.00
G01 X15.2312 Y11.6229 F350.00
G01 X15.3709 Y11.6229 F350.00
G00 Z0.4000
G00 X15.4817 Y11.8629
G01 F250.00
G01 Z-0.0500
G01 F350.00
G01 X15.2312 Y11.8629 F350.00
G01 X15.2312 Y12.1029 F350.00
G01 X15.7028 Y12.1029 F350.00
G01 X15.2312 Y12.3429 F350.00
G01 X16.1797 Y12.3429 F350.00
G01 X16.4197 Y12.5829 F350.00
G01 X15.2312 Y12.5829 F350.00
G01 X15.4478 Y12.8229 F350.00
G01 X16.6597 Y12.8229 F350.00
G01 X16.8997 Y13.0629 F350.00
G01 X15.6878 Y13.0629 F350.00
G01 X15.9278 Y13.3029 F350.00
G01 X17.1397 Y13.3029 F350.00
G01 X17.3797 Y13.5429 F350.00
G01 X16.1678 Y13.5429 F350.00
G01 X16.4078 Y13.7829 F350.00
G01 X17.6197 Y13.7829 F350.00
G01 X17.8597 Y14.0229 F350.00
G01 X16.6478 Y14.0229 F350.00
G01 X16.8878 Y14.2629 F350.00
G01 X18.0997 Y14.2629 F350.00
G01 X18.3397 Y14.5029 F350.00
G01 X17.1278 Y14.5029 F350.00
G00 Z0.4000
G00 X17.3667 Y14.7429
G01 F250.00
G01 Z-0.0500
G01 F350.00
G01 X18.5797 Y14.7429 F350.00
G01 X18.6804 Y14.9829 F350.00
G01 X17.5339 Y14.9829 F350.00
G00 Z0.4000
G00 X17.6144 Y15.2229
G01 F250.00
G01 Z-0.0500
G01 F350.00
G01 X18.6804 Y15.2229 F350.00
G01 X18.6804 Y15.4629 F350.00
G01 X17.6312 Y15.4629 F350.00
G01 X17.6312 Y15.7029 F350.00
G01 X18.6804 Y15.7029 F350.00
G01 X18.6804 Y15.9429 F350.00
G01 X17.6312 Y15.9429 F350.00
G01 X17.6312 Y16.1829 F350.00
G01 X18.6804 Y16.1829 F350.00
G01 X18.6804 Y16.4229 F350.00
G01 X17.6312 Y16.4229 F350.00
G01 X17.6312 Y16.6629 F350.00
G01 X18.6804 Y16.6629 F350.00
G01 X18.6804 Y16.9029 F350.00
G01 X17.6312 Y16.9029 F350.00
G01 X17.6312 Y17.1429 F350.00
G01 X18.6804 Y17.1429 F350.00
G01 X18.6804 Y17.3829 F350.00
G01 X17.6312 Y17.3829 F350.00
G01 X17.6312 Y17.6229 F350.00
G01 X18.6804 Y17.6229 F350.00
G01 X18.6804 Y17.8629 F350.00
G01 X17.6312 Y17.8629 F350.00
G01 X17.6563 Y18.1029 F350.00
G01 X18.6804 Y18.1029 F350.00
G01 X18.6804 Y18.3429 F350.00
G01 X17.7903 Y18.3429 F350.00
G00 Z0.4000
G00 X17.8605 Y18.5829
G01 F250.00
G01 Z-0.0500
G01 F350.00
G01 X18.6804 Y18.5829 F350.00
G00 Z0.4000
G00 X18.6838 Y18.8229
G01 F250.00
G01 Z-0.0500
G01 F350.00
G01 X17.8799 Y18.8229 F350.00
G00 Z0.4000
G00 X17.8508 Y19.0629
G01 F250.00
G01 Z-0.0500
G01 F350.00
G01 X18.7344 Y19.0629 F350.00
G00 Z0.4000
G00 X18.8588 Y19.3029
G01 F250.00
G01 Z-0.0500
G01 F350.00
G01 X17.7691 Y19.3029 F350.00
G00 Z0.4000
G00 X17.6224 Y19.5429
G01 F250.00
G01 Z-0.0500
G01 F350.00
G01 X19.0797 Y19.5429 F350.00
G01 X19.3197 Y19.7829 F350.00
G01 X17.3679 Y19.7829 F350.00
G01 X16.4481 Y20.5029 F350.00
G01 X20.0397 Y20.5029 F350.00
G01 X20.2797 Y20.7429 F350.00
G01 X16.6881 Y20.7429 F350.00
G01 X16.9281 Y20.9829 F350.00
G01 X20.5197 Y20.9829 F350.00
G01 X20.7597 Y21.2229 F350.00
G01 X17.1681 Y21.2229 F350.00
G01 X17.4081 Y21.4629 F350.00
G01 X20.9997 Y21.4629 F350.00
G01 X21.2397 Y21.7029 F350.00
G01 X17.6481 Y21.7029 F350.00
G01 X17.8881 Y21.9429 F350.00
G01 X21.4797 Y21.9429 F350.00
G00 Z0.4000
G00 X21.8301 Y22.1829
G01 F250.00
G01 Z-0.0500
G01 F350.00
G01 X18.1281 Y22.1829 F350.00
G01 X18.3681 Y22.4229 F350.00
G01 X23.3597 Y22.4229 F350.00
G01 X23.5997 Y22.6629 F350.00
G01 X18.6081 Y22.6629 F350.00
G01 X18.8481 Y22.9029 F350.00
G01 X23.8397 Y22.9029 F350.00
G01 X24.0797 Y23.1429 F350.00
G01 X19.0881 Y23.1429 F350.00
G01 X19.3281 Y23.3829 F350.00
G01 X24.3197 Y23.3829 F350.00
G01 X24.5597 Y23.6229 F350.00
G01 X19.5681 Y23.6229 F350.00
G01 X19.8081 Y23.8629 F350.00
G01 X24.7997 Y23.8629 F350.00
G01 X25.0397 Y24.1029 F350.00
G01 X22.9615 Y24.1029 F350.00
G00 Z0.4000
G00 X23.4286 Y24.3429
G01 F250.00
G01 Z-0.0500
G01 F350.00
G01 X25.2797 Y24.3429 F350.00
G01 X25.5197 Y24.5829 F350.00
G01 X23.6686 Y24.5829 F350.00
G01 X23.9086 Y24.8229 F350.00
G01 X25.7597 Y24.8229 F350.00
G01 X25.9997 Y25.0629 F350.00
G01 X24.1486 Y25.0629 F350.00
G01 X24.3886 Y25.3029 F350.00
G01 X26.2397 Y25.3029 F350.00
G01 X26.4797 Y25.5429 F350.00
G01 X24.6286 Y25.5429 F350.00
G00 Z0.4000
G00 X24.8117 Y25.7829
G01 F250.00
G01 Z-0.0500
G01 F350.00
G01 X26.7197 Y25.7829 F350.00
G01 X26.9597 Y26.0229 F350.00
G01 X24.9573 Y26.0229 F350.00
G00 Z0.4000
G00 X25.0678 Y26.2629
G01 F250.00
G01 Z-0.0500
G01 F350.00
G01 X27.1997 Y26.2629 F350.00
G01 X27.2304 Y26.5029 F350.00
G01 X25.1050 Y26.5029 F350.00
G00 Z0.4000
G00 X25.1058 Y26.7429
G01 F250.00
G01 Z-0.0500
G01 F350.00
G01 X27.2304 Y26.7429 F350.00
G01 X27.1590 Y26.9829 F350.00
G01 X25.0991 Y26.9829 F350.00
G00 Z0.4000
G00 X25.0378 Y27.2229
G01 F250.00
G01 Z-0.0500
G01 F350.00
G01 X27.0461 Y27.2229 F350.00
G00 Z0.4000
G00 X26.9839 Y27.4629
G01 F250.00
G01 Z-0.0500
G01 F350.00
G01 X24.8949 Y27.4629 F350.00
G00 Z0.4000
G00 X24.5918 Y27.7029
G01 F250.00
G01 Z-0.0500
G01 F350.00
G01 X26.7439 Y27.7029 F350.00
G01 X26.5039 Y27.9429 F350.00
G01 X23.3678 Y27.9429 F350.00
G01 X23.1312 Y27.7029 F350.00
G01 X23.7699 Y27.7029 F350.00
G00 Z0.4000
G00 X23.4667 Y27.4629
G01 F250.00
G01 Z-0.0500
G01 F350.00
G01 X23.1312 Y27.4629 F350.00
G01 X23.1312 Y27.2229 F350.00
G01 X23.3238 Y27.2229 F350.00
G00 Z0.4000
G00 X23.2626 Y26.9829
G01 F250.00
G01 Z-0.0500
G01 F350.00
G01 X23.1312 Y26.9829 F350.00
G01 X23.1312 Y26.7429 F350.00
G01 X23.2558 Y26.7429 F350.00
G00 Z0.4000
G00 X23.2567 Y26.5029
G01 F250.00
G01 Z-0.0500
G01 F350.00
G01 X23.1103 Y26.5029 F350.00
G00 Z0.4000
G00 X23.0678 Y26.2629
G01 F250.00
G01 Z-0.0500
G01 F350.00
G01 X23.2938 Y26.2629 F350.00
G00 Z0.4000
G00 X23.1279 Y26.0229
G01 F250.00
G01 Z-0.0500
G01 F350.00
G01 X22.9573 Y26.0229 F350.00
G01 X22.8880 Y25.7829 F350.00
G01 X22.7316 Y25.7829 F350.00
G01 X22.6480 Y25.5429 F350.00
G01 X18.9312 Y25.5429 F350.00
G01 X18.9312 Y25.7829 F350.00
G01 X21.6301 Y25.7829 F350.00
G00 Z0.4000
G00 X21.4044 Y26.0229
G01 F250.00
G01 Z-0.0500
G01 F350.00
G01 X18.9312 Y26.0229 F350.00
G01 X18.9312 Y26.2629 F350.00
G01 X21.2739 Y26.2629 F350.00
G01 X21.0339 Y26.5029 F350.00
G01 X18.9312 Y26.5029 F350.00
G00 Z0.4000
G00 X18.9293 Y26.7429
G01 F250.00
G01 Z-0.0500
G01 F350.00
G01 X20.7939 Y26.7429 F350.00
G01 X20.5539 Y26.9829 F350.00
G01 X18.8991 Y26.9829 F350.00
G00 Z0.4000
G00 X18.8378 Y27.2229
G01 F250.00
G01 Z-0.0500
G01 F350.00
G01 X20.3139 Y27.2229 F350.00
G01 X20.0739 Y27.4629 F350.00
G01 X18.6949 Y27.4629 F350.00
G00 Z0.4000
G00 X18.3918 Y27.7029
G01 F250.00
G01 Z-0.0500
G01 F350.00
G01 X19.8339 Y27.7029 F350.00
G00 Z0.4000
G00 X21.0819 Y29.1429
G01 F250.00
G01 Z-0.0500
G01 F350.00
G01 X21.8797 Y29.1429 F350.00
G01 X21.6397 Y28.9029 F350.00
G01 X21.3219 Y28.9029 F350.00
G01 X20.8419 Y29.3829 F350.00
G01 X22.1197 Y29.3829 F350.00
G01 X22.3597 Y29.6229 F350.00
G01 X20.5547 Y29.6229 F350.00
G01 X22.6156 Y29.8629 F350.00
G01 X13.2356 Y29.8629 F350.00
G01 X12.8440 Y29.6229 F350.00
G01 X15.9069 Y29.6229 F350.00
G00 Z0.4000
G00 X15.6197 Y29.3829
G01 F250.00
G01 Z-0.0500
G01 F350.00
G01 X12.4524 Y29.3829 F350.00
G01 X12.0608 Y29.1429 F350.00
G01 X15.3797 Y29.1429 F350.00
G00 Z0.4000
G00 X15.1753 Y28.9029
G01 F250.00
G01 Z-0.0500
G01 F350.00
G01 X11.6692 Y28.9029 F350.00
G01 X11.2777 Y28.6629 F350.00
G01 X15.0679 Y28.6629 F350.00
G00 Z0.4000
G00 X15.0313 Y28.4229
G01 F250.00
G01 Z-0.0500
G01 F350.00
G01 X10.8861 Y28.4229 F350.00
G01 X10.4945 Y28.1829 F350.00
G01 X15.0304 Y28.1829 F350.00
G01 X15.0304 Y27.9429 F350.00
G01 X10.1029 Y27.9429 F350.00
G01 X9.7113 Y27.7029 F350.00
G01 X15.0304 Y27.7029 F350.00
G00 Z0.4000
G00 X13.5156 Y27.4629
G01 F250.00
G01 Z-0.0500
G01 F350.00
G01 X9.3197 Y27.4629 F350.00
G01 X8.9281 Y27.2229 F350.00
G01 X13.2597 Y27.2229 F350.00
G01 X13.0197 Y26.9829 F350.00
G01 X8.5366 Y26.9829 F350.00
G01 X8.1450 Y26.7429 F350.00
G01 X12.7821 Y26.7429 F350.00
G00 Z0.4000
G00 X12.6211 Y26.5029
G01 F250.00
G01 Z-0.0500
G01 F350.00
G01 X7.7534 Y26.5029 F350.00
G01 X7.3618 Y26.2629 F350.00
G01 X12.5451 Y26.2629 F350.00
G00 Z0.4000
G00 X12.5304 Y26.0229
G01 F250.00
G01 Z-0.0500
G01 F350.00
G01 X6.9802 Y26.0229 F350.00
G01 X6.6881 Y25.7829 F350.00
G01 X12.5304 Y25.7829 F350.00
G01 X12.5304 Y25.5429 F350.00
G01 X6.4635 Y25.5429 F350.00
G01 X6.2896 Y25.3029 F350.00
G01 X12.5304 Y25.3029 F350.00
G01 X12.5304 Y25.0629 F350.00
G01 X6.1254 Y25.0629 F350.00
G01 X5.9917 Y24.8229 F350.00
G01 X8.0959 Y24.8229 F350.00
G00 Z0.4000
G00 X7.7515 Y24.5829
G01 F250.00
G01 Z-0.0500
G01 F350.00
G01 X5.8890 Y24.5829 F350.00
G01 X5.8136 Y24.3429 F350.00
G01 X7.5821 Y24.3429 F350.00
G01 X7.5885 Y24.3500 F350.00
G01 X7.5526 Y24.3103 F350.00
G01 X7.5431 Y24.2991 F350.00
G01 X7.4963 Y24.2360 F350.00
G01 X7.4879 Y24.2239 F350.00
G01 X7.4427 Y24.1480 F350.00
G01 X7.4028 Y24.0637 F350.00
G01 X7.3714 Y23.9759 F350.00
G01 X7.3487 Y23.8854 F350.00
G01 X7.3350 Y23.7932 F350.00
G01 X7.3305 Y23.7049 F350.00
G01 X7.3304 Y14.0923 F350.00
G01 X7.3350 Y13.9991 F350.00
G01 X7.3487 Y13.9069 F350.00
G01 X7.3714 Y13.8164 F350.00
G01 X7.4028 Y13.7286 F350.00
G01 X7.4427 Y13.6443 F350.00
G01 X7.4906 Y13.5643 F350.00
G01 X7.5462 Y13.4894 F350.00
G01 X7.6054 Y13.4238 F350.00
G01 X8.8381 Y12.1910 F350.00
G01 X8.8998 Y12.1348 F350.00
G01 X8.9149 Y12.1223 F350.00
G01 X8.9821 Y12.0728 F350.00
G01 X9.0621 Y12.0248 F350.00
G01 X9.1464 Y11.9850 F350.00
G01 X9.2295 Y11.9550 F350.00
G01 X9.2437 Y11.9509 F350.00
G01 X9.3151 Y11.9330 F350.00
G01 X9.3344 Y11.9292 F350.00
G01 X9.4170 Y11.9172 F350.00
G01 X9.5052 Y11.9127 F350.00
G01 X12.1242 Y11.9126 F350.00
G01 X13.3448 Y10.6920 F350.00
G01 X13.3482 Y10.6695 F350.00
G01 X13.3501 Y10.6599 F350.00
G01 X13.3691 Y10.5837 F350.00
G01 X13.3732 Y10.5696 F350.00
G01 X13.4031 Y10.4865 F350.00
G01 X13.4430 Y10.4022 F350.00
G01 X13.4857 Y10.3305 F350.00
G01 X13.4966 Y10.3142 F350.00
G01 X13.5465 Y10.2473 F350.00
G01 X13.6089 Y10.1785 F350.00
G01 X13.6138 Y10.1625 F350.00
G01 X13.6339 Y10.1072 F350.00
G01 X13.6588 Y10.0538 F350.00
G01 X13.6681 Y10.0365 F350.00
G01 X13.6986 Y9.9861 F350.00
G01 X13.7335 Y9.9386 F350.00
G01 X13.7427 Y9.9271 F350.00
G01 X13.7789 Y9.8871 F350.00
G01 X15.0679 Y8.5981 F350.00
G01 X15.1080 Y8.5619 F350.00
G01 X15.1195 Y8.5527 F350.00
G01 X15.1669 Y8.5178 F350.00
G01 X15.2173 Y8.4873 F350.00
G01 X15.2346 Y8.4780 F350.00
G01 X15.2880 Y8.4531 F350.00
G01 X15.3527 Y8.4299 F350.00
G01 X15.4193 Y8.4132 F350.00
G01 X15.4776 Y8.4043 F350.00
G01 X15.4971 Y8.4024 F350.00
G01 X15.5559 Y8.3997 F350.00
G01 X21.0813 Y8.3998 F350.00
G01 X21.2213 Y8.3334 F350.00
G01 X21.2394 Y8.3259 F350.00
G01 X21.3873 Y8.2732 F350.00
G01 X21.5396 Y8.2348 F350.00
G01 X21.5588 Y8.2310 F350.00
G01 X21.7142 Y8.2082 F350.00
G01 X21.8710 Y8.2002 F350.00
G01 X21.8857 Y8.2001 F350.00
G01 X22.0475 Y8.2082 F350.00
G01 X22.2125 Y8.2327 F350.00
G01 X22.3743 Y8.2732 F350.00
G01 X22.5314 Y8.3294 F350.00
G01 X22.6822 Y8.4007 F350.00
G01 X22.8253 Y8.4865 F350.00
G01 X22.9593 Y8.5859 F350.00
G01 X23.0829 Y8.6979 F350.00
G01 X23.1949 Y8.8215 F350.00
G01 X23.2887 Y8.9475 F350.00
G01 X23.2996 Y8.9638 F350.00
G01 X23.3801 Y9.0986 F350.00
G01 X23.4474 Y9.2405 F350.00
G01 X23.4550 Y9.2586 F350.00
G01 X23.5076 Y9.4065 F350.00
G01 X23.5460 Y9.5588 F350.00
G01 X23.5498 Y9.5780 F350.00
G01 X23.5726 Y9.7334 F350.00
G01 X23.5806 Y9.8902 F350.00
G01 X23.5806 Y9.9098 F350.00
G01 X23.5726 Y10.0666 F350.00
G01 X23.5498 Y10.2220 F350.00
G01 X23.5460 Y10.2412 F350.00
G01 X23.5076 Y10.3935 F350.00
G01 X23.4550 Y10.5414 F350.00
G01 X23.4474 Y10.5595 F350.00
G01 X23.3801 Y10.7014 F350.00
G01 X23.2996 Y10.8362 F350.00
G01 X23.2887 Y10.8525 F350.00
G01 X23.1949 Y10.9785 F350.00
G01 X23.0897 Y11.0950 F350.00
G01 X23.0758 Y11.1089 F350.00
G01 X22.9593 Y11.2141 F350.00
G01 X22.8333 Y11.3078 F350.00
G01 X22.8170 Y11.3188 F350.00
G01 X22.6822 Y11.3993 F350.00
G01 X22.5404 Y11.4666 F350.00
G01 X22.5222 Y11.4741 F350.00
G01 X22.3743 Y11.5268 F350.00
G01 X22.2173 Y11.5663 F350.00
G01 X22.2028 Y11.5690 F350.00
G01 X22.0475 Y11.5918 F350.00
G01 X21.8808 Y11.6000 F350.00
G01 X21.7142 Y11.5918 F350.00
G01 X21.5588 Y11.5690 F350.00
G01 X21.5396 Y11.5652 F350.00
G01 X21.3873 Y11.5268 F350.00
G01 X21.2394 Y11.4741 F350.00
G01 X21.2213 Y11.4666 F350.00
G01 X21.0882 Y11.4037 F350.00
G01 X21.0709 Y11.3944 F350.00
G01 X20.9364 Y11.3135 F350.00
G01 X20.8101 Y11.2202 F350.00
G01 X20.7986 Y11.2110 F350.00
G01 X20.6787 Y11.1021 F350.00
G01 X20.5731 Y10.9859 F350.00
G01 X20.5607 Y10.9707 F350.00
G01 X20.4673 Y10.8445 F350.00
G01 X20.3864 Y10.7099 F350.00
G01 X20.3771 Y10.6926 F350.00
G01 X20.3122 Y10.5551 F350.00
G01 X20.3067 Y10.5414 F350.00
G01 X20.2540 Y10.3935 F350.00
G01 X20.2156 Y10.2412 F350.00
G01 X20.2126 Y10.2268 F350.00
G01 X20.1902 Y10.0764 F350.00
G01 X20.1886 Y10.0617 F350.00
G01 X20.1808 Y9.9000 F350.00
G01 X20.1855 Y9.8003 F350.00
G01 X15.8460 Y9.8003 F350.00
G01 X15.1589 Y10.4874 F350.00
G01 X15.1899 Y10.5742 F350.00
G01 X15.2126 Y10.6647 F350.00
G01 X15.2262 Y10.7569 F350.00
G01 X15.2308 Y10.8451 F350.00
G01 X15.2308 Y11.0875 F350.00
G01 X15.2312 Y11.1000 F350.00
G01 X15.2312 Y12.6063 F350.00
G01 X17.3596 Y14.7351 F350.00
G01 X17.4155 Y14.7971 F350.00
G01 X17.4654 Y14.8640 F350.00
G01 X17.4763 Y14.8803 F350.00
G01 X17.5190 Y14.9520 F350.00
G01 X17.5549 Y15.0273 F350.00
G01 X17.5624 Y15.0455 F350.00
G01 X17.5903 Y15.1241 F350.00
G01 X17.6129 Y15.2146 F350.00
G01 X17.6266 Y15.3068 F350.00
G01 X17.6312 Y15.4000 F350.00
G01 X17.6312 Y18.0690 F350.00
G01 X17.6729 Y18.1253 F350.00
G01 X17.6813 Y18.1374 F350.00
G01 X17.7343 Y18.2258 F350.00
G01 X17.7414 Y18.2387 F350.00
G01 X17.7895 Y18.3408 F350.00
G01 X17.8261 Y18.4423 F350.00
G01 X17.8305 Y18.4564 F350.00
G01 X17.8578 Y18.5659 F350.00
G01 X17.8750 Y18.6824 F350.00
G01 X17.8808 Y18.8000 F350.00
G01 X17.8750 Y18.9176 F350.00
G01 X17.8594 Y19.0244 F350.00
G01 X17.8556 Y19.0437 F350.00
G01 X17.8292 Y19.1483 F350.00
G01 X17.7895 Y19.2592 F350.00
G01 X17.7435 Y19.3569 F350.00
G01 X17.7343 Y19.3742 F350.00
G01 X17.6786 Y19.4667 F350.00
G01 X17.6145 Y19.5535 F350.00
G01 X17.6020 Y19.5687 F350.00
G01 X17.5294 Y19.6485 F350.00
G01 X17.4495 Y19.7212 F350.00
G01 X17.4344 Y19.7337 F350.00
G01 X17.3475 Y19.7978 F350.00
G01 X17.2550 Y19.8535 F350.00
G01 X17.2377 Y19.8627 F350.00
G01 X17.1400 Y19.9087 F350.00
G01 X17.0292 Y19.9483 F350.00
G01 X16.9149 Y19.9769 F350.00
G01 X16.7984 Y19.9942 F350.00
G01 X16.6906 Y19.9998 F350.00
G01 X16.6710 Y19.9998 F350.00
G01 X16.5632 Y19.9942 F350.00
G01 X16.4564 Y19.9786 F350.00
G01 X16.4371 Y19.9748 F350.00
G01 X16.3419 Y19.9509 F350.00
G01 X16.3232 Y19.9452 F350.00
G01 X16.2216 Y19.9087 F350.00
G01 X16.1151 Y19.8583 F350.00
G01 X16.0141 Y19.7978 F350.00
G01 X15.9196 Y19.7276 F350.00
G01 X15.8323 Y19.6485 F350.00
G01 X15.7532 Y19.5613 F350.00
G01 X15.6831 Y19.4667 F350.00
G01 X15.6249 Y19.3700 F350.00
G01 X15.6181 Y19.3569 F350.00
G01 X15.5761 Y19.2682 F350.00
G01 X15.5686 Y19.2501 F350.00
G01 X15.5325 Y19.1483 F350.00
G01 X15.5060 Y19.0437 F350.00
G01 X15.5022 Y19.0244 F350.00
G01 X15.4866 Y18.9176 F350.00
G01 X15.4811 Y18.8098 F350.00
G01 X15.4809 Y18.7951 F350.00
G01 X15.4866 Y18.6824 F350.00
G01 X15.5022 Y18.5756 F350.00
G01 X15.5060 Y18.5563 F350.00
G01 X15.5299 Y18.4611 F350.00
G01 X15.5340 Y18.4470 F350.00
G01 X15.5722 Y18.3408 F350.00
G01 X15.6225 Y18.2343 F350.00
G01 X15.6831 Y18.1333 F350.00
G01 X15.7304 Y18.0690 F350.00
G01 X15.7304 Y15.7937 F350.00
G01 X13.6054 Y13.6685 F350.00
G01 X13.5462 Y13.6029 F350.00
G01 X13.4963 Y13.5360 F350.00
G01 X13.4879 Y13.5239 F350.00
G01 X13.4475 Y13.4565 F350.00
G01 X13.4404 Y13.4436 F350.00
G01 X13.4047 Y13.3682 F350.00
G01 X13.4010 Y13.3591 F350.00
G01 X13.3916 Y13.3332 F350.00
G01 X13.1827 Y13.5418 F350.00
G01 X13.1207 Y13.5976 F350.00
G01 X13.0538 Y13.6476 F350.00
G01 X13.0375 Y13.6585 F350.00
G01 X12.9744 Y13.6963 F350.00
G01 X12.9615 Y13.7034 F350.00
G01 X12.8860 Y13.7391 F350.00
G01 X12.8770 Y13.7429 F350.00
G01 X12.8526 Y13.7516 F350.00
G01 X12.7937 Y13.7725 F350.00
G01 X12.7128 Y13.7930 F350.00
G01 X12.6936 Y13.7968 F350.00
G01 X12.6207 Y13.8076 F350.00
G01 X12.6012 Y13.8095 F350.00
G01 X12.5178 Y13.8134 F350.00
G01 X9.9038 Y13.8134 F350.00
G01 X9.2312 Y14.4859 F350.00
G01 X9.2312 Y18.9496 F350.00
G01 X12.3792 Y18.9496 F350.00
G01 X12.4674 Y18.9538 F350.00
G01 X12.4821 Y18.9554 F350.00
G01 X12.5646 Y18.9679 F350.00
G01 X12.6456 Y18.9879 F350.00
G01 X12.6644 Y18.9936 F350.00
G01 X12.7337 Y19.0184 F350.00
G01 X12.7518 Y19.0259 F350.00
G01 X12.8272 Y19.0618 F350.00
G01 X12.9072 Y19.1098 F350.00
G01 X12.9821 Y19.1654 F350.00
G01 X13.0441 Y19.2212 F350.00
G01 X14.9901 Y21.1669 F350.00
G01 X15.0020 Y21.1780 F350.00
G01 X16.2028 Y22.3788 F350.00
G01 X16.2139 Y22.3907 F350.00
G01 X18.6528 Y24.8296 F350.00
G01 X18.7155 Y24.8987 F350.00
G01 X18.7710 Y24.9737 F350.00
G01 X18.8141 Y25.0451 F350.00
G01 X18.8234 Y25.0624 F350.00
G01 X18.8589 Y25.1380 F350.00
G01 X18.8872 Y25.2165 F350.00
G01 X18.8929 Y25.2352 F350.00
G01 X18.9129 Y25.3162 F350.00
G01 X18.9266 Y25.4085 F350.00
G01 X18.9312 Y25.5017 F350.00
G01 X18.9312 Y26.7000 F350.00
G01 X18.9273 Y26.7834 F350.00
G01 X18.9254 Y26.8029 F350.00
G01 X18.9138 Y26.8806 F350.00
G01 X18.9119 Y26.8902 F350.00
G01 X18.9037 Y26.9233 F350.00
G01 X18.9021 Y26.9559 F350.00
G01 X18.9008 Y26.9705 F350.00
G01 X18.8880 Y27.0555 F350.00
G01 X18.8660 Y27.1435 F350.00
G01 X18.8372 Y27.2244 F350.00
G01 X18.8314 Y27.2380 F350.00
G01 X18.7966 Y27.3110 F350.00
G01 X18.7499 Y27.3889 F350.00
G01 X18.6959 Y27.4618 F350.00
G01 X18.6349 Y27.5291 F350.00
G01 X18.5676 Y27.5900 F350.00
G01 X18.4947 Y27.6441 F350.00
G01 X18.4169 Y27.6908 F350.00
G01 X18.3348 Y27.7296 F350.00
G01 X18.2493 Y27.7602 F350.00
G01 X18.1613 Y27.7822 F350.00
G01 X18.0715 Y27.7955 F350.00
G01 X17.9808 Y27.8000 F350.00
G01 X17.8902 Y27.7955 F350.00
G01 X17.8004 Y27.7822 F350.00
G01 X17.7123 Y27.7602 F350.00
G01 X17.6268 Y27.7296 F350.00
G01 X17.5448 Y27.6908 F350.00
G01 X17.4669 Y27.6441 F350.00
G01 X17.3940 Y27.5900 F350.00
G01 X17.3267 Y27.5291 F350.00
G01 X17.2722 Y27.4692 F350.00
G01 X17.2597 Y27.4541 F350.00
G01 X17.2117 Y27.3889 F350.00
G01 X17.1650 Y27.3110 F350.00
G01 X17.1262 Y27.2290 F350.00
G01 X17.0987 Y27.1528 F350.00
G01 X17.0930 Y27.1341 F350.00
G01 X17.0757 Y27.0650 F350.00
G01 X17.0727 Y27.0506 F350.00
G01 X17.0608 Y26.9705 F350.00
G01 X17.0596 Y26.9559 F350.00
G01 X17.0580 Y26.9233 F350.00
G01 X17.0497 Y26.8902 F350.00
G01 X17.0478 Y26.8806 F350.00
G01 X17.0356 Y26.7980 F350.00
G01 X17.0343 Y26.7834 F350.00
G01 X17.0305 Y26.7049 F350.00
G01 X17.0304 Y25.8953 F350.00
G01 X14.8588 Y23.7237 F350.00
G01 X14.8477 Y23.7118 F350.00
G01 X13.6691 Y22.5331 F350.00
G01 X13.6572 Y22.5220 F350.00
G01 X11.9855 Y20.8504 F350.00
G01 X9.2312 Y20.8504 F350.00
G01 X9.2312 Y23.2403 F350.00
G01 X9.2507 Y23.2619 F350.00
G01 X9.2569 Y23.2694 F350.00
G01 X9.3095 Y23.3404 F350.00
G01 X9.3175 Y23.3527 F350.00
G01 X9.3579 Y23.4201 F350.00
G01 X9.3650 Y23.4330 F350.00
G01 X9.4047 Y23.5173 F350.00
G01 X9.4347 Y23.6004 F350.00
G01 X9.4404 Y23.6192 F350.00
G01 X9.4595 Y23.6953 F350.00
G01 X9.4625 Y23.7097 F350.00
G01 X9.4760 Y23.8020 F350.00
G01 X9.4806 Y23.8902 F350.00
G01 X9.4806 Y23.9098 F350.00
G01 X9.4760 Y23.9980 F350.00
G01 X9.4616 Y24.0951 F350.00
G01 X9.4404 Y24.1808 F350.00
G01 X9.4347 Y24.1996 F350.00
G01 X9.4082 Y24.2735 F350.00
G01 X9.4007 Y24.2917 F350.00
G01 X9.3627 Y24.3714 F350.00
G01 X9.3175 Y24.4473 F350.00
G01 X9.3066 Y24.4636 F350.00
G01 X9.2538 Y24.5344 F350.00
G01 X9.1879 Y24.6071 F350.00
G01 X9.1226 Y24.6666 F350.00
G01 X9.1075 Y24.6790 F350.00
G01 X9.0364 Y24.7315 F350.00
G01 X8.9522 Y24.7819 F350.00
G01 X8.8725 Y24.8199 F350.00
G01 X8.8543 Y24.8274 F350.00
G01 X8.7711 Y24.8569 F350.00
G01 X8.6855 Y24.8786 F350.00
G01 X8.6662 Y24.8825 F350.00
G01 X8.5788 Y24.8952 F350.00
G01 X8.4857 Y24.8999 F350.00
G01 X8.4710 Y24.8998 F350.00
G01 X8.3926 Y24.8959 F350.00
G01 X8.3731 Y24.8940 F350.00
G01 X8.2857 Y24.8808 F350.00
G01 X8.1905 Y24.8569 F350.00
G01 X8.1073 Y24.8274 F350.00
G01 X8.0892 Y24.8199 F350.00
G01 X8.0094 Y24.7819 F350.00
G01 X7.9335 Y24.7367 F350.00
G01 X7.9172 Y24.7258 F350.00
G01 X7.8542 Y24.6790 F350.00
G01 X7.8390 Y24.6666 F350.00
G01 X7.7737 Y24.6071 F350.00
G01 X7.7142 Y24.5418 F350.00
G01 X7.7018 Y24.5267 F350.00
G01 X7.6494 Y24.4556 F350.00
G01 X7.6013 Y24.3757 F350.00
G01 X7.5966 Y24.3670 F350.00
G01 X7.5885 Y24.3500 F350.00
G00 Z0.4000
G00 X7.4211 Y24.1029
G01 F250.00
G01 Z-0.0500
G01 F350.00
G01 X5.7632 Y24.1029 F350.00
G01 X5.7363 Y23.8629 F350.00
G01 X7.3451 Y23.8629 F350.00
G00 Z0.4000
G00 X7.3304 Y23.6229
G01 F250.00
G01 Z-0.0500
G01 F350.00
G01 X5.7304 Y23.6229 F350.00
G01 X5.7304 Y23.3829 F350.00
G01 X7.3304 Y23.3829 F350.00
G01 X7.3304 Y23.1429 F350.00
G01 X5.7304 Y23.1429 F350.00
G01 X5.7304 Y22.9029 F350.00
G01 X7.3304 Y22.9029 F350.00
G01 X7.3304 Y22.6629 F350.00
G01 X5.7304 Y22.6629 F350.00
G01 X5.7304 Y22.4229 F350.00
G01 X7.3304 Y22.4229 F350.00
G01 X7.3304 Y22.1829 F350.00
G01 X5.7304 Y22.1829 F350.00
G01 X5.7304 Y21.9429 F350.00
G01 X7.3304 Y21.9429 F350.00
G01 X7.3304 Y21.7029 F350.00
G01 X5.7304 Y21.7029 F350.00
G01 X5.7304 Y21.4629 F350.00
G01 X7.3304 Y21.4629 F350.00
G01 X7.3304 Y21.2229 F350.00
G01 X5.7304 Y21.2229 F350.00
G01 X5.7304 Y20.9829 F350.00
G01 X7.3304 Y20.9829 F350.00
G01 X7.3304 Y20.7429 F350.00
G01 X5.7304 Y20.7429 F350.00
G01 X5.7304 Y20.5029 F350.00
G01 X7.3304 Y20.5029 F350.00
G01 X7.3304 Y20.2629 F350.00
G01 X5.7304 Y20.2629 F350.00
G01 X5.7304 Y20.0229 F350.00
G01 X7.3304 Y20.0229 F350.00
G01 X7.3304 Y19.7829 F350.00
G01 X5.7304 Y19.7829 F350.00
G01 X5.7304 Y19.5429 F350.00
G01 X7.3304 Y19.5429 F350.00
G01 X7.3304 Y19.3029 F350.00
G01 X5.7304 Y19.3029 F350.00
G01 X5.7304 Y19.0629 F350.00
G01 X7.3304 Y19.0629 F350.00
G01 X7.3304 Y18.8229 F350.00
G01 X5.7304 Y18.8229 F350.00
G01 X5.7304 Y18.5829 F350.00
G01 X7.3304 Y18.5829 F350.00
G01 X7.3304 Y18.3429 F350.00
G01 X5.7304 Y18.3429 F350.00
G01 X5.7304 Y18.1029 F350.00
G01 X7.3304 Y18.1029 F350.00
G01 X7.3304 Y17.8629 F350.00
G01 X5.7304 Y17.8629 F350.00
G01 X5.7304 Y17.6229 F350.00
G01 X7.3304 Y17.6229 F350.00
G01 X7.3304 Y17.3829 F350.00
G01 X5.7304 Y17.3829 F350.00
G01 X5.7304 Y17.1429 F350.00
G01 X7.3304 Y17.1429 F350.00
G01 X7.3304 Y16.9029 F350.00
G01 X5.7304 Y16.9029 F350.00
G01 X5.7304 Y16.6629 F350.00
G01 X7.3304 Y16.6629 F350.00
G01 X7.3304 Y16.4229 F350.00
G01 X5.7304 Y16.4229 F350.00
G01 X5.7304 Y16.1829 F350.00
G01 X7.3304 Y16.1829 F350.00
G01 X7.3304 Y15.9429 F350.00
G01 X5.7304 Y15.9429 F350.00
G01 X5.7304 Y15.7029 F350.00
G01 X7.3304 Y15.7029 F350.00
G01 X7.3304 Y15.4629 F350.00
G01 X5.7304 Y15.4629 F350.00
G01 X5.7304 Y15.2229 F350.00
G01 X7.3304 Y15.2229 F350.00
G01 X7.3304 Y14.9829 F350.00
G01 X5.7304 Y14.9829 F350.00
G01 X5.7304 Y14.7429 F350.00
G01 X7.3304 Y14.7429 F350.00
G01 X7.3304 Y14.5029 F350.00
G01 X5.7304 Y14.5029 F350.00
G01 X5.7304 Y14.2629 F350.00
G01 X7.3304 Y14.2629 F350.00
G00 Z0.4000
G00 X7.3336 Y14.0229
G01 F250.00
G01 Z-0.0500
G01 F350.00
G01 X5.7317 Y14.0229 F350.00
G01 X5.7493 Y13.7829 F350.00
G01 X7.3831 Y13.7829 F350.00
G00 Z0.4000
G00 X7.5062 Y13.5429
G01 F250.00
G01 Z-0.0500
G01 F350.00
G01 X5.7902 Y13.5429 F350.00
G01 X5.8555 Y13.3029 F350.00
G01 X7.7262 Y13.3029 F350.00
G01 X7.9662 Y13.0629 F350.00
G01 X5.9474 Y13.0629 F350.00
G01 X6.0693 Y12.8229 F350.00
G01 X8.2062 Y12.8229 F350.00
G01 X8.4462 Y12.5829 F350.00
G01 X6.2261 Y12.5829 F350.00
G01 X6.4256 Y12.3429 F350.00
G01 X8.6862 Y12.3429 F350.00
G00 Z0.4000
G00 X8.9411 Y12.1029
G01 F250.00
G01 Z-0.0500
G01 F350.00
G01 X6.6634 Y12.1029 F350.00
G01 X6.9034 Y11.8629 F350.00
G01 X12.1739 Y11.8629 F350.00
G01 X12.4139 Y11.6229 F350.00
G01 X7.1434 Y11.6229 F350.00
G01 X7.3834 Y11.3829 F350.00
G01 X12.6539 Y11.3829 F350.00
G01 X12.8939 Y11.1429 F350.00
G01 X7.6234 Y11.1429 F350.00
G00 Z0.4000
G00 X9.6942 Y14.0229
G01 F250.00
G01 Z-0.0500
G01 F350.00
G01 X10.0318 Y14.0229 F350.00
G00 Z0.4000
G00 X9.5951 Y14.2629
G01 F250.00
G01 Z-0.0500
G01 F350.00
G01 X9.4542 Y14.2629 F350.00
G01 X9.4240 Y14.5029 F350.00
G01 X9.2312 Y14.5029 F350.00
G01 X9.2312 Y14.7429 F350.00
G01 X9.3451 Y14.7429 F350.00
G00 Z0.4000
G00 X9.3347 Y14.9829
G01 F250.00
G01 Z-0.0500
G01 F350.00
G01 X9.2312 Y14.9829 F350.00
G01 X9.2312 Y15.2229 F350.00
G01 X9.3914 Y15.2229 F350.00
G00 Z0.4000
G00 X9.5288 Y15.4629
G01 F250.00
G01 Z-0.0500
G01 F350.00
G01 X9.2312 Y15.4629 F350.00
G01 X9.2312 Y15.7029 F350.00
G01 X9.8254 Y15.7029 F350.00
G01 X9.2312 Y15.9429 F350.00
G01 X15.7304 Y15.9429 F350.00
G01 X15.7304 Y16.1829 F350.00
G01 X9.2312 Y16.1829 F350.00
G01 X9.2312 Y16.4229 F350.00
G01 X15.7304 Y16.4229 F350.00
G01 X15.7304 Y16.6629 F350.00
G01 X11.8464 Y16.6629 F350.00
G00 Z0.4000
G00 X11.8960 Y16.6997
G01 F250.00
G01 Z-0.0500
G01 F350.00
G01 X12.3597 Y16.6998 F350.00
G01 X12.4235 Y16.7031 F350.00
G01 X12.4914 Y16.7132 F350.00
G01 X12.5581 Y16.7299 F350.00
G01 X12.6137 Y16.7495 F350.00
G01 X12.6318 Y16.7570 F350.00
G01 X12.6849 Y16.7824 F350.00
G01 X12.7356 Y16.8125 F350.00
G01 X12.7519 Y16.8234 F350.00
G01 X12.7991 Y16.8587 F350.00
G01 X12.8429 Y16.8981 F350.00
G01 X20.0449 Y24.0997 F350.00
G01 X22.9052 Y24.1000 F350.00
G01 X22.9640 Y24.1031 F350.00
G01 X23.0320 Y24.1132 F350.00
G01 X23.0986 Y24.1299 F350.00
G01 X23.1542 Y24.1495 F350.00
G01 X23.1678 Y24.1550 F350.00
G01 X23.2167 Y24.1780 F350.00
G01 X23.2340 Y24.1873 F350.00
G01 X23.2844 Y24.2178 F350.00
G01 X23.3396 Y24.2587 F350.00
G01 X23.3905 Y24.3048 F350.00
G01 X24.6760 Y25.5903 F350.00
G01 X24.7157 Y25.6338 F350.00
G01 X24.7282 Y25.6490 F350.00
G01 X24.7631 Y25.6964 F350.00
G01 X24.7984 Y25.7554 F350.00
G01 X24.8278 Y25.8175 F350.00
G01 X24.8478 Y25.8729 F350.00
G01 X24.8533 Y25.8909 F350.00
G01 X24.8959 Y25.9382 F350.00
G01 X24.9472 Y26.0070 F350.00
G01 X24.9552 Y26.0194 F350.00
G01 X24.9918 Y26.0804 F350.00
G01 X25.0010 Y26.0977 F350.00
G01 X25.0354 Y26.1710 F350.00
G01 X25.0660 Y26.2565 F350.00
G01 X25.0880 Y26.3445 F350.00
G01 X25.1008 Y26.4295 F350.00
G01 X25.1021 Y26.4441 F350.00
G01 X25.1058 Y26.5250 F350.00
G01 X25.1058 Y26.8750 F350.00
G01 X25.1018 Y26.9608 F350.00
G01 X25.1002 Y26.9754 F350.00
G01 X25.0897 Y27.0458 F350.00
G01 X25.0859 Y27.0650 F350.00
G01 X25.0660 Y27.1435 F350.00
G01 X25.0354 Y27.2290 F350.00
G01 X25.0010 Y27.3023 F350.00
G01 X24.9918 Y27.3196 F350.00
G01 X24.9499 Y27.3889 F350.00
G01 X24.8959 Y27.4618 F350.00
G01 X24.8349 Y27.5291 F350.00
G01 X24.7676 Y27.5900 F350.00
G01 X24.6947 Y27.6441 F350.00
G01 X24.6169 Y27.6908 F350.00
G01 X24.5348 Y27.7296 F350.00
G01 X24.4493 Y27.7602 F350.00
G01 X24.3613 Y27.7822 F350.00
G01 X24.2715 Y27.7955 F350.00
G01 X24.1808 Y27.8000 F350.00
G01 X24.0902 Y27.7955 F350.00
G01 X24.0004 Y27.7822 F350.00
G01 X23.9123 Y27.7602 F350.00
G01 X23.8268 Y27.7296 F350.00
G01 X23.7448 Y27.6908 F350.00
G01 X23.6669 Y27.6441 F350.00
G01 X23.6017 Y27.5961 F350.00
G01 X23.5903 Y27.5869 F350.00
G01 X23.5267 Y27.5291 F350.00
G01 X23.4658 Y27.4618 F350.00
G01 X23.4117 Y27.3889 F350.00
G01 X23.3699 Y27.3196 F350.00
G01 X23.3606 Y27.3023 F350.00
G01 X23.3302 Y27.2380 F350.00
G01 X23.3227 Y27.2198 F350.00
G01 X23.2957 Y27.1435 F350.00
G01 X23.2736 Y27.0555 F350.00
G01 X23.2603 Y26.9657 F350.00
G01 X23.2559 Y26.8799 F350.00
G01 X23.2561 Y26.5152 F350.00
G01 X23.2603 Y26.4343 F350.00
G01 X23.2727 Y26.3494 F350.00
G01 X23.2757 Y26.3350 F350.00
G01 X23.2943 Y26.2612 F350.00
G01 X23.2987 Y26.2472 F350.00
G01 X23.3128 Y26.2078 F350.00
G01 X22.6053 Y25.5003 F350.00
G01 X19.7499 Y25.5002 F350.00
G01 X19.6862 Y25.4969 F350.00
G01 X19.6279 Y25.4885 F350.00
G01 X19.6086 Y25.4846 F350.00
G01 X19.5516 Y25.4701 F350.00
G01 X19.4960 Y25.4505 F350.00
G01 X19.4779 Y25.4430 F350.00
G01 X19.4247 Y25.4176 F350.00
G01 X19.3699 Y25.3849 F350.00
G01 X19.3578 Y25.3766 F350.00
G01 X19.3106 Y25.3413 F350.00
G01 X19.2597 Y25.2952 F350.00
G01 X12.0648 Y18.1003 F350.00
G01 X11.8960 Y18.1003 F350.00
G01 X11.8308 Y18.1483 F350.00
G01 X11.7636 Y18.1889 F350.00
G01 X11.7463 Y18.1981 F350.00
G01 X11.6752 Y18.2315 F350.00
G01 X11.5921 Y18.2612 F350.00
G01 X11.5160 Y18.2806 F350.00
G01 X11.4967 Y18.2844 F350.00
G01 X11.4190 Y18.2957 F350.00
G01 X11.3308 Y18.3000 F350.00
G01 X10.2308 Y18.3000 F350.00
G01 X10.1524 Y18.2964 F350.00
G01 X10.1377 Y18.2951 F350.00
G01 X10.0552 Y18.2827 F350.00
G01 X9.9790 Y18.2639 F350.00
G01 X9.9602 Y18.2582 F350.00
G01 X9.8864 Y18.2315 F350.00
G01 X9.8153 Y18.1981 F350.00
G01 X9.7980 Y18.1889 F350.00
G01 X9.7308 Y18.1483 F350.00
G01 X9.6676 Y18.1017 F350.00
G01 X9.6524 Y18.0893 F350.00
G01 X9.5944 Y18.0364 F350.00
G01 X9.5415 Y17.9784 F350.00
G01 X9.5291 Y17.9632 F350.00
G01 X9.4825 Y17.9000 F350.00
G01 X9.4419 Y17.8328 F350.00
G01 X9.4327 Y17.8155 F350.00
G01 X9.3993 Y17.7444 F350.00
G01 X9.3696 Y17.6613 F350.00
G01 X9.3481 Y17.5756 F350.00
G01 X9.3352 Y17.4882 F350.00
G01 X9.3308 Y17.4000 F350.00
G01 X9.3352 Y17.3118 F350.00
G01 X9.3481 Y17.2244 F350.00
G01 X9.3696 Y17.1387 F350.00
G01 X9.3993 Y17.0556 F350.00
G01 X9.4371 Y16.9757 F350.00
G01 X9.4825 Y16.9000 F350.00
G01 X9.5351 Y16.8290 F350.00
G01 X9.5944 Y16.7636 F350.00
G01 X9.6599 Y16.7043 F350.00
G01 X9.7308 Y16.6517 F350.00
G01 X9.8066 Y16.6063 F350.00
G01 X9.8864 Y16.5685 F350.00
G01 X9.9696 Y16.5388 F350.00
G01 X10.0552 Y16.5173 F350.00
G01 X10.1426 Y16.5043 F350.00
G01 X10.2210 Y16.5002 F350.00
G01 X11.3308 Y16.5000 F350.00
G01 X11.4141 Y16.5039 F350.00
G01 X11.4288 Y16.5055 F350.00
G01 X11.4967 Y16.5156 F350.00
G01 X11.5160 Y16.5194 F350.00
G01 X11.5921 Y16.5388 F350.00
G01 X11.6752 Y16.5685 F350.00
G01 X11.7463 Y16.6019 F350.00
G01 X11.7636 Y16.6111 F350.00
G01 X11.8308 Y16.6517 F350.00
G01 X11.8960 Y16.6997 F350.00
G00 Z0.4000
G00 X12.8480 Y16.9029
G01 F250.00
G01 Z-0.0500
G01 F350.00
G01 X15.7304 Y16.9029 F350.00
G01 X15.7304 Y17.1429 F350.00
G01 X13.0881 Y17.1429 F350.00
G01 X13.3281 Y17.3829 F350.00
G01 X15.7304 Y17.3829 F350.00
G01 X15.7304 Y17.6229 F350.00
G01 X13.5681 Y17.6229 F350.00
G01 X13.8081 Y17.8629 F350.00
G01 X15.7304 Y17.8629 F350.00
G01 X15.7053 Y18.1029 F350.00
G01 X14.0481 Y18.1029 F350.00
G01 X14.2881 Y18.3429 F350.00
G01 X15.5713 Y18.3429 F350.00
G00 Z0.4000
G00 X15.5011 Y18.5829
G01 F250.00
G01 Z-0.0500
G01 F350.00
G01 X14.5281 Y18.5829 F350.00
G01 X14.7681 Y18.8229 F350.00
G01 X15.4817 Y18.8229 F350.00
G00 Z0.4000
G00 X15.5108 Y19.0629
G01 F250.00
G01 Z-0.0500
G01 F350.00
G01 X15.0081 Y19.0629 F350.00
G01 X15.2481 Y19.3029 F350.00
G01 X15.5926 Y19.3029 F350.00
G01 X15.4881 Y19.5429 F350.00
G01 X15.7393 Y19.5429 F350.00
G01 X15.7281 Y19.7829 F350.00
G01 X15.9937 Y19.7829 F350.00
G01 X15.9681 Y20.0229 F350.00
G01 X19.5597 Y20.0229 F350.00
G01 X19.7997 Y20.2629 F350.00
G01 X16.2081 Y20.2629 F350.00
G00 Z0.4000
G00 X15.1874 Y21.2229
G01 F250.00
G01 Z-0.0500
G01 F350.00
G01 X15.0469 Y21.2229 F350.00
G01 X14.9474 Y20.9829 F350.00
G01 X14.8061 Y20.9829 F350.00
G01 X14.7074 Y20.7429 F350.00
G01 X14.5661 Y20.7429 F350.00
G01 X14.4674 Y20.5029 F350.00
G01 X14.3261 Y20.5029 F350.00
G01 X14.2274 Y20.2629 F350.00
G01 X14.0861 Y20.2629 F350.00
G01 X13.9874 Y20.0229 F350.00
G01 X13.8461 Y20.0229 F350.00
G01 X13.7474 Y19.7829 F350.00
G01 X13.6061 Y19.7829 F350.00
G01 X13.5074 Y19.5429 F350.00
G01 X13.3661 Y19.5429 F350.00
G01 X13.2674 Y19.3029 F350.00
G01 X13.1261 Y19.3029 F350.00
G01 X13.0274 Y19.0629 F350.00
G01 X12.8291 Y19.0629 F350.00
G01 X12.7874 Y18.8229 F350.00
G01 X9.2312 Y18.8229 F350.00
G01 X9.2312 Y18.5829 F350.00
G01 X12.5474 Y18.5829 F350.00
G01 X12.3074 Y18.3429 F350.00
G01 X9.2312 Y18.3429 F350.00
G01 X9.2312 Y18.1029 F350.00
G01 X9.6692 Y18.1029 F350.00
G00 Z0.4000
G00 X9.4600 Y17.8629
G01 F250.00
G01 Z-0.0500
G01 F350.00
G01 X9.2312 Y17.8629 F350.00
G01 X9.2312 Y17.6229 F350.00
G01 X9.3597 Y17.6229 F350.00
G00 Z0.4000
G00 X9.3314 Y17.3829
G01 F250.00
G01 Z-0.0500
G01 F350.00
G01 X9.2312 Y17.3829 F350.00
G01 X9.2312 Y17.1429 F350.00
G01 X9.3684 Y17.1429 F350.00
G00 Z0.4000
G00 X9.4806 Y16.9029
G01 F250.00
G01 Z-0.0500
G01 F350.00
G01 X9.2312 Y16.9029 F350.00
G01 X9.2312 Y16.6629 F350.00
G01 X9.7153 Y16.6629 F350.00
G00 Z0.4000
G00 X11.7362 Y15.7029
G01 F250.00
G01 Z-0.0500
G01 F350.00
G01 X15.6397 Y15.7029 F350.00
G01 X15.3997 Y15.4629 F350.00
G01 X12.0328 Y15.4629 F350.00
G00 Z0.4000
G00 X12.1703 Y15.2229
G01 F250.00
G01 Z-0.0500
G01 F350.00
G01 X15.1597 Y15.2229 F350.00
G01 X14.9197 Y14.9829 F350.00
G01 X12.2269 Y14.9829 F350.00
G00 Z0.4000
G00 X12.2165 Y14.7429
G01 F250.00
G01 Z-0.0500
G01 F350.00
G01 X14.6797 Y14.7429 F350.00
G01 X14.4397 Y14.5029 F350.00
G01 X12.1377 Y14.5029 F350.00
G00 Z0.4000
G00 X11.9665 Y14.2629
G01 F250.00
G01 Z-0.0500
G01 F350.00
G01 X14.1997 Y14.2629 F350.00
G01 X13.9597 Y14.0229 F350.00
G01 X11.5298 Y14.0229 F350.00
G00 Z0.4000
G00 X11.3308 Y14.0000
G01 F250.00
G01 Z-0.0500
G01 F350.00
G01 X11.4092 Y14.0036 F350.00
G01 X11.4288 Y14.0055 F350.00
G01 X11.5064 Y14.0173 F350.00
G01 X11.5921 Y14.0388 F350.00
G01 X11.6661 Y14.0650 F350.00
G01 X11.6842 Y14.0725 F350.00
G01 X11.7551 Y14.1063 F350.00
G01 X11.8308 Y14.1517 F350.00
G01 X11.9018 Y14.2043 F350.00
G01 X11.9601 Y14.2568 F350.00
G01 X11.9740 Y14.2707 F350.00
G01 X12.0265 Y14.3290 F350.00
G01 X12.0791 Y14.4000 F350.00
G01 X12.1197 Y14.4672 F350.00
G01 X12.1290 Y14.4845 F350.00
G01 X12.1583 Y14.5466 F350.00
G01 X12.1658 Y14.5647 F350.00
G01 X12.1921 Y14.6387 F350.00
G01 X12.2135 Y14.7244 F350.00
G01 X12.2265 Y14.8118 F350.00
G01 X12.2306 Y14.8902 F350.00
G01 X12.2306 Y14.9098 F350.00
G01 X12.2272 Y14.9784 F350.00
G01 X12.2253 Y14.9980 F350.00
G01 X12.2135 Y15.0756 F350.00
G01 X12.1947 Y15.1518 F350.00
G01 X12.1890 Y15.1706 F350.00
G01 X12.1658 Y15.2353 F350.00
G01 X12.1583 Y15.2534 F350.00
G01 X12.1246 Y15.3243 F350.00
G01 X12.0791 Y15.4000 F350.00
G01 X12.0326 Y15.4632 F350.00
G01 X12.0201 Y15.4784 F350.00
G01 X11.9672 Y15.5364 F350.00
G01 X11.9018 Y15.5957 F350.00
G01 X11.8389 Y15.6427 F350.00
G01 X11.8225 Y15.6536 F350.00
G01 X11.7551 Y15.6937 F350.00
G01 X11.6752 Y15.7315 F350.00
G01 X11.6014 Y15.7582 F350.00
G01 X11.5826 Y15.7639 F350.00
G01 X11.5064 Y15.7827 F350.00
G01 X11.4239 Y15.7951 F350.00
G01 X11.4092 Y15.7964 F350.00
G01 X11.3308 Y15.8000 F350.00
G01 X10.2308 Y15.8000 F350.00
G01 X10.1524 Y15.7964 F350.00
G01 X10.1329 Y15.7945 F350.00
G01 X10.0552 Y15.7827 F350.00
G01 X9.9696 Y15.7612 F350.00
G01 X9.8864 Y15.7315 F350.00
G01 X9.8066 Y15.6937 F350.00
G01 X9.7308 Y15.6483 F350.00
G01 X9.6599 Y15.5957 F350.00
G01 X9.5944 Y15.5364 F350.00
G01 X9.5351 Y15.4710 F350.00
G01 X9.4825 Y15.4000 F350.00
G01 X9.4371 Y15.3243 F350.00
G01 X9.3993 Y15.2444 F350.00
G01 X9.3696 Y15.1613 F350.00
G01 X9.3481 Y15.0756 F350.00
G01 X9.3352 Y14.9882 F350.00
G01 X9.3308 Y14.9000 F350.00
G01 X9.3352 Y14.8118 F350.00
G01 X9.3481 Y14.7244 F350.00
G01 X9.3696 Y14.6387 F350.00
G01 X9.3993 Y14.5556 F350.00
G01 X9.4371 Y14.4757 F350.00
G01 X9.4825 Y14.4000 F350.00
G01 X9.5351 Y14.3290 F350.00
G01 X9.5944 Y14.2636 F350.00
G01 X9.6599 Y14.2043 F350.00
G01 X9.7228 Y14.1573 F350.00
G01 X9.7391 Y14.1464 F350.00
G01 X9.8066 Y14.1063 F350.00
G01 X9.8864 Y14.0685 F350.00
G01 X9.9602 Y14.0418 F350.00
G01 X9.9790 Y14.0361 F350.00
G01 X10.0552 Y14.0173 F350.00
G01 X10.1377 Y14.0049 F350.00
G01 X10.1524 Y14.0036 F350.00
G01 X10.2308 Y14.0000 F350.00
G01 X11.3308 Y14.0000 F350.00
G00 Z0.4000
G00 X12.7529 Y13.7829
G01 F250.00
G01 Z-0.0500
G01 F350.00
G01 X13.7197 Y13.7829 F350.00
G00 Z0.4000
G00 X13.5014 Y13.5429
G01 F250.00
G01 Z-0.0500
G01 F350.00
G01 X13.1815 Y13.5429 F350.00
G00 Z0.4000
G00 X12.0674 Y18.1029
G01 F250.00
G01 Z-0.0500
G01 F350.00
G01 X11.8925 Y18.1029 F350.00
G00 Z0.4000
G00 X12.1181 Y20.9829
G01 F250.00
G01 Z-0.0500
G01 F350.00
G01 X9.2312 Y20.9829 F350.00
G01 X9.2312 Y21.2229 F350.00
G01 X12.3581 Y21.2229 F350.00
G01 X12.5981 Y21.4629 F350.00
G01 X9.2312 Y21.4629 F350.00
G01 X9.2312 Y21.7029 F350.00
G01 X12.8381 Y21.7029 F350.00
G01 X13.0781 Y21.9429 F350.00
G01 X9.2312 Y21.9429 F350.00
G01 X9.2312 Y22.1829 F350.00
G01 X13.3181 Y22.1829 F350.00
G01 X13.5581 Y22.4229 F350.00
G01 X9.2312 Y22.4229 F350.00
G01 X9.2312 Y22.6629 F350.00
G01 X13.7988 Y22.6629 F350.00
G01 X14.0388 Y22.9029 F350.00
G01 X13.5450 Y22.9029 F350.00
G00 Z0.4000
G00 X13.4166 Y22.9029
G01 F250.00
G01 Z-0.0500
G01 F350.00
G01 X9.2312 Y22.9029 F350.00
G01 X9.2312 Y23.1429 F350.00
G01 X12.8285 Y23.1429 F350.00
G00 Z0.4000
G00 X12.6260 Y23.3829
G01 F250.00
G01 Z-0.0500
G01 F350.00
G01 X9.3356 Y23.3829 F350.00
G00 Z0.4000
G00 X9.4413 Y23.6229
G01 F250.00
G01 Z-0.0500
G01 F350.00
G01 X12.5203 Y23.6229 F350.00
G00 Z0.4000
G00 X12.4824 Y23.8629
G01 F250.00
G01 Z-0.0500
G01 F350.00
G01 X9.4792 Y23.8629 F350.00
G00 Z0.4000
G00 X9.4599 Y24.1029
G01 F250.00
G01 Z-0.0500
G01 F350.00
G01 X12.5018 Y24.1029 F350.00
G00 Z0.4000
G00 X12.5304 Y24.3429
G01 F250.00
G01 Z-0.0500
G01 F350.00
G01 X9.3765 Y24.3429 F350.00
G00 Z0.4000
G00 X9.2102 Y24.5829
G01 F250.00
G01 Z-0.0500
G01 F350.00
G01 X12.5304 Y24.5829 F350.00
G01 X12.5304 Y24.8229 F350.00
G01 X8.8658 Y24.8229 F350.00
G00 Z0.4000
G00 X14.1331 Y23.1429
G01 F250.00
G01 Z-0.0500
G01 F350.00
G01 X14.2788 Y23.1429 F350.00
G01 X14.3356 Y23.3829 F350.00
G01 X14.5188 Y23.3829 F350.00
G01 X14.4413 Y23.6229 F350.00
G01 X14.7588 Y23.6229 F350.00
G00 Z0.4000
G00 X14.9981 Y23.8629
G01 F250.00
G01 Z-0.0500
G01 F350.00
G01 X14.4792 Y23.8629 F350.00
G00 Z0.4000
G00 X14.4599 Y24.1029
G01 F250.00
G01 Z-0.0500
G01 F350.00
G01 X15.2381 Y24.1029 F350.00
G01 X15.4781 Y24.3429 F350.00
G01 X14.4312 Y24.3429 F350.00
G01 X14.4312 Y24.2093 F350.00
G01 X14.4312 Y25.7063 F350.00
G01 X14.4745 Y25.7496 F350.00
G01 X15.4769 Y25.7496 F350.00
G01 X15.5448 Y25.7092 F350.00
G01 X15.6268 Y25.6704 F350.00
G01 X15.7123 Y25.6398 F350.00
G01 X15.7908 Y25.6199 F350.00
G01 X15.8100 Y25.6161 F350.00
G01 X15.8804 Y25.6057 F350.00
G01 X15.8999 Y25.6037 F350.00
G01 X15.9808 Y25.6000 F350.00
G01 X16.0617 Y25.6037 F350.00
G01 X16.0812 Y25.6057 F350.00
G01 X16.1516 Y25.6161 F350.00
G01 X16.1709 Y25.6199 F350.00
G01 X16.2493 Y25.6398 F350.00
G01 X16.3348 Y25.6704 F350.00
G01 X16.4169 Y25.7092 F350.00
G01 X16.4864 Y25.7506 F350.00
G01 X16.5028 Y25.7615 F350.00
G01 X16.5599 Y25.8039 F350.00
G01 X16.5714 Y25.8131 F350.00
G01 X16.6349 Y25.8709 F350.00
G01 X16.6959 Y25.9382 F350.00
G01 X16.7499 Y26.0111 F350.00
G01 X16.7918 Y26.0804 F350.00
G01 X16.8010 Y26.0977 F350.00
G01 X16.8314 Y26.1620 F350.00
G01 X16.8389 Y26.1802 F350.00
G01 X16.8660 Y26.2565 F350.00
G01 X16.8859 Y26.3350 F350.00
G01 X16.8889 Y26.3494 F350.00
G01 X16.9008 Y26.4295 F350.00
G01 X16.9021 Y26.4441 F350.00
G01 X16.9037 Y26.4767 F350.00
G01 X16.9119 Y26.5098 F350.00
G01 X16.9138 Y26.5194 F350.00
G01 X16.9261 Y26.6020 F350.00
G01 X16.9273 Y26.6166 F350.00
G01 X16.9311 Y26.6951 F350.00
G01 X16.9312 Y27.8496 F350.00
G01 X19.6872 Y27.8496 F350.00
G01 X21.3038 Y26.2330 F350.00
G01 X21.3262 Y26.1710 F350.00
G01 X21.3606 Y26.0977 F350.00
G01 X21.3699 Y26.0804 F350.00
G01 X21.4117 Y26.0111 F350.00
G01 X21.4597 Y25.9459 F350.00
G01 X21.4722 Y25.9308 F350.00
G01 X21.5267 Y25.8709 F350.00
G01 X21.5866 Y25.8164 F350.00
G01 X21.6017 Y25.8039 F350.00
G01 X21.6669 Y25.7559 F350.00
G01 X21.7362 Y25.7141 F350.00
G01 X21.7535 Y25.7048 F350.00
G01 X21.8179 Y25.6744 F350.00
G01 X21.8360 Y25.6669 F350.00
G01 X21.9123 Y25.6398 F350.00
G01 X22.0004 Y25.6178 F350.00
G01 X22.0902 Y25.6045 F350.00
G01 X22.1710 Y25.6002 F350.00
G01 X22.1857 Y25.6001 F350.00
G01 X22.2715 Y25.6045 F350.00
G01 X22.3516 Y25.6161 F350.00
G01 X22.3709 Y25.6199 F350.00
G01 X22.4493 Y25.6398 F350.00
G01 X22.5256 Y25.6669 F350.00
G01 X22.5438 Y25.6744 F350.00
G01 X22.6169 Y25.7092 F350.00
G01 X22.6864 Y25.7506 F350.00
G01 X22.7028 Y25.7615 F350.00
G01 X22.7676 Y25.8100 F350.00
G01 X22.8278 Y25.8642 F350.00
G01 X22.8417 Y25.8780 F350.00
G01 X22.8959 Y25.9382 F350.00
G01 X22.9443 Y26.0031 F350.00
G01 X22.9552 Y26.0194 F350.00
G01 X22.9966 Y26.0890 F350.00
G01 X23.0314 Y26.1620 F350.00
G01 X23.0389 Y26.1802 F350.00
G01 X23.0660 Y26.2565 F350.00
G01 X23.0859 Y26.3350 F350.00
G01 X23.0897 Y26.3542 F350.00
G01 X23.1008 Y26.4295 F350.00
G01 X23.1021 Y26.4441 F350.00
G01 X23.1037 Y26.4767 F350.00
G01 X23.1119 Y26.5098 F350.00
G01 X23.1138 Y26.5194 F350.00
G01 X23.1254 Y26.5971 F350.00
G01 X23.1270 Y26.6117 F350.00
G01 X23.1312 Y26.7000 F350.00
G01 X23.1312 Y27.7063 F350.00
G01 X23.5745 Y28.1496 F350.00
G01 X26.2972 Y28.1496 F350.00
G01 X26.9919 Y27.4549 F350.00
G01 X27.0039 Y27.3759 F350.00
G01 X27.0311 Y27.2664 F350.00
G01 X27.0356 Y27.2523 F350.00
G01 X27.0722 Y27.1508 F350.00
G01 X27.1181 Y27.0531 F350.00
G01 X27.1249 Y27.0400 F350.00
G01 X27.1831 Y26.9433 F350.00
G01 X27.2304 Y26.8790 F350.00
G01 X27.2304 Y26.2937 F350.00
G01 X23.1872 Y22.2504 F350.00
G01 X22.1808 Y22.2504 F350.00
G01 X22.0877 Y22.2458 F350.00
G01 X21.9954 Y22.2321 F350.00
G01 X21.9144 Y22.2121 F350.00
G01 X21.8956 Y22.2064 F350.00
G01 X21.8171 Y22.1780 F350.00
G01 X21.7416 Y22.1426 F350.00
G01 X21.7243 Y22.1333 F350.00
G01 X21.6528 Y22.0902 F350.00
G01 X21.5779 Y22.0346 F350.00
G01 X21.5088 Y21.9720 F350.00
G01 X18.9588 Y19.4220 F350.00
G01 X18.9026 Y19.3603 F350.00
G01 X18.8901 Y19.3452 F350.00
G01 X18.8406 Y19.2780 F350.00
G01 X18.7927 Y19.1980 F350.00
G01 X18.7528 Y19.1137 F350.00
G01 X18.7244 Y19.0352 F350.00
G01 X18.7188 Y19.0164 F350.00
G01 X18.7009 Y18.9450 F350.00
G01 X18.6970 Y18.9257 F350.00
G01 X18.6850 Y18.8432 F350.00
G01 X18.6807 Y18.7598 F350.00
G01 X18.6804 Y14.8437 F350.00
G01 X16.1228 Y12.2860 F350.00
G01 X16.1003 Y12.2826 F350.00
G01 X16.0907 Y12.2807 F350.00
G01 X16.0145 Y12.2617 F350.00
G01 X16.0004 Y12.2576 F350.00
G01 X15.9173 Y12.2277 F350.00
G01 X15.8418 Y12.1922 F350.00
G01 X15.8287 Y12.1855 F350.00
G01 X15.7530 Y12.1399 F350.00
G01 X15.6781 Y12.0844 F350.00
G01 X15.6091 Y12.0218 F350.00
G01 X15.5529 Y11.9601 F350.00
G01 X15.5434 Y11.9488 F350.00
G01 X15.4966 Y11.8858 F350.00
G01 X15.4857 Y11.8695 F350.00
G01 X15.4430 Y11.7978 F350.00
G01 X15.4071 Y11.7225 F350.00
G01 X15.3996 Y11.7044 F350.00
G01 X15.3717 Y11.6258 F350.00
G01 X15.3512 Y11.5449 F350.00
G01 X15.3474 Y11.5257 F350.00
G01 X15.3354 Y11.4431 F350.00
G01 X15.3309 Y11.3549 F350.00
G01 X15.3308 Y11.1125 F350.00
G01 X15.3304 Y11.1000 F350.00
G01 X15.3308 Y11.0875 F350.00
G01 X15.3308 Y10.8500 F350.00
G01 X15.3354 Y10.7569 F350.00
G01 X15.3491 Y10.6647 F350.00
G01 X15.3717 Y10.5742 F350.00
G01 X15.3996 Y10.4956 F350.00
G01 X15.4071 Y10.4775 F350.00
G01 X15.4430 Y10.4022 F350.00
G01 X15.4857 Y10.3305 F350.00
G01 X15.4966 Y10.3142 F350.00
G01 X15.5465 Y10.2473 F350.00
G01 X15.6023 Y10.1854 F350.00
G01 X15.6162 Y10.1715 F350.00
G01 X15.6781 Y10.1156 F350.00
G01 X15.7450 Y10.0658 F350.00
G01 X15.7613 Y10.0549 F350.00
G01 X15.8330 Y10.0122 F350.00
G01 X15.9173 Y9.9723 F350.00
G01 X15.9957 Y9.9440 F350.00
G01 X16.0145 Y9.9383 F350.00
G01 X16.0955 Y9.9183 F350.00
G01 X16.1780 Y9.9058 F350.00
G01 X16.1975 Y9.9039 F350.00
G01 X16.2808 Y9.9000 F350.00
G01 X16.3739 Y9.9046 F350.00
G01 X16.4662 Y9.9183 F350.00
G01 X16.5471 Y9.9383 F350.00
G01 X16.5659 Y9.9440 F350.00
G01 X16.6444 Y9.9723 F350.00
G01 X16.7199 Y10.0078 F350.00
G01 X16.7372 Y10.0170 F350.00
G01 X16.8045 Y10.0574 F350.00
G01 X16.8166 Y10.0658 F350.00
G01 X16.8835 Y10.1156 F350.00
G01 X16.9526 Y10.1782 F350.00
G01 X17.0152 Y10.2473 F350.00
G01 X17.0651 Y10.3142 F350.00
G01 X17.0734 Y10.3263 F350.00
G01 X17.1186 Y10.4022 F350.00
G01 X17.1545 Y10.4775 F350.00
G01 X17.1603 Y10.4910 F350.00
G01 X17.1868 Y10.5649 F350.00
G01 X17.1913 Y10.5789 F350.00
G01 X17.2116 Y10.6599 F350.00
G01 X17.2135 Y10.6695 F350.00
G01 X17.2169 Y10.6920 F350.00
G01 X20.3028 Y13.7780 F350.00
G01 X20.3591 Y13.8397 F350.00
G01 X20.3685 Y13.8509 F350.00
G01 X20.3974 Y13.8897 F350.00
G01 X20.4183 Y13.9180 F350.00
G01 X20.4263 Y13.9303 F350.00
G01 X20.4690 Y14.0020 F350.00
G01 X20.5089 Y14.0863 F350.00
G01 X20.5403 Y14.1741 F350.00
G01 X20.5608 Y14.2550 F350.00
G01 X20.5646 Y14.2743 F350.00
G01 X20.5754 Y14.3471 F350.00
G01 X20.5770 Y14.3617 F350.00
G01 X20.5812 Y14.4500 F350.00
G01 X20.5812 Y16.4556 F350.00
G01 X25.1988 Y11.8380 F350.00
G01 X25.2605 Y11.7818 F350.00
G01 X25.2757 Y11.7693 F350.00
G01 X25.3428 Y11.7198 F350.00
G01 X25.4228 Y11.6718 F350.00
G01 X25.5071 Y11.6320 F350.00
G01 X25.5856 Y11.6036 F350.00
G01 X25.6044 Y11.5979 F350.00
G01 X25.6854 Y11.5779 F350.00
G01 X25.7679 Y11.5654 F350.00
G01 X25.7875 Y11.5635 F350.00
G01 X25.8610 Y11.5599 F350.00
G01 X28.1289 Y11.5596 F350.00
G01 X28.1580 Y11.5423 F350.00
G01 X28.1666 Y11.5376 F350.00
G01 X28.2554 Y11.4957 F350.00
G01 X28.2690 Y11.4902 F350.00
G01 X28.3522 Y11.4604 F350.00
G01 X28.3662 Y11.4560 F350.00
G01 X28.4662 Y11.4311 F350.00
G01 X28.5633 Y11.4165 F350.00
G01 X28.5828 Y11.4146 F350.00
G01 X28.6808 Y11.4100 F350.00
G01 X28.7886 Y11.4153 F350.00
G01 X28.8954 Y11.4311 F350.00
G01 X29.0001 Y11.4574 F350.00
G01 X29.0926 Y11.4902 F350.00
G01 X29.1107 Y11.4977 F350.00
G01 X29.1906 Y11.5355 F350.00
G01 X29.2079 Y11.5447 F350.00
G01 X29.2920 Y11.5954 F350.00
G01 X29.3709 Y11.6536 F350.00
G01 X29.3824 Y11.6628 F350.00
G01 X29.4586 Y11.7322 F350.00
G01 X29.5247 Y11.8047 F350.00
G01 X29.5372 Y11.8199 F350.00
G01 X29.5898 Y11.8908 F350.00
G01 X29.6007 Y11.9072 F350.00
G01 X29.6509 Y11.9915 F350.00
G01 X29.6931 Y12.0801 F350.00
G01 X29.7006 Y12.0982 F350.00
G01 X29.7335 Y12.1907 F350.00
G01 X29.7597 Y12.2954 F350.00
G01 X29.7755 Y12.4022 F350.00
G01 X29.7808 Y12.5100 F350.00
G01 X29.7755 Y12.6178 F350.00
G01 X29.7597 Y12.7246 F350.00
G01 X29.7335 Y12.8293 F350.00
G01 X29.7006 Y12.9218 F350.00
G01 X29.6931 Y12.9399 F350.00
G01 X29.6553 Y13.0198 F350.00
G01 X29.6461 Y13.0371 F350.00
G01 X29.5954 Y13.1211 F350.00
G01 X29.5372 Y13.2001 F350.00
G01 X29.5247 Y13.2153 F350.00
G01 X29.4586 Y13.2878 F350.00
G01 X29.3824 Y13.3572 F350.00
G01 X29.3709 Y13.3664 F350.00
G01 X29.2920 Y13.4246 F350.00
G01 X29.2079 Y13.4753 F350.00
G01 X29.1906 Y13.4845 F350.00
G01 X29.1107 Y13.5223 F350.00
G01 X29.0926 Y13.5298 F350.00
G01 X29.0001 Y13.5626 F350.00
G01 X28.8954 Y13.5889 F350.00
G01 X28.7886 Y13.6047 F350.00
G01 X28.6857 Y13.6099 F350.00
G01 X28.6710 Y13.6098 F350.00
G01 X28.5828 Y13.6054 F350.00
G01 X28.5633 Y13.6035 F350.00
G01 X28.4662 Y13.5889 F350.00
G01 X28.3662 Y13.5640 F350.00
G01 X28.3522 Y13.5596 F350.00
G01 X28.2690 Y13.5298 F350.00
G01 X28.2554 Y13.5243 F350.00
G01 X28.1666 Y13.4824 F350.00
G01 X28.1580 Y13.4777 F350.00
G01 X28.1289 Y13.4604 F350.00
G01 X26.2645 Y13.4604 F350.00
G01 X20.9749 Y18.7500 F350.00
G01 X22.5745 Y20.3496 F350.00
G01 X23.5808 Y20.3496 F350.00
G01 X23.6642 Y20.3535 F350.00
G01 X23.6789 Y20.3547 F350.00
G01 X23.7662 Y20.3679 F350.00
G01 X23.8472 Y20.3879 F350.00
G01 X23.8660 Y20.3936 F350.00
G01 X23.9445 Y20.4220 F350.00
G01 X24.0288 Y20.4618 F350.00
G01 X24.1005 Y20.5045 F350.00
G01 X24.1168 Y20.5154 F350.00
G01 X24.1837 Y20.5654 F350.00
G01 X24.2528 Y20.6280 F350.00
G01 X28.8528 Y25.2280 F350.00
G01 X28.9123 Y25.2933 F350.00
G01 X28.9215 Y25.3048 F350.00
G01 X28.9654 Y25.3640 F350.00
G01 X28.9763 Y25.3803 F350.00
G01 X29.0190 Y25.4520 F350.00
G01 X29.0589 Y25.5363 F350.00
G01 X29.0872 Y25.6148 F350.00
G01 X29.0929 Y25.6336 F350.00
G01 X29.1129 Y25.7146 F350.00
G01 X29.1254 Y25.7971 F350.00
G01 X29.1273 Y25.8166 F350.00
G01 X29.1312 Y25.9000 F350.00
G01 X29.1312 Y26.8790 F350.00
G01 X29.1786 Y26.9433 F350.00
G01 X29.2368 Y27.0400 F350.00
G01 X29.2435 Y27.0531 F350.00
G01 X29.2855 Y27.1418 F350.00
G01 X29.2913 Y27.1553 F350.00
G01 X29.3292 Y27.2617 F350.00
G01 X29.3556 Y27.3663 F350.00
G01 X29.3594 Y27.3856 F350.00
G01 X29.3738 Y27.4826 F350.00
G01 X29.3755 Y27.4973 F350.00
G01 X29.3808 Y27.6100 F350.00
G01 X29.3750 Y27.7276 F350.00
G01 X29.3578 Y27.8441 F350.00
G01 X29.3292 Y27.9583 F350.00
G01 X29.2895 Y28.0692 F350.00
G01 X29.2391 Y28.1757 F350.00
G01 X29.1786 Y28.2767 F350.00
G01 X29.1145 Y28.3635 F350.00
G01 X29.1053 Y28.3750 F350.00
G01 X29.0294 Y28.4585 F350.00
G01 X28.9421 Y28.5376 F350.00
G01 X28.8475 Y28.6078 F350.00
G01 X28.7508 Y28.6659 F350.00
G01 X28.7377 Y28.6727 F350.00
G01 X28.6400 Y28.7187 F350.00
G01 X28.5338 Y28.7568 F350.00
G01 X28.5197 Y28.7609 F350.00
G01 X28.4197 Y28.7859 F350.00
G01 X28.4053 Y28.7886 F350.00
G01 X28.3360 Y28.7989 F350.00
G01 X27.3628 Y29.7720 F350.00
G01 X27.2937 Y29.8346 F350.00
G01 X27.2229 Y29.8874 F350.00
G01 X27.2105 Y29.8955 F350.00
G01 X27.1388 Y29.9382 F350.00
G01 X27.0635 Y29.9741 F350.00
G01 X27.0454 Y29.9816 F350.00
G01 X26.9667 Y30.0095 F350.00
G01 X26.8858 Y30.0300 F350.00
G01 X26.8666 Y30.0338 F350.00
G01 X26.7840 Y30.0458 F350.00
G01 X26.6908 Y30.0504 F350.00
G01 X23.1808 Y30.0504 F350.00
G01 X23.0877 Y30.0458 F350.00
G01 X23.0051 Y30.0338 F350.00
G01 X22.9858 Y30.0300 F350.00
G01 X22.9144 Y30.0121 F350.00
G01 X22.8956 Y30.0064 F350.00
G01 X22.8171 Y29.9780 F350.00
G01 X22.7416 Y29.9426 F350.00
G01 X22.7243 Y29.9333 F350.00
G01 X22.6528 Y29.8902 F350.00
G01 X22.5857 Y29.8407 F350.00
G01 X22.5742 Y29.8315 F350.00
G01 X22.5088 Y29.7720 F350.00
G01 X21.5088 Y28.7720 F350.00
G01 X21.4820 Y28.7428 F350.00
G01 X20.7528 Y29.4720 F350.00
G01 X20.6837 Y29.5346 F350.00
G01 X20.6168 Y29.5846 F350.00
G01 X20.6005 Y29.5955 F350.00
G01 X20.5288 Y29.6382 F350.00
G01 X20.4535 Y29.6741 F350.00
G01 X20.4354 Y29.6816 F350.00
G01 X20.3567 Y29.7095 F350.00
G01 X20.2758 Y29.7300 F350.00
G01 X20.2614 Y29.7330 F350.00
G01 X20.1740 Y29.7458 F350.00
G01 X20.0808 Y29.7504 F350.00
G01 X16.3808 Y29.7504 F350.00
G01 X16.2926 Y29.7462 F350.00
G01 X16.2828 Y29.7453 F350.00
G01 X16.2671 Y29.7430 F350.00
G01 X16.1954 Y29.7321 F350.00
G01 X16.1049 Y29.7095 F350.00
G01 X16.0171 Y29.6780 F350.00
G01 X15.9328 Y29.6382 F350.00
G01 X15.8528 Y29.5902 F350.00
G01 X15.7857 Y29.5407 F350.00
G01 X15.7705 Y29.5282 F350.00
G01 X15.7088 Y29.4720 F350.00
G01 X15.3020 Y29.0649 F350.00
G01 X15.2462 Y29.0029 F350.00
G01 X15.1963 Y28.9360 F350.00
G01 X15.1854 Y28.9197 F350.00
G01 X15.1427 Y28.8480 F350.00
G01 X15.1028 Y28.7637 F350.00
G01 X15.0714 Y28.6759 F350.00
G01 X15.0487 Y28.5854 F350.00
G01 X15.0350 Y28.4932 F350.00
G01 X15.0304 Y28.4000 F350.00
G01 X15.0304 Y27.6504 F350.00
G01 X14.0808 Y27.6504 F350.00
G01 X13.9975 Y27.6465 F350.00
G01 X13.9779 Y27.6446 F350.00
G01 X13.8954 Y27.6321 F350.00
G01 X13.8144 Y27.6121 F350.00
G01 X13.7956 Y27.6064 F350.00
G01 X13.7263 Y27.5816 F350.00
G01 X13.7082 Y27.5741 F350.00
G01 X13.6328 Y27.5382 F350.00
G01 X13.5528 Y27.4902 F350.00
G01 X13.4779 Y27.4346 F350.00
G01 X13.4123 Y27.3754 F350.00
G01 X12.8054 Y26.7685 F350.00
G01 X12.7462 Y26.7029 F350.00
G01 X12.6963 Y26.6360 F350.00
G01 X12.6854 Y26.6197 F350.00
G01 X12.6427 Y26.5480 F350.00
G01 X12.6028 Y26.4637 F350.00
G01 X12.5714 Y26.3759 F350.00
G01 X12.5487 Y26.2854 F350.00
G01 X12.5362 Y26.2029 F350.00
G01 X12.5343 Y26.1834 F350.00
G01 X12.5304 Y26.1000 F350.00
G01 X12.5304 Y24.2093 F350.00
G01 X12.5254 Y24.1950 F350.00
G01 X12.5213 Y24.1808 F350.00
G01 X12.5022 Y24.1047 F350.00
G01 X12.4984 Y24.0854 F350.00
G01 X12.4856 Y23.9980 F350.00
G01 X12.4808 Y23.9000 F350.00
G01 X12.4856 Y23.8020 F350.00
G01 X12.4984 Y23.7146 F350.00
G01 X12.5022 Y23.6953 F350.00
G01 X12.5239 Y23.6097 F350.00
G01 X12.5534 Y23.5265 F350.00
G01 X12.5609 Y23.5083 F350.00
G01 X12.5989 Y23.4286 F350.00
G01 X12.6494 Y23.3444 F350.00
G01 X12.7078 Y23.2656 F350.00
G01 X12.7737 Y23.1929 F350.00
G01 X12.8464 Y23.1270 F350.00
G01 X12.9253 Y23.0685 F350.00
G01 X13.0094 Y23.0181 F350.00
G01 X13.0981 Y22.9761 F350.00
G01 X13.1905 Y22.9431 F350.00
G01 X13.2857 Y22.9192 F350.00
G01 X13.3828 Y22.9048 F350.00
G01 X13.4808 Y22.9000 F350.00
G01 X13.5788 Y22.9048 F350.00
G01 X13.6759 Y22.9192 F350.00
G01 X13.7711 Y22.9431 F350.00
G01 X13.8635 Y22.9761 F350.00
G01 X13.9522 Y23.0181 F350.00
G01 X14.0364 Y23.0685 F350.00
G01 X14.1152 Y23.1270 F350.00
G01 X14.1879 Y23.1929 F350.00
G01 X14.2538 Y23.2656 F350.00
G01 X14.3066 Y23.3364 F350.00
G01 X14.3175 Y23.3527 F350.00
G01 X14.3627 Y23.4286 F350.00
G01 X14.4007 Y23.5083 F350.00
G01 X14.4082 Y23.5265 F350.00
G01 X14.4347 Y23.6004 F350.00
G01 X14.4404 Y23.6192 F350.00
G01 X14.4616 Y23.7049 F350.00
G01 X14.4748 Y23.7922 F350.00
G01 X14.4767 Y23.8118 F350.00
G01 X14.4808 Y23.9000 F350.00
G01 X14.4760 Y23.9980 F350.00
G01 X14.4633 Y24.0854 F350.00
G01 X14.4595 Y24.1047 F350.00
G01 X14.4404 Y24.1808 F350.00
G01 X14.4363 Y24.1950 F350.00
G01 X14.4312 Y24.2093 F350.00
G01 X14.4312 Y24.5829 F350.00
G01 X15.7181 Y24.5829 F350.00
G01 X15.9581 Y24.8229 F350.00
G01 X14.4312 Y24.8229 F350.00
G01 X14.4312 Y25.0629 F350.00
G01 X16.1981 Y25.0629 F350.00
G01 X16.4381 Y25.3029 F350.00
G01 X14.4312 Y25.3029 F350.00
G01 X14.4312 Y25.5429 F350.00
G01 X16.6781 Y25.5429 F350.00
G01 X16.5316 Y25.7829 F350.00
G01 X16.9181 Y25.7829 F350.00
G01 X17.0304 Y26.0229 F350.00
G01 X16.7573 Y26.0229 F350.00
G00 Z0.4000
G00 X16.8678 Y26.2629
G01 F250.00
G01 Z-0.0500
G01 F350.00
G01 X17.0304 Y26.2629 F350.00
G01 X17.0304 Y26.5029 F350.00
G01 X16.9103 Y26.5029 F350.00
G00 Z0.4000
G00 X16.9312 Y26.7429
G01 F250.00
G01 Z-0.0500
G01 F350.00
G01 X17.0323 Y26.7429 F350.00
G00 Z0.4000
G00 X17.0626 Y26.9829
G01 F250.00
G01 Z-0.0500
G01 F350.00
G01 X16.9312 Y26.9829 F350.00
G01 X16.9312 Y27.2229 F350.00
G01 X17.1238 Y27.2229 F350.00
G00 Z0.4000
G00 X17.2667 Y27.4629
G01 F250.00
G01 Z-0.0500
G01 F350.00
G01 X16.9312 Y27.4629 F350.00
G01 X16.9312 Y27.7029 F350.00
G01 X17.5699 Y27.7029 F350.00
G00 Z0.4000
G00 X18.9098 Y25.3029
G01 F250.00
G01 Z-0.0500
G01 F350.00
G01 X19.2679 Y25.3029 F350.00
G00 Z0.4000
G00 X19.0274 Y25.0629
G01 F250.00
G01 Z-0.0500
G01 F350.00
G01 X18.8236 Y25.0629 F350.00
G01 X18.7874 Y24.8229 F350.00
G01 X18.6461 Y24.8229 F350.00
G01 X18.5474 Y24.5829 F350.00
G01 X18.4061 Y24.5829 F350.00
G01 X18.3074 Y24.3429 F350.00
G01 X18.1661 Y24.3429 F350.00
G01 X18.0674 Y24.1029 F350.00
G01 X17.9261 Y24.1029 F350.00
G01 X17.8274 Y23.8629 F350.00
G01 X17.6861 Y23.8629 F350.00
G01 X17.5874 Y23.6229 F350.00
G01 X17.4461 Y23.6229 F350.00
G01 X17.3474 Y23.3829 F350.00
G01 X17.2061 Y23.3829 F350.00
G01 X17.1074 Y23.1429 F350.00
G01 X16.9661 Y23.1429 F350.00
G01 X16.8674 Y22.9029 F350.00
G01 X16.7261 Y22.9029 F350.00
G01 X16.6274 Y22.6629 F350.00
G01 X16.4861 Y22.6629 F350.00
G01 X16.3874 Y22.4229 F350.00
G01 X16.2461 Y22.4229 F350.00
G01 X16.1474 Y22.1829 F350.00
G01 X16.0069 Y22.1829 F350.00
G01 X15.9074 Y21.9429 F350.00
G01 X15.7669 Y21.9429 F350.00
G01 X15.6674 Y21.7029 F350.00
G01 X15.5269 Y21.7029 F350.00
G01 X15.4274 Y21.4629 F350.00
G01 X15.2869 Y21.4629 F350.00
G00 Z0.4000
G00 X21.0478 Y18.8229
G01 F250.00
G01 Z-0.0500
G01 F350.00
G01 X22.4817 Y18.8229 F350.00
G00 Z0.4000
G00 X22.5011 Y18.5829
G01 F250.00
G01 Z-0.0500
G01 F350.00
G01 X21.1419 Y18.5829 F350.00
G01 X21.3819 Y18.3429 F350.00
G01 X22.5713 Y18.3429 F350.00
G00 Z0.4000
G00 X22.7053 Y18.1029
G01 F250.00
G01 Z-0.0500
G01 F350.00
G01 X21.6219 Y18.1029 F350.00
G01 X21.8619 Y17.8629 F350.00
G01 X22.9319 Y17.8629 F350.00
G00 Z0.4000
G00 X23.4475 Y17.6229
G01 F250.00
G01 Z-0.0500
G01 F350.00
G01 X22.1019 Y17.6229 F350.00
G01 X22.3419 Y17.3829 F350.00
G01 X24.0639 Y17.3829 F350.00
G01 X23.8357 Y17.6111 F350.00
G01 X27.0723 Y14.3746 F350.00
G01 X27.1305 Y14.3218 F350.00
G01 X27.1457 Y14.3093 F350.00
G01 X27.2128 Y14.2598 F350.00
G01 X27.2885 Y14.2142 F350.00
G01 X27.3016 Y14.2074 F350.00
G01 X27.3771 Y14.1720 F350.00
G01 X27.4604 Y14.1420 F350.00
G01 X27.4697 Y14.1354 F350.00
G01 X27.4780 Y14.1301 F350.00
G01 X27.5623 Y14.0799 F350.00
G01 X27.6554 Y14.0357 F350.00
G01 X27.6690 Y14.0302 F350.00
G01 X27.7615 Y13.9974 F350.00
G01 X27.8566 Y13.9733 F350.00
G01 X27.8759 Y13.9695 F350.00
G01 X27.9633 Y13.9565 F350.00
G01 X27.9828 Y13.9546 F350.00
G01 X28.0808 Y13.9500 F350.00
G01 X29.2906 Y13.9502 F350.00
G01 X29.3886 Y13.9553 F350.00
G01 X29.4858 Y13.9695 F350.00
G01 X29.5050 Y13.9733 F350.00
G01 X29.6001 Y13.9974 F350.00
G01 X29.6926 Y14.0302 F350.00
G01 X29.7107 Y14.0377 F350.00
G01 X29.7994 Y14.0799 F350.00
G01 X29.8806 Y14.1283 F350.00
G01 X29.8806 Y11.1000 F350.00
G01 X29.3759 Y11.0999 F350.00
G01 X29.2632 Y11.0942 F350.00
G01 X29.1564 Y11.0786 F350.00
G01 X29.1419 Y11.0759 F350.00
G01 X29.0419 Y11.0509 F350.00
G01 X29.0232 Y11.0452 F350.00
G01 X28.9216 Y11.0087 F350.00
G01 X28.8239 Y10.9627 F350.00
G01 X28.8066 Y10.9535 F350.00
G01 X28.7141 Y10.8978 F350.00
G01 X28.6273 Y10.8337 F350.00
G01 X28.6158 Y10.8245 F350.00
G01 X28.5323 Y10.7485 F350.00
G01 X28.4596 Y10.6687 F350.00
G01 X28.4472 Y10.6535 F350.00
G01 X28.3831 Y10.5667 F350.00
G01 X28.3274 Y10.4742 F350.00
G01 X28.3181 Y10.4569 F350.00
G01 X28.2722 Y10.3592 F350.00
G01 X28.2356 Y10.2577 F350.00
G01 X28.2299 Y10.2389 F350.00
G01 X28.2039 Y10.1341 F350.00
G01 X28.1878 Y10.0274 F350.00
G01 X28.1859 Y10.0078 F350.00
G01 X28.1808 Y9.9000 F350.00
G01 X28.1859 Y9.7922 F350.00
G01 X28.1878 Y9.7726 F350.00
G01 X28.2022 Y9.6756 F350.00
G01 X28.2060 Y9.6563 F350.00
G01 X28.2325 Y9.5517 F350.00
G01 X28.2686 Y9.4499 F350.00
G01 X28.2761 Y9.4318 F350.00
G01 X28.3225 Y9.3343 F350.00
G01 X28.3831 Y9.2333 F350.00
G01 X28.4472 Y9.1465 F350.00
G01 X28.4596 Y9.1313 F350.00
G01 X28.5323 Y9.0515 F350.00
G01 X28.6196 Y8.9724 F350.00
G01 X28.7061 Y8.9079 F350.00
G01 X28.7224 Y8.8970 F350.00
G01 X28.8151 Y8.8417 F350.00
G01 X28.9126 Y8.7953 F350.00
G01 X28.9308 Y8.7878 F350.00
G01 X29.0325 Y8.7517 F350.00
G01 X29.1419 Y8.7241 F350.00
G01 X29.1564 Y8.7214 F350.00
G01 X29.2632 Y8.7058 F350.00
G01 X29.3759 Y8.7001 F350.00
G01 X30.3808 Y8.7000 F350.00
G01 X30.4887 Y8.7051 F350.00
G01 X30.5033 Y8.7063 F350.00
G01 X30.6149 Y8.7231 F350.00
G01 X30.7197 Y8.7491 F350.00
G01 X30.7385 Y8.7548 F350.00
G01 X30.8400 Y8.7913 F350.00
G01 X30.9377 Y8.8373 F350.00
G01 X30.9550 Y8.8465 F350.00
G01 X31.0475 Y8.9022 F350.00
G01 X31.1344 Y8.9663 F350.00
G01 X31.1495 Y8.9788 F350.00
G01 X31.2294 Y9.0515 F350.00
G01 X31.3084 Y9.1387 F350.00
G01 X31.3786 Y9.2333 F350.00
G01 X31.4343 Y9.3258 F350.00
G01 X31.4435 Y9.3431 F350.00
G01 X31.4895 Y9.4408 F350.00
G01 X31.5261 Y9.5423 F350.00
G01 X31.5318 Y9.5611 F350.00
G01 X31.5556 Y9.6563 F350.00
G01 X31.5594 Y9.6756 F350.00
G01 X31.5750 Y9.7824 F350.00
G01 X31.5808 Y9.9000 F350.00
G01 X31.5750 Y10.0176 F350.00
G01 X31.5578 Y10.1341 F350.00
G01 X31.5292 Y10.2483 F350.00
G01 X31.4913 Y10.3547 F350.00
G01 X31.4855 Y10.3682 F350.00
G01 X31.4391 Y10.4657 F350.00
G01 X31.3813 Y10.5626 F350.00
G01 X31.3729 Y10.5747 F350.00
G01 X31.3115 Y10.6574 F350.00
G01 X31.3020 Y10.6687 F350.00
G01 X31.2811 Y10.6918 F350.00
G01 X31.2810 Y14.7049 F350.00
G01 X31.2777 Y14.7686 F350.00
G01 X31.2693 Y14.8269 F350.00
G01 X31.2666 Y14.8414 F350.00
G01 X31.2535 Y14.8938 F350.00
G01 X31.2478 Y14.9126 F350.00
G01 X31.2278 Y14.9680 F350.00
G01 X31.1984 Y15.0301 F350.00
G01 X31.1631 Y15.0890 F350.00
G01 X31.1252 Y15.1404 F350.00
G01 X31.1157 Y15.1517 F350.00
G01 X31.0760 Y15.1952 F350.00
G01 X30.7225 Y15.5486 F350.00
G01 X30.6751 Y15.5913 F350.00
G01 X30.6279 Y15.6266 F350.00
G01 X30.6157 Y15.6349 F350.00
G01 X30.5609 Y15.6676 F350.00
G01 X30.4988 Y15.6969 F350.00
G01 X30.4341 Y15.7201 F350.00
G01 X30.3722 Y15.7358 F350.00
G01 X30.3578 Y15.7385 F350.00
G01 X30.3092 Y15.7457 F350.00
G01 X30.2897 Y15.7476 F350.00
G01 X30.2357 Y15.7502 F350.00
G01 X30.1291 Y15.7503 F350.00
G01 X30.0586 Y15.8278 F350.00
G01 X29.9861 Y15.8939 F350.00
G01 X29.9709 Y15.9064 F350.00
G01 X29.8920 Y15.9646 F350.00
G01 X29.8079 Y16.0153 F350.00
G01 X29.7906 Y16.0245 F350.00
G01 X29.7018 Y16.0663 F350.00
G01 X29.6048 Y16.1012 F350.00
G01 X29.5907 Y16.1053 F350.00
G01 X29.5050 Y16.1267 F350.00
G01 X29.4858 Y16.1305 F350.00
G01 X29.3886 Y16.1447 F350.00
G01 X29.2857 Y16.1499 F350.00
G01 X28.0808 Y16.1500 F350.00
G01 X27.9891 Y16.1457 F350.00
G01 X24.6949 Y19.4400 F350.00
G01 X24.6813 Y19.4626 F350.00
G01 X24.6758 Y19.4707 F350.00
G01 X24.6115 Y19.5574 F350.00
G01 X24.6020 Y19.5687 F350.00
G01 X24.5294 Y19.6485 F350.00
G01 X24.4495 Y19.7212 F350.00
G01 X24.4344 Y19.7337 F350.00
G01 X24.3475 Y19.7978 F350.00
G01 X24.2508 Y19.8559 F350.00
G01 X24.2377 Y19.8627 F350.00
G01 X24.1490 Y19.9047 F350.00
G01 X24.1309 Y19.9122 F350.00
G01 X24.0292 Y19.9483 F350.00
G01 X23.9149 Y19.9769 F350.00
G01 X23.8082 Y19.9930 F350.00
G01 X23.7887 Y19.9949 F350.00
G01 X23.6808 Y20.0000 F350.00
G01 X23.5632 Y19.9942 F350.00
G01 X23.4564 Y19.9786 F350.00
G01 X23.4371 Y19.9748 F350.00
G01 X23.3325 Y19.9483 F350.00
G01 X23.2216 Y19.9087 F350.00
G01 X23.1239 Y19.8627 F350.00
G01 X23.1066 Y19.8535 F350.00
G01 X23.0141 Y19.7978 F350.00
G01 X22.9234 Y19.7307 F350.00
G01 X22.9121 Y19.7212 F350.00
G01 X22.8323 Y19.6485 F350.00
G01 X22.7596 Y19.5687 F350.00
G01 X22.7472 Y19.5535 F350.00
G01 X22.6887 Y19.4747 F350.00
G01 X22.6778 Y19.4584 F350.00
G01 X22.6225 Y19.3657 F350.00
G01 X22.5722 Y19.2592 F350.00
G01 X22.5325 Y19.1483 F350.00
G01 X22.5039 Y19.0341 F350.00
G01 X22.4866 Y18.9176 F350.00
G01 X22.4811 Y18.8098 F350.00
G01 X22.4811 Y18.7902 F350.00
G01 X22.4859 Y18.6922 F350.00
G01 X22.4878 Y18.6726 F350.00
G01 X22.5039 Y18.5659 F350.00
G01 X22.5325 Y18.4517 F350.00
G01 X22.5722 Y18.3408 F350.00
G01 X22.6225 Y18.2343 F350.00
G01 X22.6778 Y18.1416 F350.00
G01 X22.6887 Y18.1253 F350.00
G01 X22.7532 Y18.0387 F350.00
G01 X22.8255 Y17.9586 F350.00
G01 X22.8394 Y17.9447 F350.00
G01 X22.9196 Y17.8724 F350.00
G01 X23.0061 Y17.8079 F350.00
G01 X23.0183 Y17.7996 F350.00
G01 X23.1151 Y17.7417 F350.00
G01 X23.2216 Y17.6913 F350.00
G01 X23.3325 Y17.6517 F350.00
G01 X23.4419 Y17.6241 F350.00
G01 X23.4564 Y17.6214 F350.00
G01 X23.5632 Y17.6058 F350.00
G01 X23.6759 Y17.6001 F350.00
G01 X23.6906 Y17.6002 F350.00
G01 X23.7936 Y17.6054 F350.00
G01 X23.8033 Y17.6063 F350.00
G01 X23.8357 Y17.6111 F350.00
G01 X24.3039 Y17.1429 F350.00
G01 X22.5819 Y17.1429 F350.00
G01 X22.8219 Y16.9029 F350.00
G01 X24.5439 Y16.9029 F350.00
G01 X24.7839 Y16.6629 F350.00
G01 X23.0619 Y16.6629 F350.00
G01 X23.3019 Y16.4229 F350.00
G01 X25.0239 Y16.4229 F350.00
G01 X25.2639 Y16.1829 F350.00
G01 X23.5419 Y16.1829 F350.00
G01 X23.7819 Y15.9429 F350.00
G01 X25.5039 Y15.9429 F350.00
G01 X25.7439 Y15.7029 F350.00
G01 X24.0219 Y15.7029 F350.00
G01 X24.2619 Y15.4629 F350.00
G01 X25.9839 Y15.4629 F350.00
G01 X26.2239 Y15.2229 F350.00
G01 X24.5019 Y15.2229 F350.00
G01 X24.7419 Y14.9829 F350.00
G01 X26.4639 Y14.9829 F350.00
G01 X26.7039 Y14.7429 F350.00
G01 X24.9819 Y14.7429 F350.00
G01 X25.2219 Y14.5029 F350.00
G01 X26.9439 Y14.5029 F350.00
G00 Z0.4000
G00 X27.2083 Y14.2629
G01 F250.00
G01 Z-0.0500
G01 F350.00
G01 X25.4619 Y14.2629 F350.00
G01 X25.7019 Y14.0229 F350.00
G01 X27.6894 Y14.0229 F350.00
G01 X28.3057 Y13.5429 F350.00
G01 X26.1819 Y13.5429 F350.00
G01 X25.9419 Y13.7829 F350.00
G01 X29.8806 Y13.7829 F350.00
G01 X29.8806 Y13.5429 F350.00
G01 X29.0560 Y13.5429 F350.00
G00 Z0.4000
G00 X29.4423 Y13.3029
G01 F250.00
G01 Z-0.0500
G01 F350.00
G01 X29.8806 Y13.3029 F350.00
G01 X29.8806 Y13.0629 F350.00
G01 X29.6306 Y13.0629 F350.00
G00 Z0.4000
G00 X29.7353 Y12.8229
G01 F250.00
G01 Z-0.0500
G01 F350.00
G01 X29.8806 Y12.8229 F350.00
G01 X29.8806 Y12.5829 F350.00
G01 X29.7775 Y12.5829 F350.00
G00 Z0.4000
G00 X29.7670 Y12.3429
G01 F250.00
G01 Z-0.0500
G01 F350.00
G01 X29.8806 Y12.3429 F350.00
G01 X29.8806 Y12.1029 F350.00
G01 X29.7023 Y12.1029 F350.00
G00 Z0.4000
G00 X29.5691 Y11.8629
G01 F250.00
G01 Z-0.0500
G01 F350.00
G01 X29.8806 Y11.8629 F350.00
G01 X29.8806 Y11.6229 F350.00
G01 X29.3295 Y11.6229 F350.00
G01 X29.8806 Y11.3829 F350.00
G01 X22.7100 Y11.3829 F350.00
G00 Z0.4000
G00 X23.0382 Y11.1429
G01 F250.00
G01 Z-0.0500
G01 F350.00
G01 X29.8806 Y11.1429 F350.00
G00 Z0.4000
G00 X28.7223 Y10.9029
G01 F250.00
G01 Z-0.0500
G01 F350.00
G01 X23.2513 Y10.9029 F350.00
G00 Z0.4000
G00 X23.3985 Y10.6629
G01 F250.00
G01 Z-0.0500
G01 F350.00
G01 X28.4546 Y10.6629 F350.00
G00 Z0.4000
G00 X28.3020 Y10.4229
G01 F250.00
G01 Z-0.0500
G01 F350.00
G01 X23.4973 Y10.4229 F350.00
G00 Z0.4000
G00 X23.5556 Y10.1829
G01 F250.00
G01 Z-0.0500
G01 F350.00
G01 X28.2159 Y10.1829 F350.00
G00 Z0.4000
G00 X28.1827 Y9.9429
G01 F250.00
G01 Z-0.0500
G01 F350.00
G01 X23.5790 Y9.9429 F350.00
G00 Z0.4000
G00 X23.5684 Y9.7029
G01 F250.00
G01 Z-0.0500
G01 F350.00
G01 X28.1981 Y9.7029 F350.00
G00 Z0.4000
G00 X28.2640 Y9.4629
G01 F250.00
G01 Z-0.0500
G01 F350.00
G01 X23.5220 Y9.4629 F350.00
G00 Z0.4000
G00 X23.4391 Y9.2229
G01 F250.00
G01 Z-0.0500
G01 F350.00
G01 X28.3905 Y9.2229 F350.00
G00 Z0.4000
G00 X28.6076 Y8.9829
G01 F250.00
G01 Z-0.0500
G01 F350.00
G01 X23.3110 Y8.9829 F350.00
G00 Z0.4000
G00 X23.1240 Y8.7429
G01 F250.00
G01 Z-0.0500
G01 F350.00
G01 X29.0665 Y8.7429 F350.00
G00 Z0.4000
G00 X30.6952 Y8.7429
G01 F250.00
G01 Z-0.0500
G01 F350.00
G01 X32.9296 Y8.7429 F350.00
G01 X33.0252 Y8.9829 F350.00
G01 X31.1541 Y8.9829 F350.00
G00 Z0.4000
G00 X31.3712 Y9.2229
G01 F250.00
G01 Z-0.0500
G01 F350.00
G01 X33.0965 Y9.2229 F350.00
G01 X33.1454 Y9.4629 F350.00
G01 X31.4977 Y9.4629 F350.00
G00 Z0.4000
G00 X31.5635 Y9.7029
G01 F250.00
G01 Z-0.0500
G01 F350.00
G01 X33.1733 Y9.7029 F350.00
G01 X33.1824 Y9.9429 F350.00
G01 X31.5790 Y9.9429 F350.00
G00 Z0.4000
G00 X31.5458 Y10.1829
G01 F250.00
G01 Z-0.0500
G01 F350.00
G01 X33.1882 Y10.1829 F350.00
G01 X33.1940 Y10.4229 F350.00
G01 X31.4596 Y10.4229 F350.00
G00 Z0.4000
G00 X31.3071 Y10.6629
G01 F250.00
G01 Z-0.0500
G01 F350.00
G01 X33.1998 Y10.6629 F350.00
G01 X33.2055 Y10.9029 F350.00
G01 X31.2811 Y10.9029 F350.00
G01 X31.2811 Y11.1429 F350.00
G01 X33.2113 Y11.1429 F350.00
G01 X33.2171 Y11.3829 F350.00
G01 X31.2811 Y11.3829 F350.00
G01 X31.2811 Y11.6229 F350.00
G01 X33.2229 Y11.6229 F350.00
G01 X33.2287 Y11.8629 F350.00
G01 X31.2811 Y11.8629 F350.00
G01 X31.2811 Y12.1029 F350.00
G01 X33.2345 Y12.1029 F350.00
G01 X33.2403 Y12.3429 F350.00
G01 X31.2811 Y12.3429 F350.00
G01 X31.2811 Y12.5829 F350.00
G01 X33.2461 Y12.5829 F350.00
G01 X33.2519 Y12.8229 F350.00
G01 X31.2811 Y12.8229 F350.00
G01 X31.2811 Y13.0629 F350.00
G01 X33.2577 Y13.0629 F350.00
G01 X33.2635 Y13.3029 F350.00
G01 X31.2811 Y13.3029 F350.00
G01 X31.2811 Y13.5429 F350.00
G01 X33.2693 Y13.5429 F350.00
G01 X33.2750 Y13.7829 F350.00
G01 X31.2811 Y13.7829 F350.00
G01 X31.2811 Y14.0229 F350.00
G01 X33.2808 Y14.0229 F350.00
G01 X33.2866 Y14.2629 F350.00
G01 X31.2811 Y14.2629 F350.00
G01 X31.2811 Y14.5029 F350.00
G01 X33.2924 Y14.5029 F350.00
G01 X33.2982 Y14.7429 F350.00
G01 X31.2792 Y14.7429 F350.00
G00 Z0.4000
G00 X31.2210 Y14.9829
G01 F250.00
G01 Z-0.0500
G01 F350.00
G01 X33.3040 Y14.9829 F350.00
G01 X33.3098 Y15.2229 F350.00
G01 X31.0482 Y15.2229 F350.00
G01 X30.8082 Y15.4629 F350.00
G01 X33.3156 Y15.4629 F350.00
G01 X33.3214 Y15.7029 F350.00
G01 X30.4828 Y15.7029 F350.00
G01 X29.9216 Y15.9429 F350.00
G01 X33.3272 Y15.9429 F350.00
G01 X33.3330 Y16.1829 F350.00
G01 X27.9519 Y16.1829 F350.00
G01 X27.7119 Y16.4229 F350.00
G01 X33.3388 Y16.4229 F350.00
G01 X33.3445 Y16.6629 F350.00
G01 X29.2716 Y16.6629 F350.00
G00 Z0.4000
G00 X29.5394 Y16.9029
G01 F250.00
G01 Z-0.0500
G01 F350.00
G01 X33.3503 Y16.9029 F350.00
G01 X33.3561 Y17.1429 F350.00
G01 X29.6850 Y17.1429 F350.00
G00 Z0.4000
G00 X29.7610 Y17.3829
G01 F250.00
G01 Z-0.0500
G01 F350.00
G01 X33.3619 Y17.3829 F350.00
G01 X33.3677 Y17.6229 F350.00
G01 X29.7794 Y17.6229 F350.00
G00 Z0.4000
G00 X29.7453 Y17.8629
G01 F250.00
G01 Z-0.0500
G01 F350.00
G01 X33.3735 Y17.8629 F350.00
G01 X33.3793 Y18.1029 F350.00
G01 X29.6538 Y18.1029 F350.00
G00 Z0.4000
G00 X29.4815 Y18.3429
G01 F250.00
G01 Z-0.0500
G01 F350.00
G01 X33.3851 Y18.3429 F350.00
G01 X33.3909 Y18.5829 F350.00
G01 X30.9706 Y18.5829 F350.00
G00 Z0.4000
G00 X31.3773 Y18.8229
G01 F250.00
G01 Z-0.0500
G01 F350.00
G01 X33.3967 Y18.8229 F350.00
G01 X33.4025 Y19.0629 F350.00
G01 X31.5596 Y19.0629 F350.00
G00 Z0.4000
G00 X31.6513 Y19.3029
G01 F250.00
G01 Z-0.0500
G01 F350.00
G01 X33.4083 Y19.3029 F350.00
G01 X33.4140 Y19.5429 F350.00
G01 X31.6808 Y19.5429 F350.00
G01 X31.6808 Y19.7829 F350.00
G01 X33.4198 Y19.7829 F350.00
G01 X33.4256 Y20.0229 F350.00
G01 X31.6808 Y20.0229 F350.00
G01 X31.6808 Y20.2629 F350.00
G01 X33.4314 Y20.2629 F350.00
G01 X33.4372 Y20.5029 F350.00
G01 X31.6780 Y20.5029 F350.00
G00 Z0.4000
G00 X31.6335 Y20.7429
G01 F250.00
G01 Z-0.0500
G01 F350.00
G01 X33.4430 Y20.7429 F350.00
G01 X33.4488 Y20.9829 F350.00
G01 X31.5202 Y20.9829 F350.00
G00 Z0.4000
G00 X31.3023 Y21.2229
G01 F250.00
G01 Z-0.0500
G01 F350.00
G01 X33.4546 Y21.2229 F350.00
G01 X33.4604 Y21.4629 F350.00
G01 X25.0878 Y21.4629 F350.00
G01 X25.3278 Y21.7029 F350.00
G01 X33.4662 Y21.7029 F350.00
G01 X33.4720 Y21.9429 F350.00
G01 X25.5678 Y21.9429 F350.00
G01 X25.8078 Y22.1829 F350.00
G01 X33.4777 Y22.1829 F350.00
G01 X33.4835 Y22.4229 F350.00
G01 X26.0478 Y22.4229 F350.00
G01 X26.2878 Y22.6629 F350.00
G01 X33.4893 Y22.6629 F350.00
G01 X33.4951 Y22.9029 F350.00
G01 X26.5278 Y22.9029 F350.00
G01 X26.7678 Y23.1429 F350.00
G01 X33.5009 Y23.1429 F350.00
G01 X33.5067 Y23.3829 F350.00
G01 X27.0078 Y23.3829 F350.00
G01 X27.2478 Y23.6229 F350.00
G01 X33.5125 Y23.6229 F350.00
G01 X33.5183 Y23.8629 F350.00
G01 X27.4878 Y23.8629 F350.00
G01 X27.7278 Y24.1029 F350.00
G01 X33.5241 Y24.1029 F350.00
G01 X33.5299 Y24.3429 F350.00
G01 X27.9678 Y24.3429 F350.00
G01 X28.2078 Y24.5829 F350.00
G01 X33.5357 Y24.5829 F350.00
G01 X33.5415 Y24.8229 F350.00
G01 X28.4478 Y24.8229 F350.00
G01 X28.6878 Y25.0629 F350.00
G01 X33.5472 Y25.0629 F350.00
G01 X33.5530 Y25.3029 F350.00
G01 X28.9201 Y25.3029 F350.00
G00 Z0.4000
G00 X29.0614 Y25.5429
G01 F250.00
G01 Z-0.0500
G01 F350.00
G01 X33.5588 Y25.5429 F350.00
G01 X33.5646 Y25.7829 F350.00
G01 X29.1233 Y25.7829 F350.00
G00 Z0.4000
G00 X29.1312 Y26.0229
G01 F250.00
G01 Z-0.0500
G01 F350.00
G01 X33.5704 Y26.0229 F350.00
G01 X33.5762 Y26.2629 F350.00
G01 X29.1312 Y26.2629 F350.00
G01 X29.1312 Y26.5029 F350.00
G01 X30.2179 Y26.5029 F350.00
G00 Z0.4000
G00 X29.8524 Y26.7429
G01 F250.00
G01 Z-0.0500
G01 F350.00
G01 X29.1312 Y26.7429 F350.00
G01 X29.2026 Y26.9829 F350.00
G01 X29.6590 Y26.9829 F350.00
G00 Z0.4000
G00 X29.5461 Y27.2229
G01 F250.00
G01 Z-0.0500
G01 F350.00
G01 X29.3155 Y27.2229 F350.00
G00 Z0.4000
G00 X29.3709 Y27.4629
G01 F250.00
G01 Z-0.0500
G01 F350.00
G01 X29.4907 Y27.4629 F350.00
G00 Z0.4000
G00 X29.4851 Y27.7029
G01 F250.00
G01 Z-0.0500
G01 F350.00
G01 X29.3765 Y27.7029 F350.00
G00 Z0.4000
G00 X29.3333 Y27.9429
G01 F250.00
G01 Z-0.0500
G01 F350.00
G01 X29.5284 Y27.9429 F350.00
G00 Z0.4000
G00 X29.6103 Y28.1505
G01 F250.00
G01 Z-0.0500
G01 F350.00
G01 X29.5722 Y28.0692 F350.00
G01 X29.5325 Y27.9583 F350.00
G01 X29.5039 Y27.8441 F350.00
G01 X29.4866 Y27.7276 F350.00
G01 X29.4808 Y27.6100 F350.00
G01 X29.4866 Y27.4924 F350.00
G01 X29.5039 Y27.3759 F350.00
G01 X29.5311 Y27.2664 F350.00
G01 X29.5356 Y27.2523 F350.00
G01 X29.5722 Y27.1508 F350.00
G01 X29.6225 Y27.0443 F350.00
G01 X29.6831 Y26.9433 F350.00
G01 X29.7472 Y26.8565 F350.00
G01 X29.7596 Y26.8413 F350.00
G01 X29.8255 Y26.7686 F350.00
G01 X29.8394 Y26.7547 F350.00
G01 X29.9196 Y26.6824 F350.00
G01 X30.0061 Y26.6179 F350.00
G01 X30.0224 Y26.6070 F350.00
G01 X30.1151 Y26.5517 F350.00
G01 X30.2216 Y26.5013 F350.00
G01 X30.3325 Y26.4617 F350.00
G01 X30.4467 Y26.4331 F350.00
G01 X30.5632 Y26.4158 F350.00
G01 X30.6808 Y26.4100 F350.00
G01 X30.7984 Y26.4158 F350.00
G01 X30.9101 Y26.4322 F350.00
G01 X30.9245 Y26.4352 F350.00
G01 X31.0292 Y26.4617 F350.00
G01 X31.1400 Y26.5013 F350.00
G01 X31.2465 Y26.5517 F350.00
G01 X31.3392 Y26.6070 F350.00
G01 X31.3555 Y26.6179 F350.00
G01 X31.4344 Y26.6763 F350.00
G01 X31.4495 Y26.6888 F350.00
G01 X31.5258 Y26.7580 F350.00
G01 X31.5361 Y26.7686 F350.00
G01 X31.5879 Y26.8257 F350.00
G01 X31.6526 Y26.8843 F350.00
G01 X31.6631 Y26.8946 F350.00
G01 X31.7388 Y26.9784 F350.00
G01 X31.8090 Y27.0730 F350.00
G01 X31.8696 Y27.1741 F350.00
G01 X31.9160 Y27.2716 F350.00
G01 X31.9235 Y27.2897 F350.00
G01 X31.9566 Y27.3822 F350.00
G01 X31.9622 Y27.4010 F350.00
G01 X31.9883 Y27.5058 F350.00
G01 X32.0050 Y27.6175 F350.00
G01 X32.0063 Y27.6321 F350.00
G01 X32.0113 Y27.7400 F350.00
G01 X32.0113 Y29.4600 F350.00
G01 X32.0055 Y29.5777 F350.00
G01 X31.9883 Y29.6942 F350.00
G01 X31.9596 Y29.8085 F350.00
G01 X31.9199 Y29.9194 F350.00
G01 X31.8696 Y30.0259 F350.00
G01 X31.8090 Y30.1270 F350.00
G01 X31.7388 Y30.2216 F350.00
G01 X31.6665 Y30.3018 F350.00
G01 X31.6562 Y30.3123 F350.00
G01 X31.5724 Y30.3880 F350.00
G01 X31.4778 Y30.4582 F350.00
G01 X31.3767 Y30.5187 F350.00
G01 X31.2702 Y30.5691 F350.00
G01 X31.1593 Y30.6088 F350.00
G01 X31.0450 Y30.6374 F350.00
G01 X30.9285 Y30.6547 F350.00
G01 X30.8206 Y30.6603 F350.00
G01 X30.8010 Y30.6603 F350.00
G01 X30.7029 Y30.6554 F350.00
G01 X30.6834 Y30.6535 F350.00
G01 X30.5766 Y30.6374 F350.00
G01 X30.4718 Y30.6114 F350.00
G01 X30.4530 Y30.6057 F350.00
G01 X30.3514 Y30.5691 F350.00
G01 X30.2449 Y30.5187 F350.00
G01 X30.1439 Y30.4582 F350.00
G01 X30.0570 Y30.3940 F350.00
G01 X30.0455 Y30.3848 F350.00
G01 X29.9619 Y30.3089 F350.00
G01 X29.8828 Y30.2216 F350.00
G01 X29.8126 Y30.1270 F350.00
G01 X29.7569 Y30.0345 F350.00
G01 X29.7477 Y30.0171 F350.00
G01 X29.7057 Y29.9284 F350.00
G01 X29.6982 Y29.9103 F350.00
G01 X29.6620 Y29.8085 F350.00
G01 X29.6334 Y29.6942 F350.00
G01 X29.6161 Y29.5777 F350.00
G01 X29.6104 Y29.4649 F350.00
G01 X29.6103 Y28.1505 F350.00
G01 X29.6103 Y28.1829 F350.00
G01 X29.2351 Y28.1829 F350.00
G00 Z0.4000
G00 X29.0620 Y28.4229
G01 F250.00
G01 Z-0.0500
G01 F350.00
G01 X29.6103 Y28.4229 F350.00
G01 X29.6103 Y28.6629 F350.00
G01 X28.7560 Y28.6629 F350.00
G00 Z0.4000
G00 X28.2319 Y28.9029
G01 F250.00
G01 Z-0.0500
G01 F350.00
G01 X29.6103 Y28.9029 F350.00
G01 X29.6103 Y29.1429 F350.00
G01 X27.9919 Y29.1429 F350.00
G01 X27.7519 Y29.3829 F350.00
G01 X29.6103 Y29.3829 F350.00
G00 Z0.4000
G00 X29.6226 Y29.6229
G01 F250.00
G01 Z-0.0500
G01 F350.00
G01 X27.5119 Y29.6229 F350.00
G00 Z0.4000
G00 X27.2560 Y29.8629
G01 F250.00
G01 Z-0.0500
G01 F350.00
G01 X29.6812 Y29.8629 F350.00
G00 Z0.4000
G00 X29.7979 Y30.1029
G01 F250.00
G01 Z-0.0500
G01 F350.00
G01 X13.6272 Y30.1029 F350.00
G01 X14.0188 Y30.3429 F350.00
G01 X29.9991 Y30.3429 F350.00
G00 Z0.4000
G00 X30.3892 Y30.5829
G01 F250.00
G01 Z-0.0500
G01 F350.00
G01 X14.4104 Y30.5829 F350.00
G01 X14.8019 Y30.8229 F350.00
G01 X33.2575 Y30.8229 F350.00
G01 X33.3763 Y30.5829 F350.00
G01 X31.2324 Y30.5829 F350.00
G00 Z0.4000
G00 X31.6225 Y30.3429
G01 F250.00
G01 Z-0.0500
G01 F350.00
G01 X33.4680 Y30.3429 F350.00
G01 X33.5356 Y30.1029 F350.00
G01 X31.8237 Y30.1029 F350.00
G00 Z0.4000
G00 X31.9404 Y29.8629
G01 F250.00
G01 Z-0.0500
G01 F350.00
G01 X33.5810 Y29.8629 F350.00
G01 X33.6055 Y29.6229 F350.00
G01 X31.9991 Y29.6229 F350.00
G00 Z0.4000
G00 X32.0113 Y29.3829
G01 F250.00
G01 Z-0.0500
G01 F350.00
G01 X33.6113 Y29.3829 F350.00
G01 X33.6113 Y29.1429 F350.00
G01 X32.0113 Y29.1429 F350.00
G01 X32.0113 Y28.9029 F350.00
G01 X33.6113 Y28.9029 F350.00
G01 X33.6113 Y28.6629 F350.00
G01 X32.0113 Y28.6629 F350.00
G01 X32.0113 Y28.4229 F350.00
G01 X33.6113 Y28.4229 F350.00
G01 X33.6113 Y28.1829 F350.00
G01 X32.0113 Y28.1829 F350.00
G01 X32.0113 Y27.9429 F350.00
G01 X33.6113 Y27.9429 F350.00
G01 X33.6110 Y27.7029 F350.00
G01 X32.0097 Y27.7029 F350.00
G00 Z0.4000
G00 X31.9778 Y27.4629
G01 F250.00
G01 Z-0.0500
G01 F350.00
G01 X33.6052 Y27.4629 F350.00
G01 X33.5994 Y27.2229 F350.00
G01 X31.8929 Y27.2229 F350.00
G00 Z0.4000
G00 X31.7424 Y26.9829
G01 F250.00
G01 Z-0.0500
G01 F350.00
G01 X33.5936 Y26.9829 F350.00
G01 X33.5878 Y26.7429 F350.00
G01 X31.5092 Y26.7429 F350.00
G00 Z0.4000
G00 X31.1437 Y26.5029
G01 F250.00
G01 Z-0.0500
G01 F350.00
G01 X33.5820 Y26.5029 F350.00
G00 Z0.4000
G00 X33.1072 Y31.0629
G01 F250.00
G01 Z-0.0500
G01 F350.00
G01 X15.2024 Y31.0629 F350.00
G01 X15.8805 Y31.3029 F350.00
G01 X32.9185 Y31.3029 F350.00
G01 X32.6810 Y31.5429 F350.00
G01 X19.3593 Y31.5429 F350.00
G01 X23.1631 Y31.7829 F350.00
G01 X32.3779 Y31.7829 F350.00
G01 X31.9392 Y32.0229 F350.00
G01 X26.9669 Y32.0229 F350.00
G00 Z0.4000
G00 X27.5594 Y21.2229
G01 F250.00
G01 Z-0.0500
G01 F350.00
G01 X24.8478 Y21.2229 F350.00
G01 X24.6078 Y20.9829 F350.00
G01 X27.3415 Y20.9829 F350.00
G00 Z0.4000
G00 X27.2281 Y20.7429
G01 F250.00
G01 Z-0.0500
G01 F350.00
G01 X24.3678 Y20.7429 F350.00
G00 Z0.4000
G00 X24.0978 Y20.5029
G01 F250.00
G01 Z-0.0500
G01 F350.00
G01 X27.1837 Y20.5029 F350.00
G00 Z0.4000
G00 X27.1808 Y20.2629
G01 F250.00
G01 Z-0.0500
G01 F350.00
G01 X22.4878 Y20.2629 F350.00
G01 X22.2478 Y20.0229 F350.00
G01 X27.1808 Y20.0229 F350.00
G01 X27.1808 Y19.7829 F350.00
G01 X24.3679 Y19.7829 F350.00
G00 Z0.4000
G00 X24.6224 Y19.5429
G01 F250.00
G01 Z-0.0500
G01 F350.00
G01 X27.1808 Y19.5429 F350.00
G00 Z0.4000
G00 X27.2103 Y19.3029
G01 F250.00
G01 Z-0.0500
G01 F350.00
G01 X24.8319 Y19.3029 F350.00
G01 X25.0719 Y19.0629 F350.00
G01 X27.2304 Y19.0629 F350.00
G01 X27.2304 Y18.8229 F350.00
G01 X25.3119 Y18.8229 F350.00
G01 X25.5519 Y18.5829 F350.00
G01 X27.2304 Y18.5829 F350.00
G01 X27.2304 Y18.3429 F350.00
G01 X25.7919 Y18.3429 F350.00
G01 X26.0319 Y18.1029 F350.00
G01 X27.2304 Y18.1029 F350.00
G00 Z0.4000
G00 X27.2589 Y17.8629
G01 F250.00
G01 Z-0.0500
G01 F350.00
G01 X26.2719 Y17.8629 F350.00
G01 X26.5119 Y17.6229 F350.00
G01 X27.3538 Y17.6229 F350.00
G00 Z0.4000
G00 X27.5471 Y17.3829
G01 F250.00
G01 Z-0.0500
G01 F350.00
G01 X26.7519 Y17.3829 F350.00
G01 X26.9919 Y17.1429 F350.00
G01 X27.6767 Y17.1429 F350.00
G00 Z0.4000
G00 X27.6134 Y17.3287
G01 F250.00
G01 Z-0.0500
G01 F350.00
G01 X27.6256 Y17.2801 F350.00
G01 X27.6297 Y17.2660 F350.00
G01 X27.6627 Y17.1736 F350.00
G01 X27.6685 Y17.1601 F350.00
G01 X27.7063 Y17.0802 F350.00
G01 X27.7131 Y17.0672 F350.00
G01 X27.7610 Y16.9872 F350.00
G01 X27.7719 Y16.9708 F350.00
G01 X27.8305 Y16.8922 F350.00
G01 X27.8996 Y16.8157 F350.00
G01 X27.9101 Y16.8054 F350.00
G01 X27.9756 Y16.7461 F350.00
G01 X27.9907 Y16.7336 F350.00
G01 X28.0697 Y16.6754 F350.00
G01 X28.1537 Y16.6247 F350.00
G01 X28.1711 Y16.6155 F350.00
G01 X28.2599 Y16.5737 F350.00
G01 X28.3522 Y16.5404 F350.00
G01 X28.3662 Y16.5360 F350.00
G01 X28.4662 Y16.5111 F350.00
G01 X28.5633 Y16.4965 F350.00
G01 X28.5828 Y16.4946 F350.00
G01 X28.6808 Y16.4900 F350.00
G01 X28.7789 Y16.4946 F350.00
G01 X28.7984 Y16.4965 F350.00
G01 X28.8954 Y16.5111 F350.00
G01 X28.9907 Y16.5347 F350.00
G01 X29.0095 Y16.5404 F350.00
G01 X29.1018 Y16.5737 F350.00
G01 X29.1906 Y16.6155 F350.00
G01 X29.2079 Y16.6247 F350.00
G01 X29.2920 Y16.6754 F350.00
G01 X29.3709 Y16.7336 F350.00
G01 X29.3861 Y16.7461 F350.00
G01 X29.4586 Y16.8122 F350.00
G01 X29.5311 Y16.8922 F350.00
G01 X29.5898 Y16.9708 F350.00
G01 X29.6007 Y16.9872 F350.00
G01 X29.6461 Y17.0629 F350.00
G01 X29.6553 Y17.0802 F350.00
G01 X29.6971 Y17.1690 F350.00
G01 X29.7304 Y17.2614 F350.00
G01 X29.7361 Y17.2801 F350.00
G01 X29.7597 Y17.3754 F350.00
G01 X29.7755 Y17.4822 F350.00
G01 X29.7808 Y17.5900 F350.00
G01 X29.7762 Y17.6880 F350.00
G01 X29.7743 Y17.7076 F350.00
G01 X29.7597 Y17.8046 F350.00
G01 X29.7361 Y17.8999 F350.00
G01 X29.7304 Y17.9186 F350.00
G01 X29.7006 Y18.0018 F350.00
G01 X29.6931 Y18.0199 F350.00
G01 X29.6509 Y18.1085 F350.00
G01 X29.6007 Y18.1928 F350.00
G01 X29.5898 Y18.2092 F350.00
G01 X29.5311 Y18.2878 F350.00
G01 X29.4654 Y18.3607 F350.00
G01 X29.4515 Y18.3746 F350.00
G01 X29.3787 Y18.4403 F350.00
G01 X29.3000 Y18.4990 F350.00
G01 X29.2837 Y18.5099 F350.00
G01 X29.1994 Y18.5601 F350.00
G01 X29.1312 Y18.5926 F350.00
G01 X29.1312 Y19.0396 F350.00
G01 X29.8160 Y19.0396 F350.00
G01 X29.8494 Y18.9844 F350.00
G01 X29.9018 Y18.9133 F350.00
G01 X29.9142 Y18.8982 F350.00
G01 X29.9703 Y18.8364 F350.00
G01 X29.9808 Y18.8261 F350.00
G01 X30.0464 Y18.7670 F350.00
G01 X30.1172 Y18.7142 F350.00
G01 X30.1294 Y18.7059 F350.00
G01 X30.2009 Y18.6629 F350.00
G01 X30.2182 Y18.6537 F350.00
G01 X30.2981 Y18.6161 F350.00
G01 X30.3812 Y18.5861 F350.00
G01 X30.4000 Y18.5804 F350.00
G01 X30.4857 Y18.5592 F350.00
G01 X30.5828 Y18.5448 F350.00
G01 X30.6808 Y18.5400 F350.00
G01 X30.7788 Y18.5448 F350.00
G01 X30.8759 Y18.5592 F350.00
G01 X30.9616 Y18.5804 F350.00
G01 X30.9804 Y18.5861 F350.00
G01 X31.0635 Y18.6161 F350.00
G01 X31.1435 Y18.6537 F350.00
G01 X31.1608 Y18.6629 F350.00
G01 X31.2281 Y18.7033 F350.00
G01 X31.2444 Y18.7142 F350.00
G01 X31.3152 Y18.7670 F350.00
G01 X31.3844 Y18.8295 F350.00
G01 X31.3947 Y18.8400 F350.00
G01 X31.4538 Y18.9056 F350.00
G01 X31.5123 Y18.9844 F350.00
G01 X31.5627 Y19.0686 F350.00
G01 X31.6047 Y19.1573 F350.00
G01 X31.6378 Y19.2497 F350.00
G01 X31.6616 Y19.3449 F350.00
G01 X31.6760 Y19.4420 F350.00
G01 X31.6808 Y19.5400 F350.00
G01 X31.6808 Y20.4449 F350.00
G01 X31.6760 Y20.5380 F350.00
G01 X31.6625 Y20.6303 F350.00
G01 X31.6595 Y20.6447 F350.00
G01 X31.6404 Y20.7208 F350.00
G01 X31.6347 Y20.7396 F350.00
G01 X31.6047 Y20.8227 F350.00
G01 X31.5627 Y20.9114 F350.00
G01 X31.5175 Y20.9873 F350.00
G01 X31.5066 Y21.0036 F350.00
G01 X31.4538 Y21.0744 F350.00
G01 X31.3879 Y21.1471 F350.00
G01 X31.3152 Y21.2130 F350.00
G01 X31.2364 Y21.2715 F350.00
G01 X31.1522 Y21.3219 F350.00
G01 X31.0635 Y21.3639 F350.00
G01 X30.9711 Y21.3969 F350.00
G01 X30.8759 Y21.4208 F350.00
G01 X30.7788 Y21.4352 F350.00
G01 X30.6808 Y21.4400 F350.00
G01 X30.5926 Y21.4359 F350.00
G01 X30.5731 Y21.4340 F350.00
G01 X30.4857 Y21.4208 F350.00
G01 X30.4000 Y21.3996 F350.00
G01 X30.3812 Y21.3939 F350.00
G01 X30.2981 Y21.3639 F350.00
G01 X30.2182 Y21.3263 F350.00
G01 X30.2051 Y21.3196 F350.00
G01 X30.1253 Y21.2715 F350.00
G01 X30.0542 Y21.2190 F350.00
G01 X30.0390 Y21.2066 F350.00
G01 X29.9772 Y21.1505 F350.00
G01 X29.9669 Y21.1400 F350.00
G01 X29.9142 Y21.0818 F350.00
G01 X29.9047 Y21.0706 F350.00
G01 X29.8494 Y20.9956 F350.00
G01 X29.8160 Y20.9404 F350.00
G01 X29.0457 Y20.9404 F350.00
G01 X29.0123 Y20.9956 F350.00
G01 X28.9599 Y21.0667 F350.00
G01 X28.9474 Y21.0818 F350.00
G01 X28.8914 Y21.1436 F350.00
G01 X28.8808 Y21.1539 F350.00
G01 X28.8152 Y21.2130 F350.00
G01 X28.7444 Y21.2658 F350.00
G01 X28.7323 Y21.2741 F350.00
G01 X28.6608 Y21.3171 F350.00
G01 X28.6435 Y21.3263 F350.00
G01 X28.5635 Y21.3639 F350.00
G01 X28.4804 Y21.3939 F350.00
G01 X28.4616 Y21.3996 F350.00
G01 X28.3759 Y21.4208 F350.00
G01 X28.2788 Y21.4352 F350.00
G01 X28.1808 Y21.4400 F350.00
G01 X28.0828 Y21.4352 F350.00
G01 X27.9857 Y21.4208 F350.00
G01 X27.9000 Y21.3996 F350.00
G01 X27.8812 Y21.3939 F350.00
G01 X27.7981 Y21.3639 F350.00
G01 X27.7182 Y21.3263 F350.00
G01 X27.7009 Y21.3171 F350.00
G01 X27.6335 Y21.2767 F350.00
G01 X27.6172 Y21.2658 F350.00
G01 X27.5464 Y21.2130 F350.00
G01 X27.4737 Y21.1471 F350.00
G01 X27.4078 Y21.0744 F350.00
G01 X27.3494 Y20.9956 F350.00
G01 X27.2989 Y20.9114 F350.00
G01 X27.2609 Y20.8317 F350.00
G01 X27.2534 Y20.8135 F350.00
G01 X27.2270 Y20.7396 F350.00
G01 X27.2213 Y20.7208 F350.00
G01 X27.2000 Y20.6351 F350.00
G01 X27.1868 Y20.5478 F350.00
G01 X27.1852 Y20.5331 F350.00
G01 X27.1808 Y20.4400 F350.00
G01 X27.1809 Y19.5351 F350.00
G01 X27.1856 Y19.4420 F350.00
G01 X27.1991 Y19.3497 F350.00
G01 X27.2022 Y19.3353 F350.00
G01 X27.2213 Y19.2592 F350.00
G01 X27.2254 Y19.2450 F350.00
G01 X27.2304 Y19.2307 F350.00
G01 X27.2305 Y18.0851 F350.00
G01 X27.2350 Y17.9968 F350.00
G01 X27.2470 Y17.9143 F350.00
G01 X27.2509 Y17.8950 F350.00
G01 X27.2714 Y17.8141 F350.00
G01 X27.2993 Y17.7355 F350.00
G01 X27.3068 Y17.7173 F350.00
G01 X27.3404 Y17.6464 F350.00
G01 X27.3475 Y17.6335 F350.00
G01 X27.3906 Y17.5620 F350.00
G01 X27.4401 Y17.4948 F350.00
G01 X27.4493 Y17.4833 F350.00
G01 X27.5020 Y17.4251 F350.00
G01 X27.5123 Y17.4146 F350.00
G01 X27.5742 Y17.3585 F350.00
G01 X27.5857 Y17.3493 F350.00
G01 X27.6134 Y17.3287 F350.00
G00 Z0.4000
G00 X27.8222 Y16.9029
G01 F250.00
G01 Z-0.0500
G01 F350.00
G01 X27.2319 Y16.9029 F350.00
G01 X27.4719 Y16.6629 F350.00
G01 X28.0900 Y16.6629 F350.00
G00 Z0.4000
G00 X29.1517 Y18.5829
G01 F250.00
G01 Z-0.0500
G01 F350.00
G01 X30.3910 Y18.5829 F350.00
G00 Z0.4000
G00 X29.9844 Y18.8229
G01 F250.00
G01 Z-0.0500
G01 F350.00
G01 X29.1312 Y18.8229 F350.00
G00 Z0.4000
G00 X29.0202 Y20.9829
G01 F250.00
G01 Z-0.0500
G01 F350.00
G01 X29.8415 Y20.9829 F350.00
G00 Z0.4000
G00 X30.0594 Y21.2229
G01 F250.00
G01 Z-0.0500
G01 F350.00
G01 X28.8023 Y21.2229 F350.00
G00 Z0.4000
G00 X22.9937 Y19.7829
G01 F250.00
G01 Z-0.0500
G01 F350.00
G01 X22.0078 Y19.7829 F350.00
G01 X21.7678 Y19.5429 F350.00
G01 X22.7393 Y19.5429 F350.00
G00 Z0.4000
G00 X22.5926 Y19.3029
G01 F250.00
G01 Z-0.0500
G01 F350.00
G01 X21.5278 Y19.3029 F350.00
G01 X21.2878 Y19.0629 F350.00
G01 X22.5108 Y19.0629 F350.00
G00 Z0.4000
G00 X20.6139 Y16.4229
G01 F250.00
G01 Z-0.0500
G01 F350.00
G01 X20.5812 Y16.4229 F350.00
G01 X20.5812 Y16.1829 F350.00
G01 X20.8539 Y16.1829 F350.00
G01 X21.0939 Y15.9429 F350.00
G01 X20.5812 Y15.9429 F350.00
G01 X20.5812 Y15.7029 F350.00
G01 X21.3339 Y15.7029 F350.00
G01 X21.5739 Y15.4629 F350.00
G01 X20.5812 Y15.4629 F350.00
G01 X20.5812 Y15.2229 F350.00
G01 X21.8139 Y15.2229 F350.00
G01 X22.0539 Y14.9829 F350.00
G01 X20.5812 Y14.9829 F350.00
G01 X20.5812 Y14.7429 F350.00
G01 X22.2939 Y14.7429 F350.00
G01 X22.5339 Y14.5029 F350.00
G01 X20.5812 Y14.5029 F350.00
G00 Z0.4000
G00 X20.5626 Y14.2629
G01 F250.00
G01 Z-0.0500
G01 F350.00
G01 X22.7739 Y14.2629 F350.00
G01 X23.0139 Y14.0229 F350.00
G01 X20.4791 Y14.0229 F350.00
G00 Z0.4000
G00 X20.3076 Y13.7829
G01 F250.00
G01 Z-0.0500
G01 F350.00
G01 X23.2539 Y13.7829 F350.00
G01 X23.4939 Y13.5429 F350.00
G01 X20.0678 Y13.5429 F350.00
G01 X19.8278 Y13.3029 F350.00
G01 X23.7339 Y13.3029 F350.00
G01 X23.9739 Y13.0629 F350.00
G01 X19.5878 Y13.0629 F350.00
G01 X19.3478 Y12.8229 F350.00
G01 X24.2139 Y12.8229 F350.00
G01 X24.4539 Y12.5829 F350.00
G01 X19.1078 Y12.5829 F350.00
G01 X18.8678 Y12.3429 F350.00
G01 X24.6939 Y12.3429 F350.00
G01 X24.9339 Y12.1029 F350.00
G01 X18.6278 Y12.1029 F350.00
G01 X18.3878 Y11.8629 F350.00
G01 X25.1739 Y11.8629 F350.00
G00 Z0.4000
G00 X25.5317 Y11.6229
G01 F250.00
G01 Z-0.0500
G01 F350.00
G01 X18.1478 Y11.6229 F350.00
G01 X17.9078 Y11.3829 F350.00
G01 X21.0517 Y11.3829 F350.00
G00 Z0.4000
G00 X20.7234 Y11.1429
G01 F250.00
G01 Z-0.0500
G01 F350.00
G01 X17.6678 Y11.1429 F350.00
G01 X17.4278 Y10.9029 F350.00
G01 X20.5104 Y10.9029 F350.00
G00 Z0.4000
G00 X20.3631 Y10.6629
G01 F250.00
G01 Z-0.0500
G01 F350.00
G01 X17.2122 Y10.6629 F350.00
G00 Z0.4000
G00 X17.1287 Y10.4229
G01 F250.00
G01 Z-0.0500
G01 F350.00
G01 X20.2643 Y10.4229 F350.00
G00 Z0.4000
G00 X20.2060 Y10.1829
G01 F250.00
G01 Z-0.0500
G01 F350.00
G01 X16.9571 Y10.1829 F350.00
G00 Z0.4000
G00 X16.5628 Y9.9429
G01 F250.00
G01 Z-0.0500
G01 F350.00
G01 X20.1827 Y9.9429 F350.00
G00 Z0.4000
G00 X21.4274 Y8.2629
G01 F250.00
G01 Z-0.0500
G01 F350.00
G01 X12.3966 Y8.2629 F350.00
G01 X12.8142 Y8.0229 F350.00
G01 X32.4568 Y8.0229 F350.00
G01 X32.6512 Y8.2629 F350.00
G01 X22.3342 Y8.2629 F350.00
G00 Z0.4000
G00 X22.8478 Y8.5029
G01 F250.00
G01 Z-0.0500
G01 F350.00
G01 X32.8065 Y8.5029 F350.00
G01 X32.2126 Y7.7829 F350.00
G01 X13.2318 Y7.7829 F350.00
G01 X13.6494 Y7.5429 F350.00
G01 X31.8923 Y7.5429 F350.00
G01 X31.4302 Y7.3029 F350.00
G01 X14.0670 Y7.3029 F350.00
G01 X14.4846 Y7.0629 F350.00
G01 X29.8201 Y7.0629 F350.00
G00 Z0.4000
G00 X25.7440 Y6.8229
G01 F250.00
G01 Z-0.0500
G01 F350.00
G01 X15.2342 Y6.8229 F350.00
G00 Z0.4000
G00 X21.8966 Y6.5986
G01 F250.00
G01 Z-0.0500
G01 F350.00
G01 X15.4834 Y6.8011 F350.00
G01 X15.3303 Y6.8087 F350.00
G01 X15.1068 Y6.8418 F350.00
G01 X14.8876 Y6.8967 F350.00
G01 X14.6749 Y6.9728 F350.00
G01 X14.4855 Y7.0624 F350.00
G01 X8.2452 Y10.6488 F350.00
G01 X8.0920 Y10.7406 F350.00
G01 X7.8908 Y10.8899 F350.00
G01 X7.7380 Y11.0284 F350.00
G01 X6.4462 Y12.3201 F350.00
G01 X6.3077 Y12.4730 F350.00
G01 X6.1585 Y12.6742 F350.00
G01 X6.0297 Y12.8890 F350.00
G01 X5.9226 Y13.1155 F350.00
G01 X5.8382 Y13.3513 F350.00
G01 X5.7773 Y13.5943 F350.00
G01 X5.7406 Y13.8421 F350.00
G01 X5.7304 Y14.0481 F350.00
G01 X5.7304 Y23.7442 F350.00
G01 X5.7406 Y23.9502 F350.00
G01 X5.7773 Y24.1980 F350.00
G01 X5.8382 Y24.4410 F350.00
G01 X5.9226 Y24.6768 F350.00
G01 X6.0297 Y24.9033 F350.00
G01 X6.1450 Y25.0956 F350.00
G01 X6.3543 Y25.3957 F350.00
G01 X6.4693 Y25.5508 F350.00
G01 X6.6408 Y25.7400 F350.00
G01 X6.8300 Y25.9115 F350.00
G01 X7.0280 Y26.0583 F350.00
G01 X15.0309 Y30.9633 F350.00
G01 X15.1776 Y31.0511 F350.00
G01 X15.4040 Y31.1582 F350.00
G01 X15.6399 Y31.2426 F350.00
G01 X15.8828 Y31.3035 F350.00
G01 X16.1182 Y31.3384 F350.00
G01 X30.6119 Y32.2529 F350.00
G01 X30.8108 Y32.2627 F350.00
G01 X31.0855 Y32.2492 F350.00
G01 X31.3576 Y32.2088 F350.00
G01 X31.6244 Y32.1420 F350.00
G01 X31.8834 Y32.0493 F350.00
G01 X32.1320 Y31.9317 F350.00
G01 X32.3679 Y31.7903 F350.00
G01 X32.5888 Y31.6265 F350.00
G01 X32.7926 Y31.4418 F350.00
G01 X32.9773 Y31.2380 F350.00
G01 X33.1412 Y31.0171 F350.00
G01 X33.2826 Y30.7812 F350.00
G01 X33.4002 Y30.5325 F350.00
G01 X33.4928 Y30.2736 F350.00
G01 X33.5596 Y30.0068 F350.00
G01 X33.6000 Y29.7347 F350.00
G01 X33.6113 Y29.5042 F350.00
G01 X33.6113 Y27.7183 F350.00
G01 X33.1798 Y9.8341 F350.00
G01 X33.1695 Y9.6253 F350.00
G01 X33.1292 Y9.3533 F350.00
G01 X33.0623 Y9.0866 F350.00
G01 X32.9697 Y8.8277 F350.00
G01 X32.8521 Y8.5791 F350.00
G01 X32.7107 Y8.3432 F350.00
G01 X32.5469 Y8.1223 F350.00
G01 X32.3623 Y7.9186 F350.00
G01 X32.1585 Y7.7339 F350.00
G01 X31.9376 Y7.5701 F350.00
G01 X31.7018 Y7.4287 F350.00
G01 X31.4532 Y7.3111 F350.00
G01 X31.1943 Y7.2185 F350.00
G01 X30.9275 Y7.1517 F350.00
G01 X30.6642 Y7.1126 F350.00
G01 X22.1249 Y6.6098 F350.00
G01 X21.8966 Y6.5986 F350.00
G00 Z0.4000
G00 X29.6722 Y14.0229
G01 F250.00
G01 Z-0.0500
G01 F350.00
G01 X29.8806 Y14.0229 F350.00
G00 Z0.4000
M05
G00 Z0.4000
G00 Z40.00
M5         ( spindle off )
M9         ( coolant off - ignored by Shapeoko if unused )
G28 G91 Z0 ( safe Z home )
G90        ( absolute )
G28 G91 X0 Y0 ( XY home )
G90        ( absolute )
M30        ( program end )
%
