(G-CODE GENERATED BY FLATCAM v8.994 - www.flatcam.org - Version Date: 2020/11/7)

(Name: Buzzer PCB-F_Cu.gbr_ncc_cnc)
(Type: G-code from Geometry)
(Units: MM)

(Created on Sunday, 21 June 2026 at 20:14)

(This preprocessor is used with a motion controller loaded with GRBL firmware.)
(It is configured to be compatible with almost any version of GRBL firmware.)

(TOOL DIAMETER: 0.4 mm)
(Feedrate_XY: 350.0 mm/min)
(Feedrate_Z: 250.0 mm/min)
(Feedrate rapids 1500.0 mm/min)

(Z_Cut: -0.05 mm)
(Z_Move: 0.5 mm)
(Z Start: None mm)
(Z End: 40.0 mm)
(X,Y End: None mm)
(Steps per circle: 64)
(Steps per circle: 64)
(Preprocessor Geometry: grbl_11)

(X range:  -24.2643 ...    3.5164  mm)
(Y range:   -4.0208 ...   21.5428  mm)

(Spindle Speed: 0.0 RPM)
G21
G90
G17
G94


G01 F350.00

M5             
G00 Z40.0000
G00 X0.0000 Y0.0000                
T2
M6
(MSG, Change to Tool Dia = 0.4000)
M0
G00 Z40.0000

M03
G01 F350.00
G00 X-2.7225 Y-0.2970
G01 F250.00
G01 Z-0.0500
G01 F350.00
G01 X-18.0669 Y-0.2970 F350.00
G00 Z0.5000
G00 X-18.3892 Y-0.5370
G01 F250.00
G01 Z-0.0500
G01 F350.00
G01 X-3.3165 Y-0.5370 F350.00
G00 Z0.5000
G00 X-5.4508 Y0.9030
G01 F250.00
G01 Z-0.0500
G01 F350.00
G01 X0.2479 Y0.9030 F350.00
G01 X0.8419 Y1.1430 F350.00
G01 X-5.2108 Y1.1430 F350.00
G01 X-4.9708 Y1.3830 F350.00
G01 X1.4360 Y1.3830 F350.00
G01 X1.9951 Y1.6230 F350.00
G01 X-4.7308 Y1.6230 F350.00
G01 X-4.4908 Y1.8630 F350.00
G01 X2.3602 Y1.8630 F350.00
G01 X2.6301 Y2.1030 F350.00
G01 X-4.2508 Y2.1030 F350.00
G01 X-4.0108 Y2.3430 F350.00
G01 X2.8349 Y2.3430 F350.00
G01 X2.9969 Y2.5830 F350.00
G01 X-3.7708 Y2.5830 F350.00
G00 Z0.5000
G00 X-3.5958 Y2.8230
G01 F250.00
G01 Z-0.0500
G01 F350.00
G01 X3.1239 Y2.8230 F350.00
G01 X3.2210 Y3.0630 F350.00
G01 X1.2854 Y3.0630 F350.00
G00 Z0.5000
G00 X1.5548 Y3.3030
G01 F250.00
G01 Z-0.0500
G01 F350.00
G01 X3.2943 Y3.3030 F350.00
G01 X3.3622 Y3.5430 F350.00
G01 X1.6934 Y3.5430 F350.00
G00 Z0.5000
G00 X1.7562 Y3.7830
G01 F250.00
G01 Z-0.0500
G01 F350.00
G01 X3.4293 Y3.7830 F350.00
G01 X3.4813 Y4.0230 F350.00
G01 X1.8184 Y4.0230 F350.00
G00 Z0.5000
G00 X1.8994 Y4.2630
G01 F250.00
G01 Z-0.0500
G01 F350.00
G01 X3.5098 Y4.2630 F350.00
G01 X3.5164 Y4.5030 F350.00
G01 X1.9164 Y4.5030 F350.00
G01 X1.9164 Y4.7430 F350.00
G01 X3.5164 Y4.7430 F350.00
G01 X3.5164 Y4.9830 F350.00
G01 X1.9164 Y4.9830 F350.00
G01 X1.9164 Y5.2230 F350.00
G01 X3.5164 Y5.2230 F350.00
G01 X3.5164 Y5.4630 F350.00
G01 X1.9164 Y5.4630 F350.00
G01 X1.9164 Y5.7030 F350.00
G01 X3.5164 Y5.7030 F350.00
G01 X3.5164 Y5.9430 F350.00
G01 X1.9164 Y5.9430 F350.00
G01 X1.9164 Y6.1830 F350.00
G01 X3.5164 Y6.1830 F350.00
G01 X3.5164 Y6.4230 F350.00
G01 X1.9164 Y6.4230 F350.00
G01 X1.9164 Y6.6630 F350.00
G01 X3.5164 Y6.6630 F350.00
G01 X3.5164 Y6.9030 F350.00
G01 X1.9164 Y6.9030 F350.00
G01 X1.9164 Y7.1430 F350.00
G01 X3.5164 Y7.1430 F350.00
G01 X3.5164 Y7.3830 F350.00
G01 X1.9164 Y7.3830 F350.00
G01 X1.9164 Y7.6230 F350.00
G01 X3.5164 Y7.6230 F350.00
G01 X3.5164 Y7.8630 F350.00
G01 X1.9164 Y7.8630 F350.00
G01 X1.9164 Y8.1030 F350.00
G01 X3.5164 Y8.1030 F350.00
G01 X3.5164 Y8.3430 F350.00
G01 X1.9164 Y8.3430 F350.00
G01 X1.9164 Y8.5830 F350.00
G01 X3.5164 Y8.5830 F350.00
G01 X3.5164 Y8.8230 F350.00
G01 X1.9164 Y8.8230 F350.00
G01 X1.9164 Y9.0630 F350.00
G01 X3.5164 Y9.0630 F350.00
G01 X3.5164 Y9.3030 F350.00
G01 X1.9164 Y9.3030 F350.00
G01 X1.9164 Y9.5430 F350.00
G01 X3.5164 Y9.5430 F350.00
G01 X3.5164 Y9.7830 F350.00
G01 X1.9164 Y9.7830 F350.00
G01 X1.9164 Y10.0230 F350.00
G01 X3.5164 Y10.0230 F350.00
G01 X3.5164 Y10.2630 F350.00
G01 X1.9164 Y10.2630 F350.00
G01 X1.9164 Y10.5030 F350.00
G01 X3.5164 Y10.5030 F350.00
G01 X3.5164 Y10.7430 F350.00
G01 X1.9164 Y10.7430 F350.00
G01 X1.9164 Y10.9830 F350.00
G01 X3.5164 Y10.9830 F350.00
G01 X3.5164 Y11.2230 F350.00
G01 X1.9164 Y11.2230 F350.00
G01 X1.9164 Y11.4630 F350.00
G01 X3.5164 Y11.4630 F350.00
G01 X3.5164 Y11.7030 F350.00
G01 X1.9164 Y11.7030 F350.00
G01 X1.9164 Y11.9430 F350.00
G01 X3.5164 Y11.9430 F350.00
G01 X3.5164 Y12.1830 F350.00
G01 X1.9164 Y12.1830 F350.00
G01 X1.9164 Y12.4230 F350.00
G01 X3.5164 Y12.4230 F350.00
G01 X3.5164 Y12.6630 F350.00
G01 X1.9164 Y12.6630 F350.00
G01 X1.9164 Y12.9030 F350.00
G01 X3.5164 Y12.9030 F350.00
G01 X3.5164 Y13.1430 F350.00
G01 X1.9164 Y13.1430 F350.00
G01 X1.9164 Y13.3830 F350.00
G01 X3.5164 Y13.3830 F350.00
G01 X3.5164 Y13.6230 F350.00
G01 X1.9164 Y13.6230 F350.00
G01 X1.9164 Y13.8630 F350.00
G01 X3.5164 Y13.8630 F350.00
G01 X3.5159 Y14.1030 F350.00
G01 X1.9140 Y14.1030 F350.00
G00 Z0.5000
G00 X1.8693 Y14.3430
G01 F250.00
G01 Z-0.0500
G01 F350.00
G01 X3.4998 Y14.3430 F350.00
G01 X3.4605 Y14.5830 F350.00
G01 X1.7521 Y14.5830 F350.00
G00 Z0.5000
G00 X1.5362 Y14.8230
G01 F250.00
G01 Z-0.0500
G01 F350.00
G01 X3.3969 Y14.8230 F350.00
G01 X3.3067 Y15.0630 F350.00
G01 X1.2962 Y15.0630 F350.00
G01 X1.0562 Y15.3030 F350.00
G01 X3.1868 Y15.3030 F350.00
G01 X3.0322 Y15.5430 F350.00
G01 X0.8162 Y15.5430 F350.00
G01 X0.5762 Y15.7830 F350.00
G01 X2.8354 Y15.7830 F350.00
G01 X2.5989 Y16.0230 F350.00
G01 X0.3267 Y16.0230 F350.00
G01 X1.3876 Y17.2230 F350.00
G01 X-3.8715 Y17.2230 F350.00
G01 X-4.1000 Y17.4630 F350.00
G01 X1.0511 Y17.4630 F350.00
G01 X0.6356 Y17.7030 F350.00
G01 X-4.1788 Y17.7030 F350.00
G00 Z0.5000
G00 X-4.3436 Y17.9430
G01 F250.00
G01 Z-0.0500
G01 F350.00
G01 X0.2180 Y17.9430 F350.00
G01 X-0.1996 Y18.1830 F350.00
G01 X-4.4720 Y18.1830 F350.00
G00 Z0.5000
G00 X-4.7004 Y18.4230
G01 F250.00
G01 Z-0.0500
G01 F350.00
G01 X-0.6172 Y18.4230 F350.00
G01 X-1.0348 Y18.6630 F350.00
G01 X-4.9404 Y18.6630 F350.00
G01 X-5.1804 Y18.9030 F350.00
G01 X-1.4524 Y18.9030 F350.00
G01 X-1.8700 Y19.1430 F350.00
G01 X-5.4204 Y19.1430 F350.00
G01 X-5.6604 Y19.3830 F350.00
G01 X-2.2876 Y19.3830 F350.00
G01 X-2.7052 Y19.6230 F350.00
G01 X-5.9191 Y19.6230 F350.00
G00 Z0.5000
G00 X-6.4410 Y18.1830
G01 F250.00
G01 Z-0.0500
G01 F350.00
G01 X-6.7085 Y18.1830 F350.00
G00 Z0.5000
G00 X-6.3436 Y17.9430
G01 F250.00
G01 Z-0.0500
G01 F350.00
G01 X-6.2010 Y17.9430 F350.00
G01 X-6.1788 Y17.7030 F350.00
G01 X-5.9610 Y17.7030 F350.00
G01 X-5.9680 Y17.4630 F350.00
G01 X-6.1000 Y17.4630 F350.00
G00 Z0.5000
G00 X-6.0840 Y17.2230
G01 F250.00
G01 Z-0.0500
G01 F350.00
G01 X-5.9840 Y17.2230 F350.00
G00 Z0.5000
G00 X-5.9844 Y16.9830
G01 F250.00
G01 Z-0.0500
G01 F350.00
G01 X-6.0840 Y16.9830 F350.00
G00 Z0.5000
G00 X-6.0861 Y16.7430
G01 F250.00
G01 Z-0.0500
G01 F350.00
G01 X-5.9844 Y16.7430 F350.00
G01 X-5.9844 Y16.5030 F350.00
G01 X-6.1292 Y16.5030 F350.00
G00 Z0.5000
G00 X-6.2446 Y16.2630
G01 F250.00
G01 Z-0.0500
G01 F350.00
G01 X-5.9844 Y16.2630 F350.00
G01 X-5.9844 Y16.0230 F350.00
G01 X-6.4769 Y16.0230 F350.00
G00 Z0.5000
G00 X-6.9484 Y15.7830
G01 F250.00
G01 Z-0.0500
G01 F350.00
G01 X-5.9844 Y15.7830 F350.00
G01 X-5.9844 Y15.5430 F350.00
G01 X-7.1884 Y15.5430 F350.00
G01 X-7.4284 Y15.3030 F350.00
G01 X-6.2165 Y15.3030 F350.00
G01 X-6.4565 Y15.0630 F350.00
G01 X-7.6684 Y15.0630 F350.00
G01 X-7.9084 Y14.8230 F350.00
G01 X-6.6965 Y14.8230 F350.00
G01 X-6.9365 Y14.5830 F350.00
G01 X-8.1484 Y14.5830 F350.00
G01 X-8.3884 Y14.3430 F350.00
G01 X-7.1765 Y14.3430 F350.00
G01 X-7.4165 Y14.1030 F350.00
G01 X-8.6284 Y14.1030 F350.00
G01 X-8.8684 Y13.8630 F350.00
G01 X-7.6565 Y13.8630 F350.00
G01 X-7.8965 Y13.6230 F350.00
G01 X-9.1084 Y13.6230 F350.00
G01 X-9.3484 Y13.3830 F350.00
G01 X-8.1340 Y13.3830 F350.00
G00 Z0.5000
G00 X-8.2944 Y13.1430
G01 F250.00
G01 Z-0.0500
G01 F350.00
G01 X-9.4336 Y13.1430 F350.00
G01 X-9.4336 Y12.9030 F350.00
G01 X-8.3699 Y12.9030 F350.00
G00 Z0.5000
G00 X-8.3844 Y12.6630
G01 F250.00
G01 Z-0.0500
G01 F350.00
G01 X-9.4336 Y12.6630 F350.00
G01 X-9.4336 Y12.4230 F350.00
G01 X-8.3844 Y12.4230 F350.00
G01 X-8.3844 Y12.1830 F350.00
G01 X-9.4336 Y12.1830 F350.00
G01 X-9.4336 Y11.9430 F350.00
G01 X-8.3844 Y11.9430 F350.00
G01 X-8.3844 Y11.7030 F350.00
G01 X-9.4336 Y11.7030 F350.00
G01 X-9.4336 Y11.4630 F350.00
G01 X-8.7023 Y11.4630 F350.00
G00 Z0.5000
G00 X-8.9210 Y11.2230
G01 F250.00
G01 Z-0.0500
G01 F350.00
G01 X-9.4336 Y11.2230 F350.00
G01 X-9.4336 Y10.9830 F350.00
G01 X-9.0492 Y10.9830 F350.00
G00 Z0.5000
G00 X-9.1160 Y10.7430
G01 F250.00
G01 Z-0.0500
G01 F350.00
G01 X-9.4336 Y10.7430 F350.00
G01 X-9.4336 Y10.5030 F350.00
G01 X-9.1324 Y10.5030 F350.00
G00 Z0.5000
G00 X-9.1001 Y10.2630
G01 F250.00
G01 Z-0.0500
G01 F350.00
G01 X-9.4336 Y10.2630 F350.00
G01 X-9.4336 Y10.0230 F350.00
G01 X-9.0149 Y10.0230 F350.00
G00 Z0.5000
G00 X-8.8639 Y9.7830
G01 F250.00
G01 Z-0.0500
G01 F350.00
G01 X-9.4336 Y9.7830 F350.00
G01 X-9.4336 Y9.5430 F350.00
G01 X-8.5996 Y9.5430 F350.00
G01 X-8.9240 Y8.8230 F350.00
G01 X-9.6235 Y8.8230 F350.00
G00 Z0.5000
G00 X-9.4931 Y9.0630
G01 F250.00
G01 Z-0.0500
G01 F350.00
G01 X-7.1028 Y9.0630 F350.00
G01 X-6.8628 Y9.3030 F350.00
G01 X-9.4378 Y9.3030 F350.00
G01 X-9.1828 Y8.5830 F350.00
G01 X-9.8484 Y8.5830 F350.00
G01 X-10.0884 Y8.3430 F350.00
G01 X-9.4228 Y8.3430 F350.00
G01 X-9.6628 Y8.1030 F350.00
G01 X-10.3284 Y8.1030 F350.00
G01 X-10.5684 Y7.8630 F350.00
G01 X-9.9028 Y7.8630 F350.00
G01 X-10.1428 Y7.6230 F350.00
G01 X-10.8084 Y7.6230 F350.00
G01 X-11.0484 Y7.3830 F350.00
G01 X-10.3828 Y7.3830 F350.00
G01 X-10.6228 Y7.1430 F350.00
G01 X-11.2884 Y7.1430 F350.00
G01 X-11.5284 Y6.9030 F350.00
G01 X-10.8628 Y6.9030 F350.00
G01 X-11.1028 Y6.6630 F350.00
G01 X-11.7684 Y6.6630 F350.00
G01 X-12.0084 Y6.4230 F350.00
G01 X-11.3428 Y6.4230 F350.00
G01 X-11.5828 Y6.1830 F350.00
G01 X-12.2484 Y6.1830 F350.00
G00 Z0.5000
G00 X-12.6267 Y5.9430
G01 F250.00
G01 Z-0.0500
G01 F350.00
G01 X-11.8228 Y5.9430 F350.00
G01 X-12.0628 Y5.7030 F350.00
G01 X-15.5515 Y5.7030 F350.00
G01 X-15.3115 Y5.4630 F350.00
G01 X-12.3028 Y5.4630 F350.00
G01 X-12.5428 Y5.2230 F350.00
G01 X-15.0715 Y5.2230 F350.00
G01 X-14.6900 Y4.9830 F350.00
G01 X-13.1780 Y4.9830 F350.00
G00 Z0.5000
G00 X-12.7651 Y5.0006
G01 F250.00
G01 Z-0.0500
G01 F350.00
G01 X-12.8433 Y5.0119 F350.00
G01 X-12.9242 Y5.0162 F350.00
G01 X-12.9438 Y5.0162 F350.00
G01 X-13.0149 Y5.0127 F350.00
G01 X-13.0344 Y5.0107 F350.00
G01 X-13.1145 Y4.9986 F350.00
G01 X-13.1931 Y4.9792 F350.00
G01 X-13.2118 Y4.9735 F350.00
G01 X-13.2880 Y4.9460 F350.00
G01 X-13.3700 Y4.9072 F350.00
G01 X-13.4479 Y4.8605 F350.00
G01 X-13.5131 Y4.8125 F350.00
G01 X-13.5282 Y4.8000 F350.00
G01 X-13.5881 Y4.7455 F350.00
G01 X-13.6490 Y4.6782 F350.00
G01 X-13.7031 Y4.6053 F350.00
G01 X-13.7498 Y4.5274 F350.00
G01 X-13.7886 Y4.4454 F350.00
G01 X-13.8192 Y4.3599 F350.00
G01 X-13.8412 Y4.2719 F350.00
G01 X-13.8545 Y4.1821 F350.00
G01 X-13.8590 Y4.0914 F350.00
G01 X-13.8590 Y3.2914 F350.00
G01 X-13.8553 Y3.2105 F350.00
G01 X-13.8533 Y3.1910 F350.00
G01 X-13.8429 Y3.1206 F350.00
G01 X-13.8391 Y3.1014 F350.00
G01 X-13.8192 Y3.0229 F350.00
G01 X-13.7921 Y2.9466 F350.00
G01 X-13.7846 Y2.9284 F350.00
G01 X-13.7498 Y2.8554 F350.00
G01 X-13.7084 Y2.7858 F350.00
G01 X-13.6975 Y2.7695 F350.00
G01 X-13.6490 Y2.7046 F350.00
G01 X-13.5948 Y2.6444 F350.00
G01 X-13.5810 Y2.6306 F350.00
G01 X-13.5208 Y2.5764 F350.00
G01 X-13.4559 Y2.5279 F350.00
G01 X-13.4396 Y2.5170 F350.00
G01 X-13.3700 Y2.4756 F350.00
G01 X-13.2970 Y2.4408 F350.00
G01 X-13.2788 Y2.4333 F350.00
G01 X-13.2025 Y2.4062 F350.00
G01 X-13.1240 Y2.3863 F350.00
G01 X-13.1048 Y2.3825 F350.00
G01 X-13.0247 Y2.3709 F350.00
G01 X-12.9340 Y2.3664 F350.00
G01 X-12.8531 Y2.3701 F350.00
G01 X-12.8336 Y2.3721 F350.00
G01 X-12.7632 Y2.3825 F350.00
G01 X-12.7440 Y2.3863 F350.00
G01 X-12.6655 Y2.4062 F350.00
G01 X-12.5892 Y2.4333 F350.00
G01 X-12.5710 Y2.4408 F350.00
G01 X-12.4980 Y2.4756 F350.00
G01 X-12.4201 Y2.5223 F350.00
G01 X-12.3472 Y2.5764 F350.00
G01 X-12.2870 Y2.6306 F350.00
G01 X-12.2732 Y2.6444 F350.00
G01 X-12.2190 Y2.7046 F350.00
G01 X-12.1705 Y2.7695 F350.00
G01 X-12.1596 Y2.7858 F350.00
G01 X-12.1182 Y2.8554 F350.00
G01 X-12.0834 Y2.9284 F350.00
G01 X-12.0759 Y2.9466 F350.00
G01 X-12.0488 Y3.0229 F350.00
G01 X-12.0278 Y3.1061 F350.00
G01 X-12.0251 Y3.1206 F350.00
G01 X-12.0135 Y3.2007 F350.00
G01 X-12.0091 Y3.2865 F350.00
G01 X-12.0090 Y3.7761 F350.00
G01 X-8.2439 Y7.5411 F350.00
G01 X-6.9340 Y7.5411 F350.00
G01 X-6.8703 Y7.5441 F350.00
G01 X-6.8556 Y7.5457 F350.00
G01 X-6.7974 Y7.5546 F350.00
G01 X-6.7402 Y7.5687 F350.00
G01 X-6.7214 Y7.5744 F350.00
G01 X-6.6660 Y7.5945 F350.00
G01 X-6.6127 Y7.6194 F350.00
G01 X-6.5996 Y7.6262 F350.00
G01 X-6.5533 Y7.6539 F350.00
G01 X-6.5369 Y7.6648 F350.00
G01 X-6.4898 Y7.7001 F350.00
G01 X-6.4388 Y7.7462 F350.00
G01 X-4.1439 Y10.0411 F350.00
G01 X-2.6492 Y10.0411 F350.00
G01 X-2.5840 Y9.9931 F350.00
G01 X-2.5168 Y9.9525 F350.00
G01 X-2.4995 Y9.9433 F350.00
G01 X-2.4374 Y9.9139 F350.00
G01 X-2.4193 Y9.9064 F350.00
G01 X-2.3453 Y9.8802 F350.00
G01 X-2.2596 Y9.8587 F350.00
G01 X-2.1722 Y9.8457 F350.00
G01 X-2.0938 Y9.8416 F350.00
G01 X-0.9742 Y9.8416 F350.00
G01 X-0.8958 Y9.8457 F350.00
G01 X-0.8084 Y9.8587 F350.00
G01 X-0.7227 Y9.8802 F350.00
G01 X-0.6487 Y9.9064 F350.00
G01 X-0.6351 Y9.9118 F350.00
G01 X-0.5597 Y9.9477 F350.00
G01 X-0.4840 Y9.9931 F350.00
G01 X-0.4130 Y10.0457 F350.00
G01 X-0.3476 Y10.1050 F350.00
G01 X-0.2883 Y10.1704 F350.00
G01 X-0.2357 Y10.2414 F350.00
G01 X-0.1903 Y10.3171 F350.00
G01 X-0.1565 Y10.3880 F350.00
G01 X-0.1490 Y10.4061 F350.00
G01 X-0.1228 Y10.4801 F350.00
G01 X-0.1034 Y10.5562 F350.00
G01 X-0.0996 Y10.5755 F350.00
G01 X-0.0895 Y10.6434 F350.00
G01 X-0.0876 Y10.6630 F350.00
G01 X-0.0840 Y10.7414 F350.00
G01 X-0.0876 Y10.8198 F350.00
G01 X-0.0895 Y10.8394 F350.00
G01 X-0.1013 Y10.9170 F350.00
G01 X-0.1228 Y11.0027 F350.00
G01 X-0.1525 Y11.0858 F350.00
G01 X-0.1880 Y11.1613 F350.00
G01 X-0.1951 Y11.1742 F350.00
G01 X-0.2304 Y11.2331 F350.00
G01 X-0.2413 Y11.2494 F350.00
G01 X-0.2883 Y11.3124 F350.00
G01 X-0.3408 Y11.3707 F350.00
G01 X-0.3547 Y11.3846 F350.00
G01 X-0.4130 Y11.4371 F350.00
G01 X-0.4760 Y11.4841 F350.00
G01 X-0.4923 Y11.4950 F350.00
G01 X-0.5597 Y11.5351 F350.00
G01 X-0.6306 Y11.5689 F350.00
G01 X-0.6487 Y11.5764 F350.00
G01 X-0.7227 Y11.6026 F350.00
G01 X-0.7988 Y11.6220 F350.00
G01 X-0.8181 Y11.6258 F350.00
G01 X-0.8958 Y11.6371 F350.00
G01 X-0.9742 Y11.6412 F350.00
G01 X-2.0840 Y11.6414 F350.00
G01 X-2.1673 Y11.6375 F350.00
G01 X-2.1820 Y11.6359 F350.00
G01 X-2.2499 Y11.6258 F350.00
G01 X-2.2692 Y11.6220 F350.00
G01 X-2.3453 Y11.6026 F350.00
G01 X-2.4284 Y11.5729 F350.00
G01 X-2.4995 Y11.5395 F350.00
G01 X-2.5168 Y11.5303 F350.00
G01 X-2.5840 Y11.4897 F350.00
G01 X-2.6492 Y11.4417 F350.00
G01 X-4.4438 Y11.4414 F350.00
G01 X-4.4977 Y11.4387 F350.00
G01 X-4.5124 Y11.4371 F350.00
G01 X-4.5706 Y11.4282 F350.00
G01 X-4.6278 Y11.4141 F350.00
G01 X-4.6466 Y11.4084 F350.00
G01 X-4.7020 Y11.3883 F350.00
G01 X-4.7597 Y11.3612 F350.00
G01 X-4.7726 Y11.3541 F350.00
G01 X-4.8147 Y11.3289 F350.00
G01 X-4.8311 Y11.3180 F350.00
G01 X-4.8782 Y11.2827 F350.00
G01 X-4.9292 Y11.2366 F350.00
G01 X-7.2241 Y8.9417 F350.00
G01 X-8.5340 Y8.9417 F350.00
G01 X-8.6026 Y8.9383 F350.00
G01 X-8.6609 Y8.9299 F350.00
G01 X-8.6802 Y8.9260 F350.00
G01 X-8.7373 Y8.9115 F350.00
G01 X-8.8020 Y8.8883 F350.00
G01 X-8.8553 Y8.8634 F350.00
G01 X-8.8726 Y8.8541 F350.00
G01 X-8.9230 Y8.8236 F350.00
G01 X-8.9744 Y8.7858 F350.00
G01 X-8.9857 Y8.7763 F350.00
G01 X-9.0292 Y8.7366 F350.00
G01 X-12.7651 Y5.0006 F350.00
G00 Z0.5000
G00 X-13.5905 Y4.7430
G01 F250.00
G01 Z-0.0500
G01 F350.00
G01 X-14.2775 Y4.7430 F350.00
G00 Z0.5000
G00 X-14.1064 Y4.5030
G01 F250.00
G01 Z-0.0500
G01 F350.00
G01 X-13.7616 Y4.5030 F350.00
G00 Z0.5000
G00 X-13.8428 Y4.2630
G01 F250.00
G01 Z-0.0500
G01 F350.00
G01 X-14.0252 Y4.2630 F350.00
G00 Z0.5000
G00 X-14.0090 Y4.0230
G01 F250.00
G01 Z-0.0500
G01 F350.00
G01 X-13.8590 Y4.0230 F350.00
G01 X-13.8590 Y3.7830 F350.00
G01 X-13.9854 Y3.7830 F350.00
G00 Z0.5000
G00 X-14.0049 Y3.5430
G01 F250.00
G01 Z-0.0500
G01 F350.00
G01 X-13.8590 Y3.5430 F350.00
G01 X-13.8590 Y3.3030 F350.00
G01 X-14.0090 Y3.3030 F350.00
G00 Z0.5000
G00 X-14.0385 Y3.0630
G01 F250.00
G01 Z-0.0500
G01 F350.00
G01 X-13.8295 Y3.0630 F350.00
G00 Z0.5000
G00 X-13.7306 Y2.8230
G01 F250.00
G01 Z-0.0500
G01 F350.00
G01 X-14.1374 Y2.8230 F350.00
G00 Z0.5000
G00 X-14.3396 Y2.5830
G01 F250.00
G01 Z-0.0500
G01 F350.00
G01 X-13.5284 Y2.5830 F350.00
G00 Z0.5000
G00 X-12.3396 Y2.5830
G01 F250.00
G01 Z-0.0500
G01 F350.00
G01 X-10.8328 Y2.5830 F350.00
G01 X-11.0728 Y2.3430 F350.00
G01 X-17.9836 Y2.3430 F350.00
G01 X-17.9836 Y2.1030 F350.00
G01 X-11.3128 Y2.1030 F350.00
G01 X-11.5528 Y1.8630 F350.00
G01 X-17.9836 Y1.8630 F350.00
G01 X-17.9836 Y1.6230 F350.00
G01 X-11.7928 Y1.6230 F350.00
G01 X-12.0328 Y1.3830 F350.00
G01 X-17.9836 Y1.3830 F350.00
G01 X-17.9836 Y2.5830 F350.00
G01 X-15.5284 Y2.5830 F350.00
G00 Z0.5000
G00 X-15.7306 Y2.8230
G01 F250.00
G01 Z-0.0500
G01 F350.00
G01 X-17.9836 Y2.8230 F350.00
G01 X-17.9836 Y3.0630 F350.00
G01 X-15.8295 Y3.0630 F350.00
G00 Z0.5000
G00 X-15.8590 Y3.3030
G01 F250.00
G01 Z-0.0500
G01 F350.00
G01 X-17.9836 Y3.3030 F350.00
G01 X-17.7884 Y3.5430 F350.00
G01 X-16.0796 Y3.5430 F350.00
G01 X-16.3196 Y3.7830 F350.00
G01 X-17.5484 Y3.7830 F350.00
G01 X-17.3084 Y4.0230 F350.00
G01 X-16.5596 Y4.0230 F350.00
G01 X-16.7996 Y4.2630 F350.00
G01 X-17.0684 Y4.2630 F350.00
G00 Z0.5000
G00 X-18.3165 Y5.7030
G01 F250.00
G01 Z-0.0500
G01 F350.00
G01 X-24.1835 Y5.7030 F350.00
G01 X-24.1882 Y5.4630 F350.00
G01 X-18.5565 Y5.4630 F350.00
G01 X-18.7965 Y5.2230 F350.00
G01 X-24.1930 Y5.2230 F350.00
G01 X-24.1978 Y4.9830 F350.00
G01 X-19.0365 Y4.9830 F350.00
G01 X-19.2765 Y4.7430 F350.00
G01 X-24.2025 Y4.7430 F350.00
G01 X-24.2073 Y4.5030 F350.00
G01 X-19.5165 Y4.5030 F350.00
G00 Z0.5000
G00 X-19.7283 Y4.2630
G01 F250.00
G01 Z-0.0500
G01 F350.00
G01 X-21.0101 Y4.2630 F350.00
G00 Z0.5000
G00 X-20.6215 Y4.0230
G01 F250.00
G01 Z-0.0500
G01 F350.00
G01 X-19.8416 Y4.0230 F350.00
G00 Z0.5000
G00 X-19.8826 Y3.7830
G01 F250.00
G01 Z-0.0500
G01 F350.00
G01 X-20.4209 Y3.7830 F350.00
G00 Z0.5000
G00 X-20.3045 Y3.5430
G01 F250.00
G01 Z-0.0500
G01 F350.00
G01 X-19.8844 Y3.5430 F350.00
G01 X-19.8844 Y3.3030 F350.00
G01 X-20.2461 Y3.3030 F350.00
G00 Z0.5000
G00 X-20.2376 Y3.0630
G01 F250.00
G01 Z-0.0500
G01 F350.00
G01 X-19.8844 Y3.0630 F350.00
G01 X-19.8844 Y2.8230 F350.00
G01 X-20.2779 Y2.8230 F350.00
G00 Z0.5000
G00 X-20.3720 Y2.5830
G01 F250.00
G01 Z-0.0500
G01 F350.00
G01 X-19.8844 Y2.5830 F350.00
G01 X-19.8844 Y2.3430 F350.00
G01 X-20.5398 Y2.3430 F350.00
G00 Z0.5000
G00 X-20.8347 Y2.1030
G01 F250.00
G01 Z-0.0500
G01 F350.00
G01 X-19.8844 Y2.1030 F350.00
G01 X-19.8844 Y1.8630 F350.00
G01 X-24.2426 Y1.8630 F350.00
G01 X-24.2443 Y1.6230 F350.00
G01 X-21.9299 Y1.6230 F350.00
G00 Z0.5000
G00 X-22.2794 Y1.3830
G01 F250.00
G01 Z-0.0500
G01 F350.00
G01 X-24.2459 Y1.3830 F350.00
G01 X-24.2475 Y1.1430 F350.00
G01 X-22.4651 Y1.1430 F350.00
G00 Z0.5000
G00 X-22.5743 Y0.9030
G01 F250.00
G01 Z-0.0500
G01 F350.00
G01 X-24.2491 Y0.9030 F350.00
G01 X-24.2507 Y0.6630 F350.00
G01 X-22.6264 Y0.6630 F350.00
G00 Z0.5000
G00 X-22.6289 Y0.4230
G01 F250.00
G01 Z-0.0500
G01 F350.00
G01 X-24.2523 Y0.4230 F350.00
G01 X-24.2539 Y0.1830 F350.00
G01 X-22.5823 Y0.1830 F350.00
G00 Z0.5000
G00 X-22.4789 Y-0.0570
G01 F250.00
G01 Z-0.0500
G01 F350.00
G01 X-24.2556 Y-0.0570 F350.00
G01 X-24.2572 Y-0.2970 F350.00
G01 X-22.3844 Y-0.2970 F350.00
G01 X-22.3844 Y-0.1996 F350.00
G01 X-22.3844 Y-0.5874 F350.00
G01 X-22.4079 Y-0.6133 F350.00
G01 X-22.4174 Y-0.6246 F350.00
G01 X-22.4730 Y-0.6994 F350.00
G01 X-22.4813 Y-0.7116 F350.00
G01 X-22.5341 Y-0.8001 F350.00
G01 X-22.5783 Y-0.8931 F350.00
G01 X-22.5838 Y-0.9068 F350.00
G01 X-22.6166 Y-0.9993 F350.00
G01 X-22.6407 Y-1.0944 F350.00
G01 X-22.6445 Y-1.1137 F350.00
G01 X-22.6575 Y-1.2010 F350.00
G01 X-22.6594 Y-1.2206 F350.00
G01 X-22.6640 Y-1.3186 F350.00
G01 X-22.6587 Y-1.4264 F350.00
G01 X-22.6429 Y-1.5332 F350.00
G01 X-22.6193 Y-1.6285 F350.00
G01 X-22.6136 Y-1.6472 F350.00
G01 X-22.5838 Y-1.7304 F350.00
G01 X-22.5763 Y-1.7485 F350.00
G01 X-22.5341 Y-1.8371 F350.00
G01 X-22.4813 Y-1.9256 F350.00
G01 X-22.4730 Y-1.9378 F350.00
G01 X-22.4143 Y-2.0164 F350.00
G01 X-22.3418 Y-2.0964 F350.00
G01 X-22.2618 Y-2.1689 F350.00
G01 X-22.1832 Y-2.2276 F350.00
G01 X-22.1668 Y-2.2385 F350.00
G01 X-22.0825 Y-2.2887 F350.00
G01 X-21.9939 Y-2.3309 F350.00
G01 X-21.9758 Y-2.3384 F350.00
G01 X-21.8926 Y-2.3682 F350.00
G01 X-21.8739 Y-2.3739 F350.00
G01 X-21.7786 Y-2.3975 F350.00
G01 X-21.6718 Y-2.4133 F350.00
G01 X-21.5640 Y-2.4186 F350.00
G01 X-21.4562 Y-2.4133 F350.00
G01 X-21.3494 Y-2.3975 F350.00
G01 X-21.2447 Y-2.3712 F350.00
G01 X-21.1430 Y-2.3349 F350.00
G01 X-21.0455 Y-2.2887 F350.00
G01 X-20.9529 Y-2.2332 F350.00
G01 X-20.8739 Y-2.1750 F350.00
G01 X-20.8587 Y-2.1625 F350.00
G01 X-20.7933 Y-2.1032 F350.00
G01 X-20.7794 Y-2.0893 F350.00
G01 X-20.7137 Y-2.0164 F350.00
G01 X-20.6550 Y-1.9378 F350.00
G01 X-20.6441 Y-1.9214 F350.00
G01 X-20.5939 Y-1.8371 F350.00
G01 X-20.5477 Y-1.7396 F350.00
G01 X-20.5114 Y-1.6379 F350.00
G01 X-20.4851 Y-1.5332 F350.00
G01 X-20.4693 Y-1.4264 F350.00
G01 X-20.4640 Y-1.3186 F350.00
G01 X-20.4693 Y-1.2108 F350.00
G01 X-20.4836 Y-1.1126 F350.00
G01 X-20.4836 Y-0.1996 F350.00
G01 X-20.4362 Y-0.1353 F350.00
G01 X-20.3757 Y-0.0343 F350.00
G01 X-20.3253 Y0.0722 F350.00
G01 X-20.2888 Y0.1737 F350.00
G01 X-20.2831 Y0.1925 F350.00
G01 X-20.2592 Y0.2877 F350.00
G01 X-20.2554 Y0.3070 F350.00
G01 X-20.2398 Y0.4138 F350.00
G01 X-20.2342 Y0.5216 F350.00
G01 X-20.2342 Y0.5412 F350.00
G01 X-20.2398 Y0.6490 F350.00
G01 X-20.2554 Y0.7558 F350.00
G01 X-20.2592 Y0.7751 F350.00
G01 X-20.2857 Y0.8797 F350.00
G01 X-20.3218 Y0.9815 F350.00
G01 X-20.3293 Y0.9996 F350.00
G01 X-20.3757 Y1.0971 F350.00
G01 X-20.4362 Y1.1981 F350.00
G01 X-20.5064 Y1.2927 F350.00
G01 X-20.5855 Y1.3799 F350.00
G01 X-20.6727 Y1.4590 F350.00
G01 X-20.7673 Y1.5292 F350.00
G01 X-20.8683 Y1.5897 F350.00
G01 X-20.9748 Y1.6401 F350.00
G01 X-21.0763 Y1.6766 F350.00
G01 X-21.0951 Y1.6823 F350.00
G01 X-21.1999 Y1.7083 F350.00
G01 X-21.3066 Y1.7244 F350.00
G01 X-21.3262 Y1.7263 F350.00
G01 X-21.4242 Y1.7312 F350.00
G01 X-21.4438 Y1.7312 F350.00
G01 X-21.5516 Y1.7256 F350.00
G01 X-21.6681 Y1.7083 F350.00
G01 X-21.7823 Y1.6797 F350.00
G01 X-21.8932 Y1.6401 F350.00
G01 X-21.9909 Y1.5941 F350.00
G01 X-22.0082 Y1.5849 F350.00
G01 X-22.1007 Y1.5292 F350.00
G01 X-22.1875 Y1.4651 F350.00
G01 X-22.2027 Y1.4526 F350.00
G01 X-22.2825 Y1.3799 F350.00
G01 X-22.3616 Y1.2927 F350.00
G01 X-22.4318 Y1.1981 F350.00
G01 X-22.4875 Y1.1056 F350.00
G01 X-22.4967 Y1.0883 F350.00
G01 X-22.5427 Y0.9906 F350.00
G01 X-22.5792 Y0.8891 F350.00
G01 X-22.5849 Y0.8703 F350.00
G01 X-22.6099 Y0.7703 F350.00
G01 X-22.6126 Y0.7558 F350.00
G01 X-22.6282 Y0.6490 F350.00
G01 X-22.6340 Y0.5314 F350.00
G01 X-22.6282 Y0.4138 F350.00
G01 X-22.6118 Y0.3021 F350.00
G01 X-22.6088 Y0.2877 F350.00
G01 X-22.5823 Y0.1831 F350.00
G01 X-22.5462 Y0.0813 F350.00
G01 X-22.5407 Y0.0677 F350.00
G01 X-22.4967 Y-0.0255 F350.00
G01 X-22.4875 Y-0.0428 F350.00
G01 X-22.4318 Y-0.1353 F350.00
G01 X-22.3844 Y-0.1996 F350.00
G01 X-22.3844 Y-0.5370 F350.00
G01 X-24.2588 Y-0.5370 F350.00
G01 X-24.2604 Y-0.7770 F350.00
G01 X-22.5206 Y-0.7770 F350.00
G00 Z0.5000
G00 X-22.6213 Y-1.0170
G01 F250.00
G01 Z-0.0500
G01 F350.00
G01 X-24.2620 Y-1.0170 F350.00
G01 X-24.2636 Y-1.2570 F350.00
G01 X-22.6612 Y-1.2570 F350.00
G00 Z0.5000
G00 X-22.6485 Y-1.4970
G01 F250.00
G01 Z-0.0500
G01 F350.00
G01 X-24.2574 Y-1.4970 F350.00
G01 X-24.2304 Y-1.7370 F350.00
G01 X-22.5813 Y-1.7370 F350.00
G00 Z0.5000
G00 X-22.4438 Y-1.9770
G01 F250.00
G01 Z-0.0500
G01 F350.00
G01 X-24.1814 Y-1.9770 F350.00
G01 X-24.1090 Y-2.2170 F350.00
G01 X-22.1973 Y-2.2170 F350.00
G00 Z0.5000
G00 X-20.9307 Y-2.2170
G01 F250.00
G01 Z-0.0500
G01 F350.00
G01 X-9.5745 Y-2.2170 F350.00
G01 X-11.1452 Y-2.4570 F350.00
G01 X-24.0111 Y-2.4570 F350.00
G01 X-23.8844 Y-2.6970 F350.00
G01 X-12.7159 Y-2.6970 F350.00
G01 X-14.2866 Y-2.9370 F350.00
G01 X-23.7238 Y-2.9370 F350.00
G01 X-23.5221 Y-3.1770 F350.00
G01 X-15.8573 Y-3.1770 F350.00
G01 X-17.4280 Y-3.4170 F350.00
G01 X-23.2652 Y-3.4170 F350.00
G01 X-22.9123 Y-3.6570 F350.00
G01 X-18.9987 Y-3.6570 F350.00
G01 X-20.5694 Y-3.8970 F350.00
G01 X-22.3690 Y-3.8970 F350.00
G01 X-21.5640 Y-4.0208 F350.00
G01 X-21.8289 Y-4.0078 F350.00
G01 X-22.0912 Y-3.9688 F350.00
G01 X-22.3484 Y-3.9044 F350.00
G01 X-22.5981 Y-3.8151 F350.00
G01 X-22.8378 Y-3.7017 F350.00
G01 X-23.0652 Y-3.5654 F350.00
G01 X-23.2782 Y-3.4074 F350.00
G01 X-23.4747 Y-3.2293 F350.00
G01 X-23.6528 Y-3.0328 F350.00
G01 X-23.8108 Y-2.8198 F350.00
G01 X-23.9471 Y-2.5924 F350.00
G01 X-24.0605 Y-2.3527 F350.00
G01 X-24.1498 Y-2.1030 F350.00
G01 X-24.2142 Y-1.8458 F350.00
G01 X-24.2532 Y-1.5835 F350.00
G01 X-24.2643 Y-1.3567 F350.00
G01 X-24.2339 Y3.1653 F350.00
G01 X-23.9331 Y18.3035 F350.00
G01 X-23.9227 Y18.5161 F350.00
G01 X-23.8823 Y18.7881 F350.00
G01 X-23.8155 Y19.0548 F350.00
G01 X-23.7229 Y19.3137 F350.00
G01 X-23.6053 Y19.5623 F350.00
G01 X-23.4639 Y19.7982 F350.00
G01 X-23.3001 Y20.0191 F350.00
G01 X-23.1154 Y20.2228 F350.00
G01 X-22.9117 Y20.4075 F350.00
G01 X-22.6908 Y20.5713 F350.00
G01 X-22.4549 Y20.7127 F350.00
G01 X-22.2063 Y20.8303 F350.00
G01 X-21.9474 Y20.9229 F350.00
G01 X-21.6807 Y20.9897 F350.00
G01 X-21.4173 Y21.0288 F350.00
G01 X-12.8781 Y21.5316 F350.00
G01 X-12.6498 Y21.5428 F350.00
G01 X-6.2366 Y21.3403 F350.00
G01 X-6.0834 Y21.3327 F350.00
G01 X-5.8599 Y21.2996 F350.00
G01 X-5.6408 Y21.2447 F350.00
G01 X-5.4280 Y21.1686 F350.00
G01 X-5.2387 Y21.0790 F350.00
G01 X1.0017 Y17.4926 F350.00
G01 X1.1548 Y17.4008 F350.00
G01 X1.3560 Y17.2515 F350.00
G01 X1.5089 Y17.1130 F350.00
G01 X2.8006 Y15.8213 F350.00
G01 X2.9391 Y15.6684 F350.00
G01 X3.0884 Y15.4672 F350.00
G01 X3.2171 Y15.2524 F350.00
G01 X3.3242 Y15.0259 F350.00
G01 X3.4086 Y14.7901 F350.00
G01 X3.4695 Y14.5471 F350.00
G01 X3.5063 Y14.2993 F350.00
G01 X3.5164 Y14.0933 F350.00
G01 X3.5164 Y4.3972 F350.00
G01 X3.5063 Y4.1912 F350.00
G01 X3.4695 Y3.9434 F350.00
G01 X3.4235 Y3.7599 F350.00
G01 X3.2470 Y3.1355 F350.00
G01 X3.1701 Y2.9206 F350.00
G01 X3.0609 Y2.6897 F350.00
G01 X2.9296 Y2.4707 F350.00
G01 X2.7775 Y2.2656 F350.00
G01 X2.6060 Y2.0764 F350.00
G01 X2.4168 Y1.9049 F350.00
G01 X2.2117 Y1.7528 F350.00
G01 X1.9927 Y1.6215 F350.00
G01 X1.7947 Y1.5279 F350.00
G01 X-5.9806 Y-1.6133 F350.00
G01 X-6.1443 Y-1.6719 F350.00
G01 X-6.3596 Y-1.7258 F350.00
G01 X-21.1204 Y-3.9812 F350.00
G01 X-21.2991 Y-4.0078 F350.00
G01 X-21.5640 Y-4.0208 F350.00
G01 X-20.6842 Y-1.9770 F350.00
G01 X-8.0038 Y-1.9770 F350.00
G01 X-6.4331 Y-1.7370 F350.00
G01 X-20.5467 Y-1.7370 F350.00
G00 Z0.5000
G00 X-20.4795 Y-1.4970
G01 F250.00
G01 Z-0.0500
G01 F350.00
G01 X-5.6928 Y-1.4970 F350.00
G01 X-5.0987 Y-1.2570 F350.00
G01 X-20.4668 Y-1.2570 F350.00
G00 Z0.5000
G00 X-20.4836 Y-1.0170
G01 F250.00
G01 Z-0.0500
G01 F350.00
G01 X-4.5047 Y-1.0170 F350.00
G01 X-3.9106 Y-0.7770 F350.00
G01 X-20.4836 Y-0.7770 F350.00
G01 X-20.4836 Y-0.5370 F350.00
G01 X-19.4788 Y-0.5370 F350.00
G00 Z0.5000
G00 X-19.8011 Y-0.2970
G01 F250.00
G01 Z-0.0500
G01 F350.00
G01 X-20.4836 Y-0.2970 F350.00
G01 X-20.3891 Y-0.0570 F350.00
G01 X-19.9789 Y-0.0570 F350.00
G00 Z0.5000
G00 X-20.0823 Y0.1830
G01 F250.00
G01 Z-0.0500
G01 F350.00
G01 X-20.2857 Y0.1830 F350.00
G00 Z0.5000
G00 X-20.2391 Y0.4230
G01 F250.00
G01 Z-0.0500
G01 F350.00
G01 X-20.1289 Y0.4230 F350.00
G00 Z0.5000
G00 X-20.1264 Y0.6630
G01 F250.00
G01 Z-0.0500
G01 F350.00
G01 X-20.2416 Y0.6630 F350.00
G00 Z0.5000
G00 X-20.2937 Y0.9030
G01 F250.00
G01 Z-0.0500
G01 F350.00
G01 X-20.0743 Y0.9030 F350.00
G00 Z0.5000
G00 X-19.9651 Y1.1430
G01 F250.00
G01 Z-0.0500
G01 F350.00
G01 X-20.4029 Y1.1430 F350.00
G00 Z0.5000
G00 X-20.5886 Y1.3830
G01 F250.00
G01 Z-0.0500
G01 F350.00
G01 X-19.8844 Y1.3830 F350.00
G01 X-19.8844 Y1.2624 F350.00
G01 X-19.9318 Y1.1981 F350.00
G01 X-19.9899 Y1.1014 F350.00
G01 X-19.9967 Y1.0883 F350.00
G01 X-20.0387 Y0.9996 F350.00
G01 X-20.0445 Y0.9861 F350.00
G01 X-20.0792 Y0.8891 F350.00
G01 X-20.0849 Y0.8703 F350.00
G01 X-20.1109 Y0.7655 F350.00
G01 X-20.1277 Y0.6539 F350.00
G01 X-20.1289 Y0.6392 F350.00
G01 X-20.1340 Y0.5314 F350.00
G01 X-20.1289 Y0.4236 F350.00
G01 X-20.1270 Y0.4040 F350.00
G01 X-20.1109 Y0.2973 F350.00
G01 X-20.0849 Y0.1925 F350.00
G01 X-20.0792 Y0.1737 F350.00
G01 X-20.0427 Y0.0722 F350.00
G01 X-19.9967 Y-0.0255 F350.00
G01 X-19.9875 Y-0.0428 F350.00
G01 X-19.9318 Y-0.1353 F350.00
G01 X-19.8677 Y-0.2221 F350.00
G01 X-19.8552 Y-0.2373 F350.00
G01 X-19.7825 Y-0.3171 F350.00
G01 X-19.7027 Y-0.3898 F350.00
G01 X-19.6875 Y-0.4023 F350.00
G01 X-19.6007 Y-0.4664 F350.00
G01 X-19.5082 Y-0.5221 F350.00
G01 X-19.4909 Y-0.5313 F350.00
G01 X-19.3932 Y-0.5773 F350.00
G01 X-19.2917 Y-0.6138 F350.00
G01 X-19.2729 Y-0.6195 F350.00
G01 X-19.1681 Y-0.6455 F350.00
G01 X-19.0565 Y-0.6623 F350.00
G01 X-19.0418 Y-0.6635 F350.00
G01 X-18.9340 Y-0.6686 F350.00
G01 X-18.8262 Y-0.6635 F350.00
G01 X-18.8066 Y-0.6616 F350.00
G01 X-18.6999 Y-0.6455 F350.00
G01 X-18.5951 Y-0.6195 F350.00
G01 X-18.5763 Y-0.6138 F350.00
G01 X-18.4839 Y-0.5808 F350.00
G01 X-18.4703 Y-0.5753 F350.00
G01 X-18.3683 Y-0.5269 F350.00
G01 X-18.2756 Y-0.4716 F350.00
G01 X-18.2593 Y-0.4607 F350.00
G01 X-18.1766 Y-0.3993 F350.00
G01 X-18.1653 Y-0.3898 F350.00
G01 X-18.0926 Y-0.3239 F350.00
G01 X-18.0820 Y-0.3136 F350.00
G01 X-18.0064 Y-0.2299 F350.00
G01 X-17.9608 Y-0.1689 F350.00
G01 X-6.8126 Y-0.1689 F350.00
G01 X-6.7489 Y-0.1659 F350.00
G01 X-6.7343 Y-0.1643 F350.00
G01 X-6.6760 Y-0.1554 F350.00
G01 X-6.6188 Y-0.1413 F350.00
G01 X-6.6047 Y-0.1372 F350.00
G01 X-6.5538 Y-0.1191 F350.00
G01 X-6.5357 Y-0.1116 F350.00
G01 X-6.4825 Y-0.0862 F350.00
G01 X-6.4236 Y-0.0508 F350.00
G01 X-6.3684 Y-0.0099 F350.00
G01 X-6.3246 Y0.0295 F350.00
G01 X-3.7388 Y2.6149 F350.00
G01 X-3.6959 Y2.6620 F350.00
G01 X-3.6867 Y2.6735 F350.00
G01 X-3.6518 Y2.7210 F350.00
G01 X-3.6164 Y2.7799 F350.00
G01 X-3.5871 Y2.8421 F350.00
G01 X-3.5639 Y2.9068 F350.00
G01 X-3.5472 Y2.9734 F350.00
G01 X-3.5371 Y3.0414 F350.00
G01 X-3.5338 Y3.1051 F350.00
G01 X-3.5337 Y3.2028 F350.00
G01 X-3.5201 Y3.2164 F350.00
G01 X-3.4674 Y3.2746 F350.00
G01 X-3.4550 Y3.2897 F350.00
G01 X-3.4025 Y3.3608 F350.00
G01 X-3.3521 Y3.4450 F350.00
G01 X-3.3101 Y3.5337 F350.00
G01 X-3.2801 Y3.6168 F350.00
G01 X-3.2744 Y3.6356 F350.00
G01 X-3.2532 Y3.7213 F350.00
G01 X-3.2388 Y3.8184 F350.00
G01 X-3.2341 Y3.9115 F350.00
G01 X-3.2340 Y4.5664 F350.00
G01 X-3.2388 Y4.6644 F350.00
G01 X-3.2515 Y4.7518 F350.00
G01 X-3.2542 Y4.7663 F350.00
G01 X-3.2771 Y4.8567 F350.00
G01 X-3.3101 Y4.9491 F350.00
G01 X-3.3521 Y5.0378 F350.00
G01 X-3.4025 Y5.1220 F350.00
G01 X-3.4610 Y5.2008 F350.00
G01 X-3.5269 Y5.2735 F350.00
G01 X-3.5996 Y5.3394 F350.00
G01 X-3.6704 Y5.3922 F350.00
G01 X-3.6867 Y5.4031 F350.00
G01 X-3.7541 Y5.4435 F350.00
G01 X-3.7714 Y5.4527 F350.00
G01 X-3.8513 Y5.4903 F350.00
G01 X-3.9344 Y5.5203 F350.00
G01 X-3.9532 Y5.5260 F350.00
G01 X-4.0389 Y5.5472 F350.00
G01 X-4.1360 Y5.5616 F350.00
G01 X-4.2340 Y5.5664 F350.00
G01 X-4.3320 Y5.5616 F350.00
G01 X-4.4291 Y5.5472 F350.00
G01 X-4.5148 Y5.5260 F350.00
G01 X-4.5336 Y5.5203 F350.00
G01 X-4.6167 Y5.4903 F350.00
G01 X-4.6966 Y5.4527 F350.00
G01 X-4.7139 Y5.4435 F350.00
G01 X-4.7896 Y5.3979 F350.00
G01 X-4.8684 Y5.3394 F350.00
G01 X-4.9411 Y5.2735 F350.00
G01 X-5.0006 Y5.2082 F350.00
G01 X-5.0130 Y5.1931 F350.00
G01 X-5.0655 Y5.1220 F350.00
G01 X-5.1111 Y5.0463 F350.00
G01 X-5.1203 Y5.0290 F350.00
G01 X-5.1579 Y4.9491 F350.00
G01 X-5.1909 Y4.8567 F350.00
G01 X-5.2126 Y4.7711 F350.00
G01 X-5.2165 Y4.7518 F350.00
G01 X-5.2292 Y4.6644 F350.00
G01 X-5.2338 Y4.5762 F350.00
G01 X-5.2340 Y3.9164 F350.00
G01 X-5.2292 Y3.8184 F350.00
G01 X-5.2165 Y3.7310 F350.00
G01 X-5.2126 Y3.7117 F350.00
G01 X-5.1909 Y3.6261 F350.00
G01 X-5.1597 Y3.5383 F350.00
G01 X-5.1539 Y3.5247 F350.00
G01 X-5.1203 Y3.4538 F350.00
G01 X-5.1136 Y3.4407 F350.00
G01 X-5.0655 Y3.3608 F350.00
G01 X-5.0265 Y3.3079 F350.00
G01 X-7.1027 Y1.2317 F350.00
G01 X-10.2034 Y1.2317 F350.00
G01 X-9.0221 Y2.4130 F350.00
G01 X-9.0072 Y2.4077 F350.00
G01 X-8.9931 Y2.4036 F350.00
G01 X-8.9240 Y2.3863 F350.00
G01 X-8.9048 Y2.3825 F350.00
G01 X-8.8247 Y2.3709 F350.00
G01 X-8.7438 Y2.3666 F350.00
G01 X-8.7242 Y2.3666 F350.00
G01 X-8.6433 Y2.3709 F350.00
G01 X-8.5535 Y2.3842 F350.00
G01 X-8.4655 Y2.4062 F350.00
G01 X-8.3892 Y2.4333 F350.00
G01 X-8.3710 Y2.4408 F350.00
G01 X-8.2980 Y2.4756 F350.00
G01 X-8.2201 Y2.5223 F350.00
G01 X-8.1472 Y2.5764 F350.00
G01 X-8.0799 Y2.6373 F350.00
G01 X-8.0190 Y2.7046 F350.00
G01 X-7.9649 Y2.7775 F350.00
G01 X-7.9182 Y2.8554 F350.00
G01 X-7.8834 Y2.9284 F350.00
G01 X-7.8776 Y2.9420 F350.00
G01 X-7.8488 Y3.0229 F350.00
G01 X-7.8289 Y3.1014 F350.00
G01 X-7.8251 Y3.1206 F350.00
G01 X-7.8147 Y3.1910 F350.00
G01 X-7.8127 Y3.2105 F350.00
G01 X-7.8090 Y3.2914 F350.00
G01 X-7.8090 Y4.0914 F350.00
G01 X-7.8135 Y4.1821 F350.00
G01 X-7.8268 Y4.2719 F350.00
G01 X-7.8488 Y4.3599 F350.00
G01 X-7.8794 Y4.4454 F350.00
G01 X-7.9138 Y4.5187 F350.00
G01 X-7.9231 Y4.5360 F350.00
G01 X-7.9649 Y4.6053 F350.00
G01 X-8.0190 Y4.6782 F350.00
G01 X-8.0732 Y4.7384 F350.00
G01 X-8.0870 Y4.7522 F350.00
G01 X-8.1472 Y4.8064 F350.00
G01 X-8.2201 Y4.8605 F350.00
G01 X-8.2894 Y4.9023 F350.00
G01 X-8.3067 Y4.9116 F350.00
G01 X-8.3800 Y4.9460 F350.00
G01 X-8.4655 Y4.9766 F350.00
G01 X-8.5440 Y4.9965 F350.00
G01 X-8.5632 Y5.0003 F350.00
G01 X-8.6433 Y5.0119 F350.00
G01 X-8.7340 Y5.0164 F350.00
G01 X-8.8247 Y5.0119 F350.00
G01 X-8.9145 Y4.9986 F350.00
G01 X-9.0025 Y4.9766 F350.00
G01 X-9.0880 Y4.9460 F350.00
G01 X-9.1700 Y4.9072 F350.00
G01 X-9.2479 Y4.8605 F350.00
G01 X-9.3208 Y4.8064 F350.00
G01 X-9.3810 Y4.7522 F350.00
G01 X-9.3948 Y4.7384 F350.00
G01 X-9.4426 Y4.6856 F350.00
G01 X-9.4551 Y4.6705 F350.00
G01 X-9.5031 Y4.6053 F350.00
G01 X-9.5449 Y4.5360 F350.00
G01 X-9.5542 Y4.5187 F350.00
G01 X-9.5886 Y4.4454 F350.00
G01 X-9.6161 Y4.3692 F350.00
G01 X-9.6205 Y4.3552 F350.00
G01 X-9.6412 Y4.2719 F350.00
G01 X-9.6533 Y4.1918 F350.00
G01 X-9.6550 Y4.1772 F350.00
G01 X-9.6590 Y4.0914 F350.00
G01 X-9.6590 Y3.7567 F350.00
G01 X-12.1841 Y1.2317 F350.00
G01 X-17.9608 Y1.2317 F350.00
G01 X-17.9836 Y1.2624 F350.00
G01 X-17.9836 Y3.3477 F350.00
G01 X-16.9340 Y4.3974 F350.00
G01 X-15.8590 Y3.3224 F350.00
G01 X-15.8589 Y3.2865 F350.00
G01 X-15.8545 Y3.2007 F350.00
G01 X-15.8429 Y3.1206 F350.00
G01 X-15.8402 Y3.1061 F350.00
G01 X-15.8192 Y3.0229 F350.00
G01 X-15.7921 Y2.9466 F350.00
G01 X-15.7846 Y2.9284 F350.00
G01 X-15.7542 Y2.8641 F350.00
G01 X-15.7474 Y2.8511 F350.00
G01 X-15.7031 Y2.7775 F350.00
G01 X-15.6551 Y2.7123 F350.00
G01 X-15.6426 Y2.6972 F350.00
G01 X-15.5881 Y2.6373 F350.00
G01 X-15.5282 Y2.5828 F350.00
G01 X-15.5131 Y2.5703 F350.00
G01 X-15.4479 Y2.5223 F350.00
G01 X-15.3700 Y2.4756 F350.00
G01 X-15.2880 Y2.4368 F350.00
G01 X-15.2025 Y2.4062 F350.00
G01 X-15.1145 Y2.3842 F350.00
G01 X-15.0247 Y2.3709 F350.00
G01 X-14.9340 Y2.3664 F350.00
G01 X-14.8433 Y2.3709 F350.00
G01 X-14.7535 Y2.3842 F350.00
G01 X-14.6655 Y2.4062 F350.00
G01 X-14.5800 Y2.4368 F350.00
G01 X-14.4980 Y2.4756 F350.00
G01 X-14.4201 Y2.5223 F350.00
G01 X-14.3472 Y2.5764 F350.00
G01 X-14.2799 Y2.6373 F350.00
G01 X-14.2190 Y2.7046 F350.00
G01 X-14.1649 Y2.7775 F350.00
G01 X-14.1182 Y2.8554 F350.00
G01 X-14.0794 Y2.9374 F350.00
G01 X-14.0519 Y3.0136 F350.00
G01 X-14.0462 Y3.0323 F350.00
G01 X-14.0289 Y3.1014 F350.00
G01 X-14.0251 Y3.1206 F350.00
G01 X-14.0135 Y3.2007 F350.00
G01 X-14.0092 Y3.2816 F350.00
G01 X-14.0090 Y3.5266 F350.00
G01 X-14.0029 Y3.5512 F350.00
G01 X-14.0010 Y3.5608 F350.00
G01 X-13.9887 Y3.6434 F350.00
G01 X-13.9875 Y3.6580 F350.00
G01 X-13.9837 Y3.7365 F350.00
G01 X-13.9839 Y3.7512 F350.00
G01 X-13.9875 Y3.8248 F350.00
G01 X-13.9887 Y3.8394 F350.00
G01 X-14.0010 Y3.9220 F350.00
G01 X-14.0029 Y3.9316 F350.00
G01 X-14.0090 Y3.9562 F350.00
G01 X-14.0091 Y4.0963 F350.00
G01 X-14.0127 Y4.1723 F350.00
G01 X-14.0147 Y4.1918 F350.00
G01 X-14.0268 Y4.2719 F350.00
G01 X-14.0462 Y4.3505 F350.00
G01 X-14.0519 Y4.3692 F350.00
G01 X-14.0759 Y4.4362 F350.00
G01 X-14.0813 Y4.4499 F350.00
G01 X-14.1138 Y4.5187 F350.00
G01 X-14.1231 Y4.5360 F350.00
G01 X-14.1649 Y4.6053 F350.00
G01 X-14.2129 Y4.6705 F350.00
G01 X-14.2254 Y4.6856 F350.00
G01 X-14.2799 Y4.7455 F350.00
G01 X-14.3434 Y4.8033 F350.00
G01 X-14.3549 Y4.8125 F350.00
G01 X-14.4121 Y4.8549 F350.00
G01 X-14.4284 Y4.8658 F350.00
G01 X-14.4980 Y4.9072 F350.00
G01 X-14.5800 Y4.9460 F350.00
G01 X-14.6655 Y4.9766 F350.00
G01 X-14.7440 Y4.9965 F350.00
G01 X-14.7632 Y5.0003 F350.00
G01 X-14.8336 Y5.0107 F350.00
G01 X-14.8482 Y5.0124 F350.00
G01 X-14.8617 Y5.0131 F350.00
G01 X-15.5900 Y5.7414 F350.00
G01 X-15.4403 Y5.8910 F350.00
G01 X-12.9242 Y5.8913 F350.00
G01 X-12.8506 Y5.8949 F350.00
G01 X-12.8311 Y5.8968 F350.00
G01 X-12.7486 Y5.9093 F350.00
G01 X-12.6676 Y5.9293 F350.00
G01 X-12.6488 Y5.9350 F350.00
G01 X-12.5703 Y5.9634 F350.00
G01 X-12.4904 Y6.0010 F350.00
G01 X-12.4775 Y6.0081 F350.00
G01 X-12.4143 Y6.0459 F350.00
G01 X-12.3980 Y6.0568 F350.00
G01 X-12.3311 Y6.1068 F350.00
G01 X-12.2620 Y6.1694 F350.00
G01 X-9.7120 Y8.7194 F350.00
G01 X-9.6494 Y8.7885 F350.00
G01 X-9.5966 Y8.8594 F350.00
G01 X-9.5885 Y8.8717 F350.00
G01 X-9.5507 Y8.9349 F350.00
G01 X-9.5414 Y8.9522 F350.00
G01 X-9.5060 Y9.0277 F350.00
G01 X-9.4745 Y9.1155 F350.00
G01 X-9.4540 Y9.1964 F350.00
G01 X-9.4502 Y9.2157 F350.00
G01 X-9.4382 Y9.2982 F350.00
G01 X-9.4337 Y9.3865 F350.00
G01 X-9.4336 Y13.2977 F350.00
G01 X-6.8760 Y15.8554 F350.00
G01 X-6.8535 Y15.8588 F350.00
G01 X-6.8439 Y15.8607 F350.00
G01 X-6.7629 Y15.8809 F350.00
G01 X-6.7489 Y15.8854 F350.00
G01 X-6.6750 Y15.9119 F350.00
G01 X-6.6615 Y15.9177 F350.00
G01 X-6.5862 Y15.9536 F350.00
G01 X-6.5103 Y15.9988 F350.00
G01 X-6.4982 Y16.0072 F350.00
G01 X-6.4313 Y16.0570 F350.00
G01 X-6.3622 Y16.1196 F350.00
G01 X-6.2996 Y16.1887 F350.00
G01 X-6.2498 Y16.2556 F350.00
G01 X-6.2414 Y16.2677 F350.00
G01 X-6.1962 Y16.3436 F350.00
G01 X-6.1603 Y16.4189 F350.00
G01 X-6.1528 Y16.4370 F350.00
G01 X-6.1249 Y16.5156 F350.00
G01 X-6.1044 Y16.5965 F350.00
G01 X-6.1006 Y16.6157 F350.00
G01 X-6.0898 Y16.6885 F350.00
G01 X-6.0879 Y16.7081 F350.00
G01 X-6.0840 Y16.7914 F350.00
G01 X-6.0840 Y17.0289 F350.00
G01 X-6.0836 Y17.0414 F350.00
G01 X-6.0840 Y17.0539 F350.00
G01 X-6.0840 Y17.2914 F350.00
G01 X-6.0886 Y17.3845 F350.00
G01 X-6.1023 Y17.4767 F350.00
G01 X-6.1249 Y17.5672 F350.00
G01 X-6.1563 Y17.6549 F350.00
G01 X-6.1962 Y17.7392 F350.00
G01 X-6.2441 Y17.8192 F350.00
G01 X-6.2996 Y17.8941 F350.00
G01 X-6.3622 Y17.9632 F350.00
G01 X-6.4276 Y18.0226 F350.00
G01 X-6.4391 Y18.0318 F350.00
G01 X-6.5062 Y18.0813 F350.00
G01 X-6.5776 Y18.1244 F350.00
G01 X-6.5949 Y18.1336 F350.00
G01 X-6.6615 Y18.1651 F350.00
G01 X-6.6796 Y18.1726 F350.00
G01 X-6.7582 Y18.2005 F350.00
G01 X-6.8487 Y18.2231 F350.00
G01 X-6.9409 Y18.2368 F350.00
G01 X-7.0340 Y18.2414 F350.00
G01 X-7.1271 Y18.2368 F350.00
G01 X-7.2097 Y18.2248 F350.00
G01 X-7.2289 Y18.2210 F350.00
G01 X-7.3003 Y18.2031 F350.00
G01 X-7.3191 Y18.1974 F350.00
G01 X-7.3975 Y18.1691 F350.00
G01 X-7.4818 Y18.1292 F350.00
G01 X-7.5618 Y18.0813 F350.00
G01 X-7.6328 Y18.0288 F350.00
G01 X-7.6441 Y18.0193 F350.00
G01 X-7.7058 Y17.9632 F350.00
G01 X-7.7684 Y17.8941 F350.00
G01 X-7.8239 Y17.8192 F350.00
G01 X-7.8695 Y17.7435 F350.00
G01 X-7.8762 Y17.7305 F350.00
G01 X-7.9117 Y17.6549 F350.00
G01 X-7.9416 Y17.5718 F350.00
G01 X-7.9457 Y17.5577 F350.00
G01 X-7.9647 Y17.4815 F350.00
G01 X-7.9666 Y17.4719 F350.00
G01 X-7.9700 Y17.4494 F350.00
G01 X-11.0560 Y14.3634 F350.00
G01 X-11.1122 Y14.3017 F350.00
G01 X-11.1217 Y14.2905 F350.00
G01 X-11.1742 Y14.2194 F350.00
G01 X-11.2173 Y14.1479 F350.00
G01 X-11.2266 Y14.1306 F350.00
G01 X-11.2620 Y14.0551 F350.00
G01 X-11.2935 Y13.9673 F350.00
G01 X-11.3140 Y13.8864 F350.00
G01 X-11.3178 Y13.8671 F350.00
G01 X-11.3286 Y13.7943 F350.00
G01 X-11.3302 Y13.7797 F350.00
G01 X-11.3344 Y13.6914 F350.00
G01 X-11.3344 Y11.6858 F350.00
G01 X-15.9520 Y16.3034 F350.00
G01 X-16.0211 Y16.3660 F350.00
G01 X-16.0880 Y16.4160 F350.00
G01 X-16.1043 Y16.4269 F350.00
G01 X-16.1760 Y16.4696 F350.00
G01 X-16.2603 Y16.5094 F350.00
G01 X-16.3388 Y16.5378 F350.00
G01 X-16.3576 Y16.5435 F350.00
G01 X-16.4386 Y16.5635 F350.00
G01 X-16.5211 Y16.5760 F350.00
G01 X-16.5406 Y16.5779 F350.00
G01 X-16.6142 Y16.5815 F350.00
G01 X-18.8821 Y16.5818 F350.00
G01 X-18.9112 Y16.5991 F350.00
G01 X-18.9198 Y16.6038 F350.00
G01 X-19.0085 Y16.6457 F350.00
G01 X-19.0222 Y16.6512 F350.00
G01 X-19.1054 Y16.6810 F350.00
G01 X-19.1194 Y16.6854 F350.00
G01 X-19.2194 Y16.7103 F350.00
G01 X-19.3164 Y16.7249 F350.00
G01 X-19.3360 Y16.7268 F350.00
G01 X-19.4242 Y16.7312 F350.00
G01 X-19.4389 Y16.7313 F350.00
G01 X-19.5418 Y16.7261 F350.00
G01 X-19.6486 Y16.7103 F350.00
G01 X-19.7533 Y16.6840 F350.00
G01 X-19.8458 Y16.6512 F350.00
G01 X-19.8639 Y16.6437 F350.00
G01 X-19.9525 Y16.6015 F350.00
G01 X-20.0368 Y16.5513 F350.00
G01 X-20.0532 Y16.5404 F350.00
G01 X-20.1318 Y16.4817 F350.00
G01 X-20.2047 Y16.4160 F350.00
G01 X-20.2186 Y16.4021 F350.00
G01 X-20.2779 Y16.3367 F350.00
G01 X-20.2904 Y16.3215 F350.00
G01 X-20.3486 Y16.2425 F350.00
G01 X-20.4041 Y16.1499 F350.00
G01 X-20.4503 Y16.0524 F350.00
G01 X-20.4866 Y15.9507 F350.00
G01 X-20.5129 Y15.8460 F350.00
G01 X-20.5287 Y15.7392 F350.00
G01 X-20.5340 Y15.6314 F350.00
G01 X-20.5287 Y15.5236 F350.00
G01 X-20.5129 Y15.4168 F350.00
G01 X-20.4866 Y15.3121 F350.00
G01 X-20.4503 Y15.2104 F350.00
G01 X-20.4041 Y15.1129 F350.00
G01 X-20.3486 Y15.0203 F350.00
G01 X-20.2843 Y14.9336 F350.00
G01 X-20.2118 Y14.8536 F350.00
G01 X-20.1318 Y14.7811 F350.00
G01 X-20.0451 Y14.7168 F350.00
G01 X-19.9611 Y14.6661 F350.00
G01 X-19.9438 Y14.6569 F350.00
G01 X-19.8639 Y14.6191 F350.00
G01 X-19.8458 Y14.6116 F350.00
G01 X-19.7533 Y14.5788 F350.00
G01 X-19.6486 Y14.5525 F350.00
G01 X-19.5418 Y14.5367 F350.00
G01 X-19.4389 Y14.5315 F350.00
G01 X-19.4242 Y14.5316 F350.00
G01 X-19.3360 Y14.5360 F350.00
G01 X-19.3164 Y14.5379 F350.00
G01 X-19.2194 Y14.5525 F350.00
G01 X-19.1194 Y14.5774 F350.00
G01 X-19.1054 Y14.5818 F350.00
G01 X-19.0222 Y14.6116 F350.00
G01 X-19.0085 Y14.6171 F350.00
G01 X-18.9198 Y14.6590 F350.00
G01 X-18.9112 Y14.6637 F350.00
G01 X-18.8821 Y14.6810 F350.00
G01 X-17.0177 Y14.6810 F350.00
G01 X-11.7280 Y9.3914 F350.00
G01 X-13.3277 Y7.7918 F350.00
G01 X-15.8340 Y7.7918 F350.00
G01 X-15.9223 Y7.7876 F350.00
G01 X-15.9369 Y7.7860 F350.00
G01 X-16.0097 Y7.7752 F350.00
G01 X-16.0290 Y7.7714 F350.00
G01 X-16.1099 Y7.7509 F350.00
G01 X-16.1977 Y7.7194 F350.00
G01 X-16.2820 Y7.6796 F350.00
G01 X-16.3537 Y7.6369 F350.00
G01 X-16.3700 Y7.6260 F350.00
G01 X-16.4292 Y7.5821 F350.00
G01 X-16.4407 Y7.5729 F350.00
G01 X-16.5060 Y7.5134 F350.00
G01 X-19.6060 Y4.4134 F350.00
G01 X-19.6622 Y4.3517 F350.00
G01 X-19.6747 Y4.3366 F350.00
G01 X-19.7242 Y4.2694 F350.00
G01 X-19.7722 Y4.1894 F350.00
G01 X-19.8120 Y4.1051 F350.00
G01 X-19.8404 Y4.0266 F350.00
G01 X-19.8461 Y4.0078 F350.00
G01 X-19.8661 Y3.9268 F350.00
G01 X-19.8786 Y3.8443 F350.00
G01 X-19.8805 Y3.8248 F350.00
G01 X-19.8841 Y3.7512 F350.00
G01 X-19.8844 Y1.2624 F350.00
G01 X-19.8844 Y1.6230 F350.00
G01 X-20.9381 Y1.6230 F350.00
G00 Z0.5000
G00 X-22.0333 Y2.1030
G01 F250.00
G01 Z-0.0500
G01 F350.00
G01 X-24.2410 Y2.1030 F350.00
G01 X-24.2394 Y2.3430 F350.00
G01 X-22.3282 Y2.3430 F350.00
G00 Z0.5000
G00 X-22.4960 Y2.5830
G01 F250.00
G01 Z-0.0500
G01 F350.00
G01 X-24.2378 Y2.5830 F350.00
G01 X-24.2362 Y2.8230 F350.00
G01 X-22.5901 Y2.8230 F350.00
G00 Z0.5000
G00 X-22.6304 Y3.0630
G01 F250.00
G01 Z-0.0500
G01 F350.00
G01 X-24.2346 Y3.0630 F350.00
G01 X-24.2311 Y3.3030 F350.00
G01 X-22.6219 Y3.3030 F350.00
G00 Z0.5000
G00 X-22.6338 Y3.1512
G01 F250.00
G01 Z-0.0500
G01 F350.00
G01 X-22.6338 Y3.1316 F350.00
G01 X-22.6282 Y3.0238 F350.00
G01 X-22.6109 Y2.9073 F350.00
G01 X-22.5823 Y2.7931 F350.00
G01 X-22.5427 Y2.6822 F350.00
G01 X-22.4923 Y2.5757 F350.00
G01 X-22.4318 Y2.4747 F350.00
G01 X-22.3616 Y2.3801 F350.00
G01 X-22.2825 Y2.2929 F350.00
G01 X-22.1953 Y2.2138 F350.00
G01 X-22.1007 Y2.1436 F350.00
G01 X-21.9997 Y2.0831 F350.00
G01 X-21.8932 Y2.0327 F350.00
G01 X-21.7823 Y1.9931 F350.00
G01 X-21.6681 Y1.9645 F350.00
G01 X-21.5516 Y1.9472 F350.00
G01 X-21.4340 Y1.9414 F350.00
G01 X-21.3164 Y1.9472 F350.00
G01 X-21.1999 Y1.9645 F350.00
G01 X-21.0857 Y1.9931 F350.00
G01 X-20.9748 Y2.0327 F350.00
G01 X-20.8683 Y2.0831 F350.00
G01 X-20.7673 Y2.1436 F350.00
G01 X-20.6727 Y2.2138 F350.00
G01 X-20.5855 Y2.2929 F350.00
G01 X-20.5064 Y2.3801 F350.00
G01 X-20.4362 Y2.4747 F350.00
G01 X-20.3757 Y2.5757 F350.00
G01 X-20.3253 Y2.6822 F350.00
G01 X-20.2857 Y2.7931 F350.00
G01 X-20.2571 Y2.9073 F350.00
G01 X-20.2398 Y3.0238 F350.00
G01 X-20.2340 Y3.1414 F350.00
G01 X-20.2398 Y3.2590 F350.00
G01 X-20.2571 Y3.3755 F350.00
G01 X-20.2857 Y3.4897 F350.00
G01 X-20.3253 Y3.6006 F350.00
G01 X-20.3757 Y3.7071 F350.00
G01 X-20.4362 Y3.8081 F350.00
G01 X-20.5064 Y3.9027 F350.00
G01 X-20.5855 Y3.9899 F350.00
G01 X-20.6727 Y4.0690 F350.00
G01 X-20.7673 Y4.1392 F350.00
G01 X-20.8683 Y4.1997 F350.00
G01 X-20.9748 Y4.2501 F350.00
G01 X-21.0857 Y4.2897 F350.00
G01 X-21.1999 Y4.3183 F350.00
G01 X-21.3164 Y4.3356 F350.00
G01 X-21.4340 Y4.3414 F350.00
G01 X-21.5516 Y4.3356 F350.00
G01 X-21.6681 Y4.3183 F350.00
G01 X-21.7823 Y4.2897 F350.00
G01 X-21.8932 Y4.2501 F350.00
G01 X-21.9997 Y4.1997 F350.00
G01 X-22.1007 Y4.1392 F350.00
G01 X-22.1953 Y4.0690 F350.00
G01 X-22.2825 Y3.9899 F350.00
G01 X-22.3616 Y3.9027 F350.00
G01 X-22.4318 Y3.8081 F350.00
G01 X-22.4923 Y3.7071 F350.00
G01 X-22.5427 Y3.6006 F350.00
G01 X-22.5823 Y3.4897 F350.00
G01 X-22.6109 Y3.3755 F350.00
G01 X-22.6282 Y3.2590 F350.00
G01 X-22.6338 Y3.1512 F350.00
G00 Z0.5000
G00 X-22.5635 Y3.5430
G01 F250.00
G01 Z-0.0500
G01 F350.00
G01 X-24.2264 Y3.5430 F350.00
G01 X-24.2216 Y3.7830 F350.00
G01 X-22.4471 Y3.7830 F350.00
G00 Z0.5000
G00 X-22.2465 Y4.0230
G01 F250.00
G01 Z-0.0500
G01 F350.00
G01 X-24.2168 Y4.0230 F350.00
G01 X-24.2121 Y4.2630 F350.00
G01 X-21.8579 Y4.2630 F350.00
G01 X-22.0345 Y6.9030 F350.00
G01 X-24.1596 Y6.9030 F350.00
G01 X-24.1644 Y6.6630 F350.00
G01 X-17.3565 Y6.6630 F350.00
G01 X-17.1165 Y6.9030 F350.00
G01 X-18.3335 Y6.9030 F350.00
G00 Z0.5000
G00 X-18.1045 Y7.1430
G01 F250.00
G01 Z-0.0500
G01 F350.00
G01 X-16.8765 Y7.1430 F350.00
G01 X-16.6365 Y7.3830 F350.00
G01 X-17.9869 Y7.3830 F350.00
G00 Z0.5000
G00 X-17.9376 Y7.6230
G01 F250.00
G01 Z-0.0500
G01 F350.00
G01 X-16.3741 Y7.6230 F350.00
G01 X-17.9340 Y7.8630 F350.00
G01 X-13.2565 Y7.8630 F350.00
G01 X-13.0165 Y8.1030 F350.00
G01 X-17.9340 Y8.1030 F350.00
G01 X-17.9340 Y8.3430 F350.00
G01 X-12.7765 Y8.3430 F350.00
G01 X-12.5365 Y8.5830 F350.00
G01 X-17.9340 Y8.5830 F350.00
G00 Z0.5000
G00 X-17.9596 Y8.8230
G01 F250.00
G01 Z-0.0500
G01 F350.00
G01 X-12.2965 Y8.8230 F350.00
G01 X-12.0565 Y9.0630 F350.00
G01 X-17.9836 Y9.0630 F350.00
G01 X-17.9836 Y9.3030 F350.00
G01 X-11.8165 Y9.3030 F350.00
G01 X-11.8796 Y9.5430 F350.00
G01 X-14.2684 Y9.5430 F350.00
G00 Z0.5000
G00 X-14.0041 Y9.7830
G01 F250.00
G01 Z-0.0500
G01 F350.00
G01 X-12.1196 Y9.7830 F350.00
G01 X-12.3596 Y10.0230 F350.00
G01 X-13.8531 Y10.0230 F350.00
G00 Z0.5000
G00 X-13.7679 Y10.2630
G01 F250.00
G01 Z-0.0500
G01 F350.00
G01 X-12.5996 Y10.2630 F350.00
G01 X-12.8396 Y10.5030 F350.00
G01 X-13.7356 Y10.5030 F350.00
G00 Z0.5000
G00 X-13.7520 Y10.7430
G01 F250.00
G01 Z-0.0500
G01 F350.00
G01 X-13.0796 Y10.7430 F350.00
G01 X-13.3196 Y10.9830 F350.00
G01 X-13.8188 Y10.9830 F350.00
G00 Z0.5000
G00 X-13.9470 Y11.2230
G01 F250.00
G01 Z-0.0500
G01 F350.00
G01 X-13.5596 Y11.2230 F350.00
G01 X-13.7996 Y11.4630 F350.00
G01 X-14.1657 Y11.4630 F350.00
G00 Z0.5000
G00 X-14.0396 Y11.7030
G01 F250.00
G01 Z-0.0500
G01 F350.00
G01 X-14.6375 Y11.7030 F350.00
G01 X-14.2796 Y11.9430 F350.00
G01 X-15.3452 Y11.9430 F350.00
G01 X-15.5852 Y12.1830 F350.00
G01 X-14.5196 Y12.1830 F350.00
G01 X-14.7596 Y12.4230 F350.00
G01 X-15.8252 Y12.4230 F350.00
G01 X-16.0652 Y12.6630 F350.00
G01 X-14.9996 Y12.6630 F350.00
G01 X-15.2396 Y12.9030 F350.00
G01 X-16.3052 Y12.9030 F350.00
G01 X-16.5452 Y13.1430 F350.00
G01 X-15.4796 Y13.1430 F350.00
G01 X-15.7196 Y13.3830 F350.00
G01 X-16.7852 Y13.3830 F350.00
G00 Z0.5000
G00 X-17.0286 Y13.6230
G01 F250.00
G01 Z-0.0500
G01 F350.00
G01 X-15.9596 Y13.6230 F350.00
G01 X-16.1996 Y13.8630 F350.00
G01 X-18.0502 Y13.8630 F350.00
G00 Z0.5000
G00 X-18.4025 Y14.1030
G01 F250.00
G01 Z-0.0500
G01 F350.00
G01 X-16.4396 Y14.1030 F350.00
G01 X-16.6796 Y14.3430 F350.00
G01 X-20.6337 Y14.3430 F350.00
G01 X-20.6337 Y14.1030 F350.00
G01 X-20.4655 Y14.1030 F350.00
G01 X-20.6337 Y14.5830 F350.00
G01 X-19.7657 Y14.5830 F350.00
G00 Z0.5000
G00 X-20.1784 Y14.8230
G01 F250.00
G01 Z-0.0500
G01 F350.00
G01 X-20.6337 Y14.8230 F350.00
G01 X-20.6337 Y15.0630 F350.00
G01 X-20.3745 Y15.0630 F350.00
G00 Z0.5000
G00 X-20.4836 Y15.3030
G01 F250.00
G01 Z-0.0500
G01 F350.00
G01 X-20.6337 Y15.3030 F350.00
G01 X-20.6337 Y15.5430 F350.00
G01 X-20.5299 Y15.5430 F350.00
G00 Z0.5000
G00 X-20.5225 Y15.7830
G01 F250.00
G01 Z-0.0500
G01 F350.00
G01 X-20.6337 Y15.7830 F350.00
G01 X-20.6337 Y16.0230 F350.00
G01 X-20.4610 Y16.0230 F350.00
G00 Z0.5000
G00 X-20.3338 Y16.2630
G01 F250.00
G01 Z-0.0500
G01 F350.00
G01 X-20.6337 Y16.2630 F350.00
G01 X-20.6337 Y16.5030 F350.00
G01 X-20.1036 Y16.5030 F350.00
G01 X-20.6337 Y16.7430 F350.00
G01 X-13.4369 Y16.7430 F350.00
G00 Z0.5000
G00 X-13.7742 Y16.9830
G01 F250.00
G01 Z-0.0500
G01 F350.00
G01 X-20.6337 Y16.9830 F350.00
G00 Z0.5000
G00 X-19.5014 Y17.2230
G01 F250.00
G01 Z-0.0500
G01 F350.00
G01 X-13.9929 Y17.2230 F350.00
G00 Z0.5000
G00 X-14.1444 Y17.4630
G01 F250.00
G01 Z-0.0500
G01 F350.00
G01 X-19.2216 Y17.4630 F350.00
G00 Z0.5000
G00 X-19.0626 Y17.7030
G01 F250.00
G01 Z-0.0500
G01 F350.00
G01 X-14.2450 Y17.7030 F350.00
G00 Z0.5000
G00 X-14.3065 Y17.9430
G01 F250.00
G01 Z-0.0500
G01 F350.00
G01 X-18.9729 Y17.9430 F350.00
G00 Z0.5000
G00 X-18.9366 Y18.1830
G01 F250.00
G01 Z-0.0500
G01 F350.00
G01 X-14.3314 Y18.1830 F350.00
G00 Z0.5000
G00 X-14.3238 Y18.4230
G01 F250.00
G01 Z-0.0500
G01 F350.00
G01 X-18.9490 Y18.4230 F350.00
G00 Z0.5000
G00 X-19.0116 Y18.6630
G01 F250.00
G01 Z-0.0500
G01 F350.00
G01 X-14.2791 Y18.6630 F350.00
G00 Z0.5000
G00 X-14.1997 Y18.9030
G01 F250.00
G01 Z-0.0500
G01 F350.00
G01 X-19.1329 Y18.9030 F350.00
G00 Z0.5000
G00 X-19.3436 Y19.1430
G01 F250.00
G01 Z-0.0500
G01 F350.00
G01 X-14.0735 Y19.1430 F350.00
G00 Z0.5000
G00 X-13.8913 Y19.3830
G01 F250.00
G01 Z-0.0500
G01 F350.00
G01 X-19.7660 Y19.3830 F350.00
G00 Z0.5000
G00 X-21.5020 Y19.3830
G01 F250.00
G01 Z-0.0500
G01 F350.00
G01 X-23.6901 Y19.3830 F350.00
G01 X-23.7840 Y19.1430 F350.00
G01 X-21.9244 Y19.1430 F350.00
G00 Z0.5000
G00 X-22.1351 Y18.9030
G01 F250.00
G01 Z-0.0500
G01 F350.00
G01 X-23.8536 Y18.9030 F350.00
G01 X-23.9009 Y18.6630 F350.00
G01 X-22.2564 Y18.6630 F350.00
G00 Z0.5000
G00 X-22.3190 Y18.4230
G01 F250.00
G01 Z-0.0500
G01 F350.00
G01 X-23.9273 Y18.4230 F350.00
G01 X-23.9355 Y18.1830 F350.00
G01 X-22.3314 Y18.1830 F350.00
G00 Z0.5000
G00 X-22.2951 Y17.9430
G01 F250.00
G01 Z-0.0500
G01 F350.00
G01 X-23.9403 Y17.9430 F350.00
G01 X-23.9451 Y17.7030 F350.00
G01 X-22.2054 Y17.7030 F350.00
G00 Z0.5000
G00 X-22.0464 Y17.4630
G01 F250.00
G01 Z-0.0500
G01 F350.00
G01 X-23.9498 Y17.4630 F350.00
G01 X-23.9546 Y17.2230 F350.00
G01 X-22.0343 Y17.2230 F350.00
G01 X-22.0343 Y17.4496 F350.00
G01 X-22.0343 Y13.4414 F350.00
G01 X-22.0316 Y13.3826 F350.00
G01 X-22.0303 Y13.3679 F350.00
G01 X-22.0225 Y13.3145 F350.00
G01 X-22.0186 Y13.2952 F350.00
G01 X-22.0041 Y13.2381 F350.00
G01 X-21.9845 Y13.1826 F350.00
G01 X-21.9770 Y13.1645 F350.00
G01 X-21.9516 Y13.1113 F350.00
G01 X-21.9215 Y13.0607 F350.00
G01 X-21.9106 Y13.0443 F350.00
G01 X-21.8753 Y12.9972 F350.00
G01 X-21.8326 Y12.9498 F350.00
G01 X-21.4792 Y12.5962 F350.00
G01 X-21.4357 Y12.5565 F350.00
G01 X-21.4205 Y12.5441 F350.00
G01 X-21.3730 Y12.5092 F350.00
G01 X-21.3141 Y12.4738 F350.00
G01 X-21.2520 Y12.4445 F350.00
G01 X-21.1873 Y12.4213 F350.00
G01 X-21.1206 Y12.4046 F350.00
G01 X-21.0526 Y12.3945 F350.00
G01 X-20.9889 Y12.3912 F350.00
G01 X-20.8823 Y12.3911 F350.00
G01 X-20.8186 Y12.3207 F350.00
G01 X-20.8047 Y12.3068 F350.00
G01 X-20.7318 Y12.2411 F350.00
G01 X-20.6532 Y12.1824 F350.00
G01 X-20.6368 Y12.1715 F350.00
G01 X-20.5525 Y12.1213 F350.00
G01 X-20.4550 Y12.0751 F350.00
G01 X-20.3533 Y12.0388 F350.00
G01 X-20.2486 Y12.0125 F350.00
G01 X-20.1418 Y11.9967 F350.00
G01 X-20.0438 Y11.9916 F350.00
G01 X-18.8291 Y11.9915 F350.00
G01 X-18.7262 Y11.9967 F350.00
G01 X-18.6242 Y12.0116 F350.00
G01 X-18.6098 Y12.0147 F350.00
G01 X-18.5147 Y12.0388 F350.00
G01 X-18.4222 Y12.0716 F350.00
G01 X-18.4041 Y12.0791 F350.00
G01 X-18.3242 Y12.1169 F350.00
G01 X-18.3069 Y12.1261 F350.00
G01 X-18.2229 Y12.1768 F350.00
G01 X-18.1362 Y12.2411 F350.00
G01 X-18.0562 Y12.3136 F350.00
G01 X-17.9857 Y12.3911 F350.00
G01 X-17.7741 Y12.3911 F350.00
G01 X-16.1173 Y10.7344 F350.00
G01 X-16.1270 Y10.6688 F350.00
G01 X-16.1286 Y10.6541 F350.00
G01 X-16.1338 Y10.5512 F350.00
G01 X-16.1339 Y10.5365 F350.00
G01 X-16.1282 Y10.4238 F350.00
G01 X-16.1126 Y10.3170 F350.00
G01 X-16.1099 Y10.3025 F350.00
G01 X-16.0823 Y10.1931 F350.00
G01 X-16.0427 Y10.0822 F350.00
G01 X-15.9923 Y9.9757 F350.00
G01 X-15.9344 Y9.8788 F350.00
G01 X-15.9261 Y9.8667 F350.00
G01 X-15.8616 Y9.7801 F350.00
G01 X-15.7893 Y9.7000 F350.00
G01 X-15.7754 Y9.6861 F350.00
G01 X-15.7027 Y9.6202 F350.00
G01 X-15.6875 Y9.6077 F350.00
G01 X-15.6007 Y9.5436 F350.00
G01 X-15.4997 Y9.4831 F350.00
G01 X-15.3932 Y9.4327 F350.00
G01 X-15.2870 Y9.3946 F350.00
G01 X-15.2729 Y9.3905 F350.00
G01 X-15.1681 Y9.3645 F350.00
G01 X-15.0516 Y9.3472 F350.00
G01 X-14.9340 Y9.3414 F350.00
G01 X-14.8262 Y9.3465 F350.00
G01 X-14.8066 Y9.3484 F350.00
G01 X-14.7096 Y9.3628 F350.00
G01 X-14.6903 Y9.3666 F350.00
G01 X-14.5857 Y9.3931 F350.00
G01 X-14.4839 Y9.4292 F350.00
G01 X-14.4658 Y9.4367 F350.00
G01 X-14.3683 Y9.4831 F350.00
G01 X-14.2673 Y9.5436 F350.00
G01 X-14.1727 Y9.6138 F350.00
G01 X-14.0855 Y9.6929 F350.00
G01 X-14.0064 Y9.7801 F350.00
G01 X-13.9362 Y9.8747 F350.00
G01 X-13.8757 Y9.9757 F350.00
G01 X-13.8253 Y10.0822 F350.00
G01 X-13.7888 Y10.1837 F350.00
G01 X-13.7831 Y10.2025 F350.00
G01 X-13.7571 Y10.3073 F350.00
G01 X-13.7398 Y10.4238 F350.00
G01 X-13.7340 Y10.5414 F350.00
G01 X-13.7391 Y10.6492 F350.00
G01 X-13.7410 Y10.6688 F350.00
G01 X-13.7571 Y10.7755 F350.00
G01 X-13.7857 Y10.8897 F350.00
G01 X-13.8218 Y10.9915 F350.00
G01 X-13.8293 Y11.0096 F350.00
G01 X-13.8757 Y11.1071 F350.00
G01 X-13.9310 Y11.1998 F350.00
G01 X-13.9419 Y11.2161 F350.00
G01 X-14.0064 Y11.3027 F350.00
G01 X-14.0787 Y11.3828 F350.00
G01 X-14.0926 Y11.3967 F350.00
G01 X-14.1727 Y11.4690 F350.00
G01 X-14.2593 Y11.5335 F350.00
G01 X-14.2756 Y11.5444 F350.00
G01 X-14.3683 Y11.5997 F350.00
G01 X-14.4658 Y11.6461 F350.00
G01 X-14.4839 Y11.6536 F350.00
G01 X-14.5810 Y11.6882 F350.00
G01 X-14.5951 Y11.6923 F350.00
G01 X-14.6999 Y11.7183 F350.00
G01 X-14.8066 Y11.7344 F350.00
G01 X-14.8213 Y11.7360 F350.00
G01 X-14.9242 Y11.7412 F350.00
G01 X-14.9438 Y11.7412 F350.00
G01 X-15.0516 Y11.7356 F350.00
G01 X-15.1270 Y11.7247 F350.00
G01 X-16.9888 Y13.5866 F350.00
G01 X-17.0323 Y13.6263 F350.00
G01 X-17.0475 Y13.6387 F350.00
G01 X-17.0950 Y13.6736 F350.00
G01 X-17.1496 Y13.7066 F350.00
G01 X-17.1627 Y13.7134 F350.00
G01 X-17.2160 Y13.7383 F350.00
G01 X-17.2807 Y13.7615 F350.00
G01 X-17.3474 Y13.7782 F350.00
G01 X-17.4154 Y13.7883 F350.00
G01 X-17.4840 Y13.7917 F350.00
G01 X-17.9857 Y13.7917 F350.00
G01 X-18.0562 Y13.8692 F350.00
G01 X-18.1362 Y13.9417 F350.00
G01 X-18.2229 Y14.0060 F350.00
G01 X-18.3155 Y14.0615 F350.00
G01 X-18.4130 Y14.1077 F350.00
G01 X-18.5147 Y14.1440 F350.00
G01 X-18.6194 Y14.1703 F350.00
G01 X-18.7262 Y14.1861 F350.00
G01 X-18.8340 Y14.1914 F350.00
G01 X-20.0340 Y14.1914 F350.00
G01 X-20.1418 Y14.1861 F350.00
G01 X-20.2486 Y14.1703 F350.00
G01 X-20.3439 Y14.1467 F350.00
G01 X-20.3626 Y14.1410 F350.00
G01 X-20.4458 Y14.1112 F350.00
G01 X-20.4639 Y14.1037 F350.00
G01 X-20.5525 Y14.0615 F350.00
G01 X-20.6337 Y14.0131 F350.00
G01 X-20.6337 Y17.0414 F350.00
G01 X-20.1340 Y17.0414 F350.00
G01 X-20.0262 Y17.0465 F350.00
G01 X-20.0115 Y17.0477 F350.00
G01 X-19.8999 Y17.0645 F350.00
G01 X-19.7857 Y17.0931 F350.00
G01 X-19.6748 Y17.1327 F350.00
G01 X-19.5771 Y17.1787 F350.00
G01 X-19.5640 Y17.1855 F350.00
G01 X-19.4673 Y17.2436 F350.00
G01 X-19.3805 Y17.3077 F350.00
G01 X-19.3653 Y17.3202 F350.00
G01 X-19.2855 Y17.3929 F350.00
G01 X-19.2128 Y17.4727 F350.00
G01 X-19.2003 Y17.4879 F350.00
G01 X-19.1419 Y17.5667 F350.00
G01 X-19.1310 Y17.5830 F350.00
G01 X-19.0757 Y17.6757 F350.00
G01 X-19.0253 Y17.7822 F350.00
G01 X-18.9857 Y17.8931 F350.00
G01 X-18.9592 Y17.9977 F350.00
G01 X-18.9562 Y18.0121 F350.00
G01 X-18.9398 Y18.1238 F350.00
G01 X-18.9340 Y18.2414 F350.00
G01 X-18.9398 Y18.3590 F350.00
G01 X-18.9554 Y18.4658 F350.00
G01 X-18.9592 Y18.4851 F350.00
G01 X-18.9831 Y18.5803 F350.00
G01 X-18.9888 Y18.5991 F350.00
G01 X-19.0253 Y18.7006 F350.00
G01 X-19.0757 Y18.8071 F350.00
G01 X-19.1362 Y18.9081 F350.00
G01 X-19.2064 Y19.0027 F350.00
G01 X-19.2855 Y19.0899 F350.00
G01 X-19.3653 Y19.1626 F350.00
G01 X-19.3805 Y19.1751 F350.00
G01 X-19.4593 Y19.2335 F350.00
G01 X-19.4756 Y19.2444 F350.00
G01 X-19.5683 Y19.2997 F350.00
G01 X-19.6658 Y19.3461 F350.00
G01 X-19.6793 Y19.3519 F350.00
G01 X-19.7857 Y19.3897 F350.00
G01 X-19.8903 Y19.4162 F350.00
G01 X-19.9096 Y19.4200 F350.00
G01 X-20.0066 Y19.4344 F350.00
G01 X-20.0262 Y19.4363 F350.00
G01 X-20.1340 Y19.4414 F350.00
G01 X-21.1389 Y19.4413 F350.00
G01 X-21.2418 Y19.4363 F350.00
G01 X-21.2614 Y19.4344 F350.00
G01 X-21.3681 Y19.4183 F350.00
G01 X-21.4729 Y19.3923 F350.00
G01 X-21.4917 Y19.3866 F350.00
G01 X-21.5932 Y19.3501 F350.00
G01 X-21.6909 Y19.3041 F350.00
G01 X-21.7040 Y19.2973 F350.00
G01 X-21.7924 Y19.2444 F350.00
G01 X-21.8087 Y19.2335 F350.00
G01 X-21.8953 Y19.1690 F350.00
G01 X-21.9754 Y19.0967 F350.00
G01 X-21.9893 Y19.0828 F350.00
G01 X-22.0616 Y19.0027 F350.00
G01 X-22.1318 Y18.9081 F350.00
G01 X-22.1923 Y18.8071 F350.00
G01 X-22.2387 Y18.7096 F350.00
G01 X-22.2462 Y18.6915 F350.00
G01 X-22.2792 Y18.5991 F350.00
G01 X-22.2849 Y18.5803 F350.00
G01 X-22.3109 Y18.4755 F350.00
G01 X-22.3270 Y18.3688 F350.00
G01 X-22.3289 Y18.3492 F350.00
G01 X-22.3340 Y18.2414 F350.00
G01 X-22.3282 Y18.1238 F350.00
G01 X-22.3109 Y18.0073 F350.00
G01 X-22.2849 Y17.9025 F350.00
G01 X-22.2808 Y17.8884 F350.00
G01 X-22.2427 Y17.7822 F350.00
G01 X-22.1967 Y17.6845 F350.00
G01 X-22.1899 Y17.6714 F350.00
G01 X-22.1370 Y17.5830 F350.00
G01 X-22.1290 Y17.5707 F350.00
G01 X-22.0647 Y17.4840 F350.00
G01 X-22.0552 Y17.4727 F350.00
G01 X-22.0343 Y17.4496 F350.00
G01 X-22.0343 Y16.9830 F350.00
G01 X-23.9594 Y16.9830 F350.00
G01 X-23.9641 Y16.7430 F350.00
G01 X-22.0343 Y16.7430 F350.00
G01 X-22.0343 Y16.5030 F350.00
G01 X-23.9689 Y16.5030 F350.00
G01 X-23.9737 Y16.2630 F350.00
G01 X-22.0343 Y16.2630 F350.00
G01 X-22.0343 Y16.0230 F350.00
G01 X-23.9784 Y16.0230 F350.00
G01 X-23.9832 Y15.7830 F350.00
G01 X-22.0343 Y15.7830 F350.00
G01 X-22.0343 Y15.5430 F350.00
G01 X-23.9880 Y15.5430 F350.00
G01 X-23.9927 Y15.3030 F350.00
G01 X-22.0343 Y15.3030 F350.00
G01 X-22.0343 Y15.0630 F350.00
G01 X-23.9975 Y15.0630 F350.00
G01 X-24.0023 Y14.8230 F350.00
G01 X-22.0343 Y14.8230 F350.00
G01 X-22.0343 Y14.5830 F350.00
G01 X-24.0070 Y14.5830 F350.00
G01 X-24.0118 Y14.3430 F350.00
G01 X-22.0343 Y14.3430 F350.00
G01 X-22.0343 Y14.1030 F350.00
G01 X-24.0166 Y14.1030 F350.00
G01 X-24.0213 Y13.8630 F350.00
G01 X-22.0343 Y13.8630 F350.00
G01 X-22.0343 Y13.6230 F350.00
G01 X-24.0261 Y13.6230 F350.00
G01 X-24.0309 Y13.3830 F350.00
G01 X-22.0316 Y13.3830 F350.00
G00 Z0.5000
G00 X-21.9668 Y13.1430
G01 F250.00
G01 Z-0.0500
G01 F350.00
G01 X-24.0356 Y13.1430 F350.00
G01 X-24.0404 Y12.9030 F350.00
G01 X-21.7859 Y12.9030 F350.00
G01 X-21.5459 Y12.6630 F350.00
G01 X-24.0452 Y12.6630 F350.00
G01 X-24.0500 Y12.4230 F350.00
G01 X-21.1924 Y12.4230 F350.00
G00 Z0.5000
G00 X-20.6538 Y12.1830
G01 F250.00
G01 Z-0.0500
G01 F350.00
G01 X-24.0547 Y12.1830 F350.00
G01 X-24.0595 Y11.9430 F350.00
G01 X-17.3259 Y11.9430 F350.00
G01 X-17.0859 Y11.7030 F350.00
G01 X-24.0643 Y11.7030 F350.00
G01 X-24.0690 Y11.4630 F350.00
G01 X-20.0496 Y11.4630 F350.00
G00 Z0.5000
G00 X-20.3041 Y11.2230
G01 F250.00
G01 Z-0.0500
G01 F350.00
G01 X-24.0738 Y11.2230 F350.00
G01 X-24.0786 Y10.9830 F350.00
G01 X-20.4455 Y10.9830 F350.00
G00 Z0.5000
G00 X-20.5165 Y10.7430
G01 F250.00
G01 Z-0.0500
G01 F350.00
G01 X-24.0833 Y10.7430 F350.00
G01 X-24.0881 Y10.5030 F350.00
G01 X-20.5319 Y10.5030 F350.00
G00 Z0.5000
G00 X-20.4946 Y10.2630
G01 F250.00
G01 Z-0.0500
G01 F350.00
G01 X-24.0929 Y10.2630 F350.00
G01 X-24.0976 Y10.0230 F350.00
G01 X-20.3985 Y10.0230 F350.00
G00 Z0.5000
G00 X-20.2206 Y9.7830
G01 F250.00
G01 Z-0.0500
G01 F350.00
G01 X-24.1024 Y9.7830 F350.00
G01 X-24.1072 Y9.5430 F350.00
G01 X-21.7680 Y9.5430 F350.00
G00 Z0.5000
G00 X-22.1464 Y9.3030
G01 F250.00
G01 Z-0.0500
G01 F350.00
G01 X-24.1119 Y9.3030 F350.00
G01 X-24.1167 Y9.0630 F350.00
G01 X-22.3208 Y9.0630 F350.00
G00 Z0.5000
G00 X-22.4084 Y8.8230
G01 F250.00
G01 Z-0.0500
G01 F350.00
G01 X-24.1215 Y8.8230 F350.00
G01 X-24.1262 Y8.5830 F350.00
G01 X-22.4340 Y8.5830 F350.00
G01 X-22.4340 Y8.3430 F350.00
G01 X-24.1310 Y8.3430 F350.00
G01 X-24.1358 Y8.1030 F350.00
G01 X-22.4340 Y8.1030 F350.00
G01 X-22.4340 Y7.8630 F350.00
G01 X-24.1405 Y7.8630 F350.00
G01 X-24.1453 Y7.6230 F350.00
G01 X-22.4304 Y7.6230 F350.00
G00 Z0.5000
G00 X-22.3811 Y7.3830
G01 F250.00
G01 Z-0.0500
G01 F350.00
G01 X-24.1501 Y7.3830 F350.00
G01 X-24.1549 Y7.1430 F350.00
G01 X-22.2635 Y7.1430 F350.00
G00 Z0.5000
G00 X-20.8335 Y6.9030
G01 F250.00
G01 Z-0.0500
G01 F350.00
G01 X-19.5345 Y6.9030 F350.00
G00 Z0.5000
G00 X-19.7635 Y7.1430
G01 F250.00
G01 Z-0.0500
G01 F350.00
G01 X-20.6045 Y7.1430 F350.00
G00 Z0.5000
G00 X-20.5692 Y7.2010
G01 F250.00
G01 Z-0.0500
G01 F350.00
G01 X-19.7988 Y7.2010 F350.00
G01 X-19.7655 Y7.1458 F350.00
G01 X-19.7101 Y7.0708 F350.00
G01 X-19.7006 Y7.0596 F350.00
G01 X-19.6479 Y7.0014 F350.00
G01 X-19.6376 Y6.9909 F350.00
G01 X-19.5684 Y6.9284 F350.00
G01 X-19.4976 Y6.8756 F350.00
G01 X-19.4813 Y6.8647 F350.00
G01 X-19.4139 Y6.8243 F350.00
G01 X-19.4010 Y6.8172 F350.00
G01 X-19.3167 Y6.7775 F350.00
G01 X-19.2336 Y6.7475 F350.00
G01 X-19.2148 Y6.7418 F350.00
G01 X-19.1291 Y6.7206 F350.00
G01 X-19.0418 Y6.7074 F350.00
G01 X-19.0222 Y6.7055 F350.00
G01 X-18.9340 Y6.7014 F350.00
G01 X-18.8409 Y6.7058 F350.00
G01 X-18.8262 Y6.7074 F350.00
G01 X-18.7486 Y6.7189 F350.00
G01 X-18.7293 Y6.7228 F350.00
G01 X-18.6437 Y6.7445 F350.00
G01 X-18.5513 Y6.7775 F350.00
G01 X-18.4714 Y6.8151 F350.00
G01 X-18.4541 Y6.8243 F350.00
G01 X-18.3784 Y6.8699 F350.00
G01 X-18.2996 Y6.9284 F350.00
G01 X-18.2269 Y6.9943 F350.00
G01 X-18.1674 Y7.0596 F350.00
G01 X-18.1550 Y7.0747 F350.00
G01 X-18.1025 Y7.1458 F350.00
G01 X-18.0569 Y7.2215 F350.00
G01 X-18.0477 Y7.2388 F350.00
G01 X-18.0101 Y7.3187 F350.00
G01 X-17.9785 Y7.4064 F350.00
G01 X-17.9744 Y7.4206 F350.00
G01 X-17.9554 Y7.4967 F350.00
G01 X-17.9515 Y7.5160 F350.00
G01 X-17.9388 Y7.6034 F350.00
G01 X-17.9342 Y7.6916 F350.00
G01 X-17.9341 Y8.6063 F350.00
G01 X-17.9388 Y8.6994 F350.00
G01 X-17.9523 Y8.7917 F350.00
G01 X-17.9554 Y8.8061 F350.00
G01 X-17.9744 Y8.8822 F350.00
G01 X-17.9785 Y8.8964 F350.00
G01 X-17.9836 Y8.9107 F350.00
G01 X-17.9837 Y10.0563 F350.00
G01 X-17.9875 Y10.1348 F350.00
G01 X-17.9894 Y10.1543 F350.00
G01 X-18.0019 Y10.2368 F350.00
G01 X-18.0232 Y10.3226 F350.00
G01 X-18.0276 Y10.3366 F350.00
G01 X-18.0560 Y10.4151 F350.00
G01 X-18.0914 Y10.4906 F350.00
G01 X-18.1007 Y10.5079 F350.00
G01 X-18.1385 Y10.5711 F350.00
G01 X-18.1466 Y10.5834 F350.00
G01 X-18.1994 Y10.6543 F350.00
G01 X-18.2586 Y10.7199 F350.00
G01 X-18.2691 Y10.7302 F350.00
G01 X-18.3273 Y10.7829 F350.00
G01 X-18.3388 Y10.7921 F350.00
G01 X-18.3666 Y10.8127 F350.00
G01 X-18.3787 Y10.8613 F350.00
G01 X-18.3828 Y10.8754 F350.00
G01 X-18.4159 Y10.9678 F350.00
G01 X-18.4217 Y10.9813 F350.00
G01 X-18.4616 Y11.0656 F350.00
G01 X-18.4687 Y11.0785 F350.00
G01 X-18.5194 Y11.1625 F350.00
G01 X-18.5776 Y11.2415 F350.00
G01 X-18.5868 Y11.2530 F350.00
G01 X-18.6562 Y11.3292 F350.00
G01 X-18.7287 Y11.3953 F350.00
G01 X-18.7439 Y11.4078 F350.00
G01 X-18.8229 Y11.4660 F350.00
G01 X-18.9069 Y11.5167 F350.00
G01 X-18.9242 Y11.5259 F350.00
G01 X-19.0130 Y11.5677 F350.00
G01 X-19.1100 Y11.6026 F350.00
G01 X-19.1241 Y11.6067 F350.00
G01 X-19.2194 Y11.6303 F350.00
G01 X-19.3262 Y11.6461 F350.00
G01 X-19.4340 Y11.6514 F350.00
G01 X-19.5418 Y11.6461 F350.00
G01 X-19.6486 Y11.6303 F350.00
G01 X-19.7533 Y11.6040 F350.00
G01 X-19.8550 Y11.5677 F350.00
G01 X-19.9525 Y11.5215 F350.00
G01 X-20.0451 Y11.4660 F350.00
G01 X-20.1318 Y11.4017 F350.00
G01 X-20.2118 Y11.3292 F350.00
G01 X-20.2843 Y11.2492 F350.00
G01 X-20.3486 Y11.1625 F350.00
G01 X-20.4041 Y11.0699 F350.00
G01 X-20.4503 Y10.9724 F350.00
G01 X-20.4866 Y10.8707 F350.00
G01 X-20.5107 Y10.7756 F350.00
G01 X-20.5145 Y10.7563 F350.00
G01 X-20.5287 Y10.6592 F350.00
G01 X-20.5340 Y10.5514 F350.00
G01 X-20.5287 Y10.4436 F350.00
G01 X-20.5145 Y10.3465 F350.00
G01 X-20.5107 Y10.3272 F350.00
G01 X-20.4893 Y10.2415 F350.00
G01 X-20.4852 Y10.2274 F350.00
G01 X-20.4503 Y10.1304 F350.00
G01 X-20.4041 Y10.0329 F350.00
G01 X-20.3486 Y9.9403 F350.00
G01 X-20.2904 Y9.8613 F350.00
G01 X-20.2779 Y9.8461 F350.00
G01 X-20.2118 Y9.7736 F350.00
G01 X-20.1393 Y9.7075 F350.00
G01 X-20.1241 Y9.6950 F350.00
G01 X-20.0532 Y9.6424 F350.00
G01 X-20.0368 Y9.6315 F350.00
G01 X-19.9525 Y9.5813 F350.00
G01 X-19.8844 Y9.5488 F350.00
G01 X-19.8844 Y9.1018 F350.00
G01 X-20.5692 Y9.1018 F350.00
G01 X-20.6025 Y9.1570 F350.00
G01 X-20.6579 Y9.2320 F350.00
G01 X-20.6674 Y9.2432 F350.00
G01 X-20.7201 Y9.3014 F350.00
G01 X-20.7304 Y9.3119 F350.00
G01 X-20.7996 Y9.3744 F350.00
G01 X-20.8704 Y9.4272 F350.00
G01 X-20.8867 Y9.4381 F350.00
G01 X-20.9541 Y9.4785 F350.00
G01 X-20.9670 Y9.4856 F350.00
G01 X-21.0513 Y9.5253 F350.00
G01 X-21.1344 Y9.5553 F350.00
G01 X-21.1532 Y9.5610 F350.00
G01 X-21.2389 Y9.5822 F350.00
G01 X-21.3262 Y9.5954 F350.00
G01 X-21.3458 Y9.5973 F350.00
G01 X-21.4340 Y9.6014 F350.00
G01 X-21.5271 Y9.5970 F350.00
G01 X-21.5418 Y9.5954 F350.00
G01 X-21.6194 Y9.5839 F350.00
G01 X-21.6387 Y9.5800 F350.00
G01 X-21.7243 Y9.5583 F350.00
G01 X-21.8167 Y9.5253 F350.00
G01 X-21.8966 Y9.4877 F350.00
G01 X-21.9139 Y9.4785 F350.00
G01 X-21.9896 Y9.4329 F350.00
G01 X-22.0684 Y9.3744 F350.00
G01 X-22.1411 Y9.3085 F350.00
G01 X-22.2006 Y9.2432 F350.00
G01 X-22.2130 Y9.2281 F350.00
G01 X-22.2655 Y9.1570 F350.00
G01 X-22.3111 Y9.0813 F350.00
G01 X-22.3203 Y9.0640 F350.00
G01 X-22.3579 Y8.9841 F350.00
G01 X-22.3895 Y8.8964 F350.00
G01 X-22.3936 Y8.8822 F350.00
G01 X-22.4126 Y8.8061 F350.00
G01 X-22.4165 Y8.7868 F350.00
G01 X-22.4292 Y8.6994 F350.00
G01 X-22.4339 Y8.6063 F350.00
G01 X-22.4340 Y7.7014 F350.00
G01 X-22.4299 Y7.6132 F350.00
G01 X-22.4286 Y7.5985 F350.00
G01 X-22.4148 Y7.5063 F350.00
G01 X-22.3909 Y7.4111 F350.00
G01 X-22.3579 Y7.3187 F350.00
G01 X-22.3203 Y7.2388 F350.00
G01 X-22.3111 Y7.2215 F350.00
G01 X-22.2707 Y7.1541 F350.00
G01 X-22.2598 Y7.1378 F350.00
G01 X-22.2070 Y7.0670 F350.00
G01 X-22.1479 Y7.0014 F350.00
G01 X-22.1376 Y6.9909 F350.00
G01 X-22.0684 Y6.9284 F350.00
G01 X-21.9976 Y6.8756 F350.00
G01 X-21.9813 Y6.8647 F350.00
G01 X-21.9139 Y6.8243 F350.00
G01 X-21.8966 Y6.8151 F350.00
G01 X-21.8167 Y6.7775 F350.00
G01 X-21.7336 Y6.7475 F350.00
G01 X-21.7148 Y6.7418 F350.00
G01 X-21.6291 Y6.7206 F350.00
G01 X-21.5320 Y6.7062 F350.00
G01 X-21.4340 Y6.7014 F350.00
G01 X-21.3458 Y6.7055 F350.00
G01 X-21.3311 Y6.7068 F350.00
G01 X-21.2389 Y6.7206 F350.00
G01 X-21.1532 Y6.7418 F350.00
G01 X-21.1344 Y6.7475 F350.00
G01 X-21.0513 Y6.7775 F350.00
G01 X-20.9714 Y6.8151 F350.00
G01 X-20.9541 Y6.8243 F350.00
G01 X-20.8825 Y6.8673 F350.00
G01 X-20.8704 Y6.8756 F350.00
G01 X-20.7996 Y6.9284 F350.00
G01 X-20.7340 Y6.9875 F350.00
G01 X-20.7235 Y6.9978 F350.00
G01 X-20.6674 Y7.0596 F350.00
G01 X-20.6550 Y7.0747 F350.00
G01 X-20.6025 Y7.1458 F350.00
G01 X-20.5692 Y7.2010 F350.00
G00 Z0.5000
G00 X-20.7216 Y9.3030
G01 F250.00
G01 Z-0.0500
G01 F350.00
G01 X-19.8844 Y9.3030 F350.00
G01 X-19.8844 Y9.5430 F350.00
G01 X-21.1000 Y9.5430 F350.00
G00 Z0.5000
G00 X-18.8184 Y11.4630
G01 F250.00
G01 Z-0.0500
G01 F350.00
G01 X-16.8459 Y11.4630 F350.00
G01 X-16.6059 Y11.2230 F350.00
G01 X-18.5639 Y11.2230 F350.00
G00 Z0.5000
G00 X-18.4225 Y10.9830
G01 F250.00
G01 Z-0.0500
G01 F350.00
G01 X-16.3659 Y10.9830 F350.00
G01 X-16.1259 Y10.7430 F350.00
G01 X-18.2832 Y10.7430 F350.00
G00 Z0.5000
G00 X-18.0978 Y10.5030
G01 F250.00
G01 Z-0.0500
G01 F350.00
G01 X-16.1324 Y10.5030 F350.00
G00 Z0.5000
G00 X-16.1001 Y10.2630
G01 F250.00
G01 Z-0.0500
G01 F350.00
G01 X-18.0082 Y10.2630 F350.00
G00 Z0.5000
G00 X-17.9836 Y10.0230
G01 F250.00
G01 Z-0.0500
G01 F350.00
G01 X-16.0149 Y10.0230 F350.00
G00 Z0.5000
G00 X-15.8639 Y9.7830
G01 F250.00
G01 Z-0.0500
G01 F350.00
G01 X-17.9836 Y9.7830 F350.00
G01 X-17.9836 Y9.5430 F350.00
G01 X-15.5996 Y9.5430 F350.00
G00 Z0.5000
G00 X-17.5659 Y12.1830
G01 F250.00
G01 Z-0.0500
G01 F350.00
G01 X-18.2142 Y12.1830 F350.00
G00 Z0.5000
G00 X-19.1023 Y14.5830
G01 F250.00
G01 Z-0.0500
G01 F350.00
G01 X-16.9196 Y14.5830 F350.00
G00 Z0.5000
G00 X-15.6715 Y16.0230
G01 F250.00
G01 Z-0.0500
G01 F350.00
G01 X-9.3965 Y16.0230 F350.00
G01 X-9.1565 Y16.2630 F350.00
G01 X-15.9115 Y16.2630 F350.00
G00 Z0.5000
G00 X-16.2460 Y16.5030
G01 F250.00
G01 Z-0.0500
G01 F350.00
G01 X-8.9165 Y16.5030 F350.00
G01 X-8.6765 Y16.7430 F350.00
G01 X-11.8311 Y16.7430 F350.00
G00 Z0.5000
G00 X-11.4938 Y16.9830
G01 F250.00
G01 Z-0.0500
G01 F350.00
G01 X-8.4365 Y16.9830 F350.00
G01 X-8.1965 Y17.2230 F350.00
G01 X-11.2751 Y17.2230 F350.00
G00 Z0.5000
G00 X-11.1236 Y17.4630
G01 F250.00
G01 Z-0.0500
G01 F350.00
G01 X-7.9680 Y17.4630 F350.00
G00 Z0.5000
G00 X-7.8892 Y17.7030
G01 F250.00
G01 Z-0.0500
G01 F350.00
G01 X-11.0230 Y17.7030 F350.00
G00 Z0.5000
G00 X-10.9615 Y17.9430
G01 F250.00
G01 Z-0.0500
G01 F350.00
G01 X-7.7244 Y17.9430 F350.00
G00 Z0.5000
G00 X-7.3595 Y18.1830
G01 F250.00
G01 Z-0.0500
G01 F350.00
G01 X-10.9366 Y18.1830 F350.00
G00 Z0.5000
G00 X-11.8345 Y19.7416
G01 F250.00
G01 Z-0.0500
G01 F350.00
G01 X-11.9834 Y19.8120 F350.00
G01 X-12.1405 Y19.8682 F350.00
G01 X-12.3023 Y19.9087 F350.00
G01 X-12.4674 Y19.9332 F350.00
G01 X-12.6340 Y19.9414 F350.00
G01 X-12.8006 Y19.9332 F350.00
G01 X-12.9657 Y19.9087 F350.00
G01 X-13.1275 Y19.8682 F350.00
G01 X-13.2846 Y19.8120 F350.00
G01 X-13.4354 Y19.7407 F350.00
G01 X-13.5785 Y19.6549 F350.00
G01 X-13.7125 Y19.5555 F350.00
G01 X-13.8361 Y19.4435 F350.00
G01 X-13.9481 Y19.3199 F350.00
G01 X-14.0475 Y19.1859 F350.00
G01 X-14.1333 Y19.0428 F350.00
G01 X-14.2046 Y18.8920 F350.00
G01 X-14.2608 Y18.7349 F350.00
G01 X-14.3013 Y18.5731 F350.00
G01 X-14.3258 Y18.4080 F350.00
G01 X-14.3340 Y18.2414 F350.00
G01 X-14.3258 Y18.0748 F350.00
G01 X-14.3013 Y17.9097 F350.00
G01 X-14.2608 Y17.7479 F350.00
G01 X-14.2046 Y17.5908 F350.00
G01 X-14.1333 Y17.4400 F350.00
G01 X-14.0475 Y17.2969 F350.00
G01 X-13.9481 Y17.1629 F350.00
G01 X-13.8361 Y17.0393 F350.00
G01 X-13.7125 Y16.9273 F350.00
G01 X-13.5785 Y16.8279 F350.00
G01 X-13.4354 Y16.7421 F350.00
G01 X-13.2935 Y16.6748 F350.00
G01 X-13.2754 Y16.6673 F350.00
G01 X-13.1275 Y16.6146 F350.00
G01 X-12.9752 Y16.5762 F350.00
G01 X-12.9560 Y16.5724 F350.00
G01 X-12.8006 Y16.5496 F350.00
G01 X-12.6438 Y16.5416 F350.00
G01 X-12.6242 Y16.5416 F350.00
G01 X-12.4674 Y16.5496 F350.00
G01 X-12.3120 Y16.5724 F350.00
G01 X-12.2928 Y16.5762 F350.00
G01 X-12.1405 Y16.6146 F350.00
G01 X-11.9926 Y16.6673 F350.00
G01 X-11.9745 Y16.6748 F350.00
G01 X-11.8326 Y16.7421 F350.00
G01 X-11.6936 Y16.8252 F350.00
G01 X-11.6815 Y16.8336 F350.00
G01 X-11.5555 Y16.9273 F350.00
G01 X-11.4390 Y17.0325 F350.00
G01 X-11.4251 Y17.0464 F350.00
G01 X-11.3199 Y17.1629 F350.00
G01 X-11.2262 Y17.2889 F350.00
G01 X-11.2152 Y17.3052 F350.00
G01 X-11.1396 Y17.4315 F350.00
G01 X-11.1325 Y17.4444 F350.00
G01 X-11.0674 Y17.5819 F350.00
G01 X-11.0599 Y17.6000 F350.00
G01 X-11.0072 Y17.7479 F350.00
G01 X-10.9677 Y17.9049 F350.00
G01 X-10.9650 Y17.9194 F350.00
G01 X-10.9434 Y18.0650 F350.00
G01 X-10.9418 Y18.0797 F350.00
G01 X-10.9340 Y18.2414 F350.00
G01 X-10.9387 Y18.3411 F350.00
G01 X-6.5992 Y18.3411 F350.00
G01 X-5.9121 Y17.6540 F350.00
G01 X-5.9431 Y17.5672 F350.00
G01 X-5.9657 Y17.4767 F350.00
G01 X-5.9794 Y17.3845 F350.00
G01 X-5.9839 Y17.2963 F350.00
G01 X-5.9840 Y17.0539 F350.00
G01 X-5.9844 Y17.0414 F350.00
G01 X-5.9844 Y15.5351 F350.00
G01 X-8.1060 Y13.4134 F350.00
G01 X-8.1686 Y13.3443 F350.00
G01 X-8.2242 Y13.2694 F350.00
G01 X-8.2673 Y13.1979 F350.00
G01 X-8.2766 Y13.1806 F350.00
G01 X-8.3120 Y13.1051 F350.00
G01 X-8.3404 Y13.0266 F350.00
G01 X-8.3461 Y13.0078 F350.00
G01 X-8.3661 Y12.9268 F350.00
G01 X-8.3798 Y12.8346 F350.00
G01 X-8.3844 Y12.7414 F350.00
G01 X-8.3844 Y11.6535 F350.00
G01 X-8.4022 Y11.6461 F350.00
G01 X-8.4997 Y11.5997 F350.00
G01 X-8.6007 Y11.5392 F350.00
G01 X-8.6953 Y11.4690 F350.00
G01 X-8.7754 Y11.3967 F350.00
G01 X-8.7893 Y11.3828 F350.00
G01 X-8.8552 Y11.3101 F350.00
G01 X-8.8677 Y11.2949 F350.00
G01 X-8.9318 Y11.2081 F350.00
G01 X-8.9875 Y11.1156 F350.00
G01 X-8.9967 Y11.0983 F350.00
G01 X-9.0427 Y11.0006 F350.00
G01 X-9.0823 Y10.8897 F350.00
G01 X-9.1109 Y10.7755 F350.00
G01 X-9.1282 Y10.6590 F350.00
G01 X-9.1340 Y10.5414 F350.00
G01 X-9.1289 Y10.4336 F350.00
G01 X-9.1270 Y10.4140 F350.00
G01 X-9.1126 Y10.3170 F350.00
G01 X-9.1088 Y10.2977 F350.00
G01 X-9.0823 Y10.1931 F350.00
G01 X-9.0427 Y10.0822 F350.00
G01 X-8.9923 Y9.9757 F350.00
G01 X-8.9318 Y9.8747 F350.00
G01 X-8.8616 Y9.7801 F350.00
G01 X-8.7893 Y9.7000 F350.00
G01 X-8.7754 Y9.6861 F350.00
G01 X-8.7027 Y9.6202 F350.00
G01 X-8.6875 Y9.6077 F350.00
G01 X-8.6007 Y9.5436 F350.00
G01 X-8.5082 Y9.4879 F350.00
G01 X-8.4953 Y9.4808 F350.00
G01 X-8.3932 Y9.4327 F350.00
G01 X-8.2823 Y9.3931 F350.00
G01 X-8.1681 Y9.3645 F350.00
G01 X-8.0614 Y9.3484 F350.00
G01 X-8.0418 Y9.3465 F350.00
G01 X-7.9438 Y9.3416 F350.00
G01 X-7.9242 Y9.3416 F350.00
G01 X-7.8164 Y9.3472 F350.00
G01 X-7.6999 Y9.3645 F350.00
G01 X-7.5857 Y9.3931 F350.00
G01 X-7.4748 Y9.4327 F350.00
G01 X-7.3683 Y9.4831 F350.00
G01 X-7.2756 Y9.5384 F350.00
G01 X-7.2593 Y9.5493 F350.00
G01 X-7.1805 Y9.6077 F350.00
G01 X-7.1653 Y9.6202 F350.00
G01 X-7.0855 Y9.6929 F350.00
G01 X-7.0064 Y9.7801 F350.00
G01 X-6.9419 Y9.8667 F350.00
G01 X-6.9310 Y9.8830 F350.00
G01 X-6.8757 Y9.9757 F350.00
G01 X-6.8293 Y10.0732 F350.00
G01 X-6.8218 Y10.0913 F350.00
G01 X-6.7888 Y10.1837 F350.00
G01 X-6.7843 Y10.1978 F350.00
G01 X-6.7571 Y10.3073 F350.00
G01 X-6.7449 Y10.3879 F350.00
G01 X-6.6994 Y10.4385 F350.00
G01 X-6.6494 Y10.5054 F350.00
G01 X-6.6385 Y10.5217 F350.00
G01 X-6.5958 Y10.5934 F350.00
G01 X-6.5560 Y10.6777 F350.00
G01 X-6.5276 Y10.7562 F350.00
G01 X-6.5219 Y10.7750 F350.00
G01 X-6.5019 Y10.8560 F350.00
G01 X-6.4882 Y10.9482 F350.00
G01 X-6.4836 Y11.0414 F350.00
G01 X-6.4836 Y12.3477 F350.00
G01 X-4.3586 Y14.4729 F350.00
G01 X-4.2994 Y14.5385 F350.00
G01 X-4.2494 Y14.6054 F350.00
G01 X-4.2411 Y14.6175 F350.00
G01 X-4.2007 Y14.6849 F350.00
G01 X-4.1936 Y14.6978 F350.00
G01 X-4.1579 Y14.7732 F350.00
G01 X-4.1541 Y14.7823 F350.00
G01 X-4.1448 Y14.8082 F350.00
G01 X-3.9359 Y14.5996 F350.00
G01 X-3.8739 Y14.5438 F350.00
G01 X-3.8070 Y14.4938 F350.00
G01 X-3.7907 Y14.4829 F350.00
G01 X-3.7275 Y14.4451 F350.00
G01 X-3.7102 Y14.4358 F350.00
G01 X-3.6347 Y14.4004 F350.00
G01 X-3.5562 Y14.3720 F350.00
G01 X-3.5374 Y14.3663 F350.00
G01 X-3.4564 Y14.3463 F350.00
G01 X-3.3739 Y14.3338 F350.00
G01 X-3.3544 Y14.3319 F350.00
G01 X-3.2710 Y14.3280 F350.00
G01 X-0.6569 Y14.3280 F350.00
G01 X0.0156 Y13.6555 F350.00
G01 X0.0156 Y9.1918 F350.00
G01 X-1.5389 Y9.1917 F350.00
G01 X-1.6272 Y9.1872 F350.00
G01 X-1.7146 Y9.1744 F350.00
G01 X-1.7290 Y9.1714 F350.00
G01 X-1.8052 Y9.1522 F350.00
G01 X-1.8146 Y9.1494 F350.00
G01 X-1.8370 Y9.1414 F350.00
G01 X-2.0889 Y9.1413 F350.00
G01 X-2.1722 Y9.1371 F350.00
G01 X-2.2499 Y9.1258 F350.00
G01 X-2.2692 Y9.1220 F350.00
G01 X-2.3453 Y9.1026 F350.00
G01 X-2.4284 Y9.0729 F350.00
G01 X-2.4995 Y9.0395 F350.00
G01 X-2.5168 Y9.0303 F350.00
G01 X-2.5840 Y8.9897 F350.00
G01 X-2.6492 Y8.9417 F350.00
G01 X-3.7340 Y8.9417 F350.00
G01 X-3.8026 Y8.9383 F350.00
G01 X-3.8609 Y8.9299 F350.00
G01 X-3.8802 Y8.9260 F350.00
G01 X-3.9373 Y8.9115 F350.00
G01 X-4.0020 Y8.8883 F350.00
G01 X-4.0641 Y8.8590 F350.00
G01 X-4.1147 Y8.8289 F350.00
G01 X-4.1311 Y8.8180 F350.00
G01 X-4.1705 Y8.7887 F350.00
G01 X-4.1820 Y8.7795 F350.00
G01 X-4.2292 Y8.7366 F350.00
G01 X-7.2292 Y5.7366 F350.00
G01 X-7.2689 Y5.6931 F350.00
G01 X-7.2813 Y5.6779 F350.00
G01 X-7.3162 Y5.6304 F350.00
G01 X-7.3516 Y5.5715 F350.00
G01 X-7.3809 Y5.5094 F350.00
G01 X-7.4041 Y5.4447 F350.00
G01 X-7.4208 Y5.3780 F350.00
G01 X-7.4309 Y5.3100 F350.00
G01 X-7.4343 Y5.2414 F350.00
G01 X-7.4343 Y4.6949 F350.00
G01 X-7.4459 Y4.6820 F350.00
G01 X-7.4551 Y4.6705 F350.00
G01 X-7.4975 Y4.6133 F350.00
G01 X-7.5084 Y4.5970 F350.00
G01 X-7.5498 Y4.5274 F350.00
G01 X-7.5846 Y4.4544 F350.00
G01 X-7.5904 Y4.4408 F350.00
G01 X-7.6192 Y4.3599 F350.00
G01 X-7.6412 Y4.2719 F350.00
G01 X-7.6545 Y4.1821 F350.00
G01 X-7.6589 Y4.0963 F350.00
G01 X-7.6589 Y3.2865 F350.00
G01 X-7.6545 Y3.2007 F350.00
G01 X-7.6429 Y3.1206 F350.00
G01 X-7.6391 Y3.1014 F350.00
G01 X-7.6192 Y3.0229 F350.00
G01 X-7.5921 Y2.9466 F350.00
G01 X-7.5846 Y2.9284 F350.00
G01 X-7.5498 Y2.8554 F350.00
G01 X-7.5084 Y2.7858 F350.00
G01 X-7.4975 Y2.7695 F350.00
G01 X-7.4521 Y2.7084 F350.00
G01 X-7.4426 Y2.6972 F350.00
G01 X-7.3881 Y2.6373 F350.00
G01 X-7.3208 Y2.5764 F350.00
G01 X-7.2479 Y2.5223 F350.00
G01 X-7.1786 Y2.4805 F350.00
G01 X-7.1613 Y2.4712 F350.00
G01 X-7.0970 Y2.4408 F350.00
G01 X-7.0788 Y2.4333 F350.00
G01 X-7.0025 Y2.4062 F350.00
G01 X-6.9240 Y2.3863 F350.00
G01 X-6.9048 Y2.3825 F350.00
G01 X-6.8247 Y2.3709 F350.00
G01 X-6.7340 Y2.3664 F350.00
G01 X-6.6433 Y2.3709 F350.00
G01 X-6.5632 Y2.3825 F350.00
G01 X-6.5440 Y2.3863 F350.00
G01 X-6.4655 Y2.4062 F350.00
G01 X-6.3892 Y2.4333 F350.00
G01 X-6.3710 Y2.4408 F350.00
G01 X-6.3067 Y2.4712 F350.00
G01 X-6.2894 Y2.4805 F350.00
G01 X-6.2201 Y2.5223 F350.00
G01 X-6.1472 Y2.5764 F350.00
G01 X-6.0799 Y2.6373 F350.00
G01 X-6.0190 Y2.7046 F350.00
G01 X-5.9705 Y2.7695 F350.00
G01 X-5.9596 Y2.7858 F350.00
G01 X-5.9182 Y2.8554 F350.00
G01 X-5.8834 Y2.9284 F350.00
G01 X-5.8759 Y2.9466 F350.00
G01 X-5.8488 Y3.0229 F350.00
G01 X-5.8289 Y3.1014 F350.00
G01 X-5.8251 Y3.1206 F350.00
G01 X-5.8135 Y3.2007 F350.00
G01 X-5.8091 Y3.2865 F350.00
G01 X-5.8090 Y4.0914 F350.00
G01 X-5.8135 Y4.1821 F350.00
G01 X-5.8268 Y4.2719 F350.00
G01 X-5.8488 Y4.3599 F350.00
G01 X-5.8776 Y4.4408 F350.00
G01 X-5.8834 Y4.4544 F350.00
G01 X-5.9182 Y4.5274 F350.00
G01 X-5.9596 Y4.5970 F350.00
G01 X-5.9705 Y4.6133 F350.00
G01 X-6.0129 Y4.6705 F350.00
G01 X-6.0221 Y4.6820 F350.00
G01 X-6.0337 Y4.6949 F350.00
G01 X-6.0337 Y4.9513 F350.00
G01 X-3.4439 Y7.5411 F350.00
G01 X-2.6492 Y7.5411 F350.00
G01 X-2.5840 Y7.4931 F350.00
G01 X-2.5168 Y7.4525 F350.00
G01 X-2.4995 Y7.4433 F350.00
G01 X-2.4374 Y7.4139 F350.00
G01 X-2.4193 Y7.4064 F350.00
G01 X-2.3453 Y7.3802 F350.00
G01 X-2.2692 Y7.3608 F350.00
G01 X-2.2499 Y7.3570 F350.00
G01 X-2.1722 Y7.3457 F350.00
G01 X-2.0938 Y7.3416 F350.00
G01 X-1.8370 Y7.3414 F350.00
G01 X-1.8146 Y7.3334 F350.00
G01 X-1.8052 Y7.3306 F350.00
G01 X-1.7242 Y7.3103 F350.00
G01 X-1.7097 Y7.3076 F350.00
G01 X-1.6369 Y7.2968 F350.00
G01 X-1.6223 Y7.2952 F350.00
G01 X-1.5340 Y7.2910 F350.00
G01 X0.0156 Y7.2910 F350.00
G01 X0.0156 Y5.2261 F350.00
G01 X-0.0039 Y5.2045 F350.00
G01 X-0.0101 Y5.1970 F350.00
G01 X-0.0598 Y5.1300 F350.00
G01 X-0.0681 Y5.1179 F350.00
G01 X-0.1159 Y5.0378 F350.00
G01 X-0.1559 Y4.9536 F350.00
G01 X-0.1614 Y4.9399 F350.00
G01 X-0.1879 Y4.8660 F350.00
G01 X-0.1936 Y4.8472 F350.00
G01 X-0.2148 Y4.7615 F350.00
G01 X-0.2286 Y4.6693 F350.00
G01 X-0.2299 Y4.6546 F350.00
G01 X-0.2340 Y4.5664 F350.00
G01 X-0.2338 Y3.9066 F350.00
G01 X-0.2292 Y3.8184 F350.00
G01 X-0.2165 Y3.7310 F350.00
G01 X-0.2126 Y3.7117 F350.00
G01 X-0.1936 Y3.6356 F350.00
G01 X-0.1895 Y3.6214 F350.00
G01 X-0.1614 Y3.5429 F350.00
G01 X-0.1539 Y3.5247 F350.00
G01 X-0.1159 Y3.4450 F350.00
G01 X-0.0707 Y3.3691 F350.00
G01 X-0.0598 Y3.3528 F350.00
G01 X-0.0070 Y3.2820 F350.00
G01 X0.0589 Y3.2093 F350.00
G01 X0.1242 Y3.1498 F350.00
G01 X0.1393 Y3.1374 F350.00
G01 X0.2104 Y3.0849 F350.00
G01 X0.2861 Y3.0393 F350.00
G01 X0.3034 Y3.0301 F350.00
G01 X0.3833 Y2.9925 F350.00
G01 X0.4757 Y2.9595 F350.00
G01 X0.5613 Y2.9378 F350.00
G01 X0.5806 Y2.9339 F350.00
G01 X0.6680 Y2.9212 F350.00
G01 X0.7562 Y2.9166 F350.00
G01 X0.7758 Y2.9166 F350.00
G01 X0.8640 Y2.9212 F350.00
G01 X0.9611 Y2.9356 F350.00
G01 X1.0563 Y2.9595 F350.00
G01 X1.1395 Y2.9890 F350.00
G01 X1.1577 Y2.9965 F350.00
G01 X1.2374 Y3.0345 F350.00
G01 X1.3133 Y3.0797 F350.00
G01 X1.3296 Y3.0906 F350.00
G01 X1.3966 Y3.1403 F350.00
G01 X1.4078 Y3.1498 F350.00
G01 X1.4731 Y3.2093 F350.00
G01 X1.5326 Y3.2746 F350.00
G01 X1.5450 Y3.2897 F350.00
G01 X1.5975 Y3.3608 F350.00
G01 X1.6431 Y3.4365 F350.00
G01 X1.6523 Y3.4538 F350.00
G01 X1.6899 Y3.5337 F350.00
G01 X1.7229 Y3.6261 F350.00
G01 X1.7468 Y3.7213 F350.00
G01 X1.7612 Y3.8184 F350.00
G01 X1.7658 Y3.9066 F350.00
G01 X1.7660 Y3.9293 F350.00
G01 X1.8042 Y3.9934 F350.00
G01 X1.8421 Y4.0732 F350.00
G01 X1.8476 Y4.0869 F350.00
G01 X1.8724 Y4.1562 F350.00
G01 X1.8781 Y4.1750 F350.00
G01 X1.8981 Y4.2560 F350.00
G01 X1.9106 Y4.3385 F350.00
G01 X1.9125 Y4.3580 F350.00
G01 X1.9163 Y4.4365 F350.00
G01 X1.9163 Y14.0540 F350.00
G01 X1.9118 Y14.1423 F350.00
G01 X1.8998 Y14.2249 F350.00
G01 X1.8960 Y14.2441 F350.00
G01 X1.8781 Y14.3155 F350.00
G01 X1.8724 Y14.3343 F350.00
G01 X1.8440 Y14.4128 F350.00
G01 X1.8042 Y14.4971 F350.00
G01 X1.7562 Y14.5771 F350.00
G01 X1.7037 Y14.6482 F350.00
G01 X1.6942 Y14.6595 F350.00
G01 X1.6380 Y14.7211 F350.00
G01 X0.4016 Y15.9572 F350.00
G01 X0.3396 Y16.0130 F350.00
G01 X0.2727 Y16.0630 F350.00
G01 X0.2564 Y16.0739 F350.00
G01 X0.1933 Y16.1117 F350.00
G01 X0.1760 Y16.1210 F350.00
G01 X0.1004 Y16.1564 F350.00
G01 X0.0219 Y16.1848 F350.00
G01 X0.0031 Y16.1905 F350.00
G01 X-0.0683 Y16.2084 F350.00
G01 X-0.0875 Y16.2122 F350.00
G01 X-0.1701 Y16.2242 F350.00
G01 X-0.2584 Y16.2287 F350.00
G01 X-2.8773 Y16.2288 F350.00
G01 X-4.0980 Y17.4494 F350.00
G01 X-4.1014 Y17.4719 F350.00
G01 X-4.1033 Y17.4815 F350.00
G01 X-4.1223 Y17.5577 F350.00
G01 X-4.1264 Y17.5718 F350.00
G01 X-4.1563 Y17.6549 F350.00
G01 X-4.1962 Y17.7392 F350.00
G01 X-4.2389 Y17.8109 F350.00
G01 X-4.2498 Y17.8272 F350.00
G01 X-4.2996 Y17.8941 F350.00
G01 X-4.3620 Y17.9629 F350.00
G01 X-4.3670 Y17.9789 F350.00
G01 X-4.3871 Y18.0342 F350.00
G01 X-4.4120 Y18.0876 F350.00
G01 X-4.4213 Y18.1049 F350.00
G01 X-4.4518 Y18.1553 F350.00
G01 X-4.4867 Y18.2028 F350.00
G01 X-4.4959 Y18.2143 F350.00
G01 X-4.5321 Y18.2543 F350.00
G01 X-5.8175 Y19.5400 F350.00
G01 X-5.8649 Y19.5827 F350.00
G01 X-5.9201 Y19.6236 F350.00
G01 X-5.9790 Y19.6590 F350.00
G01 X-6.0322 Y19.6844 F350.00
G01 X-6.0457 Y19.6902 F350.00
G01 X-6.1059 Y19.7115 F350.00
G01 X-6.1725 Y19.7282 F350.00
G01 X-6.2405 Y19.7383 F350.00
G01 X-6.3091 Y19.7417 F350.00
G01 X-11.8345 Y19.7416 F350.00
G00 Z0.5000
G00 X-12.1251 Y19.8630
G01 F250.00
G01 Z-0.0500
G01 F350.00
G01 X-3.1228 Y19.8630 F350.00
G01 X-3.5404 Y20.1030 F350.00
G01 X-23.2241 Y20.1030 F350.00
G01 X-23.4159 Y19.8630 F350.00
G01 X-13.1429 Y19.8630 F350.00
G00 Z0.5000
G00 X-13.6220 Y19.6230
G01 F250.00
G01 Z-0.0500
G01 F350.00
G01 X-23.5690 Y19.6230 F350.00
G01 X-22.9829 Y20.3430 F350.00
G01 X-3.9580 Y20.3430 F350.00
G01 X-4.3756 Y20.5830 F350.00
G01 X-22.6714 Y20.5830 F350.00
G01 X-22.2218 Y20.8230 F350.00
G01 X-4.7932 Y20.8230 F350.00
G01 X-5.2108 Y21.0630 F350.00
G01 X-20.8372 Y21.0630 F350.00
G00 Z0.5000
G00 X-16.7611 Y21.3030
G01 F250.00
G01 Z-0.0500
G01 F350.00
G01 X-5.8827 Y21.3030 F350.00
G00 Z0.5000
G00 X-3.6315 Y16.9830
G01 F250.00
G01 Z-0.0500
G01 F350.00
G01 X1.6389 Y16.9830 F350.00
G01 X1.8789 Y16.7430 F350.00
G01 X-3.3915 Y16.7430 F350.00
G01 X-3.1515 Y16.5030 F350.00
G01 X2.1189 Y16.5030 F350.00
G01 X2.3589 Y16.2630 F350.00
G01 X-2.9115 Y16.2630 F350.00
G00 Z0.5000
G00 X-3.9175 Y14.5830
G01 F250.00
G01 Z-0.0500
G01 F350.00
G01 X-4.2661 Y14.5830 F350.00
G00 Z0.5000
G00 X-4.4884 Y14.3430
G01 F250.00
G01 Z-0.0500
G01 F350.00
G01 X-3.4356 Y14.3430 F350.00
G01 X-4.7284 Y14.1030 F350.00
G01 X-0.4319 Y14.1030 F350.00
G01 X-0.1919 Y13.8630 F350.00
G01 X-4.9684 Y13.8630 F350.00
G01 X-5.2084 Y13.6230 F350.00
G01 X0.0156 Y13.6230 F350.00
G01 X0.0156 Y13.3830 F350.00
G01 X-5.4484 Y13.3830 F350.00
G01 X-5.6884 Y13.1430 F350.00
G01 X0.0156 Y13.1430 F350.00
G01 X0.0156 Y12.9030 F350.00
G01 X-5.9284 Y12.9030 F350.00
G01 X-6.1684 Y12.6630 F350.00
G01 X0.0156 Y12.6630 F350.00
G01 X0.0156 Y12.4230 F350.00
G01 X-6.4084 Y12.4230 F350.00
G01 X-6.4836 Y12.1830 F350.00
G01 X0.0156 Y12.1830 F350.00
G01 X0.0156 Y11.9430 F350.00
G01 X-6.4836 Y11.9430 F350.00
G01 X-6.4836 Y11.7030 F350.00
G01 X0.0156 Y11.7030 F350.00
G01 X0.0156 Y11.4630 F350.00
G01 X-0.4475 Y11.4630 F350.00
G00 Z0.5000
G00 X-0.2243 Y11.2230
G01 F250.00
G01 Z-0.0500
G01 F350.00
G01 X0.0156 Y11.2230 F350.00
G01 X0.0156 Y10.9830 F350.00
G01 X-0.1176 Y10.9830 F350.00
G00 Z0.5000
G00 X-0.0840 Y10.7430
G01 F250.00
G01 Z-0.0500
G01 F350.00
G01 X0.0156 Y10.7430 F350.00
G01 X0.0156 Y10.5030 F350.00
G01 X-0.1168 Y10.5030 F350.00
G00 Z0.5000
G00 X-0.2225 Y10.2630
G01 F250.00
G01 Z-0.0500
G01 F350.00
G01 X0.0156 Y10.2630 F350.00
G01 X0.0156 Y10.0230 F350.00
G01 X-0.4433 Y10.0230 F350.00
G01 X0.0156 Y9.7830 F350.00
G01 X-4.4021 Y9.7830 F350.00
G01 X-4.6421 Y9.5430 F350.00
G01 X0.0156 Y9.5430 F350.00
G01 X0.0156 Y9.3030 F350.00
G01 X-4.8821 Y9.3030 F350.00
G01 X-5.1221 Y9.0630 F350.00
G01 X-2.4500 Y9.0630 F350.00
G01 X-2.6247 Y10.0230 F350.00
G01 X-4.1621 Y10.0230 F350.00
G00 Z0.5000
G00 X-4.1240 Y8.8230
G01 F250.00
G01 Z-0.0500
G01 F350.00
G01 X-5.3621 Y8.8230 F350.00
G01 X-5.6021 Y8.5830 F350.00
G01 X-4.3828 Y8.5830 F350.00
G01 X-4.6228 Y8.3430 F350.00
G01 X-5.8421 Y8.3430 F350.00
G01 X-6.0821 Y8.1030 F350.00
G01 X-4.8628 Y8.1030 F350.00
G01 X-5.1028 Y7.8630 F350.00
G01 X-6.3221 Y7.8630 F350.00
G00 Z0.5000
G00 X-6.6056 Y7.6230
G01 F250.00
G01 Z-0.0500
G01 F350.00
G01 X-5.3428 Y7.6230 F350.00
G01 X-5.5828 Y7.3830 F350.00
G01 X-8.4021 Y7.3830 F350.00
G01 X-8.6421 Y7.1430 F350.00
G01 X-5.8228 Y7.1430 F350.00
G01 X-6.0628 Y6.9030 F350.00
G01 X-8.8821 Y6.9030 F350.00
G01 X-9.1221 Y6.6630 F350.00
G01 X-6.3028 Y6.6630 F350.00
G01 X-6.5428 Y6.4230 F350.00
G01 X-9.3621 Y6.4230 F350.00
G01 X-9.6021 Y6.1830 F350.00
G01 X-6.7828 Y6.1830 F350.00
G01 X-7.0228 Y5.9430 F350.00
G01 X-9.8421 Y5.9430 F350.00
G01 X-10.0821 Y5.7030 F350.00
G01 X-7.2599 Y5.7030 F350.00
G00 Z0.5000
G00 X-7.3978 Y5.4630
G01 F250.00
G01 Z-0.0500
G01 F350.00
G01 X-10.3221 Y5.4630 F350.00
G01 X-10.5621 Y5.2230 F350.00
G01 X-7.4343 Y5.2230 F350.00
G01 X-7.4343 Y4.9830 F350.00
G01 X-8.4900 Y4.9830 F350.00
G00 Z0.5000
G00 X-8.0775 Y4.7430
G01 F250.00
G01 Z-0.0500
G01 F350.00
G01 X-7.4343 Y4.7430 F350.00
G00 Z0.5000
G00 X-7.5616 Y4.5030
G01 F250.00
G01 Z-0.0500
G01 F350.00
G01 X-7.9064 Y4.5030 F350.00
G00 Z0.5000
G00 X-7.8252 Y4.2630
G01 F250.00
G01 Z-0.0500
G01 F350.00
G01 X-7.6428 Y4.2630 F350.00
G00 Z0.5000
G00 X-7.6590 Y4.0230
G01 F250.00
G01 Z-0.0500
G01 F350.00
G01 X-7.8090 Y4.0230 F350.00
G01 X-7.8090 Y3.7830 F350.00
G01 X-7.6590 Y3.7830 F350.00
G01 X-7.6590 Y3.5430 F350.00
G01 X-7.8090 Y3.5430 F350.00
G01 X-7.8090 Y3.3030 F350.00
G01 X-7.6590 Y3.3030 F350.00
G00 Z0.5000
G00 X-7.6295 Y3.0630
G01 F250.00
G01 Z-0.0500
G01 F350.00
G01 X-7.8385 Y3.0630 F350.00
G00 Z0.5000
G00 X-7.9374 Y2.8230
G01 F250.00
G01 Z-0.0500
G01 F350.00
G01 X-7.5306 Y2.8230 F350.00
G00 Z0.5000
G00 X-7.3284 Y2.5830
G01 F250.00
G01 Z-0.0500
G01 F350.00
G01 X-8.1396 Y2.5830 F350.00
G00 Z0.5000
G00 X-9.0921 Y2.3430
G01 F250.00
G01 Z-0.0500
G01 F350.00
G01 X-5.9914 Y2.3430 F350.00
G01 X-6.1396 Y2.5830 F350.00
G01 X-5.7514 Y2.5830 F350.00
G01 X-5.9374 Y2.8230 F350.00
G01 X-5.5114 Y2.8230 F350.00
G01 X-5.2714 Y3.0630 F350.00
G01 X-5.8385 Y3.0630 F350.00
G00 Z0.5000
G00 X-5.8090 Y3.3030
G01 F250.00
G01 Z-0.0500
G01 F350.00
G01 X-5.0314 Y3.3030 F350.00
G00 Z0.5000
G00 X-5.1614 Y3.5430
G01 F250.00
G01 Z-0.0500
G01 F350.00
G01 X-5.8090 Y3.5430 F350.00
G01 X-5.8090 Y3.7830 F350.00
G01 X-5.2242 Y3.7830 F350.00
G00 Z0.5000
G00 X-5.2340 Y4.0230
G01 F250.00
G01 Z-0.0500
G01 F350.00
G01 X-5.8090 Y4.0230 F350.00
G00 Z0.5000
G00 X-5.8252 Y4.2630
G01 F250.00
G01 Z-0.0500
G01 F350.00
G01 X-5.2340 Y4.2630 F350.00
G01 X-5.2340 Y4.5030 F350.00
G01 X-5.9064 Y4.5030 F350.00
G00 Z0.5000
G00 X-6.0337 Y4.7430
G01 F250.00
G01 Z-0.0500
G01 F350.00
G01 X-5.2178 Y4.7430 F350.00
G00 Z0.5000
G00 X-5.1421 Y4.9830
G01 F250.00
G01 Z-0.0500
G01 F350.00
G01 X-6.0021 Y4.9830 F350.00
G01 X-5.7621 Y5.2230 F350.00
G01 X-4.9873 Y5.2230 F350.00
G00 Z0.5000
G00 X-4.6750 Y5.4630
G01 F250.00
G01 Z-0.0500
G01 F350.00
G01 X-5.5221 Y5.4630 F350.00
G01 X-5.2821 Y5.7030 F350.00
G01 X0.0156 Y5.7030 F350.00
G01 X0.0156 Y5.9430 F350.00
G01 X-5.0421 Y5.9430 F350.00
G01 X-4.8021 Y6.1830 F350.00
G01 X0.0156 Y6.1830 F350.00
G01 X0.0156 Y6.4230 F350.00
G01 X-4.5621 Y6.4230 F350.00
G01 X-4.3221 Y6.6630 F350.00
G01 X0.0156 Y6.6630 F350.00
G01 X0.0156 Y6.9030 F350.00
G01 X-4.0821 Y6.9030 F350.00
G01 X-3.8421 Y7.1430 F350.00
G01 X0.0156 Y7.1430 F350.00
G01 X0.0156 Y5.4630 F350.00
G01 X-3.7930 Y5.4630 F350.00
G00 Z0.5000
G00 X-3.4807 Y5.2230
G01 F250.00
G01 Z-0.0500
G01 F350.00
G01 X0.0127 Y5.2230 F350.00
G00 Z0.5000
G00 X-0.1421 Y4.9830
G01 F250.00
G01 Z-0.0500
G01 F350.00
G01 X-3.3259 Y4.9830 F350.00
G00 Z0.5000
G00 X-3.2502 Y4.7430
G01 F250.00
G01 Z-0.0500
G01 F350.00
G01 X-0.2178 Y4.7430 F350.00
G00 Z0.5000
G00 X-0.2340 Y4.5030
G01 F250.00
G01 Z-0.0500
G01 F350.00
G01 X-3.2340 Y4.5030 F350.00
G01 X-3.2340 Y4.2630 F350.00
G01 X-0.2340 Y4.2630 F350.00
G01 X-0.2340 Y4.0230 F350.00
G01 X-3.2340 Y4.0230 F350.00
G00 Z0.5000
G00 X-3.2438 Y3.7830
G01 F250.00
G01 Z-0.0500
G01 F350.00
G01 X-0.2242 Y3.7830 F350.00
G00 Z0.5000
G00 X-0.1614 Y3.5430
G01 F250.00
G01 Z-0.0500
G01 F350.00
G01 X-3.3066 Y3.5430 F350.00
G00 Z0.5000
G00 X-3.4452 Y3.3030
G01 F250.00
G01 Z-0.0500
G01 F350.00
G01 X-0.0228 Y3.3030 F350.00
G00 Z0.5000
G00 X0.2466 Y3.0630
G01 F250.00
G01 Z-0.0500
G01 F350.00
G01 X-3.5358 Y3.0630 F350.00
G00 Z0.5000
G00 X-6.2314 Y2.1030
G01 F250.00
G01 Z-0.0500
G01 F350.00
G01 X-9.3321 Y2.1030 F350.00
G01 X-9.5721 Y1.8630 F350.00
G01 X-6.4714 Y1.8630 F350.00
G01 X-6.7114 Y1.6230 F350.00
G01 X-9.8121 Y1.6230 F350.00
G01 X-10.0521 Y1.3830 F350.00
G01 X-6.9514 Y1.3830 F350.00
G00 Z0.5000
G00 X-5.6908 Y0.6630
G01 F250.00
G01 Z-0.0500
G01 F350.00
G01 X-0.3462 Y0.6630 F350.00
G01 X-0.9403 Y0.4230 F350.00
G01 X-5.9308 Y0.4230 F350.00
G01 X-6.1708 Y0.1830 F350.00
G01 X-1.5343 Y0.1830 F350.00
G01 X-2.1284 Y-0.0570 F350.00
G01 X-6.4335 Y-0.0570 F350.00
G00 Z0.5000
G00 X-9.6590 Y3.7830
G01 F250.00
G01 Z-0.0500
G01 F350.00
G01 X-12.0021 Y3.7830 F350.00
G01 X-12.0090 Y3.5430 F350.00
G01 X-9.8728 Y3.5430 F350.00
G01 X-10.1128 Y3.3030 F350.00
G01 X-12.0090 Y3.3030 F350.00
G00 Z0.5000
G00 X-12.0385 Y3.0630
G01 F250.00
G01 Z-0.0500
G01 F350.00
G01 X-10.3528 Y3.0630 F350.00
G01 X-10.5928 Y2.8230 F350.00
G01 X-12.1374 Y2.8230 F350.00
G00 Z0.5000
G00 X-11.7621 Y4.0230
G01 F250.00
G01 Z-0.0500
G01 F350.00
G01 X-9.6590 Y4.0230 F350.00
G00 Z0.5000
G00 X-9.6428 Y4.2630
G01 F250.00
G01 Z-0.0500
G01 F350.00
G01 X-11.5221 Y4.2630 F350.00
G01 X-11.2821 Y4.5030 F350.00
G01 X-9.5616 Y4.5030 F350.00
G00 Z0.5000
G00 X-9.3905 Y4.7430
G01 F250.00
G01 Z-0.0500
G01 F350.00
G01 X-11.0421 Y4.7430 F350.00
G01 X-10.8021 Y4.9830 F350.00
G01 X-8.9780 Y4.9830 F350.00
G00 Z0.5000
G00 X-7.2684 Y9.5430
G01 F250.00
G01 Z-0.0500
G01 F350.00
G01 X-6.6228 Y9.5430 F350.00
G01 X-6.3828 Y9.7830 F350.00
G01 X-7.0041 Y9.7830 F350.00
G00 Z0.5000
G00 X-6.8531 Y10.0230
G01 F250.00
G01 Z-0.0500
G01 F350.00
G01 X-6.1428 Y10.0230 F350.00
G01 X-5.9028 Y10.2630 F350.00
G01 X-6.7679 Y10.2630 F350.00
G01 X-6.6512 Y10.5030 F350.00
G01 X-5.6628 Y10.5030 F350.00
G01 X-5.4228 Y10.7430 F350.00
G01 X-6.5324 Y10.7430 F350.00
G00 Z0.5000
G00 X-6.4863 Y10.9830
G01 F250.00
G01 Z-0.0500
G01 F350.00
G01 X-5.1828 Y10.9830 F350.00
G01 X-4.9428 Y11.2230 F350.00
G01 X-6.4836 Y11.2230 F350.00
G01 X-6.4836 Y11.4630 F350.00
G01 X-2.6205 Y11.4630 F350.00
G00 Z0.5000
G00 X-2.3538 Y7.3830
G01 F250.00
G01 Z-0.0500
G01 F350.00
G01 X-3.6021 Y7.3830 F350.00
G00 Z0.5000
G00 X-11.3344 Y11.7030
G01 F250.00
G01 Z-0.0500
G01 F350.00
G01 X-11.3515 Y11.7030 F350.00
G01 X-11.3344 Y11.9430 F350.00
G01 X-11.5915 Y11.9430 F350.00
G01 X-11.8315 Y12.1830 F350.00
G01 X-11.3344 Y12.1830 F350.00
G01 X-11.3344 Y12.4230 F350.00
G01 X-12.0715 Y12.4230 F350.00
G01 X-12.3115 Y12.6630 F350.00
G01 X-11.3344 Y12.6630 F350.00
G01 X-11.3344 Y12.9030 F350.00
G01 X-12.5515 Y12.9030 F350.00
G01 X-12.7915 Y13.1430 F350.00
G01 X-11.3344 Y13.1430 F350.00
G01 X-11.3344 Y13.3830 F350.00
G01 X-13.0315 Y13.3830 F350.00
G01 X-13.2715 Y13.6230 F350.00
G01 X-11.3344 Y13.6230 F350.00
G00 Z0.5000
G00 X-11.3184 Y13.8630
G01 F250.00
G01 Z-0.0500
G01 F350.00
G01 X-13.5115 Y13.8630 F350.00
G01 X-13.7515 Y14.1030 F350.00
G01 X-11.2397 Y14.1030 F350.00
G00 Z0.5000
G00 X-11.0749 Y14.3430
G01 F250.00
G01 Z-0.0500
G01 F350.00
G01 X-13.9915 Y14.3430 F350.00
G01 X-14.2315 Y14.5830 F350.00
G01 X-10.8365 Y14.5830 F350.00
G01 X-10.5965 Y14.8230 F350.00
G01 X-14.4715 Y14.8230 F350.00
G01 X-14.7115 Y15.0630 F350.00
G01 X-10.3565 Y15.0630 F350.00
G01 X-10.1165 Y15.3030 F350.00
G01 X-14.9515 Y15.3030 F350.00
G01 X-15.1915 Y15.5430 F350.00
G01 X-9.8765 Y15.5430 F350.00
G01 X-9.6365 Y15.7830 F350.00
G01 X-15.4315 Y15.7830 F350.00
G00 Z0.5000
G00 X-17.5965 Y6.4230
G01 F250.00
G01 Z-0.0500
G01 F350.00
G01 X-24.1692 Y6.4230 F350.00
G01 X-24.1739 Y6.1830 F350.00
G01 X-17.8365 Y6.1830 F350.00
G01 X-18.0765 Y5.9430 F350.00
G01 X-24.1787 Y5.9430 F350.00
G00 Z0.5000
M05
G00 Z0.5000
G00 Z40.00


