(G-CODE GENERATED BY FLATCAM v8.994 - www.flatcam.org - Version Date: 2020/11/7)

(Name: Buzzer PCB-Edge_Cuts.gbr_cutout_cnc)
(Type: G-code from Geometry)
(Units: MM)

(Created on Sunday, 21 June 2026 at 20:13)

(This preprocessor is used with a motion controller loaded with GRBL firmware.)
(It is configured to be compatible with almost any version of GRBL firmware.)

(TOOL DIAMETER: 3.175 mm)
(Feedrate_XY: 350.0 mm/min)
(Feedrate_Z: 250.0 mm/min)
(Feedrate rapids 1500.0 mm/min)

(Z_Cut: -2.1 mm)
(Z_Move: 0.5 mm)
(Z Start: None mm)
(Z End: 40.0 mm)
(X,Y End: None mm)
(Steps per circle: 64)
(Steps per circle: 64)
(Preprocessor Geometry: grbl_11)

(X range:  -24.2907 ...    4.2035  mm)
(Y range:   -4.2261 ...   21.9089  mm)

(Spindle Speed: 0.0 RPM)
G21
G90
G17
G94


G01 F350.00

M5             
G00 Z40.0000
G00 X0.0000 Y0.0000                
T1
M6
(MSG, Change to Tool Dia = 3.1750)
M0
G00 Z40.0000

M03
G01 F350.00
G00 X4.2030 Y-0.0693
G01 F250.00
G01 Z-2.1000
G01 F350.00
G01 X4.2016 Y-0.1289 F350.00
G01 X4.1893 Y-0.3779 F350.00
G01 X4.1831 Y-0.4605 F350.00
G01 X4.1736 Y-0.5378 F350.00
G01 X4.1370 Y-0.7844 F350.00
G01 X4.1237 Y-0.8612 F350.00
G01 X4.1056 Y-0.9420 F350.00
G01 X4.0451 Y-1.1838 F350.00
G01 X4.0243 Y-1.2589 F350.00
G01 X3.9984 Y-1.3376 F350.00
G01 X3.9145 Y-1.5723 F350.00
G01 X3.8864 Y-1.6450 F350.00
G01 X3.8530 Y-1.7207 F350.00
G01 X3.7464 Y-1.9461 F350.00
G01 X3.7114 Y-2.0157 F350.00
G01 X3.6706 Y-2.0878 F350.00
G01 X3.5425 Y-2.3016 F350.00
G01 X3.5008 Y-2.3674 F350.00
G01 X3.4532 Y-2.4352 F350.00
G01 X3.3047 Y-2.6354 F350.00
G01 X3.2568 Y-2.6969 F350.00
G01 X3.2028 Y-2.7597 F350.00
G01 X3.0354 Y-2.9443 F350.00
G01 X2.9782 Y-3.0042 F350.00
G01 X2.9217 Y-3.0580 F350.00
G01 X2.7371 Y-3.2254 F350.00
G01 X2.6743 Y-3.2794 F350.00
G01 X2.6128 Y-3.3273 F350.00
G01 X2.4126 Y-3.4758 F350.00
G01 X2.3489 Y-3.5207 F350.00
G01 X2.2790 Y-3.5651 F350.00
G01 X2.0652 Y-3.6932 F350.00
G01 X1.9974 Y-3.7316 F350.00
G01 X1.9235 Y-3.7690 F350.00
G01 X1.6981 Y-3.8756 F350.00
G01 X1.6269 Y-3.9071 F350.00
G01 X1.5497 Y-3.9371 F350.00
G01 X1.3150 Y-4.0210 F350.00
G01 X1.2410 Y-4.0455 F350.00
G01 X1.1612 Y-4.0677 F350.00
G01 X0.9194 Y-4.1282 F350.00
G01 X0.8434 Y-4.1453 F350.00
G01 X0.7618 Y-4.1596 F350.00
G01 X0.5152 Y-4.1962 F350.00
G01 X0.4379 Y-4.2057 F350.00
G01 X0.3553 Y-4.2119 F350.00
G01 X0.1063 Y-4.2242 F350.00
G01 X0.0650 Y-4.2256 F350.00
G01 X0.0260 Y-4.2261 F350.00
G01 X-22.6532 Y-4.2261 F350.00
G01 X-22.7360 Y-4.2240 F350.00
G01 X-22.8959 Y-4.2080 F350.00
G01 X-23.0534 Y-4.1764 F350.00
G01 X-23.2025 Y-4.1312 F350.00
G01 X-23.3511 Y-4.0699 F350.00
G01 X-23.4929 Y-3.9944 F350.00
G01 X-23.6306 Y-3.9024 F350.00
G01 X-23.7546 Y-3.8002 F350.00
G01 X-23.8681 Y-3.6864 F350.00
G01 X-23.9669 Y-3.5660 F350.00
G01 X-24.0564 Y-3.4325 F350.00
G01 X-24.1324 Y-3.2909 F350.00
G01 X-24.1957 Y-3.1379 F350.00
G01 X-24.2422 Y-2.9841 F350.00
G01 X-24.2733 Y-2.8264 F350.00
G01 X-24.2885 Y-2.6714 F350.00
G01 X-24.2907 Y-2.5886 F350.00
G01 X-24.2907 Y20.2714 F350.00
G01 X-24.2885 Y20.3542 F350.00
G01 X-24.2726 Y20.5141 F350.00
G01 X-24.2422 Y20.6669 F350.00
G01 X-24.1957 Y20.8207 F350.00
G01 X-24.1324 Y20.9737 F350.00
G01 X-24.0564 Y21.1153 F350.00
G01 X-23.9669 Y21.2488 F350.00
G01 X-23.8648 Y21.3729 F350.00
G01 X-23.7510 Y21.4863 F350.00
G01 X-23.6266 Y21.5881 F350.00
G01 X-23.4929 Y21.6772 F350.00
G01 X-23.3555 Y21.7506 F350.00
G01 X-23.2071 Y21.8123 F350.00
G01 X-23.0534 Y21.8592 F350.00
G01 X-22.8959 Y21.8908 F350.00
G01 X-22.7311 Y21.9070 F350.00
G01 X-22.6532 Y21.9089 F350.00
G01 X0.0260 Y21.9089 F350.00
G01 X0.0674 Y21.9084 F350.00
G01 X0.1063 Y21.9070 F350.00
G01 X0.3553 Y21.8947 F350.00
G01 X0.4330 Y21.8890 F350.00
G01 X0.5152 Y21.8790 F350.00
G01 X0.7618 Y21.8424 F350.00
G01 X0.8386 Y21.8291 F350.00
G01 X0.9194 Y21.8110 F350.00
G01 X1.1612 Y21.7505 F350.00
G01 X1.2363 Y21.7297 F350.00
G01 X1.3150 Y21.7038 F350.00
G01 X1.5497 Y21.6199 F350.00
G01 X1.6269 Y21.5899 F350.00
G01 X1.6981 Y21.5584 F350.00
G01 X1.9235 Y21.4518 F350.00
G01 X1.9931 Y21.4168 F350.00
G01 X2.0652 Y21.3760 F350.00
G01 X2.2790 Y21.2479 F350.00
G01 X2.3448 Y21.2062 F350.00
G01 X2.4126 Y21.1586 F350.00
G01 X2.6128 Y21.0101 F350.00
G01 X2.6743 Y20.9622 F350.00
G01 X2.7371 Y20.9082 F350.00
G01 X2.9217 Y20.7408 F350.00
G01 X2.9782 Y20.6870 F350.00
G01 X3.0354 Y20.6271 F350.00
G01 X3.2028 Y20.4425 F350.00
G01 X3.2537 Y20.3835 F350.00
G01 X3.3047 Y20.3182 F350.00
G01 X3.4532 Y20.1180 F350.00
G01 X3.4981 Y20.0543 F350.00
G01 X3.5425 Y19.9844 F350.00
G01 X3.6706 Y19.7706 F350.00
G01 X3.7090 Y19.7028 F350.00
G01 X3.7464 Y19.6289 F350.00
G01 X3.8530 Y19.4035 F350.00
G01 X3.8845 Y19.3323 F350.00
G01 X3.9145 Y19.2551 F350.00
G01 X3.9984 Y19.0204 F350.00
G01 X4.0229 Y18.9464 F350.00
G01 X4.0451 Y18.8666 F350.00
G01 X4.1056 Y18.6248 F350.00
G01 X4.1227 Y18.5488 F350.00
G01 X4.1370 Y18.4672 F350.00
G01 X4.1736 Y18.2206 F350.00
G01 X4.1836 Y18.1384 F350.00
G01 X4.1893 Y18.0607 F350.00
G01 X4.2016 Y17.8117 F350.00
G01 X4.2030 Y17.7704 F350.00
G01 X4.2035 Y17.7314 F350.00
G01 X4.2035 Y-0.0486 F350.00
G01 X4.2030 Y-0.0693 F350.00
G01 X4.2033 Y-0.0693 F350.00
G01 X4.2030 Y-0.0693 F350.00
G00 Z0.5000
M05
G00 Z0.5000
G00 Z40.00


