(G-CODE GENERATED BY FLATCAM v8.994 - www.flatcam.org - Version Date: 2020/11/7)

(Name: Buzzer PCB-B_Cu.gbr_edit_2_ncc_1_cnc)
(Type: G-code from Geometry)
(Units: MM)

(Created on Sunday, 21 June 2026 at 20:39)

(This preprocessor is used with a motion controller loaded with GRBL firmware.)
(It is configured to be compatible with almost any version of GRBL firmware.)

(TOOL DIAMETER: 0.4 mm)
(Feedrate_XY: 350.0 mm/min)
(Feedrate_Z: 60.0 mm/min)
(Feedrate rapids 1500.0 mm/min)

(Z_Cut: -0.05 mm)
(Z_Move: 0.5 mm)
(Z Start: None mm)
(Z End: 40.0 mm)
(X,Y End: None mm)
(Steps per circle: 64)
(Steps per circle: 64)
(Preprocessor Geometry: grbl_11)

(X range:   17.6340 ...   25.2648  mm)
(Y range:   -5.0186 ...    6.9414  mm)

(Spindle Speed: 0.0 RPM)
G21
G90
G17
G94


G01 F350.00

M5             
G00 Z40.0000
G00 X0.0000 Y0.0000                
T2
M6
(MSG, Change to Tool Dia = 0.4000)
M0
G00 Z40.0000

M03
G01 F350.00
G00 X17.8740 Y-0.7951
G01 F60.00
G01 Z-0.0500
G01 F350.00
G01 X17.8740 Y4.4679 F350.00
G00 Z0.5000
G00 X17.8740 Y-1.0463
G01 F60.00
G01 Z-0.0500
G01 F350.00
G01 X17.8740 Y-1.5909 F350.00
G01 X18.1140 Y-2.6561 F350.00
G01 X18.1140 Y4.9913 F350.00
G01 X18.3540 Y5.3655 F350.00
G01 X18.3540 Y-3.1579 F350.00
G01 X18.5940 Y-3.5234 F350.00
G01 X18.5940 Y5.6646 F350.00
G01 X18.8340 Y5.9118 F350.00
G01 X18.8340 Y-3.8145 F350.00
G01 X19.0740 Y-4.0539 F350.00
G01 X19.0740 Y6.1204 F350.00
G01 X19.3140 Y6.2951 F350.00
G01 X19.3140 Y-4.2551 F350.00
G01 X19.5540 Y-4.4255 F350.00
G01 X19.5540 Y6.4435 F350.00
G01 X19.7940 Y6.5680 F350.00
G01 X19.7940 Y-4.5679 F350.00
G01 X20.0340 Y-4.6867 F350.00
G01 X20.0340 Y6.6746 F350.00
G01 X20.2740 Y6.7605 F350.00
G01 X20.2740 Y3.4441 F350.00
G00 Z0.5000
G00 X20.5140 Y3.9114
G01 F60.00
G01 Z-0.0500
G01 F350.00
G01 X20.5140 Y6.8271 F350.00
G01 X20.7540 Y6.8806 F350.00
G01 X20.7540 Y4.1296 F350.00
G00 Z0.5000
G00 X20.9940 Y4.2572
G01 F60.00
G01 Z-0.0500
G01 F350.00
G01 X20.9940 Y6.9165 F350.00
G01 X21.2340 Y6.9350 F350.00
G01 X21.2340 Y4.3236 F350.00
G00 Z0.5000
G00 X21.4740 Y4.3397
G01 F60.00
G01 Z-0.0500
G01 F350.00
G01 X21.4740 Y6.9414 F350.00
G01 X21.7140 Y6.9310 F350.00
G01 X21.7140 Y4.3071 F350.00
G00 Z0.5000
G00 X21.9540 Y4.2216
G01 F60.00
G01 Z-0.0500
G01 F350.00
G01 X21.9540 Y6.9046 F350.00
G01 X22.1940 Y6.8647 F350.00
G01 X22.1940 Y4.0700 F350.00
G00 Z0.5000
G00 X22.4340 Y3.8046
G01 F60.00
G01 Z-0.0500
G01 F350.00
G01 X22.4340 Y6.8071 F350.00
G01 X22.6740 Y6.7324 F350.00
G01 X22.6740 Y-4.8484 F350.00
G01 X22.4340 Y-4.9139 F350.00
G01 X22.4340 Y-1.9903 F350.00
G00 Z0.5000
G00 X22.1940 Y-2.2195
G01 F60.00
G01 Z-0.0500
G01 F350.00
G01 X22.1940 Y-4.9645 F350.00
G01 X21.9540 Y-4.9981 F350.00
G01 X21.9540 Y-2.3462 F350.00
G00 Z0.5000
G00 X21.7140 Y-2.4073
G01 F60.00
G01 Z-0.0500
G01 F350.00
G01 X21.7140 Y-5.0146 F350.00
G01 X21.4740 Y-5.0176 F350.00
G01 X21.4740 Y-2.4144 F350.00
G00 Z0.5000
G00 X21.2340 Y-2.3677
G01 F60.00
G01 Z-0.0500
G01 F350.00
G01 X21.2340 Y-5.0040 F350.00
G01 X20.9940 Y-4.9734 F350.00
G01 X20.9940 Y-2.2581 F350.00
G00 Z0.5000
G00 X20.7540 Y-2.0613
G01 F60.00
G01 Z-0.0500
G01 F350.00
G01 X20.7540 Y-4.9289 F350.00
G01 X20.5140 Y-4.8666 F350.00
G01 X20.5140 Y-1.6459 F350.00
G00 Z0.5000
G00 X20.5140 Y-0.9913
G01 F60.00
G01 Z-0.0500
G01 F350.00
G01 X20.5140 Y-0.2386 F350.00
G00 Z0.5000
G00 X20.7540 Y-0.4568
G01 F60.00
G01 Z-0.0500
G01 F350.00
G01 X20.7540 Y-0.5759 F350.00
G00 Z0.5000
G00 X20.2740 Y0.2287
G01 F60.00
G01 Z-0.0500
G01 F350.00
G01 X20.2740 Y-4.7856 F350.00
G01 X22.9140 Y-4.7641 F350.00
G01 X22.9140 Y6.6415 F350.00
G01 X23.1540 Y6.5302 F350.00
G01 X23.1540 Y-4.6584 F350.00
G01 X23.3940 Y-4.5342 F350.00
G01 X23.3940 Y6.3955 F350.00
G01 X23.6340 Y6.2393 F350.00
G01 X23.6340 Y-4.3854 F350.00
G01 X23.8740 Y-4.2093 F350.00
G01 X23.8740 Y6.0548 F350.00
G01 X24.1140 Y5.8354 F350.00
G01 X24.1140 Y-3.9995 F350.00
G01 X24.3540 Y-3.7483 F350.00
G01 X24.3540 Y5.5733 F350.00
G01 X24.5940 Y5.2519 F350.00
G01 X24.5940 Y-3.4425 F350.00
G01 X24.8340 Y-3.0499 F350.00
G01 X24.8340 Y4.8376 F350.00
G01 X25.0740 Y4.2325 F350.00
G01 X25.0740 Y2.0503 F350.00
G00 Z0.5000
G00 X25.0740 Y1.6225
G01 F60.00
G01 Z-0.0500
G01 F350.00
G01 X25.0740 Y-2.4884 F350.00
G01 X22.4340 Y-0.6469 F350.00
G01 X22.4340 Y-0.1318 F350.00
G00 Z0.5000
G00 X22.4340 Y1.1946
G01 F60.00
G01 Z-0.0500
G01 F350.00
G01 X22.4340 Y2.4782 F350.00
G00 Z0.5000
G00 X22.1940 Y2.2128
G01 F60.00
G01 Z-0.0500
G01 F350.00
G01 X22.1940 Y1.4600 F350.00
G00 Z0.5000
G00 X20.7337 Y2.1682
G01 F60.00
G01 Z-0.0500
G01 F350.00
G01 X20.7337 Y1.5046 F350.00
G01 X20.6727 Y1.4590 F350.00
G01 X20.5926 Y1.3867 F350.00
G01 X20.5787 Y1.3728 F350.00
G01 X20.5095 Y1.2964 F350.00
G01 X20.5003 Y1.2849 F350.00
G01 X20.4362 Y1.1981 F350.00
G01 X20.3781 Y1.1014 F350.00
G01 X20.3713 Y1.0883 F350.00
G01 X20.3253 Y0.9906 F350.00
G01 X20.2857 Y0.8797 F350.00
G01 X20.2571 Y0.7655 F350.00
G01 X20.2410 Y0.6588 F350.00
G01 X20.2394 Y0.6441 F350.00
G01 X20.2340 Y0.5314 F350.00
G01 X20.2391 Y0.4236 F350.00
G01 X20.2410 Y0.4040 F350.00
G01 X20.2571 Y0.2973 F350.00
G01 X20.2831 Y0.1925 F350.00
G01 X20.2888 Y0.1737 F350.00
G01 X20.3253 Y0.0722 F350.00
G01 X20.3734 Y-0.0299 F350.00
G01 X20.3805 Y-0.0428 F350.00
G01 X20.4310 Y-0.1270 F350.00
G01 X20.4419 Y-0.1433 F350.00
G01 X20.5064 Y-0.2299 F350.00
G01 X20.5820 Y-0.3136 F350.00
G01 X20.5926 Y-0.3239 F350.00
G01 X20.6653 Y-0.3898 F350.00
G01 X20.6766 Y-0.3993 F350.00
G01 X20.7673 Y-0.4664 F350.00
G01 X20.8277 Y-0.5028 F350.00
G01 X20.7933 Y-0.5340 F350.00
G01 X20.7828 Y-0.5443 F350.00
G01 X20.7168 Y-0.6170 F350.00
G01 X20.7076 Y-0.6285 F350.00
G01 X20.6550 Y-0.6994 F350.00
G01 X20.6467 Y-0.7116 F350.00
G01 X20.5987 Y-0.7915 F350.00
G01 X20.5895 Y-0.8088 F350.00
G01 X20.5477 Y-0.8976 F350.00
G01 X20.5128 Y-0.9946 F350.00
G01 X20.5087 Y-1.0087 F350.00
G01 X20.4851 Y-1.1040 F350.00
G01 X20.4705 Y-1.2010 F350.00
G01 X20.4686 Y-1.2206 F350.00
G01 X20.4640 Y-1.3186 F350.00
G01 X20.4686 Y-1.4166 F350.00
G01 X20.4705 Y-1.4362 F350.00
G01 X20.4835 Y-1.5235 F350.00
G01 X20.4862 Y-1.5380 F350.00
G01 X20.5114 Y-1.6379 F350.00
G01 X20.5477 Y-1.7396 F350.00
G01 X20.5939 Y-1.8371 F350.00
G01 X20.6494 Y-1.9297 F350.00
G01 X20.7137 Y-2.0164 F350.00
G01 X20.7862 Y-2.0964 F350.00
G01 X20.8662 Y-2.1689 F350.00
G01 X20.9529 Y-2.2332 F350.00
G01 X21.0455 Y-2.2887 F350.00
G01 X21.1430 Y-2.3349 F350.00
G01 X21.2447 Y-2.3712 F350.00
G01 X21.3494 Y-2.3975 F350.00
G01 X21.4562 Y-2.4133 F350.00
G01 X21.5640 Y-2.4186 F350.00
G01 X21.6718 Y-2.4133 F350.00
G01 X21.7689 Y-2.3991 F350.00
G01 X21.7834 Y-2.3964 F350.00
G01 X21.8833 Y-2.3712 F350.00
G01 X21.9758 Y-2.3384 F350.00
G01 X21.9939 Y-2.3309 F350.00
G01 X22.0738 Y-2.2931 F350.00
G01 X22.0911 Y-2.2839 F350.00
G01 X22.1751 Y-2.2332 F350.00
G01 X22.2618 Y-2.1689 F350.00
G01 X22.3418 Y-2.0964 F350.00
G01 X22.4079 Y-2.0239 F350.00
G01 X22.4204 Y-2.0087 F350.00
G01 X22.4730 Y-1.9378 F350.00
G01 X22.4839 Y-1.9214 F350.00
G01 X22.5341 Y-1.8371 F350.00
G01 X22.5803 Y-1.7396 F350.00
G01 X22.6166 Y-1.6379 F350.00
G01 X22.6407 Y-1.5428 F350.00
G01 X22.6445 Y-1.5235 F350.00
G01 X22.6575 Y-1.4362 F350.00
G01 X22.6594 Y-1.4166 F350.00
G01 X22.6640 Y-1.3186 F350.00
G01 X22.6594 Y-1.2206 F350.00
G01 X22.6575 Y-1.2010 F350.00
G01 X22.6445 Y-1.1137 F350.00
G01 X22.6407 Y-1.0944 F350.00
G01 X22.6166 Y-0.9993 F350.00
G01 X22.5803 Y-0.8976 F350.00
G01 X22.5341 Y-0.8001 F350.00
G01 X22.4839 Y-0.7158 F350.00
G01 X22.4730 Y-0.6994 F350.00
G01 X22.4143 Y-0.6208 F350.00
G01 X22.3486 Y-0.5479 F350.00
G01 X22.3347 Y-0.5340 F350.00
G01 X22.2643 Y-0.4703 F350.00
G01 X22.2643 Y-0.3340 F350.00
G01 X22.2790 Y-0.3206 F350.00
G01 X22.2860 Y-0.3136 F350.00
G01 X22.3616 Y-0.2299 F350.00
G01 X22.4261 Y-0.1433 F350.00
G01 X22.4370 Y-0.1270 F350.00
G01 X22.4923 Y-0.0343 F350.00
G01 X22.5387 Y0.0632 F350.00
G01 X22.5462 Y0.0813 F350.00
G01 X22.5792 Y0.1737 F350.00
G01 X22.5837 Y0.1878 F350.00
G01 X22.6088 Y0.2877 F350.00
G01 X22.6126 Y0.3070 F350.00
G01 X22.6282 Y0.4138 F350.00
G01 X22.6338 Y0.5216 F350.00
G01 X22.6338 Y0.5412 F350.00
G01 X22.6282 Y0.6490 F350.00
G01 X22.6118 Y0.7607 F350.00
G01 X22.6088 Y0.7751 F350.00
G01 X22.5823 Y0.8797 F350.00
G01 X22.5427 Y0.9906 F350.00
G01 X22.4923 Y1.0971 F350.00
G01 X22.4344 Y1.1940 F350.00
G01 X22.4261 Y1.2061 F350.00
G01 X22.3616 Y1.2927 F350.00
G01 X22.2860 Y1.3764 F350.00
G01 X22.2754 Y1.3867 F350.00
G01 X22.1990 Y1.4559 F350.00
G01 X22.1875 Y1.4651 F350.00
G01 X22.1343 Y1.5046 F350.00
G01 X22.1343 Y2.1682 F350.00
G01 X22.1953 Y2.2138 F350.00
G01 X22.2790 Y2.2894 F350.00
G01 X22.2893 Y2.3000 F350.00
G01 X22.3552 Y2.3727 F350.00
G01 X22.3647 Y2.3840 F350.00
G01 X22.4261 Y2.4667 F350.00
G01 X22.4370 Y2.4830 F350.00
G01 X22.4923 Y2.5757 F350.00
G01 X22.5407 Y2.6777 F350.00
G01 X22.5462 Y2.6913 F350.00
G01 X22.5823 Y2.7931 F350.00
G01 X22.6088 Y2.8977 F350.00
G01 X22.6126 Y2.9170 F350.00
G01 X22.6282 Y3.0238 F350.00
G01 X22.6338 Y3.1316 F350.00
G01 X22.6338 Y3.1512 F350.00
G01 X22.6282 Y3.2590 F350.00
G01 X22.6109 Y3.3755 F350.00
G01 X22.5823 Y3.4897 F350.00
G01 X22.5427 Y3.6006 F350.00
G01 X22.4967 Y3.6983 F350.00
G01 X22.4875 Y3.7156 F350.00
G01 X22.4318 Y3.8081 F350.00
G01 X22.3677 Y3.8949 F350.00
G01 X22.3552 Y3.9101 F350.00
G01 X22.2893 Y3.9828 F350.00
G01 X22.2754 Y3.9967 F350.00
G01 X22.1953 Y4.0690 F350.00
G01 X22.1047 Y4.1364 F350.00
G01 X22.0924 Y4.1444 F350.00
G01 X21.9997 Y4.1997 F350.00
G01 X21.8932 Y4.2501 F350.00
G01 X21.7823 Y4.2897 F350.00
G01 X21.6681 Y4.3183 F350.00
G01 X21.5516 Y4.3356 F350.00
G01 X21.4340 Y4.3414 F350.00
G01 X21.3164 Y4.3356 F350.00
G01 X21.1999 Y4.3183 F350.00
G01 X21.0857 Y4.2897 F350.00
G01 X20.9748 Y4.2501 F350.00
G01 X20.8683 Y4.1997 F350.00
G01 X20.7673 Y4.1392 F350.00
G01 X20.6727 Y4.0690 F350.00
G01 X20.5855 Y3.9899 F350.00
G01 X20.5064 Y3.9027 F350.00
G01 X20.4390 Y3.8121 F350.00
G01 X20.4310 Y3.7998 F350.00
G01 X20.3757 Y3.7071 F350.00
G01 X20.3253 Y3.6006 F350.00
G01 X20.2857 Y3.4897 F350.00
G01 X20.2571 Y3.3755 F350.00
G01 X20.2398 Y3.2590 F350.00
G01 X20.2340 Y3.1414 F350.00
G01 X20.2398 Y3.0238 F350.00
G01 X20.2562 Y2.9121 F350.00
G01 X20.2592 Y2.8977 F350.00
G01 X20.2857 Y2.7931 F350.00
G01 X20.3253 Y2.6822 F350.00
G01 X20.3757 Y2.5757 F350.00
G01 X20.4336 Y2.4788 F350.00
G01 X20.4419 Y2.4667 F350.00
G01 X20.5064 Y2.3801 F350.00
G01 X20.5820 Y2.2964 F350.00
G01 X20.5926 Y2.2861 F350.00
G01 X20.6690 Y2.2169 F350.00
G01 X20.6805 Y2.2077 F350.00
G01 X20.7337 Y2.1682 F350.00
G00 Z0.5000
G00 X20.5140 Y2.3714
G01 F60.00
G01 Z-0.0500
G01 F350.00
G01 X20.5140 Y1.3014 F350.00
G00 Z0.5000
G00 X20.2740 Y0.8341
G01 F60.00
G01 Z-0.0500
G01 F350.00
G01 X20.2740 Y2.8387 F350.00
G01 X17.6340 Y3.0727 F350.00
G01 X17.6340 Y3.2101 F350.00
G00 Z0.5000
G00 X17.8422 Y1.7690
G01 F60.00
G01 Z-0.0500
G01 F350.00
G01 X17.8466 Y1.7831 F350.00
G01 X17.8500 Y1.7974 F350.00
G01 X17.8524 Y1.8119 F350.00
G01 X17.8536 Y1.8266 F350.00
G01 X17.8538 Y1.8413 F350.00
G01 X17.8529 Y1.8560 F350.00
G01 X17.8517 Y1.8657 F350.00
G01 X17.8490 Y1.8802 F350.00
G01 X17.8438 Y1.8991 F350.00
G01 X17.8176 Y1.9725 F350.00
G01 X17.7777 Y2.1041 F350.00
G01 X17.7204 Y2.3326 F350.00
G01 X17.6936 Y2.4675 F350.00
G01 X17.6590 Y2.7005 F350.00
G01 X17.6456 Y2.8373 F350.00
G01 X17.6340 Y3.0727 F350.00
G01 X17.6340 Y3.2101 F350.00
G01 X17.6456 Y3.4455 F350.00
G01 X17.6590 Y3.5823 F350.00
G01 X17.6936 Y3.8153 F350.00
G01 X17.7204 Y3.9502 F350.00
G01 X17.7777 Y4.1787 F350.00
G01 X17.8176 Y4.3103 F350.00
G01 X17.8970 Y4.5321 F350.00
G01 X17.9496 Y4.6591 F350.00
G01 X18.0503 Y4.8721 F350.00
G01 X18.1151 Y4.9933 F350.00
G01 X18.2362 Y5.1954 F350.00
G01 X18.3126 Y5.3097 F350.00
G01 X18.4530 Y5.4990 F350.00
G01 X18.5402 Y5.6052 F350.00
G01 X18.6984 Y5.7798 F350.00
G01 X18.7956 Y5.8770 F350.00
G01 X18.9702 Y6.0352 F350.00
G01 X19.0764 Y6.1224 F350.00
G01 X19.2657 Y6.2628 F350.00
G01 X19.3800 Y6.3392 F350.00
G01 X19.5821 Y6.4603 F350.00
G01 X19.7033 Y6.5251 F350.00
G01 X19.9163 Y6.6258 F350.00
G01 X20.0433 Y6.6784 F350.00
G01 X20.2651 Y6.7578 F350.00
G01 X20.3967 Y6.7977 F350.00
G01 X20.6252 Y6.8550 F350.00
G01 X20.7601 Y6.8818 F350.00
G01 X20.9931 Y6.9164 F350.00
G01 X21.1299 Y6.9298 F350.00
G01 X21.3653 Y6.9414 F350.00
G01 X21.5027 Y6.9414 F350.00
G01 X21.7381 Y6.9298 F350.00
G01 X21.8749 Y6.9164 F350.00
G01 X22.1079 Y6.8818 F350.00
G01 X22.2428 Y6.8550 F350.00
G01 X22.4713 Y6.7977 F350.00
G01 X22.6029 Y6.7578 F350.00
G01 X22.8247 Y6.6784 F350.00
G01 X22.9517 Y6.6258 F350.00
G01 X23.1647 Y6.5251 F350.00
G01 X23.2859 Y6.4603 F350.00
G01 X23.4880 Y6.3392 F350.00
G01 X23.6023 Y6.2628 F350.00
G01 X23.7916 Y6.1224 F350.00
G01 X23.8978 Y6.0352 F350.00
G01 X24.0724 Y5.8770 F350.00
G01 X24.1696 Y5.7798 F350.00
G01 X24.3278 Y5.6052 F350.00
G01 X24.4150 Y5.4990 F350.00
G01 X24.5554 Y5.3097 F350.00
G01 X24.6318 Y5.1954 F350.00
G01 X24.7529 Y4.9933 F350.00
G01 X24.8177 Y4.8721 F350.00
G01 X24.9184 Y4.6591 F350.00
G01 X24.9710 Y4.5321 F350.00
G01 X25.0504 Y4.3103 F350.00
G01 X25.0903 Y4.1787 F350.00
G01 X25.1476 Y3.9502 F350.00
G01 X25.1744 Y3.8153 F350.00
G01 X25.2090 Y3.5823 F350.00
G01 X25.2224 Y3.4455 F350.00
G01 X25.2323 Y3.2445 F350.00
G01 X25.2348 Y3.1414 F350.00
G01 X25.2323 Y3.0383 F350.00
G01 X25.2224 Y2.8373 F350.00
G01 X25.2090 Y2.7005 F350.00
G01 X25.1744 Y2.4675 F350.00
G01 X25.1476 Y2.3326 F350.00
G01 X25.0903 Y2.1041 F350.00
G01 X25.0504 Y1.9725 F350.00
G01 X25.0258 Y1.9038 F350.00
G01 X25.0214 Y1.8897 F350.00
G01 X25.0180 Y1.8754 F350.00
G01 X25.0156 Y1.8609 F350.00
G01 X25.0144 Y1.8462 F350.00
G01 X25.0141 Y1.8364 F350.00
G01 X25.0144 Y1.8266 F350.00
G01 X25.0156 Y1.8119 F350.00
G01 X25.0180 Y1.7974 F350.00
G01 X25.0214 Y1.7831 F350.00
G01 X25.0258 Y1.7690 F350.00
G01 X25.0504 Y1.7003 F350.00
G01 X25.0903 Y1.5687 F350.00
G01 X25.1476 Y1.3402 F350.00
G01 X25.1744 Y1.2053 F350.00
G01 X25.2090 Y0.9723 F350.00
G01 X25.2224 Y0.8355 F350.00
G01 X25.2323 Y0.6345 F350.00
G01 X25.2348 Y0.5314 F350.00
G01 X25.2323 Y0.4283 F350.00
G01 X25.2224 Y0.2273 F350.00
G01 X25.2090 Y0.0905 F350.00
G01 X25.1744 Y-0.1425 F350.00
G01 X25.1476 Y-0.2774 F350.00
G01 X25.1430 Y-0.2958 F350.00
G01 X25.1411 Y-0.3054 F350.00
G01 X25.1387 Y-0.3249 F350.00
G01 X25.1382 Y-0.3396 F350.00
G01 X25.1391 Y-0.3592 F350.00
G01 X25.1420 Y-0.3787 F350.00
G01 X25.1795 Y-0.5294 F350.00
G01 X25.2063 Y-0.6642 F350.00
G01 X25.2394 Y-0.8875 F350.00
G01 X25.2529 Y-1.0243 F350.00
G01 X25.2623 Y-1.2155 F350.00
G01 X25.2648 Y-1.3186 F350.00
G01 X25.2623 Y-1.4217 F350.00
G01 X25.2529 Y-1.6129 F350.00
G01 X25.2394 Y-1.7497 F350.00
G01 X25.2063 Y-1.9730 F350.00
G01 X25.1795 Y-2.1078 F350.00
G01 X25.1246 Y-2.3269 F350.00
G01 X25.0847 Y-2.4584 F350.00
G01 X25.0087 Y-2.6710 F350.00
G01 X24.9561 Y-2.7980 F350.00
G01 X24.8595 Y-3.0022 F350.00
G01 X24.7947 Y-3.1234 F350.00
G01 X24.6786 Y-3.3171 F350.00
G01 X24.6023 Y-3.4314 F350.00
G01 X24.4677 Y-3.6127 F350.00
G01 X24.3805 Y-3.7190 F350.00
G01 X24.2289 Y-3.8863 F350.00
G01 X24.1317 Y-3.9835 F350.00
G01 X23.9644 Y-4.1351 F350.00
G01 X23.8581 Y-4.2223 F350.00
G01 X23.6768 Y-4.3569 F350.00
G01 X23.5625 Y-4.4332 F350.00
G01 X23.3688 Y-4.5493 F350.00
G01 X23.2475 Y-4.6141 F350.00
G01 X23.0434 Y-4.7106 F350.00
G01 X22.9164 Y-4.7633 F350.00
G01 X22.7038 Y-4.8393 F350.00
G01 X22.5723 Y-4.8792 F350.00
G01 X22.3533 Y-4.9341 F350.00
G01 X22.2184 Y-4.9609 F350.00
G01 X21.9951 Y-4.9940 F350.00
G01 X21.8583 Y-5.0075 F350.00
G01 X21.6327 Y-5.0186 F350.00
G01 X21.4953 Y-5.0186 F350.00
G01 X21.2697 Y-5.0075 F350.00
G01 X21.1329 Y-4.9940 F350.00
G01 X20.9096 Y-4.9609 F350.00
G01 X20.7747 Y-4.9341 F350.00
G01 X20.5557 Y-4.8792 F350.00
G01 X20.4242 Y-4.8393 F350.00
G01 X20.2116 Y-4.7633 F350.00
G01 X20.0846 Y-4.7106 F350.00
G01 X19.8804 Y-4.6141 F350.00
G01 X19.7592 Y-4.5493 F350.00
G01 X19.5655 Y-4.4332 F350.00
G01 X19.4512 Y-4.3568 F350.00
G01 X19.2699 Y-4.2223 F350.00
G01 X19.1636 Y-4.1351 F350.00
G01 X18.9963 Y-3.9835 F350.00
G01 X18.8991 Y-3.8863 F350.00
G01 X18.7475 Y-3.7190 F350.00
G01 X18.6603 Y-3.6127 F350.00
G01 X18.5257 Y-3.4314 F350.00
G01 X18.4494 Y-3.3171 F350.00
G01 X18.3333 Y-3.1234 F350.00
G01 X18.2685 Y-3.0022 F350.00
G01 X18.1719 Y-2.7980 F350.00
G01 X18.1193 Y-2.6710 F350.00
G01 X18.0433 Y-2.4584 F350.00
G01 X18.0034 Y-2.3269 F350.00
G01 X17.9485 Y-2.1078 F350.00
G01 X17.9217 Y-1.9730 F350.00
G01 X17.8886 Y-1.7497 F350.00
G01 X17.8751 Y-1.6129 F350.00
G01 X17.8640 Y-1.3873 F350.00
G01 X17.8640 Y-1.2499 F350.00
G01 X17.8751 Y-1.0243 F350.00
G01 X17.8889 Y-0.8819 F350.00
G01 X17.8890 Y-0.8672 F350.00
G01 X17.8876 Y-0.8476 F350.00
G01 X17.8842 Y-0.8283 F350.00
G01 X17.8790 Y-0.8093 F350.00
G01 X17.8176 Y-0.6375 F350.00
G01 X17.7777 Y-0.5059 F350.00
G01 X17.7204 Y-0.2774 F350.00
G01 X17.6936 Y-0.1425 F350.00
G01 X17.6590 Y0.0905 F350.00
G01 X17.6456 Y0.2273 F350.00
G01 X17.6340 Y0.4627 F350.00
G01 X17.6340 Y0.6001 F350.00
G01 X17.6456 Y0.8355 F350.00
G01 X17.6590 Y0.9723 F350.00
G01 X17.6936 Y1.2053 F350.00
G01 X17.7204 Y1.3402 F350.00
G01 X17.7777 Y1.5687 F350.00
G01 X17.8176 Y1.7003 F350.00
G01 X17.8422 Y1.7690 F350.00
G00 Z0.5000
M05
G00 Z0.5000
G00 Z40.00


