(G-CODE GENERATED BY FLATCAM v8.994 - www.flatcam.org - Version Date: 2020/11/7)

(Name: BACK_PTH_0.8_1.0_1.2mm_cnc)
(Type: G-code from Geometry)
(Units: MM)

(Created on Friday, 26 June 2026 at 10:16)

(This preprocessor is used with a motion controller loaded with GRBL firmware.)
(It is configured to be compatible with almost any version of GRBL firmware.)


(TOOLS DIAMETER: )
(Tool: 1 -> Dia: 0.8)
(Tool: 2 -> Dia: 1.0)
(Tool: 3 -> Dia: 1.2)

(FEEDRATE Z: )
(Tool: 1 -> Feedrate: 300.0)
(Tool: 2 -> Feedrate: 300.0)
(Tool: 3 -> Feedrate: 300.0)

(FEEDRATE RAPIDS: )
(Tool: 1 -> Feedrate Rapids: 1500)
(Tool: 2 -> Feedrate Rapids: 1500)
(Tool: 3 -> Feedrate Rapids: 1500)

(Z_CUT: )
(Tool: 1 -> Z_Cut: -1.7)
(Tool: 2 -> Z_Cut: -1.7)
(Tool: 3 -> Z_Cut: -1.7)

(Tools Offset: )
(Tool: 1 -> Offset Z: 0.0)
(Tool: 2 -> Offset Z: 0.0)
(Tool: 3 -> Offset Z: 0.0)

(DEPTH_PER_CUT: )
(Tool: 1 -> DeptPerCut: 0.7)
(Tool: 2 -> DeptPerCut: 0.7)
(Tool: 3 -> DeptPerCut: 0.7)

(Z_MOVE: )
(Tool: 1 -> Z_Move: 0.5)
(Tool: 2 -> Z_Move: 0.5)
(Tool: 3 -> Z_Move: 0.5)

(Z Toolchange: 40.0 mm)
(X,Y Toolchange: 0.0000, 0.0000 mm)
(Z Start: None mm)
(Z End: 40.0 mm)
(X,Y End: None mm)
(Steps per circle: 64)
(Steps per circle: 64)
(Preprocessor Excellon: grbl_11)

(X range:    0.5409 ...  131.7309  mm)
(Y range:   -0.7100 ...   65.8000  mm)

(Spindle Speed: 0 RPM)
G21
G90
G17
G94


G01 F300.00

M5             
G00 Z40.0000
G00 X0.0000 Y0.0000                
T1
M6
(MSG, Change to Tool Dia = 0.8000 ||| Total drills for tool T1 = 42)
M0
G00 Z40.0000

G01 F300.00
M03
G00 X131.3309 Y36.6000
G01 Z-0.7000
G01 Z0
G00 Z0.5000
G01 Z-1.4000
G01 Z0
G00 Z0.5000
G01 Z-1.7000
G01 Z0
G00 Z0.5000
G00 X131.3309 Y34.6000
G01 Z-0.7000
G01 Z0
G00 Z0.5000
G01 Z-1.4000
G01 Z0
G00 Z0.5000
G01 Z-1.7000
G01 Z0
G00 Z0.5000
G00 X126.4809 Y21.0500
G01 Z-0.7000
G01 Z0
G00 Z0.5000
G01 Z-1.4000
G01 Z0
G00 Z0.5000
G01 Z-1.7000
G01 Z0
G00 Z0.5000
G00 X123.4809 Y21.0500
G01 Z-0.7000
G01 Z0
G00 Z0.5000
G01 Z-1.4000
G01 Z0
G00 Z0.5000
G01 Z-1.7000
G01 Z0
G00 Z0.5000
G00 X126.7049 Y11.6000
G01 Z-0.7000
G01 Z0
G00 Z0.5000
G01 Z-1.4000
G01 Z0
G00 Z0.5000
G01 Z-1.7000
G01 Z0
G00 Z0.5000
G00 X124.1649 Y11.6000
G01 Z-0.7000
G01 Z0
G00 Z0.5000
G01 Z-1.4000
G01 Z0
G00 Z0.5000
G01 Z-1.7000
G01 Z0
G00 Z0.5000
G00 X126.7049 Y2.6000
G01 Z-0.7000
G01 Z0
G00 Z0.5000
G01 Z-1.4000
G01 Z0
G00 Z0.5000
G01 Z-1.7000
G01 Z0
G00 Z0.5000
G00 X116.2569 Y2.6000
G01 Z-0.7000
G01 Z0
G00 Z0.5000
G01 Z-1.4000
G01 Z0
G00 Z0.5000
G01 Z-1.7000
G01 Z0
G00 Z0.5000
G00 X116.2569 Y11.6000
G01 Z-0.7000
G01 Z0
G00 Z0.5000
G01 Z-1.4000
G01 Z0
G00 Z0.5000
G01 Z-1.7000
G01 Z0
G00 Z0.5000
G00 X118.7969 Y11.6000
G01 Z-0.7000
G01 Z0
G00 Z0.5000
G01 Z-1.4000
G01 Z0
G00 Z0.5000
G01 Z-1.7000
G01 Z0
G00 Z0.5000
G00 X120.4809 Y21.0500
G01 Z-0.7000
G01 Z0
G00 Z0.5000
G01 Z-1.4000
G01 Z0
G00 Z0.5000
G01 Z-1.7000
G01 Z0
G00 Z0.5000
G00 X118.4809 Y25.8000
G01 Z-0.7000
G01 Z0
G00 Z0.5000
G01 Z-1.4000
G01 Z0
G00 Z0.5000
G01 Z-1.7000
G01 Z0
G00 Z0.5000
G00 X118.4809 Y30.8000
G01 Z-0.7000
G01 Z0
G00 Z0.5000
G01 Z-1.4000
G01 Z0
G00 Z0.5000
G01 Z-1.7000
G01 Z0
G00 Z0.5000
G00 X103.2309 Y34.0500
G01 Z-0.7000
G01 Z0
G00 Z0.5000
G01 Z-1.4000
G01 Z0
G00 Z0.5000
G01 Z-1.7000
G01 Z0
G00 Z0.5000
G00 X99.1809 Y36.5000
G01 Z-0.7000
G01 Z0
G00 Z0.5000
G01 Z-1.4000
G01 Z0
G00 Z0.5000
G01 Z-1.7000
G01 Z0
G00 Z0.5000
G00 X59.7309 Y36.3000
G01 Z-0.7000
G01 Z0
G00 Z0.5000
G01 Z-1.4000
G01 Z0
G00 Z0.5000
G01 Z-1.7000
G01 Z0
G00 Z0.5000
G00 X21.7709 Y19.3000
G01 Z-0.7000
G01 Z0
G00 Z0.5000
G01 Z-1.4000
G01 Z0
G00 Z0.5000
G01 Z-1.7000
G01 Z0
G00 Z0.5000
G00 X19.2309 Y19.3000
G01 Z-0.7000
G01 Z0
G00 Z0.5000
G01 Z-1.4000
G01 Z0
G00 Z0.5000
G01 Z-1.7000
G01 Z0
G00 Z0.5000
G00 X16.6909 Y19.3000
G01 Z-0.7000
G01 Z0
G00 Z0.5000
G01 Z-1.4000
G01 Z0
G00 Z0.5000
G01 Z-1.7000
G01 Z0
G00 Z0.5000
G00 X13.8959 Y19.3000
G01 Z-0.7000
G01 Z0
G00 Z0.5000
G01 Z-1.4000
G01 Z0
G00 Z0.5000
G01 Z-1.7000
G01 Z0
G00 Z0.5000
G00 X11.3559 Y19.3000
G01 Z-0.7000
G01 Z0
G00 Z0.5000
G01 Z-1.4000
G01 Z0
G00 Z0.5000
G01 Z-1.7000
G01 Z0
G00 Z0.5000
G00 X8.8159 Y19.3000
G01 Z-0.7000
G01 Z0
G00 Z0.5000
G01 Z-1.4000
G01 Z0
G00 Z0.5000
G01 Z-1.7000
G01 Z0
G00 Z0.5000
G00 X6.0209 Y19.3000
G01 Z-0.7000
G01 Z0
G00 Z0.5000
G01 Z-1.4000
G01 Z0
G00 Z0.5000
G01 Z-1.7000
G01 Z0
G00 Z0.5000
G00 X3.4809 Y19.3000
G01 Z-0.7000
G01 Z0
G00 Z0.5000
G01 Z-1.4000
G01 Z0
G00 Z0.5000
G01 Z-1.7000
G01 Z0
G00 Z0.5000
G00 X0.9409 Y19.3000
G01 Z-0.7000
G01 Z0
G00 Z0.5000
G01 Z-1.4000
G01 Z0
G00 Z0.5000
G01 Z-1.7000
G01 Z0
G00 Z0.5000
G00 X25.7309 Y52.5500
G01 Z-0.7000
G01 Z0
G00 Z0.5000
G01 Z-1.4000
G01 Z0
G00 Z0.5000
G01 Z-1.7000
G01 Z0
G00 Z0.5000
G00 X25.7409 Y56.3000
G01 Z-0.7000
G01 Z0
G00 Z0.5000
G01 Z-1.4000
G01 Z0
G00 Z0.5000
G01 Z-1.7000
G01 Z0
G00 Z0.5000
G00 X25.7409 Y60.0500
G01 Z-0.7000
G01 Z0
G00 Z0.5000
G01 Z-1.4000
G01 Z0
G00 Z0.5000
G01 Z-1.7000
G01 Z0
G00 Z0.5000
G00 X35.8909 Y52.5500
G01 Z-0.7000
G01 Z0
G00 Z0.5000
G01 Z-1.4000
G01 Z0
G00 Z0.5000
G01 Z-1.7000
G01 Z0
G00 Z0.5000
G00 X35.9009 Y56.3000
G01 Z-0.7000
G01 Z0
G00 Z0.5000
G01 Z-1.4000
G01 Z0
G00 Z0.5000
G01 Z-1.7000
G01 Z0
G00 Z0.5000
G00 X35.9009 Y60.0500
G01 Z-0.7000
G01 Z0
G00 Z0.5000
G01 Z-1.4000
G01 Z0
G00 Z0.5000
G01 Z-1.7000
G01 Z0
G00 Z0.5000
G00 X39.4809 Y63.7000
G01 Z-0.7000
G01 Z0
G00 Z0.5000
G01 Z-1.4000
G01 Z0
G00 Z0.5000
G01 Z-1.7000
G01 Z0
G00 Z0.5000
G00 X43.5429 Y63.7000
G01 Z-0.7000
G01 Z0
G00 Z0.5000
G01 Z-1.4000
G01 Z0
G00 Z0.5000
G01 Z-1.7000
G01 Z0
G00 Z0.5000
G00 X47.4809 Y63.7000
G01 Z-0.7000
G01 Z0
G00 Z0.5000
G01 Z-1.4000
G01 Z0
G00 Z0.5000
G01 Z-1.7000
G01 Z0
G00 Z0.5000
G00 X64.7809 Y65.4000
G01 Z-0.7000
G01 Z0
G00 Z0.5000
G01 Z-1.4000
G01 Z0
G00 Z0.5000
G01 Z-1.7000
G01 Z0
G00 Z0.5000
G00 X74.9409 Y65.4000
G01 Z-0.7000
G01 Z0
G00 Z0.5000
G01 Z-1.4000
G01 Z0
G00 Z0.5000
G01 Z-1.7000
G01 Z0
G00 Z0.5000
G00 X69.9809 Y53.9000
G01 Z-0.7000
G01 Z0
G00 Z0.5000
G01 Z-1.4000
G01 Z0
G00 Z0.5000
G01 Z-1.7000
G01 Z0
G00 Z0.5000
G00 X78.1509 Y49.0500
G01 Z-0.7000
G01 Z0
G00 Z0.5000
G01 Z-1.4000
G01 Z0
G00 Z0.5000
G01 Z-1.7000
G01 Z0
G00 Z0.5000
G00 X80.1409 Y53.9000
G01 Z-0.7000
G01 Z0
G00 Z0.5000
G01 Z-1.4000
G01 Z0
G00 Z0.5000
G01 Z-1.7000
G01 Z0
G00 Z0.5000
G00 X88.3109 Y49.0500
G01 Z-0.7000
G01 Z0
G00 Z0.5000
G01 Z-1.4000
G01 Z0
G00 Z0.5000
G01 Z-1.7000
G01 Z0
G00 Z0.5000
G00 X116.8809 Y41.0000
G01 Z-0.7000
G01 Z0
G00 Z0.5000
G01 Z-1.4000
G01 Z0
G00 Z0.5000
G01 Z-1.7000
G01 Z0
G00 Z0.5000
G00 X116.8809 Y43.0000
G01 Z-0.7000
G01 Z0
G00 Z0.5000
G01 Z-1.4000
G01 Z0
G00 Z0.5000
G01 Z-1.7000
G01 Z0
G00 Z0.5000
G01 F300.00

M5             
G00 Z40.0000
G00 X0.0000 Y0.0000                
T2
M6
(MSG, Change to Tool Dia = 1.0000 ||| Total drills for tool T2 = 67)
M0
G00 Z40.0000

G01 F300.00
M03
G00 X103.3509 Y30.5500
G01 Z-0.7000
G01 Z0
G00 Z0.5000
G01 Z-1.4000
G01 Z0
G00 Z0.5000
G01 Z-1.7000
G01 Z0
G00 Z0.5000
G00 X100.8109 Y30.5500
G01 Z-0.7000
G01 Z0
G00 Z0.5000
G01 Z-1.4000
G01 Z0
G00 Z0.5000
G01 Z-1.7000
G01 Z0
G00 Z0.5000
G00 X98.2709 Y30.5500
G01 Z-0.7000
G01 Z0
G00 Z0.5000
G01 Z-1.4000
G01 Z0
G00 Z0.5000
G01 Z-1.7000
G01 Z0
G00 Z0.5000
G00 X95.7309 Y30.5500
G01 Z-0.7000
G01 Z0
G00 Z0.5000
G01 Z-1.4000
G01 Z0
G00 Z0.5000
G01 Z-1.7000
G01 Z0
G00 Z0.5000
G00 X93.1909 Y30.5500
G01 Z-0.7000
G01 Z0
G00 Z0.5000
G01 Z-1.4000
G01 Z0
G00 Z0.5000
G01 Z-1.7000
G01 Z0
G00 Z0.5000
G00 X90.6509 Y30.5500
G01 Z-0.7000
G01 Z0
G00 Z0.5000
G01 Z-1.4000
G01 Z0
G00 Z0.5000
G01 Z-1.7000
G01 Z0
G00 Z0.5000
G00 X88.1109 Y30.5500
G01 Z-0.7000
G01 Z0
G00 Z0.5000
G01 Z-1.4000
G01 Z0
G00 Z0.5000
G01 Z-1.7000
G01 Z0
G00 Z0.5000
G00 X85.5709 Y30.5500
G01 Z-0.7000
G01 Z0
G00 Z0.5000
G01 Z-1.4000
G01 Z0
G00 Z0.5000
G01 Z-1.7000
G01 Z0
G00 Z0.5000
G00 X83.0309 Y30.5500
G01 Z-0.7000
G01 Z0
G00 Z0.5000
G01 Z-1.4000
G01 Z0
G00 Z0.5000
G01 Z-1.7000
G01 Z0
G00 Z0.5000
G00 X80.0759 Y39.8900
G01 Z-0.7000
G01 Z0
G00 Z0.5000
G01 Z-1.4000
G01 Z0
G00 Z0.5000
G01 Z-1.7000
G01 Z0
G00 Z0.5000
G00 X77.5359 Y39.8900
G01 Z-0.7000
G01 Z0
G00 Z0.5000
G01 Z-1.4000
G01 Z0
G00 Z0.5000
G01 Z-1.7000
G01 Z0
G00 Z0.5000
G00 X74.9959 Y39.8900
G01 Z-0.7000
G01 Z0
G00 Z0.5000
G01 Z-1.4000
G01 Z0
G00 Z0.5000
G01 Z-1.7000
G01 Z0
G00 Z0.5000
G00 X72.4559 Y39.8900
G01 Z-0.7000
G01 Z0
G00 Z0.5000
G01 Z-1.4000
G01 Z0
G00 Z0.5000
G01 Z-1.7000
G01 Z0
G00 Z0.5000
G00 X64.8359 Y39.8900
G01 Z-0.7000
G01 Z0
G00 Z0.5000
G01 Z-1.4000
G01 Z0
G00 Z0.5000
G01 Z-1.7000
G01 Z0
G00 Z0.5000
G00 X62.2959 Y39.8900
G01 Z-0.7000
G01 Z0
G00 Z0.5000
G01 Z-1.4000
G01 Z0
G00 Z0.5000
G01 Z-1.7000
G01 Z0
G00 Z0.5000
G00 X59.7559 Y39.8900
G01 Z-0.7000
G01 Z0
G00 Z0.5000
G01 Z-1.4000
G01 Z0
G00 Z0.5000
G01 Z-1.7000
G01 Z0
G00 Z0.5000
G00 X45.3709 Y18.4500
G01 Z-0.7000
G01 Z0
G00 Z0.5000
G01 Z-1.4000
G01 Z0
G00 Z0.5000
G01 Z-1.7000
G01 Z0
G00 Z0.5000
G00 X41.5609 Y-0.2100
G01 Z-0.7000
G01 Z0
G00 Z0.5000
G01 Z-1.4000
G01 Z0
G00 Z0.5000
G01 Z-1.7000
G01 Z0
G00 Z0.5000
G00 X39.0209 Y-0.2100
G01 Z-0.7000
G01 Z0
G00 Z0.5000
G01 Z-1.4000
G01 Z0
G00 Z0.5000
G01 Z-1.7000
G01 Z0
G00 Z0.5000
G00 X36.4809 Y-0.2100
G01 Z-0.7000
G01 Z0
G00 Z0.5000
G01 Z-1.4000
G01 Z0
G00 Z0.5000
G01 Z-1.7000
G01 Z0
G00 Z0.5000
G00 X33.9409 Y-0.2100
G01 Z-0.7000
G01 Z0
G00 Z0.5000
G01 Z-1.4000
G01 Z0
G00 Z0.5000
G01 Z-1.7000
G01 Z0
G00 Z0.5000
G00 X31.4009 Y-0.2100
G01 Z-0.7000
G01 Z0
G00 Z0.5000
G01 Z-1.4000
G01 Z0
G00 Z0.5000
G01 Z-1.7000
G01 Z0
G00 Z0.5000
G00 X4.7309 Y26.8000
G01 Z-0.7000
G01 Z0
G00 Z0.5000
G01 Z-1.4000
G01 Z0
G00 Z0.5000
G01 Z-1.7000
G01 Z0
G00 Z0.5000
G00 X4.7309 Y34.8000
G01 Z-0.7000
G01 Z0
G00 Z0.5000
G01 Z-1.4000
G01 Z0
G00 Z0.5000
G01 Z-1.7000
G01 Z0
G00 Z0.5000
G00 X1.9809 Y39.5500
G01 Z-0.7000
G01 Z0
G00 Z0.5000
G01 Z-1.4000
G01 Z0
G00 Z0.5000
G01 Z-1.7000
G01 Z0
G00 Z0.5000
G00 X1.9809 Y46.5500
G01 Z-0.7000
G01 Z0
G00 Z0.5000
G01 Z-1.4000
G01 Z0
G00 Z0.5000
G01 Z-1.7000
G01 Z0
G00 Z0.5000
G00 X14.3559 Y46.5500
G01 Z-0.7000
G01 Z0
G00 Z0.5000
G01 Z-1.4000
G01 Z0
G00 Z0.5000
G01 Z-1.7000
G01 Z0
G00 Z0.5000
G00 X18.4809 Y49.9000
G01 Z-0.7000
G01 Z0
G00 Z0.5000
G01 Z-1.4000
G01 Z0
G00 Z0.5000
G01 Z-1.7000
G01 Z0
G00 Z0.5000
G00 X26.7309 Y46.5500
G01 Z-0.7000
G01 Z0
G00 Z0.5000
G01 Z-1.4000
G01 Z0
G00 Z0.5000
G01 Z-1.7000
G01 Z0
G00 Z0.5000
G00 X26.7309 Y39.5500
G01 Z-0.7000
G01 Z0
G00 Z0.5000
G01 Z-1.4000
G01 Z0
G00 Z0.5000
G01 Z-1.7000
G01 Z0
G00 Z0.5000
G00 X19.4809 Y34.8000
G01 Z-0.7000
G01 Z0
G00 Z0.5000
G01 Z-1.4000
G01 Z0
G00 Z0.5000
G01 Z-1.7000
G01 Z0
G00 Z0.5000
G00 X14.3559 Y39.5500
G01 Z-0.7000
G01 Z0
G00 Z0.5000
G01 Z-1.4000
G01 Z0
G00 Z0.5000
G01 Z-1.7000
G01 Z0
G00 Z0.5000
G00 X11.7309 Y34.8000
G01 Z-0.7000
G01 Z0
G00 Z0.5000
G01 Z-1.4000
G01 Z0
G00 Z0.5000
G01 Z-1.7000
G01 Z0
G00 Z0.5000
G00 X11.7309 Y26.8000
G01 Z-0.7000
G01 Z0
G00 Z0.5000
G01 Z-1.4000
G01 Z0
G00 Z0.5000
G01 Z-1.7000
G01 Z0
G00 Z0.5000
G00 X19.4809 Y26.8000
G01 Z-0.7000
G01 Z0
G00 Z0.5000
G01 Z-1.4000
G01 Z0
G00 Z0.5000
G01 Z-1.7000
G01 Z0
G00 Z0.5000
G00 X27.5909 Y18.4500
G01 Z-0.7000
G01 Z0
G00 Z0.5000
G01 Z-1.4000
G01 Z0
G00 Z0.5000
G01 Z-1.7000
G01 Z0
G00 Z0.5000
G00 X30.1309 Y18.4500
G01 Z-0.7000
G01 Z0
G00 Z0.5000
G01 Z-1.4000
G01 Z0
G00 Z0.5000
G01 Z-1.7000
G01 Z0
G00 Z0.5000
G00 X32.6709 Y18.4500
G01 Z-0.7000
G01 Z0
G00 Z0.5000
G01 Z-1.4000
G01 Z0
G00 Z0.5000
G01 Z-1.7000
G01 Z0
G00 Z0.5000
G00 X35.2109 Y18.4500
G01 Z-0.7000
G01 Z0
G00 Z0.5000
G01 Z-1.4000
G01 Z0
G00 Z0.5000
G01 Z-1.7000
G01 Z0
G00 Z0.5000
G00 X37.7509 Y18.4500
G01 Z-0.7000
G01 Z0
G00 Z0.5000
G01 Z-1.4000
G01 Z0
G00 Z0.5000
G01 Z-1.7000
G01 Z0
G00 Z0.5000
G00 X40.2909 Y18.4500
G01 Z-0.7000
G01 Z0
G00 Z0.5000
G01 Z-1.4000
G01 Z0
G00 Z0.5000
G01 Z-1.7000
G01 Z0
G00 Z0.5000
G00 X42.8309 Y18.4500
G01 Z-0.7000
G01 Z0
G00 Z0.5000
G01 Z-1.4000
G01 Z0
G00 Z0.5000
G01 Z-1.7000
G01 Z0
G00 Z0.5000
G00 X47.1809 Y38.4900
G01 Z-0.7000
G01 Z0
G00 Z0.5000
G01 Z-1.4000
G01 Z0
G00 Z0.5000
G01 Z-1.7000
G01 Z0
G00 Z0.5000
G00 X47.1809 Y41.0300
G01 Z-0.7000
G01 Z0
G00 Z0.5000
G01 Z-1.4000
G01 Z0
G00 Z0.5000
G01 Z-1.7000
G01 Z0
G00 Z0.5000
G00 X47.1809 Y43.5700
G01 Z-0.7000
G01 Z0
G00 Z0.5000
G01 Z-1.4000
G01 Z0
G00 Z0.5000
G01 Z-1.7000
G01 Z0
G00 Z0.5000
G00 X47.1809 Y46.1100
G01 Z-0.7000
G01 Z0
G00 Z0.5000
G01 Z-1.4000
G01 Z0
G00 Z0.5000
G01 Z-1.7000
G01 Z0
G00 Z0.5000
G00 X40.9009 Y59.8000
G01 Z-0.7000
G01 Z0
G00 Z0.5000
G01 Z-1.4000
G01 Z0
G00 Z0.5000
G01 Z-1.7000
G01 Z0
G00 Z0.5000
G00 X43.4409 Y59.8000
G01 Z-0.7000
G01 Z0
G00 Z0.5000
G01 Z-1.4000
G01 Z0
G00 Z0.5000
G01 Z-1.7000
G01 Z0
G00 Z0.5000
G00 X45.9809 Y59.8000
G01 Z-0.7000
G01 Z0
G00 Z0.5000
G01 Z-1.4000
G01 Z0
G00 Z0.5000
G01 Z-1.7000
G01 Z0
G00 Z0.5000
G00 X59.7559 Y60.2100
G01 Z-0.7000
G01 Z0
G00 Z0.5000
G01 Z-1.4000
G01 Z0
G00 Z0.5000
G01 Z-1.7000
G01 Z0
G00 Z0.5000
G00 X62.2959 Y60.2100
G01 Z-0.7000
G01 Z0
G00 Z0.5000
G01 Z-1.4000
G01 Z0
G00 Z0.5000
G01 Z-1.7000
G01 Z0
G00 Z0.5000
G00 X64.8359 Y60.2100
G01 Z-0.7000
G01 Z0
G00 Z0.5000
G01 Z-1.4000
G01 Z0
G00 Z0.5000
G01 Z-1.7000
G01 Z0
G00 Z0.5000
G00 X67.3759 Y60.2100
G01 Z-0.7000
G01 Z0
G00 Z0.5000
G01 Z-1.4000
G01 Z0
G00 Z0.5000
G01 Z-1.7000
G01 Z0
G00 Z0.5000
G00 X69.9159 Y60.2100
G01 Z-0.7000
G01 Z0
G00 Z0.5000
G01 Z-1.4000
G01 Z0
G00 Z0.5000
G01 Z-1.7000
G01 Z0
G00 Z0.5000
G00 X72.4559 Y60.2100
G01 Z-0.7000
G01 Z0
G00 Z0.5000
G01 Z-1.4000
G01 Z0
G00 Z0.5000
G01 Z-1.7000
G01 Z0
G00 Z0.5000
G00 X74.9959 Y60.2100
G01 Z-0.7000
G01 Z0
G00 Z0.5000
G01 Z-1.4000
G01 Z0
G00 Z0.5000
G01 Z-1.7000
G01 Z0
G00 Z0.5000
G00 X77.5359 Y60.2100
G01 Z-0.7000
G01 Z0
G00 Z0.5000
G01 Z-1.4000
G01 Z0
G00 Z0.5000
G01 Z-1.7000
G01 Z0
G00 Z0.5000
G00 X80.0759 Y60.2100
G01 Z-0.7000
G01 Z0
G00 Z0.5000
G01 Z-1.4000
G01 Z0
G00 Z0.5000
G01 Z-1.7000
G01 Z0
G00 Z0.5000
G00 X82.6159 Y60.2100
G01 Z-0.7000
G01 Z0
G00 Z0.5000
G01 Z-1.4000
G01 Z0
G00 Z0.5000
G01 Z-1.7000
G01 Z0
G00 Z0.5000
G00 X85.1559 Y60.2100
G01 Z-0.7000
G01 Z0
G00 Z0.5000
G01 Z-1.4000
G01 Z0
G00 Z0.5000
G01 Z-1.7000
G01 Z0
G00 Z0.5000
G00 X87.6959 Y60.2100
G01 Z-0.7000
G01 Z0
G00 Z0.5000
G01 Z-1.4000
G01 Z0
G00 Z0.5000
G01 Z-1.7000
G01 Z0
G00 Z0.5000
G00 X82.6159 Y39.8900
G01 Z-0.7000
G01 Z0
G00 Z0.5000
G01 Z-1.4000
G01 Z0
G00 Z0.5000
G01 Z-1.7000
G01 Z0
G00 Z0.5000
G00 X85.1559 Y39.8900
G01 Z-0.7000
G01 Z0
G00 Z0.5000
G01 Z-1.4000
G01 Z0
G00 Z0.5000
G01 Z-1.7000
G01 Z0
G00 Z0.5000
G00 X87.6959 Y39.8900
G01 Z-0.7000
G01 Z0
G00 Z0.5000
G01 Z-1.4000
G01 Z0
G00 Z0.5000
G01 Z-1.7000
G01 Z0
G00 Z0.5000
G00 X90.2359 Y39.8900
G01 Z-0.7000
G01 Z0
G00 Z0.5000
G01 Z-1.4000
G01 Z0
G00 Z0.5000
G01 Z-1.7000
G01 Z0
G00 Z0.5000
G00 X95.3159 Y39.8900
G01 Z-0.7000
G01 Z0
G00 Z0.5000
G01 Z-1.4000
G01 Z0
G00 Z0.5000
G01 Z-1.7000
G01 Z0
G00 Z0.5000
G00 X97.8559 Y39.8900
G01 Z-0.7000
G01 Z0
G00 Z0.5000
G01 Z-1.4000
G01 Z0
G00 Z0.5000
G01 Z-1.7000
G01 Z0
G00 Z0.5000
G01 F300.00

M5             
G00 Z40.0000
G00 X0.0000 Y0.0000                
T3
M6
(MSG, Change to Tool Dia = 1.2000 ||| Total drills for tool T3 = 2)
M0
G00 Z40.0000

G01 F300.00
M03
G00 X129.4809 Y21.0500
G01 Z-0.7000
G01 Z0
G00 Z0.5000
G01 Z-1.4000
G01 Z0
G00 Z0.5000
G01 Z-1.7000
G01 Z0
G00 Z0.5000
G00 X117.4809 Y21.0500
G01 Z-0.7000
G01 Z0
G00 Z0.5000
G01 Z-1.4000
G01 Z0
G00 Z0.5000
G01 Z-1.7000
G01 Z0
G00 Z0.5000
M05
G00 Z40.00


