(G-CODE GENERATED BY FLATCAM v8.994 - www.flatcam.org - Version Date: 2020/11/7)

(Name: BACK_NPTH_cnc)
(Type: G-code from Geometry)
(Units: MM)

(Created on Saturday, 27 June 2026 at 20:18)

(This preprocessor is used with a motion controller loaded with GRBL firmware.)
(It is configured to be compatible with almost any version of GRBL firmware.)


(TOOLS DIAMETER: )
(Tool: 1 -> Dia: 1.2)
(Tool: 2 -> Dia: 2.6)
(Tool: 3 -> Dia: 3.175)

(FEEDRATE Z: )
(Tool: 1 -> Feedrate: 250.0)
(Tool: 2 -> Feedrate: 250.0)
(Tool: 3 -> Feedrate: 250.0)

(FEEDRATE RAPIDS: )
(Tool: 1 -> Feedrate Rapids: 1500)
(Tool: 2 -> Feedrate Rapids: 1500)
(Tool: 3 -> Feedrate Rapids: 1500)

(Z_CUT: )
(Tool: 1 -> Z_Cut: -1.6)
(Tool: 2 -> Z_Cut: -1.6)
(Tool: 3 -> Z_Cut: -1.6)

(Tools Offset: )
(Tool: 1 -> Offset Z: 0.0)
(Tool: 2 -> Offset Z: 0.0)
(Tool: 3 -> Offset Z: 0.0)

(DEPTH_PER_CUT: )
(Tool: 1 -> DeptPerCut: 0.8)
(Tool: 2 -> DeptPerCut: 0.8)
(Tool: 3 -> DeptPerCut: 0.8)

(Z_MOVE: )
(Tool: 1 -> Z_Move: 0.5)
(Tool: 2 -> Z_Move: 0.5)
(Tool: 3 -> Z_Move: 0.5)

(Z Toolchange: 40 mm)
(X,Y Toolchange: 0.0000, 0.0000 mm)
(Z Start: None mm)
(Z End: 40 mm)
(X,Y End: None mm)
(Steps per circle: 64)
(Steps per circle: 64)
(Preprocessor Excellon: grbl_11)

(X range:   -1.5726 ...  130.0809  mm)
(Y range:   -1.4375 ...   60.5275  mm)

(Spindle Speed: 0 RPM)
G21
G90
G17
G94


G01 F250.00

M5             
G00 Z40.0000
G00 X0.0000 Y0.0000                
T1
M6
(MSG, Change to Tool Dia = 1.2000 ||| Total drills for tool T1 = 2)
M0
G00 Z40.0000

G01 F250.00
M03
G00 X129.4809 Y21.0500
G01 Z-0.8000
G01 Z0
G00 Z0.5000
G01 Z-1.6000
G01 Z0
G00 Z0.5000
G00 X117.4809 Y21.0500
G01 Z-0.8000
G01 Z0
G00 Z0.5000
G01 Z-1.6000
G01 Z0
G00 Z0.5000
G01 F250.00

M5             
G00 Z40.0000
G00 X0.0000 Y0.0000                
T2
M6
(MSG, Change to Tool Dia = 2.6000 ||| Total drills for tool T2 = 6)
M0
G00 Z40.0000

G01 F250.00
M03
G00 X79.9809 Y8.5500
G01 Z-0.8000
G01 Z0
G00 Z0.5000
G01 Z-1.6000
G01 Z0
G00 Z0.5000
G00 X59.6609 Y8.5500
G01 Z-0.8000
G01 Z0
G00 Z0.5000
G01 Z-1.6000
G01 Z0
G00 Z0.5000
G00 X46.3309 Y9.4800
G01 Z-0.8000
G01 Z0
G00 Z0.5000
G01 Z-1.6000
G01 Z0
G00 Z0.5000
G00 X33.6309 Y9.4800
G01 Z-0.8000
G01 Z0
G00 Z0.5000
G01 Z-1.6000
G01 Z0
G00 Z0.5000
G00 X33.6309 Y29.8000
G01 Z-0.8000
G01 Z0
G00 Z0.5000
G01 Z-1.6000
G01 Z0
G00 Z0.5000
G00 X46.3309 Y29.8000
G01 Z-0.8000
G01 Z0
G00 Z0.5000
G01 Z-1.6000
G01 Z0
G00 Z0.5000
G01 F250.00

M5             
G00 Z40.0000
G00 X0.0000 Y0.0000                
T3
M6
(MSG, Change to Tool Dia = 3.1750 ||| Total drills for tool T3 = 7)
M0
G00 Z40.0000

G01 F250.00
M03
G00 X111.9009 Y29.6600
G01 Z-0.8000
G01 Z0
G00 Z0.5000
G01 Z-1.6000
G01 Z0
G00 Z0.5000
G00 X109.2859 Y41.1600
G01 Z-0.8000
G01 Z0
G00 Z0.5000
G01 Z-1.6000
G01 Z0
G00 Z0.5000
G00 X109.2859 Y58.9400
G01 Z-0.8000
G01 Z0
G00 Z0.5000
G01 Z-1.6000
G01 Z0
G00 Z0.5000
G00 X52.9009 Y29.6600
G01 Z-0.8000
G01 Z0
G00 Z0.5000
G01 Z-1.6000
G01 Z0
G00 Z0.5000
G00 X0.0149 Y45.4850
G01 Z-0.8000
G01 Z0
G00 Z0.5000
G01 Z-1.6000
G01 Z0
G00 Z0.5000
G00 X52.9009 Y0.1500
G01 Z-0.8000
G01 Z0
G00 Z0.5000
G01 Z-1.6000
G01 Z0
G00 Z0.5000
G00 X111.9009 Y0.1500
G01 Z-0.8000
G01 Z0
G00 Z0.5000
G01 Z-1.6000
G01 Z0
G00 Z0.5000
M05
G00 Z40.00


