(G-CODE GENERATED BY FLATCAM v8.994 - www.flatcam.org - Version Date: 2020/11/7)

(Name: BACK_0.5mm_ISOLATION_cnc)
(Type: G-code from Geometry)
(Units: MM)

(Created on Saturday, 27 June 2026 at 20:09)

(This preprocessor is used with a motion controller loaded with GRBL firmware.)
(It is configured to be compatible with almost any version of GRBL firmware.)

(TOOL DIAMETER: 0.5 mm)
(Feedrate_XY: 350.0 mm/min)
(Feedrate_Z: 250.0 mm/min)
(Feedrate rapids 1500.0 mm/min)

(Z_Cut: -0.05 mm)
(Z_Move: 0.5 mm)
(Z Start: None mm)
(Z End: 40.0 mm)
(X,Y End: None mm)
(Steps per circle: 64)
(Steps per circle: 64)
(Preprocessor Geometry: grbl_11)

(X range:    1.8305 ...  133.9809  mm)
(Y range:   -3.1625 ...   69.2002  mm)

(Spindle Speed: 0.0 RPM)
G21
G90
G17
G94


G01 F350.00

M5             
G00 Z40.0000
G00 X0.0000 Y0.0000                
T1
M6
(MSG, Change to Tool Dia = 0.5000)
M0
G00 Z40.0000

M03
G01 F350.00
G00 X8.6944 Y3.5504
G01 F250.00
G01 Z-0.0500
G01 F350.00
G01 X8.6831 Y3.5670 F350.00
G01 X8.6247 Y3.6458 F350.00
G01 X8.6171 Y3.6555 F350.00
G01 X8.6091 Y3.6648 F350.00
G01 X8.5432 Y3.7375 F350.00
G01 X8.5347 Y3.7464 F350.00
G01 X8.5259 Y3.7548 F350.00
G01 X8.4531 Y3.8207 F350.00
G01 X8.4439 Y3.8288 F350.00
G01 X8.4342 Y3.8363 F350.00
G01 X8.3554 Y3.8948 F350.00
G01 X8.3453 Y3.9018 F350.00
G01 X8.3350 Y3.9084 F350.00
G01 X8.2508 Y3.9589 F350.00
G01 X8.2401 Y3.9649 F350.00
G01 X8.2291 Y3.9704 F350.00
G01 X8.1404 Y4.0124 F350.00
G01 X8.1292 Y4.0173 F350.00
G01 X8.1178 Y4.0218 F350.00
G01 X8.0254 Y4.0548 F350.00
G01 X8.0137 Y4.0587 F350.00
G01 X8.0019 Y4.0619 F350.00
G01 X7.9067 Y4.0858 F350.00
G01 X7.8947 Y4.0885 F350.00
G01 X7.8826 Y4.0906 F350.00
G01 X7.7856 Y4.1050 F350.00
G01 X7.7734 Y4.1065 F350.00
G01 X7.7611 Y4.1074 F350.00
G01 X7.6631 Y4.1122 F350.00
G01 X7.6509 Y4.1125 F350.00
G01 X7.6386 Y4.1122 F350.00
G01 X7.5406 Y4.1074 F350.00
G01 X7.5283 Y4.1065 F350.00
G01 X7.5162 Y4.1050 F350.00
G01 X7.4191 Y4.0906 F350.00
G01 X7.4070 Y4.0885 F350.00
G01 X7.3950 Y4.0858 F350.00
G01 X7.2998 Y4.0619 F350.00
G01 X7.2880 Y4.0587 F350.00
G01 X7.2764 Y4.0548 F350.00
G01 X7.1840 Y4.0218 F350.00
G01 X7.1725 Y4.0173 F350.00
G01 X7.1613 Y4.0124 F350.00
G01 X7.0726 Y3.9704 F350.00
G01 X7.0616 Y3.9649 F350.00
G01 X7.0509 Y3.9589 F350.00
G01 X6.9668 Y3.9084 F350.00
G01 X6.9564 Y3.9018 F350.00
G01 X6.9464 Y3.8948 F350.00
G01 X6.8675 Y3.8363 F350.00
G01 X6.8579 Y3.8288 F350.00
G01 X6.8486 Y3.8207 F350.00
G01 X6.7759 Y3.7548 F350.00
G01 X6.7670 Y3.7464 F350.00
G01 X6.7585 Y3.7375 F350.00
G01 X6.6926 Y3.6648 F350.00
G01 X6.6846 Y3.6555 F350.00
G01 X6.6770 Y3.6458 F350.00
G01 X6.6186 Y3.5670 F350.00
G01 X6.6082 Y3.5518 F350.00
G01 X6.5545 Y3.4624 F350.00
G01 X6.5485 Y3.4517 F350.00
G01 X6.5429 Y3.4408 F350.00
G01 X6.5010 Y3.3521 F350.00
G01 X6.4960 Y3.3409 F350.00
G01 X6.4916 Y3.3294 F350.00
G01 X6.4585 Y3.2370 F350.00
G01 X6.4547 Y3.2254 F350.00
G01 X6.4514 Y3.2135 F350.00
G01 X6.4276 Y3.1183 F350.00
G01 X6.4249 Y3.1064 F350.00
G01 X6.4228 Y3.0943 F350.00
G01 X6.4084 Y2.9972 F350.00
G01 X6.4069 Y2.9850 F350.00
G01 X6.4060 Y2.9728 F350.00
G01 X6.4012 Y2.8748 F350.00
G01 X6.4009 Y2.8625 F350.00
G01 X6.4009 Y1.8625 F350.00
G01 X6.4012 Y1.8502 F350.00
G01 X6.4060 Y1.7522 F350.00
G01 X6.4076 Y1.7339 F350.00
G01 X6.4228 Y1.6307 F350.00
G01 X6.4249 Y1.6186 F350.00
G01 X6.4276 Y1.6067 F350.00
G01 X6.4514 Y1.5115 F350.00
G01 X6.4547 Y1.4996 F350.00
G01 X6.4585 Y1.4880 F350.00
G01 X6.4916 Y1.3956 F350.00
G01 X6.4960 Y1.3841 F350.00
G01 X6.5010 Y1.3729 F350.00
G01 X6.5429 Y1.2842 F350.00
G01 X6.5485 Y1.2733 F350.00
G01 X6.5545 Y1.2626 F350.00
G01 X6.6050 Y1.1784 F350.00
G01 X6.6115 Y1.1680 F350.00
G01 X6.6186 Y1.1580 F350.00
G01 X6.6770 Y1.0792 F350.00
G01 X6.6846 Y1.0695 F350.00
G01 X6.6926 Y1.0602 F350.00
G01 X6.7585 Y0.9875 F350.00
G01 X6.7670 Y0.9786 F350.00
G01 X6.7759 Y0.9702 F350.00
G01 X6.8486 Y0.9043 F350.00
G01 X6.8579 Y0.8962 F350.00
G01 X6.8675 Y0.8887 F350.00
G01 X6.9464 Y0.8302 F350.00
G01 X6.9615 Y0.8198 F350.00
G01 X7.0509 Y0.7661 F350.00
G01 X7.0616 Y0.7601 F350.00
G01 X7.0726 Y0.7546 F350.00
G01 X7.1613 Y0.7126 F350.00
G01 X7.1725 Y0.7077 F350.00
G01 X7.1840 Y0.7032 F350.00
G01 X7.2764 Y0.6702 F350.00
G01 X7.2880 Y0.6663 F350.00
G01 X7.2998 Y0.6631 F350.00
G01 X7.3950 Y0.6392 F350.00
G01 X7.4070 Y0.6365 F350.00
G01 X7.4191 Y0.6344 F350.00
G01 X7.5162 Y0.6200 F350.00
G01 X7.5283 Y0.6185 F350.00
G01 X7.5406 Y0.6176 F350.00
G01 X7.6386 Y0.6128 F350.00
G01 X7.6509 Y0.6125 F350.00
G01 X7.6631 Y0.6128 F350.00
G01 X7.7611 Y0.6176 F350.00
G01 X7.7734 Y0.6185 F350.00
G01 X7.7856 Y0.6200 F350.00
G01 X7.8826 Y0.6344 F350.00
G01 X7.8947 Y0.6365 F350.00
G01 X7.9067 Y0.6392 F350.00
G01 X8.0019 Y0.6631 F350.00
G01 X8.0137 Y0.6663 F350.00
G01 X8.0254 Y0.6702 F350.00
G01 X8.1235 Y0.7054 F350.00
G01 X8.1404 Y0.7126 F350.00
G01 X8.2291 Y0.7546 F350.00
G01 X8.2401 Y0.7601 F350.00
G01 X8.2508 Y0.7661 F350.00
G01 X8.3350 Y0.8166 F350.00
G01 X8.3453 Y0.8232 F350.00
G01 X8.3554 Y0.8302 F350.00
G01 X8.4342 Y0.8887 F350.00
G01 X8.4439 Y0.8962 F350.00
G01 X8.4531 Y0.9043 F350.00
G01 X8.5259 Y0.9702 F350.00
G01 X8.5347 Y0.9786 F350.00
G01 X8.5432 Y0.9875 F350.00
G01 X8.6132 Y1.0648 F350.00
G01 X8.6247 Y1.0792 F350.00
G01 X8.6831 Y1.1580 F350.00
G01 X8.6902 Y1.1680 F350.00
G01 X8.6968 Y1.1784 F350.00
G01 X8.7472 Y1.2626 F350.00
G01 X8.7561 Y1.2787 F350.00
G01 X8.8007 Y1.3729 F350.00
G01 X8.8080 Y1.3898 F350.00
G01 X8.8452 Y1.4938 F350.00
G01 X8.8503 Y1.5115 F350.00
G01 X8.8599 Y1.5496 F350.00
G01 X13.7626 Y1.5496 F350.00
G01 X13.7905 Y1.5120 F350.00
G01 X13.8020 Y1.4976 F350.00
G01 X13.9091 Y1.3795 F350.00
G01 X13.9223 Y1.3666 F350.00
G01 X14.0314 Y1.2677 F350.00
G01 X14.0455 Y1.2559 F350.00
G01 X14.1686 Y1.1645 F350.00
G01 X14.1786 Y1.1574 F350.00
G01 X14.1890 Y1.1509 F350.00
G01 X14.3152 Y1.0752 F350.00
G01 X14.3259 Y1.0691 F350.00
G01 X14.3369 Y1.0636 F350.00
G01 X14.4699 Y1.0007 F350.00
G01 X14.4812 Y0.9957 F350.00
G01 X14.4926 Y0.9913 F350.00
G01 X14.6312 Y0.9417 F350.00
G01 X14.6429 Y0.9379 F350.00
G01 X14.6547 Y0.9346 F350.00
G01 X14.7975 Y0.8988 F350.00
G01 X14.8095 Y0.8961 F350.00
G01 X14.8215 Y0.8940 F350.00
G01 X14.9732 Y0.8716 F350.00
G01 X14.9916 Y0.8700 F350.00
G01 X15.1386 Y0.8628 F350.00
G01 X15.1570 Y0.8626 F350.00
G01 X15.3163 Y0.8704 F350.00
G01 X15.3346 Y0.8724 F350.00
G01 X15.4035 Y0.8826 F350.00
G01 X17.4009 Y-1.1147 F350.00
G01 X17.4009 Y-1.5125 F350.00
G01 X17.4012 Y-1.5248 F350.00
G01 X17.4060 Y-1.6228 F350.00
G01 X17.4069 Y-1.6350 F350.00
G01 X17.4084 Y-1.6472 F350.00
G01 X17.4228 Y-1.7443 F350.00
G01 X17.4249 Y-1.7564 F350.00
G01 X17.4276 Y-1.7683 F350.00
G01 X17.4514 Y-1.8635 F350.00
G01 X17.4547 Y-1.8754 F350.00
G01 X17.4585 Y-1.8870 F350.00
G01 X17.4937 Y-1.9852 F350.00
G01 X17.5010 Y-2.0021 F350.00
G01 X17.5429 Y-2.0908 F350.00
G01 X17.5485 Y-2.1017 F350.00
G01 X17.5545 Y-2.1124 F350.00
G01 X17.6050 Y-2.1966 F350.00
G01 X17.6115 Y-2.2070 F350.00
G01 X17.6186 Y-2.2170 F350.00
G01 X17.6770 Y-2.2958 F350.00
G01 X17.6846 Y-2.3055 F350.00
G01 X17.6926 Y-2.3148 F350.00
G01 X17.7585 Y-2.3875 F350.00
G01 X17.7670 Y-2.3964 F350.00
G01 X17.7759 Y-2.4048 F350.00
G01 X17.8486 Y-2.4707 F350.00
G01 X17.8579 Y-2.4788 F350.00
G01 X17.8675 Y-2.4863 F350.00
G01 X17.9464 Y-2.5448 F350.00
G01 X17.9564 Y-2.5518 F350.00
G01 X17.9668 Y-2.5584 F350.00
G01 X18.0509 Y-2.6089 F350.00
G01 X18.0616 Y-2.6149 F350.00
G01 X18.0726 Y-2.6204 F350.00
G01 X18.1613 Y-2.6624 F350.00
G01 X18.1725 Y-2.6673 F350.00
G01 X18.1840 Y-2.6718 F350.00
G01 X18.2764 Y-2.7048 F350.00
G01 X18.2880 Y-2.7087 F350.00
G01 X18.2998 Y-2.7119 F350.00
G01 X18.3950 Y-2.7358 F350.00
G01 X18.4070 Y-2.7385 F350.00
G01 X18.4191 Y-2.7406 F350.00
G01 X18.5162 Y-2.7550 F350.00
G01 X18.5283 Y-2.7565 F350.00
G01 X18.5406 Y-2.7574 F350.00
G01 X18.6386 Y-2.7622 F350.00
G01 X18.6509 Y-2.7625 F350.00
G01 X18.6631 Y-2.7622 F350.00
G01 X18.7611 Y-2.7574 F350.00
G01 X18.7734 Y-2.7565 F350.00
G01 X18.7856 Y-2.7550 F350.00
G01 X18.8826 Y-2.7406 F350.00
G01 X18.8947 Y-2.7385 F350.00
G01 X18.9067 Y-2.7358 F350.00
G01 X19.0019 Y-2.7119 F350.00
G01 X19.0137 Y-2.7087 F350.00
G01 X19.0254 Y-2.7048 F350.00
G01 X19.1178 Y-2.6718 F350.00
G01 X19.1292 Y-2.6673 F350.00
G01 X19.1404 Y-2.6624 F350.00
G01 X19.2291 Y-2.6204 F350.00
G01 X19.2401 Y-2.6149 F350.00
G01 X19.2508 Y-2.6089 F350.00
G01 X19.3350 Y-2.5584 F350.00
G01 X19.3453 Y-2.5518 F350.00
G01 X19.3554 Y-2.5448 F350.00
G01 X19.4342 Y-2.4863 F350.00
G01 X19.4439 Y-2.4788 F350.00
G01 X19.4531 Y-2.4707 F350.00
G01 X19.5259 Y-2.4048 F350.00
G01 X19.5347 Y-2.3964 F350.00
G01 X19.5432 Y-2.3875 F350.00
G01 X19.6091 Y-2.3148 F350.00
G01 X19.6171 Y-2.3055 F350.00
G01 X19.6247 Y-2.2958 F350.00
G01 X19.6831 Y-2.2170 F350.00
G01 X19.6902 Y-2.2070 F350.00
G01 X19.6968 Y-2.1966 F350.00
G01 X19.7472 Y-2.1124 F350.00
G01 X19.7561 Y-2.0963 F350.00
G01 X19.8007 Y-2.0021 F350.00
G01 X19.8057 Y-1.9909 F350.00
G01 X19.8101 Y-1.9794 F350.00
G01 X19.8432 Y-1.8870 F350.00
G01 X19.8470 Y-1.8754 F350.00
G01 X19.8503 Y-1.8635 F350.00
G01 X19.8742 Y-1.7683 F350.00
G01 X19.8768 Y-1.7564 F350.00
G01 X19.8789 Y-1.7443 F350.00
G01 X19.8933 Y-1.6472 F350.00
G01 X19.8948 Y-1.6350 F350.00
G01 X19.8957 Y-1.6228 F350.00
G01 X19.9006 Y-1.5248 F350.00
G01 X19.9009 Y-1.5125 F350.00
G01 X19.9008 Y-0.5064 F350.00
G01 X19.8957 Y-0.4022 F350.00
G01 X19.8948 Y-0.3900 F350.00
G01 X19.8933 Y-0.3778 F350.00
G01 X19.8789 Y-0.2807 F350.00
G01 X19.8768 Y-0.2686 F350.00
G01 X19.8742 Y-0.2567 F350.00
G01 X19.8503 Y-0.1615 F350.00
G01 X19.8470 Y-0.1496 F350.00
G01 X19.8432 Y-0.1380 F350.00
G01 X19.8101 Y-0.0456 F350.00
G01 X19.8057 Y-0.0341 F350.00
G01 X19.8007 Y-0.0229 F350.00
G01 X19.7588 Y0.0658 F350.00
G01 X19.7533 Y0.0767 F350.00
G01 X19.7472 Y0.0874 F350.00
G01 X19.6968 Y0.1716 F350.00
G01 X19.6902 Y0.1820 F350.00
G01 X19.6831 Y0.1920 F350.00
G01 X19.6247 Y0.2708 F350.00
G01 X19.6171 Y0.2805 F350.00
G01 X19.6091 Y0.2898 F350.00
G01 X19.5432 Y0.3625 F350.00
G01 X19.5347 Y0.3714 F350.00
G01 X19.5259 Y0.3798 F350.00
G01 X19.4531 Y0.4457 F350.00
G01 X19.4439 Y0.4538 F350.00
G01 X19.4342 Y0.4613 F350.00
G01 X19.3554 Y0.5198 F350.00
G01 X19.3453 Y0.5268 F350.00
G01 X19.3350 Y0.5334 F350.00
G01 X19.2508 Y0.5839 F350.00
G01 X19.2401 Y0.5899 F350.00
G01 X19.2291 Y0.5954 F350.00
G01 X19.1404 Y0.6374 F350.00
G01 X19.1292 Y0.6423 F350.00
G01 X19.1178 Y0.6468 F350.00
G01 X19.0254 Y0.6798 F350.00
G01 X19.0137 Y0.6837 F350.00
G01 X19.0019 Y0.6869 F350.00
G01 X18.9067 Y0.7108 F350.00
G01 X18.8947 Y0.7135 F350.00
G01 X18.8826 Y0.7156 F350.00
G01 X18.7856 Y0.7300 F350.00
G01 X18.7734 Y0.7315 F350.00
G01 X18.7611 Y0.7324 F350.00
G01 X18.6631 Y0.7372 F350.00
G01 X18.6509 Y0.7375 F350.00
G01 X18.6386 Y0.7372 F350.00
G01 X18.5406 Y0.7324 F350.00
G01 X18.5283 Y0.7315 F350.00
G01 X18.5162 Y0.7300 F350.00
G01 X18.4191 Y0.7156 F350.00
G01 X18.4030 Y0.7126 F350.00
G01 X16.8629 Y2.2527 F350.00
G01 X16.8672 Y2.2711 F350.00
G01 X16.8693 Y2.2832 F350.00
G01 X16.8909 Y2.4288 F350.00
G01 X16.8924 Y2.4410 F350.00
G01 X16.8933 Y2.4532 F350.00
G01 X16.9006 Y2.6002 F350.00
G01 X16.9009 Y2.6125 F350.00
G01 X16.9006 Y2.6248 F350.00
G01 X16.8933 Y2.7718 F350.00
G01 X16.8924 Y2.7840 F350.00
G01 X16.8909 Y2.7962 F350.00
G01 X16.8693 Y2.9418 F350.00
G01 X16.8672 Y2.9539 F350.00
G01 X16.8645 Y2.9659 F350.00
G01 X16.8288 Y3.1087 F350.00
G01 X16.8255 Y3.1205 F350.00
G01 X16.8217 Y3.1321 F350.00
G01 X16.7721 Y3.2707 F350.00
G01 X16.7677 Y3.2822 F350.00
G01 X16.7627 Y3.2934 F350.00
G01 X16.6997 Y3.4265 F350.00
G01 X16.6942 Y3.4374 F350.00
G01 X16.6882 Y3.4481 F350.00
G01 X16.6125 Y3.5744 F350.00
G01 X16.6059 Y3.5847 F350.00
G01 X16.5989 Y3.5948 F350.00
G01 X16.5112 Y3.7130 F350.00
G01 X16.5036 Y3.7227 F350.00
G01 X16.4956 Y3.7320 F350.00
G01 X16.3968 Y3.8410 F350.00
G01 X16.3883 Y3.8499 F350.00
G01 X16.3794 Y3.8584 F350.00
G01 X16.2703 Y3.9573 F350.00
G01 X16.2610 Y3.9653 F350.00
G01 X16.2514 Y3.9728 F350.00
G01 X16.1331 Y4.0605 F350.00
G01 X16.1231 Y4.0676 F350.00
G01 X16.1127 Y4.0741 F350.00
G01 X15.9865 Y4.1498 F350.00
G01 X15.9704 Y4.1587 F350.00
G01 X15.8318 Y4.2243 F350.00
G01 X15.8206 Y4.2293 F350.00
G01 X15.8091 Y4.2337 F350.00
G01 X15.6705 Y4.2833 F350.00
G01 X15.6589 Y4.2871 F350.00
G01 X15.6470 Y4.2904 F350.00
G01 X15.5042 Y4.3262 F350.00
G01 X15.4923 Y4.3289 F350.00
G01 X15.4802 Y4.3310 F350.00
G01 X15.3346 Y4.3526 F350.00
G01 X15.3224 Y4.3541 F350.00
G01 X15.3102 Y4.3550 F350.00
G01 X15.1631 Y4.3622 F350.00
G01 X15.1509 Y4.3625 F350.00
G01 X15.1386 Y4.3622 F350.00
G01 X14.9916 Y4.3550 F350.00
G01 X14.9793 Y4.3541 F350.00
G01 X14.9672 Y4.3526 F350.00
G01 X14.8215 Y4.3310 F350.00
G01 X14.8095 Y4.3289 F350.00
G01 X14.7975 Y4.3262 F350.00
G01 X14.6488 Y4.2889 F350.00
G01 X14.6312 Y4.2833 F350.00
G01 X14.4926 Y4.2337 F350.00
G01 X14.4812 Y4.2293 F350.00
G01 X14.4699 Y4.2243 F350.00
G01 X14.3369 Y4.1614 F350.00
G01 X14.3259 Y4.1559 F350.00
G01 X14.3152 Y4.1498 F350.00
G01 X14.1890 Y4.0741 F350.00
G01 X14.1786 Y4.0676 F350.00
G01 X14.1686 Y4.0605 F350.00
G01 X14.0503 Y3.9728 F350.00
G01 X14.0407 Y3.9653 F350.00
G01 X14.0314 Y3.9573 F350.00
G01 X13.9223 Y3.8584 F350.00
G01 X13.9134 Y3.8499 F350.00
G01 X13.9050 Y3.8410 F350.00
G01 X13.8061 Y3.7320 F350.00
G01 X13.7981 Y3.7227 F350.00
G01 X13.7905 Y3.7130 F350.00
G01 X13.7029 Y3.5948 F350.00
G01 X13.6924 Y3.5796 F350.00
G01 X13.6748 Y3.5504 F350.00
G01 X8.6944 Y3.5504 F350.00
G00 Z0.5000
G00 X5.9210 Y10.6151
G01 F250.00
G01 Z-0.0500
G01 F350.00
G01 X5.9108 Y10.5462 F350.00
G01 X5.9088 Y10.5279 F350.00
G01 X5.9009 Y10.3686 F350.00
G01 X5.9012 Y10.3502 F350.00
G01 X5.9088 Y10.1971 F350.00
G01 X5.9108 Y10.1788 F350.00
G01 X5.9324 Y10.0332 F350.00
G01 X5.9345 Y10.0211 F350.00
G01 X5.9372 Y10.0091 F350.00
G01 X5.9745 Y9.8604 F350.00
G01 X5.9801 Y9.8429 F350.00
G01 X6.0297 Y9.7043 F350.00
G01 X6.0341 Y9.6928 F350.00
G01 X6.0390 Y9.6816 F350.00
G01 X6.1020 Y9.5485 F350.00
G01 X6.1075 Y9.5376 F350.00
G01 X6.1135 Y9.5269 F350.00
G01 X6.1892 Y9.4006 F350.00
G01 X6.1958 Y9.3903 F350.00
G01 X6.2029 Y9.3802 F350.00
G01 X6.2943 Y9.2571 F350.00
G01 X6.3061 Y9.2430 F350.00
G01 X6.4050 Y9.1340 F350.00
G01 X6.4134 Y9.1251 F350.00
G01 X6.4223 Y9.1166 F350.00
G01 X6.5314 Y9.0177 F350.00
G01 X6.5407 Y9.0097 F350.00
G01 X6.5503 Y9.0022 F350.00
G01 X6.6686 Y8.9145 F350.00
G01 X6.6786 Y8.9074 F350.00
G01 X6.6890 Y8.9009 F350.00
G01 X6.8152 Y8.8252 F350.00
G01 X6.8259 Y8.8191 F350.00
G01 X6.8369 Y8.8136 F350.00
G01 X6.9699 Y8.7507 F350.00
G01 X6.9812 Y8.7457 F350.00
G01 X6.9926 Y8.7413 F350.00
G01 X7.1312 Y8.6917 F350.00
G01 X7.1429 Y8.6879 F350.00
G01 X7.1547 Y8.6846 F350.00
G01 X7.2975 Y8.6488 F350.00
G01 X7.3095 Y8.6461 F350.00
G01 X7.3215 Y8.6440 F350.00
G01 X7.4732 Y8.6216 F350.00
G01 X7.4916 Y8.6200 F350.00
G01 X7.6386 Y8.6128 F350.00
G01 X7.6509 Y8.6125 F350.00
G01 X7.6631 Y8.6128 F350.00
G01 X7.8102 Y8.6200 F350.00
G01 X7.8224 Y8.6209 F350.00
G01 X7.8346 Y8.6224 F350.00
G01 X7.9802 Y8.6440 F350.00
G01 X7.9923 Y8.6461 F350.00
G01 X8.0042 Y8.6488 F350.00
G01 X8.1470 Y8.6846 F350.00
G01 X8.1589 Y8.6879 F350.00
G01 X8.1705 Y8.6917 F350.00
G01 X8.3091 Y8.7413 F350.00
G01 X8.3262 Y8.7481 F350.00
G01 X8.4648 Y8.8136 F350.00
G01 X8.4758 Y8.8191 F350.00
G01 X8.4865 Y8.8252 F350.00
G01 X8.6127 Y8.9009 F350.00
G01 X8.6231 Y8.9074 F350.00
G01 X8.6331 Y8.9145 F350.00
G01 X8.7563 Y9.0059 F350.00
G01 X8.7703 Y9.0177 F350.00
G01 X8.8794 Y9.1166 F350.00
G01 X8.8926 Y9.1295 F350.00
G01 X8.9997 Y9.2476 F350.00
G01 X9.0112 Y9.2620 F350.00
G01 X9.0391 Y9.2996 F350.00
G01 X13.4299 Y9.2996 F350.00
G01 X13.4334 Y9.2771 F350.00
G01 X13.4372 Y9.2591 F350.00
G01 X13.4729 Y9.1163 F350.00
G01 X13.4762 Y9.1045 F350.00
G01 X13.4801 Y9.0929 F350.00
G01 X13.5297 Y8.9543 F350.00
G01 X13.5341 Y8.9428 F350.00
G01 X13.5390 Y8.9316 F350.00
G01 X13.6020 Y8.7985 F350.00
G01 X13.6075 Y8.7876 F350.00
G01 X13.6135 Y8.7769 F350.00
G01 X13.6892 Y8.6506 F350.00
G01 X13.6958 Y8.6403 F350.00
G01 X13.7029 Y8.6302 F350.00
G01 X13.7905 Y8.5120 F350.00
G01 X13.7981 Y8.5023 F350.00
G01 X13.8061 Y8.4930 F350.00
G01 X13.9050 Y8.3840 F350.00
G01 X13.9134 Y8.3751 F350.00
G01 X13.9223 Y8.3666 F350.00
G01 X14.0314 Y8.2677 F350.00
G01 X14.0407 Y8.2597 F350.00
G01 X14.0503 Y8.2522 F350.00
G01 X14.1686 Y8.1645 F350.00
G01 X14.1786 Y8.1574 F350.00
G01 X14.1890 Y8.1509 F350.00
G01 X14.3152 Y8.0752 F350.00
G01 X14.3259 Y8.0691 F350.00
G01 X14.3369 Y8.0636 F350.00
G01 X14.4699 Y8.0007 F350.00
G01 X14.4812 Y7.9957 F350.00
G01 X14.4926 Y7.9913 F350.00
G01 X14.6312 Y7.9417 F350.00
G01 X14.6429 Y7.9379 F350.00
G01 X14.6547 Y7.9346 F350.00
G01 X14.7975 Y7.8988 F350.00
G01 X14.8095 Y7.8961 F350.00
G01 X14.8215 Y7.8940 F350.00
G01 X14.9672 Y7.8724 F350.00
G01 X14.9793 Y7.8709 F350.00
G01 X14.9916 Y7.8700 F350.00
G01 X15.1386 Y7.8628 F350.00
G01 X15.1509 Y7.8625 F350.00
G01 X15.1631 Y7.8628 F350.00
G01 X15.3163 Y7.8704 F350.00
G01 X15.3346 Y7.8724 F350.00
G01 X15.4802 Y7.8940 F350.00
G01 X15.4923 Y7.8961 F350.00
G01 X15.5042 Y7.8988 F350.00
G01 X15.6470 Y7.9346 F350.00
G01 X15.6589 Y7.9379 F350.00
G01 X15.6705 Y7.9417 F350.00
G01 X15.8091 Y7.9913 F350.00
G01 X15.8206 Y7.9957 F350.00
G01 X15.8318 Y8.0007 F350.00
G01 X15.9648 Y8.0636 F350.00
G01 X15.9758 Y8.0691 F350.00
G01 X15.9865 Y8.0752 F350.00
G01 X16.1127 Y8.1509 F350.00
G01 X16.1231 Y8.1574 F350.00
G01 X16.1331 Y8.1645 F350.00
G01 X16.2514 Y8.2522 F350.00
G01 X16.2610 Y8.2597 F350.00
G01 X16.2703 Y8.2677 F350.00
G01 X16.3794 Y8.3666 F350.00
G01 X16.3883 Y8.3751 F350.00
G01 X16.3968 Y8.3840 F350.00
G01 X16.4956 Y8.4930 F350.00
G01 X16.5036 Y8.5023 F350.00
G01 X16.5112 Y8.5120 F350.00
G01 X16.5989 Y8.6302 F350.00
G01 X16.6059 Y8.6403 F350.00
G01 X16.6125 Y8.6506 F350.00
G01 X16.6882 Y8.7769 F350.00
G01 X16.6942 Y8.7876 F350.00
G01 X16.6997 Y8.7985 F350.00
G01 X16.7627 Y8.9316 F350.00
G01 X16.7677 Y8.9428 F350.00
G01 X16.7721 Y8.9543 F350.00
G01 X16.8217 Y9.0929 F350.00
G01 X16.8255 Y9.1045 F350.00
G01 X16.8288 Y9.1163 F350.00
G01 X16.8660 Y9.2651 F350.00
G01 X16.8693 Y9.2832 F350.00
G01 X16.8909 Y9.4288 F350.00
G01 X16.8924 Y9.4410 F350.00
G01 X16.8933 Y9.4532 F350.00
G01 X16.9006 Y9.6002 F350.00
G01 X16.9009 Y9.6125 F350.00
G01 X16.9006 Y9.6248 F350.00
G01 X16.8933 Y9.7718 F350.00
G01 X16.8924 Y9.7840 F350.00
G01 X16.8909 Y9.7962 F350.00
G01 X16.8693 Y9.9418 F350.00
G01 X16.8672 Y9.9539 F350.00
G01 X16.8645 Y9.9659 F350.00
G01 X16.8288 Y10.1087 F350.00
G01 X16.8255 Y10.1205 F350.00
G01 X16.8217 Y10.1321 F350.00
G01 X16.7721 Y10.2707 F350.00
G01 X16.7677 Y10.2822 F350.00
G01 X16.7627 Y10.2934 F350.00
G01 X16.6997 Y10.4265 F350.00
G01 X16.6942 Y10.4374 F350.00
G01 X16.6882 Y10.4481 F350.00
G01 X16.6125 Y10.5744 F350.00
G01 X16.6059 Y10.5847 F350.00
G01 X16.5989 Y10.5948 F350.00
G01 X16.5112 Y10.7130 F350.00
G01 X16.5036 Y10.7227 F350.00
G01 X16.4956 Y10.7320 F350.00
G01 X16.3968 Y10.8410 F350.00
G01 X16.3883 Y10.8499 F350.00
G01 X16.3794 Y10.8584 F350.00
G01 X16.2703 Y10.9573 F350.00
G01 X16.2610 Y10.9653 F350.00
G01 X16.2514 Y10.9728 F350.00
G01 X16.1331 Y11.0605 F350.00
G01 X16.1231 Y11.0676 F350.00
G01 X16.1127 Y11.0741 F350.00
G01 X15.9865 Y11.1498 F350.00
G01 X15.9758 Y11.1559 F350.00
G01 X15.9648 Y11.1614 F350.00
G01 X15.8262 Y11.2269 F350.00
G01 X15.8091 Y11.2337 F350.00
G01 X15.6705 Y11.2833 F350.00
G01 X15.6589 Y11.2871 F350.00
G01 X15.6470 Y11.2904 F350.00
G01 X15.5042 Y11.3262 F350.00
G01 X15.4923 Y11.3289 F350.00
G01 X15.4802 Y11.3310 F350.00
G01 X15.3346 Y11.3526 F350.00
G01 X15.3224 Y11.3541 F350.00
G01 X15.3102 Y11.3550 F350.00
G01 X15.1631 Y11.3622 F350.00
G01 X15.1509 Y11.3625 F350.00
G01 X15.1386 Y11.3622 F350.00
G01 X14.9916 Y11.3550 F350.00
G01 X14.9793 Y11.3541 F350.00
G01 X14.9672 Y11.3526 F350.00
G01 X14.8215 Y11.3310 F350.00
G01 X14.8095 Y11.3289 F350.00
G01 X14.7975 Y11.3262 F350.00
G01 X14.6547 Y11.2904 F350.00
G01 X14.6370 Y11.2853 F350.00
G01 X14.6137 Y11.2770 F350.00
G01 X14.6020 Y11.2799 F350.00
G01 X14.5900 Y11.2823 F350.00
G01 X14.5111 Y11.2941 F350.00
G01 X14.4989 Y11.2956 F350.00
G01 X14.4867 Y11.2965 F350.00
G01 X14.4131 Y11.3001 F350.00
G01 X14.4009 Y11.3004 F350.00
G01 X9.1269 Y11.3004 F350.00
G01 X9.1093 Y11.3296 F350.00
G01 X9.1025 Y11.3398 F350.00
G01 X9.0112 Y11.4630 F350.00
G01 X8.9997 Y11.4774 F350.00
G01 X8.8968 Y11.5910 F350.00
G01 X8.8883 Y11.5999 F350.00
G01 X8.8794 Y11.6084 F350.00
G01 X8.7657 Y11.7113 F350.00
G01 X8.7514 Y11.7228 F350.00
G01 X8.6331 Y11.8105 F350.00
G01 X8.6231 Y11.8176 F350.00
G01 X8.6127 Y11.8241 F350.00
G01 X8.4865 Y11.8998 F350.00
G01 X8.4758 Y11.9059 F350.00
G01 X8.4648 Y11.9114 F350.00
G01 X8.3318 Y11.9743 F350.00
G01 X8.3206 Y11.9793 F350.00
G01 X8.3091 Y11.9837 F350.00
G01 X8.1705 Y12.0333 F350.00
G01 X8.1589 Y12.0371 F350.00
G01 X8.1470 Y12.0404 F350.00
G01 X8.0042 Y12.0762 F350.00
G01 X7.9923 Y12.0789 F350.00
G01 X7.9802 Y12.0810 F350.00
G01 X7.8346 Y12.1026 F350.00
G01 X7.8224 Y12.1041 F350.00
G01 X7.8102 Y12.1050 F350.00
G01 X7.6631 Y12.1122 F350.00
G01 X7.6509 Y12.1125 F350.00
G01 X7.6386 Y12.1122 F350.00
G01 X7.4916 Y12.1050 F350.00
G01 X7.4793 Y12.1041 F350.00
G01 X7.4672 Y12.1026 F350.00
G01 X7.3215 Y12.0810 F350.00
G01 X7.3095 Y12.0789 F350.00
G01 X7.2920 Y12.0748 F350.00
G01 X4.7312 Y14.6344 F350.00
G01 X4.7312 Y20.3406 F350.00
G01 X7.3983 Y23.0076 F350.00
G01 X7.4672 Y22.9974 F350.00
G01 X7.4854 Y22.9954 F350.00
G01 X7.6447 Y22.9876 F350.00
G01 X7.6631 Y22.9878 F350.00
G01 X7.8102 Y22.9950 F350.00
G01 X7.8285 Y22.9966 F350.00
G01 X7.9802 Y23.0190 F350.00
G01 X7.9923 Y23.0211 F350.00
G01 X8.0042 Y23.0238 F350.00
G01 X8.1470 Y23.0596 F350.00
G01 X8.1589 Y23.0629 F350.00
G01 X8.1705 Y23.0667 F350.00
G01 X8.3091 Y23.1163 F350.00
G01 X8.3206 Y23.1207 F350.00
G01 X8.3318 Y23.1257 F350.00
G01 X8.4648 Y23.1886 F350.00
G01 X8.4758 Y23.1941 F350.00
G01 X8.4865 Y23.2002 F350.00
G01 X8.6127 Y23.2759 F350.00
G01 X8.6231 Y23.2824 F350.00
G01 X8.6331 Y23.2895 F350.00
G01 X8.7563 Y23.3809 F350.00
G01 X8.7703 Y23.3927 F350.00
G01 X8.8794 Y23.4916 F350.00
G01 X8.8926 Y23.5045 F350.00
G01 X8.9997 Y23.6226 F350.00
G01 X9.0112 Y23.6370 F350.00
G01 X9.0391 Y23.6746 F350.00
G01 X13.4299 Y23.6746 F350.00
G01 X13.4334 Y23.6521 F350.00
G01 X13.4372 Y23.6341 F350.00
G01 X13.4729 Y23.4913 F350.00
G01 X13.4762 Y23.4795 F350.00
G01 X13.4801 Y23.4679 F350.00
G01 X13.5297 Y23.3293 F350.00
G01 X13.5341 Y23.3178 F350.00
G01 X13.5390 Y23.3066 F350.00
G01 X13.6020 Y23.1735 F350.00
G01 X13.6075 Y23.1626 F350.00
G01 X13.6135 Y23.1519 F350.00
G01 X13.6892 Y23.0256 F350.00
G01 X13.6958 Y23.0153 F350.00
G01 X13.7029 Y23.0052 F350.00
G01 X13.7905 Y22.8870 F350.00
G01 X13.7981 Y22.8773 F350.00
G01 X13.8061 Y22.8680 F350.00
G01 X13.9050 Y22.7590 F350.00
G01 X13.9134 Y22.7501 F350.00
G01 X13.9223 Y22.7416 F350.00
G01 X14.0314 Y22.6427 F350.00
G01 X14.0407 Y22.6347 F350.00
G01 X14.0503 Y22.6272 F350.00
G01 X14.1686 Y22.5395 F350.00
G01 X14.1786 Y22.5324 F350.00
G01 X14.1890 Y22.5259 F350.00
G01 X14.3152 Y22.4502 F350.00
G01 X14.3259 Y22.4441 F350.00
G01 X14.3369 Y22.4386 F350.00
G01 X14.4699 Y22.3757 F350.00
G01 X14.4812 Y22.3707 F350.00
G01 X14.4926 Y22.3663 F350.00
G01 X14.6312 Y22.3167 F350.00
G01 X14.6429 Y22.3129 F350.00
G01 X14.6547 Y22.3096 F350.00
G01 X14.7975 Y22.2738 F350.00
G01 X14.8095 Y22.2711 F350.00
G01 X14.8215 Y22.2690 F350.00
G01 X14.9672 Y22.2474 F350.00
G01 X14.9793 Y22.2459 F350.00
G01 X14.9916 Y22.2450 F350.00
G01 X15.1386 Y22.2378 F350.00
G01 X15.1509 Y22.2375 F350.00
G01 X15.1631 Y22.2378 F350.00
G01 X15.3102 Y22.2450 F350.00
G01 X15.3224 Y22.2459 F350.00
G01 X15.3346 Y22.2474 F350.00
G01 X15.4802 Y22.2690 F350.00
G01 X15.4923 Y22.2711 F350.00
G01 X15.5042 Y22.2738 F350.00
G01 X15.6470 Y22.3096 F350.00
G01 X15.6589 Y22.3129 F350.00
G01 X15.6705 Y22.3167 F350.00
G01 X15.8091 Y22.3663 F350.00
G01 X15.8206 Y22.3707 F350.00
G01 X15.8318 Y22.3757 F350.00
G01 X15.9648 Y22.4386 F350.00
G01 X15.9758 Y22.4441 F350.00
G01 X15.9865 Y22.4502 F350.00
G01 X16.1127 Y22.5259 F350.00
G01 X16.1231 Y22.5324 F350.00
G01 X16.1331 Y22.5395 F350.00
G01 X16.2514 Y22.6272 F350.00
G01 X16.2610 Y22.6347 F350.00
G01 X16.2703 Y22.6427 F350.00
G01 X16.3794 Y22.7416 F350.00
G01 X16.3883 Y22.7501 F350.00
G01 X16.3968 Y22.7590 F350.00
G01 X16.4956 Y22.8680 F350.00
G01 X16.5036 Y22.8773 F350.00
G01 X16.5112 Y22.8870 F350.00
G01 X16.5989 Y23.0052 F350.00
G01 X16.6059 Y23.0153 F350.00
G01 X16.6125 Y23.0256 F350.00
G01 X16.6882 Y23.1519 F350.00
G01 X16.6942 Y23.1626 F350.00
G01 X16.6997 Y23.1735 F350.00
G01 X16.7627 Y23.3066 F350.00
G01 X16.7677 Y23.3178 F350.00
G01 X16.7721 Y23.3293 F350.00
G01 X16.8217 Y23.4679 F350.00
G01 X16.8255 Y23.4795 F350.00
G01 X16.8288 Y23.4913 F350.00
G01 X16.8645 Y23.6341 F350.00
G01 X16.8672 Y23.6461 F350.00
G01 X16.8693 Y23.6582 F350.00
G01 X16.8909 Y23.8038 F350.00
G01 X16.8924 Y23.8160 F350.00
G01 X16.8933 Y23.8282 F350.00
G01 X16.9006 Y23.9752 F350.00
G01 X16.9008 Y23.9936 F350.00
G01 X16.8933 Y24.1468 F350.00
G01 X16.8924 Y24.1590 F350.00
G01 X16.8909 Y24.1712 F350.00
G01 X16.8693 Y24.3168 F350.00
G01 X16.8672 Y24.3289 F350.00
G01 X16.8645 Y24.3409 F350.00
G01 X16.8288 Y24.4837 F350.00
G01 X16.8255 Y24.4955 F350.00
G01 X16.8217 Y24.5071 F350.00
G01 X16.7721 Y24.6457 F350.00
G01 X16.7677 Y24.6572 F350.00
G01 X16.7627 Y24.6684 F350.00
G01 X16.6997 Y24.8015 F350.00
G01 X16.6942 Y24.8124 F350.00
G01 X16.6882 Y24.8231 F350.00
G01 X16.6125 Y24.9494 F350.00
G01 X16.6059 Y24.9597 F350.00
G01 X16.5989 Y24.9698 F350.00
G01 X16.5112 Y25.0880 F350.00
G01 X16.5036 Y25.0977 F350.00
G01 X16.4956 Y25.1070 F350.00
G01 X16.3968 Y25.2160 F350.00
G01 X16.3883 Y25.2249 F350.00
G01 X16.3794 Y25.2334 F350.00
G01 X16.2703 Y25.3323 F350.00
G01 X16.2610 Y25.3403 F350.00
G01 X16.2514 Y25.3478 F350.00
G01 X16.1331 Y25.4355 F350.00
G01 X16.1231 Y25.4426 F350.00
G01 X16.1127 Y25.4491 F350.00
G01 X15.9865 Y25.5248 F350.00
G01 X15.9758 Y25.5309 F350.00
G01 X15.9648 Y25.5364 F350.00
G01 X15.8318 Y25.5993 F350.00
G01 X15.8206 Y25.6043 F350.00
G01 X15.8091 Y25.6087 F350.00
G01 X15.6705 Y25.6583 F350.00
G01 X15.6589 Y25.6621 F350.00
G01 X15.6470 Y25.6654 F350.00
G01 X15.5042 Y25.7012 F350.00
G01 X15.4923 Y25.7039 F350.00
G01 X15.4802 Y25.7060 F350.00
G01 X15.3346 Y25.7276 F350.00
G01 X15.3224 Y25.7291 F350.00
G01 X15.3102 Y25.7300 F350.00
G01 X15.1631 Y25.7372 F350.00
G01 X15.1509 Y25.7375 F350.00
G01 X15.1386 Y25.7372 F350.00
G01 X14.9916 Y25.7300 F350.00
G01 X14.9793 Y25.7291 F350.00
G01 X14.9672 Y25.7276 F350.00
G01 X14.8215 Y25.7060 F350.00
G01 X14.8095 Y25.7039 F350.00
G01 X14.7975 Y25.7012 F350.00
G01 X14.6547 Y25.6654 F350.00
G01 X14.6370 Y25.6603 F350.00
G01 X14.6137 Y25.6520 F350.00
G01 X14.6020 Y25.6549 F350.00
G01 X14.5900 Y25.6573 F350.00
G01 X14.5111 Y25.6691 F350.00
G01 X14.4989 Y25.6706 F350.00
G01 X14.4867 Y25.6715 F350.00
G01 X14.4131 Y25.6751 F350.00
G01 X14.4009 Y25.6754 F350.00
G01 X9.1269 Y25.6754 F350.00
G01 X9.1093 Y25.7046 F350.00
G01 X9.1025 Y25.7148 F350.00
G01 X9.0112 Y25.8380 F350.00
G01 X8.9997 Y25.8524 F350.00
G01 X8.8968 Y25.9660 F350.00
G01 X8.8883 Y25.9749 F350.00
G01 X8.8794 Y25.9834 F350.00
G01 X8.7657 Y26.0863 F350.00
G01 X8.7514 Y26.0978 F350.00
G01 X8.6331 Y26.1855 F350.00
G01 X8.6231 Y26.1926 F350.00
G01 X8.6127 Y26.1991 F350.00
G01 X8.4865 Y26.2748 F350.00
G01 X8.4758 Y26.2809 F350.00
G01 X8.4648 Y26.2864 F350.00
G01 X8.3318 Y26.3493 F350.00
G01 X8.3206 Y26.3543 F350.00
G01 X8.3091 Y26.3587 F350.00
G01 X8.1705 Y26.4083 F350.00
G01 X8.1589 Y26.4121 F350.00
G01 X8.1470 Y26.4154 F350.00
G01 X8.0042 Y26.4512 F350.00
G01 X7.9923 Y26.4539 F350.00
G01 X7.9802 Y26.4560 F350.00
G01 X7.8346 Y26.4776 F350.00
G01 X7.8224 Y26.4791 F350.00
G01 X7.8102 Y26.4800 F350.00
G01 X7.6631 Y26.4872 F350.00
G01 X7.6509 Y26.4875 F350.00
G01 X7.6386 Y26.4872 F350.00
G01 X7.4916 Y26.4800 F350.00
G01 X7.4793 Y26.4791 F350.00
G01 X7.4672 Y26.4776 F350.00
G01 X7.3215 Y26.4560 F350.00
G01 X7.3095 Y26.4539 F350.00
G01 X7.2920 Y26.4498 F350.00
G01 X4.2312 Y29.5094 F350.00
G01 X4.2312 Y34.2156 F350.00
G01 X7.2411 Y37.2254 F350.00
G01 X7.2975 Y37.2113 F350.00
G01 X7.3155 Y37.2075 F350.00
G01 X7.4672 Y37.1849 F350.00
G01 X7.4854 Y37.1829 F350.00
G01 X7.6386 Y37.1753 F350.00
G01 X7.6509 Y37.1750 F350.00
G01 X7.6631 Y37.1753 F350.00
G01 X7.8163 Y37.1829 F350.00
G01 X7.8346 Y37.1849 F350.00
G01 X7.9802 Y37.2065 F350.00
G01 X7.9923 Y37.2086 F350.00
G01 X8.0042 Y37.2113 F350.00
G01 X8.1470 Y37.2471 F350.00
G01 X8.1589 Y37.2504 F350.00
G01 X8.1705 Y37.2542 F350.00
G01 X8.3091 Y37.3038 F350.00
G01 X8.3206 Y37.3082 F350.00
G01 X8.3318 Y37.3132 F350.00
G01 X8.4648 Y37.3761 F350.00
G01 X8.4758 Y37.3816 F350.00
G01 X8.4865 Y37.3877 F350.00
G01 X8.6127 Y37.4634 F350.00
G01 X8.6231 Y37.4699 F350.00
G01 X8.6331 Y37.4770 F350.00
G01 X8.7514 Y37.5647 F350.00
G01 X8.7657 Y37.5762 F350.00
G01 X8.8794 Y37.6791 F350.00
G01 X8.8883 Y37.6876 F350.00
G01 X8.8968 Y37.6965 F350.00
G01 X8.9997 Y37.8101 F350.00
G01 X9.0112 Y37.8245 F350.00
G01 X9.1025 Y37.9477 F350.00
G01 X9.1125 Y37.9631 F350.00
G01 X9.1643 Y38.0496 F350.00
G01 X13.4067 Y38.0496 F350.00
G01 X13.4088 Y38.0096 F350.00
G01 X13.4100 Y37.9974 F350.00
G01 X13.4324 Y37.8457 F350.00
G01 X13.4358 Y37.8276 F350.00
G01 X13.4729 Y37.6788 F350.00
G01 X13.4762 Y37.6670 F350.00
G01 X13.4801 Y37.6554 F350.00
G01 X13.5297 Y37.5168 F350.00
G01 X13.5365 Y37.4997 F350.00
G01 X13.6020 Y37.3610 F350.00
G01 X13.6075 Y37.3501 F350.00
G01 X13.6135 Y37.3394 F350.00
G01 X13.6892 Y37.2131 F350.00
G01 X13.6958 Y37.2028 F350.00
G01 X13.7029 Y37.1927 F350.00
G01 X13.7905 Y37.0745 F350.00
G01 X13.7981 Y37.0648 F350.00
G01 X13.8061 Y37.0555 F350.00
G01 X13.9050 Y36.9465 F350.00
G01 X13.9134 Y36.9376 F350.00
G01 X13.9223 Y36.9291 F350.00
G01 X14.0314 Y36.8302 F350.00
G01 X14.0407 Y36.8222 F350.00
G01 X14.0503 Y36.8147 F350.00
G01 X14.1686 Y36.7270 F350.00
G01 X14.1786 Y36.7199 F350.00
G01 X14.1890 Y36.7134 F350.00
G01 X14.3152 Y36.6377 F350.00
G01 X14.3259 Y36.6316 F350.00
G01 X14.3369 Y36.6261 F350.00
G01 X14.4699 Y36.5632 F350.00
G01 X14.4812 Y36.5582 F350.00
G01 X14.4926 Y36.5538 F350.00
G01 X14.6312 Y36.5042 F350.00
G01 X14.6429 Y36.5004 F350.00
G01 X14.6547 Y36.4971 F350.00
G01 X14.7975 Y36.4613 F350.00
G01 X14.8095 Y36.4586 F350.00
G01 X14.8215 Y36.4565 F350.00
G01 X14.9672 Y36.4349 F350.00
G01 X14.9854 Y36.4329 F350.00
G01 X15.1386 Y36.4253 F350.00
G01 X15.1509 Y36.4250 F350.00
G01 X15.1631 Y36.4253 F350.00
G01 X15.3102 Y36.4325 F350.00
G01 X15.3224 Y36.4334 F350.00
G01 X15.3346 Y36.4349 F350.00
G01 X15.4802 Y36.4565 F350.00
G01 X15.4923 Y36.4586 F350.00
G01 X15.5042 Y36.4613 F350.00
G01 X15.6470 Y36.4971 F350.00
G01 X15.6589 Y36.5004 F350.00
G01 X15.6705 Y36.5042 F350.00
G01 X15.8091 Y36.5538 F350.00
G01 X15.8206 Y36.5582 F350.00
G01 X15.8318 Y36.5632 F350.00
G01 X15.9648 Y36.6261 F350.00
G01 X15.9758 Y36.6316 F350.00
G01 X15.9865 Y36.6377 F350.00
G01 X16.1127 Y36.7134 F350.00
G01 X16.1231 Y36.7199 F350.00
G01 X16.1331 Y36.7270 F350.00
G01 X16.2514 Y36.8147 F350.00
G01 X16.2610 Y36.8222 F350.00
G01 X16.2703 Y36.8302 F350.00
G01 X16.3794 Y36.9291 F350.00
G01 X16.3883 Y36.9376 F350.00
G01 X16.3968 Y36.9465 F350.00
G01 X16.4956 Y37.0555 F350.00
G01 X16.5036 Y37.0648 F350.00
G01 X16.5112 Y37.0745 F350.00
G01 X16.5989 Y37.1927 F350.00
G01 X16.6059 Y37.2028 F350.00
G01 X16.6125 Y37.2131 F350.00
G01 X16.6882 Y37.3394 F350.00
G01 X16.6942 Y37.3501 F350.00
G01 X16.6997 Y37.3610 F350.00
G01 X16.7652 Y37.4997 F350.00
G01 X16.7721 Y37.5168 F350.00
G01 X16.8217 Y37.6554 F350.00
G01 X16.8255 Y37.6670 F350.00
G01 X16.8288 Y37.6788 F350.00
G01 X16.8645 Y37.8216 F350.00
G01 X16.8672 Y37.8336 F350.00
G01 X16.8693 Y37.8457 F350.00
G01 X16.8909 Y37.9913 F350.00
G01 X16.8924 Y38.0035 F350.00
G01 X16.8933 Y38.0157 F350.00
G01 X16.9006 Y38.1627 F350.00
G01 X16.9009 Y38.1750 F350.00
G01 X16.9006 Y38.1873 F350.00
G01 X16.8933 Y38.3343 F350.00
G01 X16.8924 Y38.3465 F350.00
G01 X16.8909 Y38.3587 F350.00
G01 X16.8693 Y38.5043 F350.00
G01 X16.8672 Y38.5164 F350.00
G01 X16.8645 Y38.5284 F350.00
G01 X16.8288 Y38.6712 F350.00
G01 X16.8255 Y38.6830 F350.00
G01 X16.8217 Y38.6946 F350.00
G01 X16.7721 Y38.8332 F350.00
G01 X16.7677 Y38.8447 F350.00
G01 X16.7627 Y38.8559 F350.00
G01 X16.6997 Y38.9890 F350.00
G01 X16.6942 Y38.9999 F350.00
G01 X16.6882 Y39.0106 F350.00
G01 X16.6125 Y39.1369 F350.00
G01 X16.6059 Y39.1472 F350.00
G01 X16.5989 Y39.1573 F350.00
G01 X16.5112 Y39.2755 F350.00
G01 X16.5036 Y39.2852 F350.00
G01 X16.4956 Y39.2945 F350.00
G01 X16.3968 Y39.4035 F350.00
G01 X16.3883 Y39.4124 F350.00
G01 X16.3794 Y39.4209 F350.00
G01 X16.2703 Y39.5198 F350.00
G01 X16.2610 Y39.5278 F350.00
G01 X16.2514 Y39.5353 F350.00
G01 X16.1331 Y39.6230 F350.00
G01 X16.1231 Y39.6301 F350.00
G01 X16.1127 Y39.6366 F350.00
G01 X15.9865 Y39.7123 F350.00
G01 X15.9758 Y39.7184 F350.00
G01 X15.9648 Y39.7239 F350.00
G01 X15.8318 Y39.7868 F350.00
G01 X15.8206 Y39.7918 F350.00
G01 X15.8091 Y39.7962 F350.00
G01 X15.6705 Y39.8458 F350.00
G01 X15.6589 Y39.8496 F350.00
G01 X15.6470 Y39.8529 F350.00
G01 X15.5042 Y39.8887 F350.00
G01 X15.4923 Y39.8914 F350.00
G01 X15.4802 Y39.8935 F350.00
G01 X15.3285 Y39.9159 F350.00
G01 X15.3102 Y39.9175 F350.00
G01 X15.1631 Y39.9247 F350.00
G01 X15.1447 Y39.9249 F350.00
G01 X14.9854 Y39.9171 F350.00
G01 X14.9672 Y39.9151 F350.00
G01 X14.9147 Y39.9073 F350.00
G01 X14.8778 Y39.9293 F350.00
G01 X14.8670 Y39.9351 F350.00
G01 X14.7893 Y39.9718 F350.00
G01 X14.7722 Y39.9786 F350.00
G01 X14.7029 Y40.0035 F350.00
G01 X14.6854 Y40.0090 F350.00
G01 X14.6080 Y40.0285 F350.00
G01 X14.5960 Y40.0312 F350.00
G01 X14.5839 Y40.0333 F350.00
G01 X14.5111 Y40.0441 F350.00
G01 X14.4989 Y40.0456 F350.00
G01 X14.4867 Y40.0465 F350.00
G01 X14.4131 Y40.0501 F350.00
G01 X14.4009 Y40.0504 F350.00
G01 X8.9903 Y40.0504 F350.00
G01 X8.8968 Y40.1535 F350.00
G01 X8.8883 Y40.1624 F350.00
G01 X8.8794 Y40.1709 F350.00
G01 X8.7703 Y40.2698 F350.00
G01 X8.7610 Y40.2778 F350.00
G01 X8.7514 Y40.2853 F350.00
G01 X8.6331 Y40.3730 F350.00
G01 X8.6231 Y40.3801 F350.00
G01 X8.6127 Y40.3866 F350.00
G01 X8.4811 Y40.4654 F350.00
G01 X8.4811 Y44.4892 F350.00
G01 X18.7614 Y54.7695 F350.00
G01 X18.7698 Y54.7784 F350.00
G01 X18.8108 Y54.8240 F350.00
G01 X18.8476 Y54.8732 F350.00
G01 X18.8547 Y54.8832 F350.00
G01 X18.8612 Y54.8936 F350.00
G01 X18.8925 Y54.9463 F350.00
G01 X18.9190 Y55.0017 F350.00
G01 X18.9240 Y55.0129 F350.00
G01 X18.9284 Y55.0243 F350.00
G01 X18.9488 Y55.0822 F350.00
G01 X18.9640 Y55.1417 F350.00
G01 X18.9667 Y55.1536 F350.00
G01 X18.9760 Y55.2143 F350.00
G01 X18.9775 Y55.2265 F350.00
G01 X18.9784 Y55.2387 F350.00
G01 X18.9811 Y55.3000 F350.00
G01 X18.9811 Y67.2997 F350.00
G01 X46.7306 Y67.2997 F350.00
G01 X46.7306 Y65.2000 F350.00
G01 X46.5985 Y65.2000 F350.00
G01 X46.5862 Y65.1997 F350.00
G01 X46.5380 Y65.1970 F350.00
G01 X46.4901 Y65.1902 F350.00
G01 X46.4780 Y65.1881 F350.00
G01 X46.4310 Y65.1767 F350.00
G01 X46.4192 Y65.1734 F350.00
G01 X46.4076 Y65.1696 F350.00
G01 X46.3621 Y65.1530 F350.00
G01 X46.3183 Y65.1326 F350.00
G01 X46.3074 Y65.1271 F350.00
G01 X46.2657 Y65.1025 F350.00
G01 X46.2503 Y65.0924 F350.00
G01 X46.2115 Y65.0636 F350.00
G01 X46.2020 Y65.0558 F350.00
G01 X46.1707 Y65.0276 F350.00
G01 X46.1618 Y65.0191 F350.00
G01 X46.1533 Y65.0102 F350.00
G01 X46.1250 Y64.9789 F350.00
G01 X46.1135 Y64.9645 F350.00
G01 X46.0850 Y64.9255 F350.00
G01 X46.0598 Y64.8842 F350.00
G01 X46.0538 Y64.8735 F350.00
G01 X46.0483 Y64.8625 F350.00
G01 X46.0279 Y64.8187 F350.00
G01 X46.0113 Y64.7733 F350.00
G01 X46.0075 Y64.7616 F350.00
G01 X46.0042 Y64.7498 F350.00
G01 X45.9940 Y64.7089 F350.00
G01 X45.9906 Y64.6908 F350.00
G01 X45.9838 Y64.6429 F350.00
G01 X45.9829 Y64.6307 F350.00
G01 X45.9809 Y64.5885 F350.00
G01 X45.9809 Y62.8176 F350.00
G01 X45.9812 Y62.8054 F350.00
G01 X45.9838 Y62.7571 F350.00
G01 X45.9853 Y62.7449 F350.00
G01 X45.9916 Y62.7032 F350.00
G01 X45.9954 Y62.6852 F350.00
G01 X46.0057 Y62.6442 F350.00
G01 X46.0113 Y62.6267 F350.00
G01 X46.0279 Y62.5813 F350.00
G01 X46.0483 Y62.5375 F350.00
G01 X46.0568 Y62.5211 F350.00
G01 X46.0784 Y62.4849 F350.00
G01 X46.0850 Y62.4745 F350.00
G01 X46.0920 Y62.4645 F350.00
G01 X46.1211 Y62.4258 F350.00
G01 X46.1533 Y62.3898 F350.00
G01 X46.1618 Y62.3809 F350.00
G01 X46.1707 Y62.3724 F350.00
G01 X46.2067 Y62.3402 F350.00
G01 X46.2453 Y62.3112 F350.00
G01 X46.2554 Y62.3041 F350.00
G01 X46.2967 Y62.2790 F350.00
G01 X46.3074 Y62.2729 F350.00
G01 X46.3183 Y62.2674 F350.00
G01 X46.3621 Y62.2470 F350.00
G01 X46.4076 Y62.2304 F350.00
G01 X46.4251 Y62.2249 F350.00
G01 X46.4660 Y62.2146 F350.00
G01 X46.4780 Y62.2119 F350.00
G01 X46.5258 Y62.2045 F350.00
G01 X46.5441 Y62.2024 F350.00
G01 X46.5924 Y62.2001 F350.00
G01 X46.7306 Y62.2000 F350.00
G01 X46.7306 Y61.7987 F350.00
G01 X46.6854 Y61.8323 F350.00
G01 X46.6702 Y61.8427 F350.00
G01 X46.5755 Y61.8994 F350.00
G01 X46.5591 Y61.9079 F350.00
G01 X46.4704 Y61.9499 F350.00
G01 X46.4535 Y61.9571 F350.00
G01 X46.3554 Y61.9923 F350.00
G01 X46.3437 Y61.9962 F350.00
G01 X46.3319 Y61.9994 F350.00
G01 X46.2367 Y62.0233 F350.00
G01 X46.2247 Y62.0260 F350.00
G01 X46.2126 Y62.0281 F350.00
G01 X46.1095 Y62.0433 F350.00
G01 X46.0911 Y62.0449 F350.00
G01 X45.9931 Y62.0497 F350.00
G01 X45.9809 Y62.0500 F350.00
G01 X45.9686 Y62.0497 F350.00
G01 X45.8706 Y62.0449 F350.00
G01 X45.8583 Y62.0440 F350.00
G01 X45.8462 Y62.0425 F350.00
G01 X45.7491 Y62.0281 F350.00
G01 X45.7370 Y62.0260 F350.00
G01 X45.7250 Y62.0233 F350.00
G01 X45.6298 Y61.9994 F350.00
G01 X45.6180 Y61.9962 F350.00
G01 X45.6064 Y61.9923 F350.00
G01 X45.5140 Y61.9593 F350.00
G01 X45.4969 Y61.9524 F350.00
G01 X45.4026 Y61.9079 F350.00
G01 X45.3916 Y61.9024 F350.00
G01 X45.3809 Y61.8964 F350.00
G01 X45.2968 Y61.8459 F350.00
G01 X45.2864 Y61.8393 F350.00
G01 X45.2764 Y61.8323 F350.00
G01 X45.1975 Y61.7738 F350.00
G01 X45.1879 Y61.7663 F350.00
G01 X45.1786 Y61.7582 F350.00
G01 X45.1059 Y61.6923 F350.00
G01 X45.0970 Y61.6839 F350.00
G01 X45.0885 Y61.6750 F350.00
G01 X45.0226 Y61.6023 F350.00
G01 X45.0146 Y61.5930 F350.00
G01 X45.0070 Y61.5833 F350.00
G01 X44.9486 Y61.5045 F350.00
G01 X44.9415 Y61.4945 F350.00
G01 X44.9350 Y61.4841 F350.00
G01 X44.8845 Y61.3999 F350.00
G01 X44.8785 Y61.3892 F350.00
G01 X44.8729 Y61.3783 F350.00
G01 X44.8310 Y61.2896 F350.00
G01 X44.8260 Y61.2784 F350.00
G01 X44.8216 Y61.2669 F350.00
G01 X44.7885 Y61.1745 F350.00
G01 X44.7847 Y61.1629 F350.00
G01 X44.7814 Y61.1510 F350.00
G01 X44.7576 Y61.0558 F350.00
G01 X44.7549 Y61.0439 F350.00
G01 X44.7528 Y61.0318 F350.00
G01 X44.7384 Y60.9347 F350.00
G01 X44.7364 Y60.9164 F350.00
G01 X44.7312 Y60.8123 F350.00
G01 X44.7309 Y60.8000 F350.00
G01 X44.7309 Y58.7939 F350.00
G01 X44.7360 Y58.6897 F350.00
G01 X44.7369 Y58.6775 F350.00
G01 X44.7384 Y58.6653 F350.00
G01 X44.7528 Y58.5682 F350.00
G01 X44.7549 Y58.5561 F350.00
G01 X44.7576 Y58.5442 F350.00
G01 X44.7814 Y58.4490 F350.00
G01 X44.7847 Y58.4371 F350.00
G01 X44.7885 Y58.4255 F350.00
G01 X44.8237 Y58.3273 F350.00
G01 X44.8310 Y58.3104 F350.00
G01 X44.8729 Y58.2217 F350.00
G01 X44.8785 Y58.2108 F350.00
G01 X44.8845 Y58.2001 F350.00
G01 X44.9350 Y58.1159 F350.00
G01 X44.9415 Y58.1055 F350.00
G01 X44.9486 Y58.0955 F350.00
G01 X45.0070 Y58.0167 F350.00
G01 X45.0146 Y58.0070 F350.00
G01 X45.0226 Y57.9977 F350.00
G01 X45.0885 Y57.9250 F350.00
G01 X45.0970 Y57.9161 F350.00
G01 X45.1059 Y57.9077 F350.00
G01 X45.1786 Y57.8418 F350.00
G01 X45.1879 Y57.8337 F350.00
G01 X45.1975 Y57.8262 F350.00
G01 X45.2764 Y57.7677 F350.00
G01 X45.2864 Y57.7607 F350.00
G01 X45.2968 Y57.7541 F350.00
G01 X45.3809 Y57.7036 F350.00
G01 X45.3916 Y57.6976 F350.00
G01 X45.4026 Y57.6921 F350.00
G01 X45.4913 Y57.6501 F350.00
G01 X45.5025 Y57.6452 F350.00
G01 X45.5140 Y57.6407 F350.00
G01 X45.6064 Y57.6077 F350.00
G01 X45.6180 Y57.6038 F350.00
G01 X45.6298 Y57.6006 F350.00
G01 X45.7250 Y57.5767 F350.00
G01 X45.7370 Y57.5740 F350.00
G01 X45.7491 Y57.5719 F350.00
G01 X45.8462 Y57.5575 F350.00
G01 X45.8583 Y57.5560 F350.00
G01 X45.8706 Y57.5551 F350.00
G01 X45.9686 Y57.5503 F350.00
G01 X45.9809 Y57.5500 F350.00
G01 X45.9931 Y57.5503 F350.00
G01 X46.0911 Y57.5551 F350.00
G01 X46.1034 Y57.5560 F350.00
G01 X46.1156 Y57.5575 F350.00
G01 X46.2126 Y57.5719 F350.00
G01 X46.2247 Y57.5740 F350.00
G01 X46.2367 Y57.5767 F350.00
G01 X46.3319 Y57.6006 F350.00
G01 X46.3437 Y57.6038 F350.00
G01 X46.3554 Y57.6077 F350.00
G01 X46.4478 Y57.6407 F350.00
G01 X46.4592 Y57.6452 F350.00
G01 X46.4704 Y57.6501 F350.00
G01 X46.5591 Y57.6921 F350.00
G01 X46.5701 Y57.6976 F350.00
G01 X46.5808 Y57.7036 F350.00
G01 X46.6650 Y57.7541 F350.00
G01 X46.6753 Y57.7607 F350.00
G01 X46.6854 Y57.7677 F350.00
G01 X46.7642 Y57.8262 F350.00
G01 X46.7739 Y57.8337 F350.00
G01 X46.7831 Y57.8418 F350.00
G01 X46.8559 Y57.9077 F350.00
G01 X46.8647 Y57.9161 F350.00
G01 X46.8732 Y57.9250 F350.00
G01 X46.9391 Y57.9977 F350.00
G01 X46.9471 Y58.0070 F350.00
G01 X46.9547 Y58.0167 F350.00
G01 X47.0131 Y58.0955 F350.00
G01 X47.0202 Y58.1055 F350.00
G01 X47.0268 Y58.1159 F350.00
G01 X47.0803 Y58.2054 F350.00
G01 X47.0888 Y58.2217 F350.00
G01 X47.1307 Y58.3104 F350.00
G01 X47.1357 Y58.3216 F350.00
G01 X47.1401 Y58.3331 F350.00
G01 X47.1732 Y58.4255 F350.00
G01 X47.1770 Y58.4371 F350.00
G01 X47.1803 Y58.4490 F350.00
G01 X47.2042 Y58.5442 F350.00
G01 X47.2068 Y58.5561 F350.00
G01 X47.2089 Y58.5682 F350.00
G01 X47.2233 Y58.6653 F350.00
G01 X47.2254 Y58.6836 F350.00
G01 X47.2306 Y58.7877 F350.00
G01 X47.2309 Y58.8000 F350.00
G01 X47.2309 Y59.9890 F350.00
G01 X48.0114 Y60.7695 F350.00
G01 X48.0198 Y60.7784 F350.00
G01 X48.0608 Y60.8240 F350.00
G01 X48.0976 Y60.8732 F350.00
G01 X48.1047 Y60.8832 F350.00
G01 X48.1112 Y60.8936 F350.00
G01 X48.1425 Y60.9463 F350.00
G01 X48.1480 Y60.9573 F350.00
G01 X48.1716 Y61.0073 F350.00
G01 X48.1784 Y61.0243 F350.00
G01 X48.1988 Y61.0822 F350.00
G01 X48.2140 Y61.1417 F350.00
G01 X48.2178 Y61.1597 F350.00
G01 X48.2260 Y61.2143 F350.00
G01 X48.2275 Y61.2265 F350.00
G01 X48.2284 Y61.2387 F350.00
G01 X48.2311 Y61.3000 F350.00
G01 X48.2311 Y62.2000 F350.00
G01 X48.3632 Y62.2000 F350.00
G01 X48.4115 Y62.2021 F350.00
G01 X48.4238 Y62.2030 F350.00
G01 X48.4359 Y62.2045 F350.00
G01 X48.4777 Y62.2107 F350.00
G01 X48.4897 Y62.2131 F350.00
G01 X48.5307 Y62.2233 F350.00
G01 X48.5425 Y62.2266 F350.00
G01 X48.5542 Y62.2304 F350.00
G01 X48.5996 Y62.2470 F350.00
G01 X48.6434 Y62.2674 F350.00
G01 X48.6544 Y62.2729 F350.00
G01 X48.6650 Y62.2790 F350.00
G01 X48.7064 Y62.3041 F350.00
G01 X48.7164 Y62.3112 F350.00
G01 X48.7550 Y62.3402 F350.00
G01 X48.7911 Y62.3724 F350.00
G01 X48.8000 Y62.3809 F350.00
G01 X48.8084 Y62.3898 F350.00
G01 X48.8407 Y62.4258 F350.00
G01 X48.8697 Y62.4645 F350.00
G01 X48.8768 Y62.4745 F350.00
G01 X48.9019 Y62.5158 F350.00
G01 X48.9079 Y62.5265 F350.00
G01 X48.9134 Y62.5375 F350.00
G01 X48.9338 Y62.5813 F350.00
G01 X48.9504 Y62.6267 F350.00
G01 X48.9543 Y62.6384 F350.00
G01 X48.9663 Y62.6852 F350.00
G01 X48.9701 Y62.7032 F350.00
G01 X48.9764 Y62.7449 F350.00
G01 X48.9779 Y62.7571 F350.00
G01 X48.9806 Y62.8054 F350.00
G01 X48.9809 Y62.8176 F350.00
G01 X48.9809 Y64.5824 F350.00
G01 X48.9806 Y64.5946 F350.00
G01 X48.9779 Y64.6429 F350.00
G01 X48.9764 Y64.6551 F350.00
G01 X48.9701 Y64.6968 F350.00
G01 X48.9663 Y64.7148 F350.00
G01 X48.9543 Y64.7616 F350.00
G01 X48.9504 Y64.7733 F350.00
G01 X48.9338 Y64.8187 F350.00
G01 X48.9134 Y64.8625 F350.00
G01 X48.9079 Y64.8735 F350.00
G01 X48.9019 Y64.8842 F350.00
G01 X48.8768 Y64.9255 F350.00
G01 X48.8697 Y64.9355 F350.00
G01 X48.8407 Y64.9742 F350.00
G01 X48.8084 Y65.0102 F350.00
G01 X48.8000 Y65.0191 F350.00
G01 X48.7911 Y65.0276 F350.00
G01 X48.7550 Y65.0598 F350.00
G01 X48.7164 Y65.0888 F350.00
G01 X48.7064 Y65.0959 F350.00
G01 X48.6650 Y65.1210 F350.00
G01 X48.6544 Y65.1271 F350.00
G01 X48.6434 Y65.1326 F350.00
G01 X48.5996 Y65.1530 F350.00
G01 X48.5542 Y65.1696 F350.00
G01 X48.5425 Y65.1734 F350.00
G01 X48.5307 Y65.1767 F350.00
G01 X48.4897 Y65.1869 F350.00
G01 X48.4777 Y65.1893 F350.00
G01 X48.4359 Y65.1955 F350.00
G01 X48.4238 Y65.1970 F350.00
G01 X48.4115 Y65.1979 F350.00
G01 X48.3632 Y65.2000 F350.00
G01 X48.2311 Y65.2000 F350.00
G01 X48.2311 Y68.0500 F350.00
G01 X48.2284 Y68.1113 F350.00
G01 X48.2275 Y68.1235 F350.00
G01 X48.2260 Y68.1357 F350.00
G01 X48.2167 Y68.1964 F350.00
G01 X48.2021 Y68.2560 F350.00
G01 X48.1988 Y68.2678 F350.00
G01 X48.1950 Y68.2794 F350.00
G01 X48.1740 Y68.3371 F350.00
G01 X48.1480 Y68.3927 F350.00
G01 X48.1425 Y68.4037 F350.00
G01 X48.1365 Y68.4143 F350.00
G01 X48.1080 Y68.4617 F350.00
G01 X48.0976 Y68.4768 F350.00
G01 X48.0608 Y68.5260 F350.00
G01 X48.0198 Y68.5716 F350.00
G01 X48.0070 Y68.5848 F350.00
G01 X47.9615 Y68.6260 F350.00
G01 X47.9471 Y68.6375 F350.00
G01 X47.9077 Y68.6667 F350.00
G01 X47.8977 Y68.6738 F350.00
G01 X47.8873 Y68.6804 F350.00
G01 X47.8399 Y68.7087 F350.00
G01 X47.8236 Y68.7172 F350.00
G01 X47.7680 Y68.7431 F350.00
G01 X47.7565 Y68.7476 F350.00
G01 X47.6986 Y68.7679 F350.00
G01 X47.6392 Y68.7831 F350.00
G01 X47.6272 Y68.7858 F350.00
G01 X47.5666 Y68.7951 F350.00
G01 X47.5544 Y68.7966 F350.00
G01 X47.5422 Y68.7975 F350.00
G01 X47.4809 Y68.8003 F350.00
G01 X18.2309 Y68.8003 F350.00
G01 X18.1696 Y68.7975 F350.00
G01 X18.1573 Y68.7966 F350.00
G01 X18.1451 Y68.7951 F350.00
G01 X18.0845 Y68.7858 F350.00
G01 X18.0249 Y68.7712 F350.00
G01 X18.0131 Y68.7679 F350.00
G01 X18.0014 Y68.7641 F350.00
G01 X17.9438 Y68.7431 F350.00
G01 X17.8882 Y68.7172 F350.00
G01 X17.8772 Y68.7117 F350.00
G01 X17.8244 Y68.6804 F350.00
G01 X17.8140 Y68.6738 F350.00
G01 X17.7646 Y68.6375 F350.00
G01 X17.7549 Y68.6300 F350.00
G01 X17.7456 Y68.6219 F350.00
G01 X17.7047 Y68.5848 F350.00
G01 X17.6919 Y68.5716 F350.00
G01 X17.6509 Y68.5260 F350.00
G01 X17.6141 Y68.4768 F350.00
G01 X17.6071 Y68.4668 F350.00
G01 X17.6005 Y68.4564 F350.00
G01 X17.5722 Y68.4090 F350.00
G01 X17.5637 Y68.3927 F350.00
G01 X17.5377 Y68.3371 F350.00
G01 X17.5333 Y68.3257 F350.00
G01 X17.5129 Y68.2678 F350.00
G01 X17.4977 Y68.2083 F350.00
G01 X17.4950 Y68.1964 F350.00
G01 X17.4857 Y68.1357 F350.00
G01 X17.4842 Y68.1235 F350.00
G01 X17.4833 Y68.1113 F350.00
G01 X17.4806 Y68.0500 F350.00
G01 X17.4806 Y55.6108 F350.00
G01 X7.2004 Y45.3305 F350.00
G01 X7.1919 Y45.3216 F350.00
G01 X7.1509 Y45.2760 F350.00
G01 X7.1141 Y45.2268 F350.00
G01 X7.1071 Y45.2168 F350.00
G01 X7.1005 Y45.2064 F350.00
G01 X7.0752 Y45.1643 F350.00
G01 X7.0664 Y45.1482 F350.00
G01 X7.0427 Y45.0983 F350.00
G01 X7.0377 Y45.0871 F350.00
G01 X7.0333 Y45.0757 F350.00
G01 X7.0148 Y45.0236 F350.00
G01 X7.0096 Y45.0060 F350.00
G01 X6.9977 Y44.9583 F350.00
G01 X6.9950 Y44.9464 F350.00
G01 X6.9929 Y44.9343 F350.00
G01 X6.9842 Y44.8735 F350.00
G01 X6.9833 Y44.8613 F350.00
G01 X6.9807 Y44.8061 F350.00
G01 X6.9806 Y40.5416 F350.00
G01 X6.9699 Y40.5368 F350.00
G01 X6.8369 Y40.4739 F350.00
G01 X6.8259 Y40.4684 F350.00
G01 X6.8152 Y40.4623 F350.00
G01 X6.6890 Y40.3866 F350.00
G01 X6.6786 Y40.3801 F350.00
G01 X6.6686 Y40.3730 F350.00
G01 X6.5503 Y40.2853 F350.00
G01 X6.5407 Y40.2778 F350.00
G01 X6.5314 Y40.2698 F350.00
G01 X6.4223 Y40.1709 F350.00
G01 X6.4134 Y40.1624 F350.00
G01 X6.4050 Y40.1535 F350.00
G01 X6.3061 Y40.0445 F350.00
G01 X6.2981 Y40.0352 F350.00
G01 X6.2905 Y40.0255 F350.00
G01 X6.2029 Y39.9073 F350.00
G01 X6.1958 Y39.8972 F350.00
G01 X6.1892 Y39.8869 F350.00
G01 X6.1135 Y39.7606 F350.00
G01 X6.1075 Y39.7499 F350.00
G01 X6.1020 Y39.7390 F350.00
G01 X6.0390 Y39.6059 F350.00
G01 X6.0341 Y39.5947 F350.00
G01 X6.0297 Y39.5832 F350.00
G01 X5.9801 Y39.4446 F350.00
G01 X5.9762 Y39.4330 F350.00
G01 X5.9729 Y39.4212 F350.00
G01 X5.9372 Y39.2784 F350.00
G01 X5.9345 Y39.2664 F350.00
G01 X5.9324 Y39.2543 F350.00
G01 X5.9108 Y39.1087 F350.00
G01 X5.9093 Y39.0965 F350.00
G01 X5.9084 Y39.0843 F350.00
G01 X5.9012 Y38.9373 F350.00
G01 X5.9009 Y38.9250 F350.00
G01 X5.9012 Y38.9127 F350.00
G01 X5.9084 Y38.7657 F350.00
G01 X5.9100 Y38.7474 F350.00
G01 X5.9129 Y38.7268 F350.00
G01 X2.5192 Y35.3330 F350.00
G01 X2.4656 Y35.2739 F350.00
G01 X2.4576 Y35.2646 F350.00
G01 X2.4500 Y35.2550 F350.00
G01 X2.4061 Y35.1958 F350.00
G01 X2.3991 Y35.1858 F350.00
G01 X2.3925 Y35.1754 F350.00
G01 X2.3547 Y35.1123 F350.00
G01 X2.3486 Y35.1016 F350.00
G01 X2.3431 Y35.0906 F350.00
G01 X2.3116 Y35.0240 F350.00
G01 X2.3066 Y35.0128 F350.00
G01 X2.3022 Y35.0014 F350.00
G01 X2.2774 Y34.9320 F350.00
G01 X2.2736 Y34.9204 F350.00
G01 X2.2703 Y34.9086 F350.00
G01 X2.2524 Y34.8371 F350.00
G01 X2.2497 Y34.8252 F350.00
G01 X2.2476 Y34.8131 F350.00
G01 X2.2368 Y34.7402 F350.00
G01 X2.2353 Y34.7281 F350.00
G01 X2.2344 Y34.7158 F350.00
G01 X2.2308 Y34.6423 F350.00
G01 X2.2305 Y34.6300 F350.00
G01 X2.2305 Y29.0950 F350.00
G01 X2.2308 Y29.0827 F350.00
G01 X2.2344 Y29.0092 F350.00
G01 X2.2353 Y28.9969 F350.00
G01 X2.2368 Y28.9848 F350.00
G01 X2.2476 Y28.9119 F350.00
G01 X2.2497 Y28.8998 F350.00
G01 X2.2524 Y28.8879 F350.00
G01 X2.2703 Y28.8164 F350.00
G01 X2.2736 Y28.8046 F350.00
G01 X2.2774 Y28.7930 F350.00
G01 X2.3022 Y28.7236 F350.00
G01 X2.3066 Y28.7122 F350.00
G01 X2.3116 Y28.7010 F350.00
G01 X2.3431 Y28.6344 F350.00
G01 X2.3486 Y28.6234 F350.00
G01 X2.3547 Y28.6127 F350.00
G01 X2.3925 Y28.5496 F350.00
G01 X2.3991 Y28.5392 F350.00
G01 X2.4061 Y28.5292 F350.00
G01 X2.4500 Y28.4700 F350.00
G01 X2.4576 Y28.4604 F350.00
G01 X2.4656 Y28.4511 F350.00
G01 X2.5192 Y28.3920 F350.00
G01 X5.9210 Y24.9901 F350.00
G01 X5.9108 Y24.9212 F350.00
G01 X5.9088 Y24.9029 F350.00
G01 X5.9012 Y24.7498 F350.00
G01 X5.9009 Y24.7314 F350.00
G01 X5.9084 Y24.5782 F350.00
G01 X5.9093 Y24.5660 F350.00
G01 X5.9108 Y24.5538 F350.00
G01 X5.9324 Y24.4082 F350.00
G01 X5.9345 Y24.3961 F350.00
G01 X5.9385 Y24.3787 F350.00
G01 X3.0192 Y21.4580 F350.00
G01 X2.9656 Y21.3989 F350.00
G01 X2.9576 Y21.3896 F350.00
G01 X2.9500 Y21.3800 F350.00
G01 X2.9061 Y21.3208 F350.00
G01 X2.8991 Y21.3108 F350.00
G01 X2.8925 Y21.3004 F350.00
G01 X2.8547 Y21.2373 F350.00
G01 X2.8486 Y21.2266 F350.00
G01 X2.8431 Y21.2156 F350.00
G01 X2.8116 Y21.1490 F350.00
G01 X2.8066 Y21.1378 F350.00
G01 X2.8022 Y21.1264 F350.00
G01 X2.7774 Y21.0570 F350.00
G01 X2.7736 Y21.0454 F350.00
G01 X2.7703 Y21.0336 F350.00
G01 X2.7524 Y20.9621 F350.00
G01 X2.7497 Y20.9502 F350.00
G01 X2.7476 Y20.9381 F350.00
G01 X2.7368 Y20.8652 F350.00
G01 X2.7353 Y20.8531 F350.00
G01 X2.7344 Y20.8408 F350.00
G01 X2.7308 Y20.7673 F350.00
G01 X2.7305 Y20.7550 F350.00
G01 X2.7305 Y14.2200 F350.00
G01 X2.7308 Y14.2077 F350.00
G01 X2.7344 Y14.1342 F350.00
G01 X2.7353 Y14.1219 F350.00
G01 X2.7368 Y14.1098 F350.00
G01 X2.7476 Y14.0369 F350.00
G01 X2.7497 Y14.0248 F350.00
G01 X2.7524 Y14.0129 F350.00
G01 X2.7703 Y13.9414 F350.00
G01 X2.7736 Y13.9296 F350.00
G01 X2.7774 Y13.9180 F350.00
G01 X2.8022 Y13.8486 F350.00
G01 X2.8066 Y13.8372 F350.00
G01 X2.8116 Y13.8260 F350.00
G01 X2.8431 Y13.7594 F350.00
G01 X2.8486 Y13.7484 F350.00
G01 X2.8547 Y13.7377 F350.00
G01 X2.8925 Y13.6746 F350.00
G01 X2.8991 Y13.6642 F350.00
G01 X2.9061 Y13.6542 F350.00
G01 X2.9500 Y13.5950 F350.00
G01 X2.9576 Y13.5854 F350.00
G01 X2.9656 Y13.5761 F350.00
G01 X3.0150 Y13.5215 F350.00
G01 X3.0235 Y13.5126 F350.00
G01 X5.9210 Y10.6151 F350.00
G00 Z0.5000
G00 X8.6944 Y17.9254
G01 F250.00
G01 Z-0.0500
G01 F350.00
G01 X8.6831 Y17.9420 F350.00
G01 X8.6247 Y18.0208 F350.00
G01 X8.6171 Y18.0305 F350.00
G01 X8.6091 Y18.0398 F350.00
G01 X8.5432 Y18.1125 F350.00
G01 X8.5347 Y18.1214 F350.00
G01 X8.5259 Y18.1298 F350.00
G01 X8.4531 Y18.1957 F350.00
G01 X8.4439 Y18.2038 F350.00
G01 X8.4342 Y18.2113 F350.00
G01 X8.3554 Y18.2698 F350.00
G01 X8.3453 Y18.2768 F350.00
G01 X8.3350 Y18.2834 F350.00
G01 X8.2508 Y18.3339 F350.00
G01 X8.2401 Y18.3399 F350.00
G01 X8.2291 Y18.3454 F350.00
G01 X8.1404 Y18.3874 F350.00
G01 X8.1292 Y18.3923 F350.00
G01 X8.1178 Y18.3968 F350.00
G01 X8.0254 Y18.4298 F350.00
G01 X8.0137 Y18.4337 F350.00
G01 X8.0019 Y18.4369 F350.00
G01 X7.9067 Y18.4608 F350.00
G01 X7.8947 Y18.4635 F350.00
G01 X7.8826 Y18.4656 F350.00
G01 X7.7856 Y18.4800 F350.00
G01 X7.7734 Y18.4815 F350.00
G01 X7.7611 Y18.4824 F350.00
G01 X7.6631 Y18.4872 F350.00
G01 X7.6509 Y18.4875 F350.00
G01 X7.6386 Y18.4872 F350.00
G01 X7.5406 Y18.4824 F350.00
G01 X7.5283 Y18.4815 F350.00
G01 X7.5162 Y18.4800 F350.00
G01 X7.4191 Y18.4656 F350.00
G01 X7.4070 Y18.4635 F350.00
G01 X7.3950 Y18.4608 F350.00
G01 X7.2998 Y18.4369 F350.00
G01 X7.2880 Y18.4337 F350.00
G01 X7.2764 Y18.4298 F350.00
G01 X7.1840 Y18.3968 F350.00
G01 X7.1725 Y18.3923 F350.00
G01 X7.1613 Y18.3874 F350.00
G01 X7.0726 Y18.3454 F350.00
G01 X7.0616 Y18.3399 F350.00
G01 X7.0509 Y18.3339 F350.00
G01 X6.9668 Y18.2834 F350.00
G01 X6.9564 Y18.2768 F350.00
G01 X6.9464 Y18.2698 F350.00
G01 X6.8675 Y18.2113 F350.00
G01 X6.8579 Y18.2038 F350.00
G01 X6.8486 Y18.1957 F350.00
G01 X6.7759 Y18.1298 F350.00
G01 X6.7670 Y18.1214 F350.00
G01 X6.7585 Y18.1125 F350.00
G01 X6.6926 Y18.0398 F350.00
G01 X6.6846 Y18.0305 F350.00
G01 X6.6770 Y18.0208 F350.00
G01 X6.6186 Y17.9420 F350.00
G01 X6.6082 Y17.9268 F350.00
G01 X6.5545 Y17.8374 F350.00
G01 X6.5485 Y17.8267 F350.00
G01 X6.5429 Y17.8158 F350.00
G01 X6.5010 Y17.7271 F350.00
G01 X6.4960 Y17.7159 F350.00
G01 X6.4916 Y17.7044 F350.00
G01 X6.4585 Y17.6120 F350.00
G01 X6.4547 Y17.6004 F350.00
G01 X6.4514 Y17.5885 F350.00
G01 X6.4276 Y17.4933 F350.00
G01 X6.4249 Y17.4814 F350.00
G01 X6.4228 Y17.4693 F350.00
G01 X6.4084 Y17.3722 F350.00
G01 X6.4069 Y17.3600 F350.00
G01 X6.4060 Y17.3478 F350.00
G01 X6.4012 Y17.2498 F350.00
G01 X6.4009 Y17.2375 F350.00
G01 X6.4009 Y16.2375 F350.00
G01 X6.4012 Y16.2252 F350.00
G01 X6.4060 Y16.1272 F350.00
G01 X6.4076 Y16.1089 F350.00
G01 X6.4228 Y16.0057 F350.00
G01 X6.4249 Y15.9936 F350.00
G01 X6.4276 Y15.9817 F350.00
G01 X6.4514 Y15.8865 F350.00
G01 X6.4547 Y15.8746 F350.00
G01 X6.4585 Y15.8630 F350.00
G01 X6.4916 Y15.7706 F350.00
G01 X6.4960 Y15.7591 F350.00
G01 X6.5010 Y15.7479 F350.00
G01 X6.5429 Y15.6592 F350.00
G01 X6.5485 Y15.6483 F350.00
G01 X6.5545 Y15.6376 F350.00
G01 X6.6050 Y15.5534 F350.00
G01 X6.6115 Y15.5430 F350.00
G01 X6.6186 Y15.5330 F350.00
G01 X6.6770 Y15.4542 F350.00
G01 X6.6846 Y15.4445 F350.00
G01 X6.6926 Y15.4352 F350.00
G01 X6.7585 Y15.3625 F350.00
G01 X6.7670 Y15.3536 F350.00
G01 X6.7759 Y15.3452 F350.00
G01 X6.8486 Y15.2793 F350.00
G01 X6.8579 Y15.2712 F350.00
G01 X6.8675 Y15.2637 F350.00
G01 X6.9464 Y15.2052 F350.00
G01 X6.9615 Y15.1948 F350.00
G01 X7.0509 Y15.1411 F350.00
G01 X7.0616 Y15.1351 F350.00
G01 X7.0726 Y15.1296 F350.00
G01 X7.1613 Y15.0876 F350.00
G01 X7.1725 Y15.0827 F350.00
G01 X7.1840 Y15.0782 F350.00
G01 X7.2764 Y15.0452 F350.00
G01 X7.2880 Y15.0413 F350.00
G01 X7.2998 Y15.0381 F350.00
G01 X7.3950 Y15.0142 F350.00
G01 X7.4070 Y15.0115 F350.00
G01 X7.4191 Y15.0094 F350.00
G01 X7.5162 Y14.9950 F350.00
G01 X7.5283 Y14.9935 F350.00
G01 X7.5406 Y14.9926 F350.00
G01 X7.6386 Y14.9878 F350.00
G01 X7.6509 Y14.9875 F350.00
G01 X7.6631 Y14.9878 F350.00
G01 X7.7611 Y14.9926 F350.00
G01 X7.7734 Y14.9935 F350.00
G01 X7.7856 Y14.9950 F350.00
G01 X7.8826 Y15.0094 F350.00
G01 X7.8947 Y15.0115 F350.00
G01 X7.9067 Y15.0142 F350.00
G01 X8.0019 Y15.0381 F350.00
G01 X8.0137 Y15.0413 F350.00
G01 X8.0254 Y15.0452 F350.00
G01 X8.1235 Y15.0804 F350.00
G01 X8.1404 Y15.0876 F350.00
G01 X8.2291 Y15.1296 F350.00
G01 X8.2401 Y15.1351 F350.00
G01 X8.2508 Y15.1411 F350.00
G01 X8.3350 Y15.1916 F350.00
G01 X8.3453 Y15.1982 F350.00
G01 X8.3554 Y15.2052 F350.00
G01 X8.4342 Y15.2637 F350.00
G01 X8.4439 Y15.2712 F350.00
G01 X8.4531 Y15.2793 F350.00
G01 X8.5259 Y15.3452 F350.00
G01 X8.5347 Y15.3536 F350.00
G01 X8.5432 Y15.3625 F350.00
G01 X8.6132 Y15.4398 F350.00
G01 X8.6247 Y15.4542 F350.00
G01 X8.6831 Y15.5330 F350.00
G01 X8.6902 Y15.5430 F350.00
G01 X8.6968 Y15.5534 F350.00
G01 X8.7472 Y15.6376 F350.00
G01 X8.7561 Y15.6537 F350.00
G01 X8.8007 Y15.7479 F350.00
G01 X8.8080 Y15.7648 F350.00
G01 X8.8452 Y15.8688 F350.00
G01 X8.8503 Y15.8865 F350.00
G01 X8.8599 Y15.9246 F350.00
G01 X13.7626 Y15.9246 F350.00
G01 X13.7905 Y15.8870 F350.00
G01 X13.8020 Y15.8726 F350.00
G01 X13.9091 Y15.7545 F350.00
G01 X13.9223 Y15.7416 F350.00
G01 X14.0314 Y15.6427 F350.00
G01 X14.0455 Y15.6309 F350.00
G01 X14.1686 Y15.5395 F350.00
G01 X14.1786 Y15.5324 F350.00
G01 X14.1890 Y15.5259 F350.00
G01 X14.3152 Y15.4502 F350.00
G01 X14.3259 Y15.4441 F350.00
G01 X14.3369 Y15.4386 F350.00
G01 X14.4755 Y15.3731 F350.00
G01 X14.4926 Y15.3663 F350.00
G01 X14.6312 Y15.3167 F350.00
G01 X14.6429 Y15.3129 F350.00
G01 X14.6547 Y15.3096 F350.00
G01 X14.7975 Y15.2738 F350.00
G01 X14.8095 Y15.2711 F350.00
G01 X14.8215 Y15.2690 F350.00
G01 X14.9672 Y15.2474 F350.00
G01 X14.9793 Y15.2459 F350.00
G01 X14.9916 Y15.2450 F350.00
G01 X15.1386 Y15.2378 F350.00
G01 X15.1509 Y15.2375 F350.00
G01 X15.1631 Y15.2378 F350.00
G01 X15.2920 Y15.2441 F350.00
G01 X17.4009 Y13.1353 F350.00
G01 X17.4009 Y12.7375 F350.00
G01 X17.4012 Y12.7252 F350.00
G01 X17.4060 Y12.6272 F350.00
G01 X17.4069 Y12.6150 F350.00
G01 X17.4084 Y12.6028 F350.00
G01 X17.4228 Y12.5057 F350.00
G01 X17.4249 Y12.4936 F350.00
G01 X17.4276 Y12.4817 F350.00
G01 X17.4514 Y12.3865 F350.00
G01 X17.4547 Y12.3746 F350.00
G01 X17.4585 Y12.3630 F350.00
G01 X17.4937 Y12.2648 F350.00
G01 X17.5010 Y12.2479 F350.00
G01 X17.5429 Y12.1592 F350.00
G01 X17.5485 Y12.1483 F350.00
G01 X17.5545 Y12.1376 F350.00
G01 X17.6050 Y12.0534 F350.00
G01 X17.6115 Y12.0430 F350.00
G01 X17.6186 Y12.0330 F350.00
G01 X17.6770 Y11.9542 F350.00
G01 X17.6846 Y11.9445 F350.00
G01 X17.6926 Y11.9352 F350.00
G01 X17.7585 Y11.8625 F350.00
G01 X17.7670 Y11.8536 F350.00
G01 X17.7759 Y11.8452 F350.00
G01 X17.8486 Y11.7793 F350.00
G01 X17.8579 Y11.7712 F350.00
G01 X17.8675 Y11.7637 F350.00
G01 X17.9464 Y11.7052 F350.00
G01 X17.9615 Y11.6948 F350.00
G01 X18.0509 Y11.6411 F350.00
G01 X18.0616 Y11.6351 F350.00
G01 X18.0726 Y11.6296 F350.00
G01 X18.1613 Y11.5876 F350.00
G01 X18.1725 Y11.5827 F350.00
G01 X18.1840 Y11.5782 F350.00
G01 X18.2764 Y11.5452 F350.00
G01 X18.2880 Y11.5413 F350.00
G01 X18.2998 Y11.5381 F350.00
G01 X18.3950 Y11.5142 F350.00
G01 X18.4070 Y11.5115 F350.00
G01 X18.4191 Y11.5094 F350.00
G01 X18.5162 Y11.4950 F350.00
G01 X18.5283 Y11.4935 F350.00
G01 X18.5406 Y11.4926 F350.00
G01 X18.6386 Y11.4878 F350.00
G01 X18.6509 Y11.4875 F350.00
G01 X18.6631 Y11.4878 F350.00
G01 X18.7611 Y11.4926 F350.00
G01 X18.7734 Y11.4935 F350.00
G01 X18.7856 Y11.4950 F350.00
G01 X18.8826 Y11.5094 F350.00
G01 X18.8947 Y11.5115 F350.00
G01 X18.9067 Y11.5142 F350.00
G01 X19.0019 Y11.5381 F350.00
G01 X19.0137 Y11.5413 F350.00
G01 X19.0254 Y11.5452 F350.00
G01 X19.1178 Y11.5782 F350.00
G01 X19.1292 Y11.5827 F350.00
G01 X19.1404 Y11.5876 F350.00
G01 X19.2291 Y11.6296 F350.00
G01 X19.2401 Y11.6351 F350.00
G01 X19.2508 Y11.6411 F350.00
G01 X19.3350 Y11.6916 F350.00
G01 X19.3453 Y11.6982 F350.00
G01 X19.3554 Y11.7052 F350.00
G01 X19.4342 Y11.7637 F350.00
G01 X19.4439 Y11.7712 F350.00
G01 X19.4531 Y11.7793 F350.00
G01 X19.5259 Y11.8452 F350.00
G01 X19.5347 Y11.8536 F350.00
G01 X19.5432 Y11.8625 F350.00
G01 X19.6091 Y11.9352 F350.00
G01 X19.6171 Y11.9445 F350.00
G01 X19.6247 Y11.9542 F350.00
G01 X19.6831 Y12.0330 F350.00
G01 X19.6902 Y12.0430 F350.00
G01 X19.6968 Y12.0534 F350.00
G01 X19.7472 Y12.1376 F350.00
G01 X19.7533 Y12.1483 F350.00
G01 X19.7588 Y12.1592 F350.00
G01 X19.8007 Y12.2479 F350.00
G01 X19.8057 Y12.2591 F350.00
G01 X19.8101 Y12.2706 F350.00
G01 X19.8432 Y12.3630 F350.00
G01 X19.8470 Y12.3746 F350.00
G01 X19.8503 Y12.3865 F350.00
G01 X19.8742 Y12.4817 F350.00
G01 X19.8768 Y12.4936 F350.00
G01 X19.8789 Y12.5057 F350.00
G01 X19.8933 Y12.6028 F350.00
G01 X19.8948 Y12.6150 F350.00
G01 X19.8957 Y12.6272 F350.00
G01 X19.9006 Y12.7252 F350.00
G01 X19.9009 Y12.7375 F350.00
G01 X19.9009 Y13.7375 F350.00
G01 X19.9006 Y13.7498 F350.00
G01 X19.8957 Y13.8478 F350.00
G01 X19.8948 Y13.8600 F350.00
G01 X19.8933 Y13.8722 F350.00
G01 X19.8789 Y13.9693 F350.00
G01 X19.8768 Y13.9814 F350.00
G01 X19.8742 Y13.9933 F350.00
G01 X19.8503 Y14.0885 F350.00
G01 X19.8470 Y14.1004 F350.00
G01 X19.8432 Y14.1120 F350.00
G01 X19.8101 Y14.2044 F350.00
G01 X19.8057 Y14.2159 F350.00
G01 X19.8007 Y14.2271 F350.00
G01 X19.7588 Y14.3158 F350.00
G01 X19.7533 Y14.3267 F350.00
G01 X19.7472 Y14.3374 F350.00
G01 X19.6968 Y14.4216 F350.00
G01 X19.6902 Y14.4320 F350.00
G01 X19.6831 Y14.4420 F350.00
G01 X19.6247 Y14.5208 F350.00
G01 X19.6171 Y14.5305 F350.00
G01 X19.6091 Y14.5398 F350.00
G01 X19.5432 Y14.6125 F350.00
G01 X19.5347 Y14.6214 F350.00
G01 X19.5259 Y14.6298 F350.00
G01 X19.4531 Y14.6957 F350.00
G01 X19.4439 Y14.7038 F350.00
G01 X19.4342 Y14.7113 F350.00
G01 X19.3554 Y14.7698 F350.00
G01 X19.3453 Y14.7768 F350.00
G01 X19.3350 Y14.7834 F350.00
G01 X19.2508 Y14.8339 F350.00
G01 X19.2401 Y14.8399 F350.00
G01 X19.2291 Y14.8454 F350.00
G01 X19.1404 Y14.8874 F350.00
G01 X19.1292 Y14.8923 F350.00
G01 X19.1178 Y14.8968 F350.00
G01 X19.0254 Y14.9298 F350.00
G01 X19.0137 Y14.9337 F350.00
G01 X19.0019 Y14.9369 F350.00
G01 X18.9067 Y14.9608 F350.00
G01 X18.8947 Y14.9635 F350.00
G01 X18.8826 Y14.9656 F350.00
G01 X18.7856 Y14.9800 F350.00
G01 X18.7734 Y14.9815 F350.00
G01 X18.7611 Y14.9824 F350.00
G01 X18.6631 Y14.9872 F350.00
G01 X18.6509 Y14.9875 F350.00
G01 X18.6386 Y14.9872 F350.00
G01 X18.5406 Y14.9824 F350.00
G01 X18.5283 Y14.9815 F350.00
G01 X18.5162 Y14.9800 F350.00
G01 X18.4191 Y14.9656 F350.00
G01 X18.4030 Y14.9626 F350.00
G01 X16.8379 Y16.5277 F350.00
G01 X16.8645 Y16.6341 F350.00
G01 X16.8672 Y16.6461 F350.00
G01 X16.8693 Y16.6582 F350.00
G01 X16.8909 Y16.8038 F350.00
G01 X16.8924 Y16.8160 F350.00
G01 X16.8933 Y16.8282 F350.00
G01 X16.9006 Y16.9752 F350.00
G01 X16.9009 Y16.9875 F350.00
G01 X16.9006 Y16.9998 F350.00
G01 X16.8930 Y17.1529 F350.00
G01 X16.8909 Y17.1712 F350.00
G01 X16.8693 Y17.3168 F350.00
G01 X16.8672 Y17.3289 F350.00
G01 X16.8645 Y17.3409 F350.00
G01 X16.8288 Y17.4837 F350.00
G01 X16.8255 Y17.4955 F350.00
G01 X16.8217 Y17.5071 F350.00
G01 X16.7721 Y17.6457 F350.00
G01 X16.7652 Y17.6628 F350.00
G01 X16.6997 Y17.8015 F350.00
G01 X16.6942 Y17.8124 F350.00
G01 X16.6882 Y17.8231 F350.00
G01 X16.6125 Y17.9494 F350.00
G01 X16.6059 Y17.9597 F350.00
G01 X16.5989 Y17.9698 F350.00
G01 X16.5112 Y18.0880 F350.00
G01 X16.5036 Y18.0977 F350.00
G01 X16.4956 Y18.1070 F350.00
G01 X16.3968 Y18.2160 F350.00
G01 X16.3883 Y18.2249 F350.00
G01 X16.3794 Y18.2334 F350.00
G01 X16.2703 Y18.3323 F350.00
G01 X16.2610 Y18.3403 F350.00
G01 X16.2514 Y18.3478 F350.00
G01 X16.1331 Y18.4355 F350.00
G01 X16.1231 Y18.4426 F350.00
G01 X16.1127 Y18.4491 F350.00
G01 X15.9865 Y18.5248 F350.00
G01 X15.9758 Y18.5309 F350.00
G01 X15.9648 Y18.5364 F350.00
G01 X15.8318 Y18.5993 F350.00
G01 X15.8206 Y18.6043 F350.00
G01 X15.8091 Y18.6087 F350.00
G01 X15.6705 Y18.6583 F350.00
G01 X15.6589 Y18.6621 F350.00
G01 X15.6470 Y18.6654 F350.00
G01 X15.5042 Y18.7012 F350.00
G01 X15.4923 Y18.7039 F350.00
G01 X15.4802 Y18.7060 F350.00
G01 X15.3346 Y18.7276 F350.00
G01 X15.3224 Y18.7291 F350.00
G01 X15.3102 Y18.7300 F350.00
G01 X15.1631 Y18.7372 F350.00
G01 X15.1509 Y18.7375 F350.00
G01 X15.1386 Y18.7372 F350.00
G01 X14.9916 Y18.7300 F350.00
G01 X14.9793 Y18.7291 F350.00
G01 X14.9672 Y18.7276 F350.00
G01 X14.8215 Y18.7060 F350.00
G01 X14.8095 Y18.7039 F350.00
G01 X14.7975 Y18.7012 F350.00
G01 X14.6547 Y18.6654 F350.00
G01 X14.6429 Y18.6621 F350.00
G01 X14.6312 Y18.6583 F350.00
G01 X14.4926 Y18.6087 F350.00
G01 X14.4812 Y18.6043 F350.00
G01 X14.4699 Y18.5993 F350.00
G01 X14.3369 Y18.5364 F350.00
G01 X14.3259 Y18.5309 F350.00
G01 X14.3152 Y18.5248 F350.00
G01 X14.1890 Y18.4491 F350.00
G01 X14.1786 Y18.4426 F350.00
G01 X14.1686 Y18.4355 F350.00
G01 X14.0503 Y18.3478 F350.00
G01 X14.0407 Y18.3403 F350.00
G01 X14.0314 Y18.3323 F350.00
G01 X13.9223 Y18.2334 F350.00
G01 X13.9134 Y18.2249 F350.00
G01 X13.9050 Y18.2160 F350.00
G01 X13.8061 Y18.1070 F350.00
G01 X13.7981 Y18.0977 F350.00
G01 X13.7905 Y18.0880 F350.00
G01 X13.7029 Y17.9698 F350.00
G01 X13.6924 Y17.9546 F350.00
G01 X13.6748 Y17.9254 F350.00
G01 X8.6944 Y17.9254 F350.00
G00 Z0.5000
G00 X20.4406 Y14.7358
G01 F250.00
G01 Z-0.0500
G01 F350.00
G01 X20.4075 Y14.7113 F350.00
G01 X20.3932 Y14.6998 F350.00
G01 X20.3159 Y14.6298 F350.00
G01 X20.3027 Y14.6170 F350.00
G01 X20.2326 Y14.5398 F350.00
G01 X20.2246 Y14.5305 F350.00
G01 X20.2170 Y14.5208 F350.00
G01 X20.1586 Y14.4420 F350.00
G01 X20.1482 Y14.4268 F350.00
G01 X20.0945 Y14.3374 F350.00
G01 X20.0885 Y14.3267 F350.00
G01 X20.0829 Y14.3158 F350.00
G01 X20.0410 Y14.2271 F350.00
G01 X20.0360 Y14.2159 F350.00
G01 X20.0316 Y14.2044 F350.00
G01 X19.9985 Y14.1120 F350.00
G01 X19.9947 Y14.1004 F350.00
G01 X19.9914 Y14.0885 F350.00
G01 X19.9676 Y13.9933 F350.00
G01 X19.9638 Y13.9753 F350.00
G01 X19.9484 Y13.8722 F350.00
G01 X19.9469 Y13.8600 F350.00
G01 X19.9460 Y13.8478 F350.00
G01 X19.9409 Y13.7436 F350.00
G01 X19.9409 Y12.7375 F350.00
G01 X19.9412 Y12.7252 F350.00
G01 X19.9460 Y12.6272 F350.00
G01 X19.9469 Y12.6150 F350.00
G01 X19.9484 Y12.6028 F350.00
G01 X19.9628 Y12.5057 F350.00
G01 X19.9649 Y12.4936 F350.00
G01 X19.9676 Y12.4817 F350.00
G01 X19.9914 Y12.3865 F350.00
G01 X19.9947 Y12.3746 F350.00
G01 X19.9985 Y12.3630 F350.00
G01 X20.0337 Y12.2648 F350.00
G01 X20.0410 Y12.2479 F350.00
G01 X20.0829 Y12.1592 F350.00
G01 X20.0885 Y12.1483 F350.00
G01 X20.0945 Y12.1376 F350.00
G01 X20.1450 Y12.0534 F350.00
G01 X20.1515 Y12.0430 F350.00
G01 X20.1586 Y12.0330 F350.00
G01 X20.2170 Y11.9542 F350.00
G01 X20.2246 Y11.9445 F350.00
G01 X20.2326 Y11.9352 F350.00
G01 X20.2985 Y11.8625 F350.00
G01 X20.3070 Y11.8536 F350.00
G01 X20.3159 Y11.8452 F350.00
G01 X20.3886 Y11.7793 F350.00
G01 X20.3979 Y11.7712 F350.00
G01 X20.4075 Y11.7637 F350.00
G01 X20.4864 Y11.7052 F350.00
G01 X20.4964 Y11.6982 F350.00
G01 X20.5068 Y11.6916 F350.00
G01 X20.5909 Y11.6411 F350.00
G01 X20.6016 Y11.6351 F350.00
G01 X20.6126 Y11.6296 F350.00
G01 X20.7013 Y11.5876 F350.00
G01 X20.7125 Y11.5827 F350.00
G01 X20.7240 Y11.5782 F350.00
G01 X20.8164 Y11.5452 F350.00
G01 X20.8280 Y11.5413 F350.00
G01 X20.8398 Y11.5381 F350.00
G01 X20.9350 Y11.5142 F350.00
G01 X20.9470 Y11.5115 F350.00
G01 X20.9591 Y11.5094 F350.00
G01 X21.0562 Y11.4950 F350.00
G01 X21.0683 Y11.4935 F350.00
G01 X21.0806 Y11.4926 F350.00
G01 X21.1786 Y11.4878 F350.00
G01 X21.1909 Y11.4875 F350.00
G01 X21.2031 Y11.4878 F350.00
G01 X21.3011 Y11.4926 F350.00
G01 X21.3134 Y11.4935 F350.00
G01 X21.3256 Y11.4950 F350.00
G01 X21.4226 Y11.5094 F350.00
G01 X21.4347 Y11.5115 F350.00
G01 X21.4467 Y11.5142 F350.00
G01 X21.5419 Y11.5381 F350.00
G01 X21.5537 Y11.5413 F350.00
G01 X21.5654 Y11.5452 F350.00
G01 X21.6635 Y11.5804 F350.00
G01 X21.6804 Y11.5876 F350.00
G01 X21.7691 Y11.6296 F350.00
G01 X21.7801 Y11.6351 F350.00
G01 X21.7908 Y11.6411 F350.00
G01 X21.8750 Y11.6916 F350.00
G01 X21.8853 Y11.6982 F350.00
G01 X21.8954 Y11.7052 F350.00
G01 X21.9742 Y11.7637 F350.00
G01 X21.9839 Y11.7712 F350.00
G01 X21.9931 Y11.7793 F350.00
G01 X22.0659 Y11.8452 F350.00
G01 X22.0747 Y11.8536 F350.00
G01 X22.0832 Y11.8625 F350.00
G01 X22.1491 Y11.9352 F350.00
G01 X22.1571 Y11.9445 F350.00
G01 X22.1647 Y11.9542 F350.00
G01 X22.2231 Y12.0330 F350.00
G01 X22.2302 Y12.0430 F350.00
G01 X22.2368 Y12.0534 F350.00
G01 X22.2872 Y12.1376 F350.00
G01 X22.2933 Y12.1483 F350.00
G01 X22.2988 Y12.1592 F350.00
G01 X22.3407 Y12.2479 F350.00
G01 X22.3457 Y12.2591 F350.00
G01 X22.3501 Y12.2706 F350.00
G01 X22.3832 Y12.3630 F350.00
G01 X22.3870 Y12.3746 F350.00
G01 X22.3903 Y12.3865 F350.00
G01 X22.4142 Y12.4817 F350.00
G01 X22.4168 Y12.4936 F350.00
G01 X22.4189 Y12.5057 F350.00
G01 X22.4333 Y12.6028 F350.00
G01 X22.4348 Y12.6150 F350.00
G01 X22.4357 Y12.6272 F350.00
G01 X22.4408 Y12.7314 F350.00
G01 X22.4408 Y13.7436 F350.00
G01 X22.4357 Y13.8478 F350.00
G01 X22.4348 Y13.8600 F350.00
G01 X22.4333 Y13.8722 F350.00
G01 X22.4189 Y13.9693 F350.00
G01 X22.4168 Y13.9814 F350.00
G01 X22.4142 Y13.9933 F350.00
G01 X22.3903 Y14.0885 F350.00
G01 X22.3870 Y14.1004 F350.00
G01 X22.3832 Y14.1120 F350.00
G01 X22.3501 Y14.2044 F350.00
G01 X22.3457 Y14.2159 F350.00
G01 X22.3407 Y14.2271 F350.00
G01 X22.2988 Y14.3158 F350.00
G01 X22.2933 Y14.3267 F350.00
G01 X22.2872 Y14.3374 F350.00
G01 X22.2335 Y14.4268 F350.00
G01 X22.2231 Y14.4420 F350.00
G01 X22.1647 Y14.5208 F350.00
G01 X22.1571 Y14.5305 F350.00
G01 X22.1491 Y14.5398 F350.00
G01 X22.0790 Y14.6170 F350.00
G01 X22.0659 Y14.6298 F350.00
G01 X21.9885 Y14.6998 F350.00
G01 X21.9742 Y14.7113 F350.00
G01 X21.9411 Y14.7358 F350.00
G01 X21.9411 Y19.1992 F350.00
G01 X23.5416 Y20.7997 F350.00
G01 X30.2309 Y20.7997 F350.00
G01 X30.2431 Y20.8001 F350.00
G01 X30.2983 Y20.8028 F350.00
G01 X30.3166 Y20.8049 F350.00
G01 X30.3651 Y20.8121 F350.00
G01 X30.3772 Y20.8142 F350.00
G01 X30.3892 Y20.8169 F350.00
G01 X30.4486 Y20.8321 F350.00
G01 X30.5065 Y20.8524 F350.00
G01 X30.5180 Y20.8569 F350.00
G01 X30.5292 Y20.8618 F350.00
G01 X30.5845 Y20.8883 F350.00
G01 X30.6373 Y20.9196 F350.00
G01 X30.6477 Y20.9262 F350.00
G01 X30.6577 Y20.9333 F350.00
G01 X30.7068 Y20.9700 F350.00
G01 X30.7525 Y21.0110 F350.00
G01 X30.7614 Y21.0195 F350.00
G01 X30.7698 Y21.0284 F350.00
G01 X30.8108 Y21.0740 F350.00
G01 X30.8476 Y21.1232 F350.00
G01 X30.8547 Y21.1332 F350.00
G01 X30.8612 Y21.1436 F350.00
G01 X30.8925 Y21.1963 F350.00
G01 X30.8980 Y21.2073 F350.00
G01 X30.9240 Y21.2629 F350.00
G01 X30.9284 Y21.2743 F350.00
G01 X30.9488 Y21.3322 F350.00
G01 X30.9640 Y21.3917 F350.00
G01 X30.9667 Y21.4036 F350.00
G01 X30.9760 Y21.4643 F350.00
G01 X30.9775 Y21.4765 F350.00
G01 X30.9784 Y21.4887 F350.00
G01 X30.9811 Y21.5500 F350.00
G01 X30.9811 Y40.7997 F350.00
G01 X35.9809 Y40.7997 F350.00
G01 X35.9931 Y40.8001 F350.00
G01 X36.0483 Y40.8028 F350.00
G01 X36.0666 Y40.8049 F350.00
G01 X36.1151 Y40.8121 F350.00
G01 X36.1272 Y40.8142 F350.00
G01 X36.1392 Y40.8169 F350.00
G01 X36.1986 Y40.8321 F350.00
G01 X36.2565 Y40.8524 F350.00
G01 X36.2680 Y40.8569 F350.00
G01 X36.2792 Y40.8618 F350.00
G01 X36.3345 Y40.8883 F350.00
G01 X36.3873 Y40.9196 F350.00
G01 X36.3977 Y40.9262 F350.00
G01 X36.4077 Y40.9333 F350.00
G01 X36.4568 Y40.9700 F350.00
G01 X36.5025 Y41.0110 F350.00
G01 X36.5114 Y41.0195 F350.00
G01 X36.5198 Y41.0284 F350.00
G01 X36.5608 Y41.0740 F350.00
G01 X36.5976 Y41.1232 F350.00
G01 X36.6047 Y41.1332 F350.00
G01 X36.6112 Y41.1436 F350.00
G01 X36.6425 Y41.1963 F350.00
G01 X36.6480 Y41.2073 F350.00
G01 X36.6716 Y41.2573 F350.00
G01 X36.6784 Y41.2743 F350.00
G01 X36.6988 Y41.3322 F350.00
G01 X36.7140 Y41.3917 F350.00
G01 X36.7167 Y41.4036 F350.00
G01 X36.7260 Y41.4643 F350.00
G01 X36.7275 Y41.4765 F350.00
G01 X36.7284 Y41.4887 F350.00
G01 X36.7311 Y41.5500 F350.00
G01 X36.7284 Y41.6113 F350.00
G01 X36.7275 Y41.6235 F350.00
G01 X36.7260 Y41.6357 F350.00
G01 X36.7167 Y41.6964 F350.00
G01 X36.7021 Y41.7560 F350.00
G01 X36.6988 Y41.7678 F350.00
G01 X36.6950 Y41.7794 F350.00
G01 X36.6740 Y41.8371 F350.00
G01 X36.6480 Y41.8927 F350.00
G01 X36.6411 Y41.9062 F350.00
G01 X36.6411 Y51.3254 F350.00
G01 X36.7419 Y51.3506 F350.00
G01 X36.7537 Y51.3538 F350.00
G01 X36.7654 Y51.3577 F350.00
G01 X36.8578 Y51.3907 F350.00
G01 X36.8692 Y51.3952 F350.00
G01 X36.8804 Y51.4001 F350.00
G01 X36.9691 Y51.4421 F350.00
G01 X36.9801 Y51.4476 F350.00
G01 X36.9908 Y51.4536 F350.00
G01 X37.0750 Y51.5041 F350.00
G01 X37.0853 Y51.5107 F350.00
G01 X37.0954 Y51.5177 F350.00
G01 X37.1742 Y51.5762 F350.00
G01 X37.1839 Y51.5837 F350.00
G01 X37.1931 Y51.5918 F350.00
G01 X37.2659 Y51.6577 F350.00
G01 X37.2747 Y51.6661 F350.00
G01 X37.2832 Y51.6750 F350.00
G01 X37.3491 Y51.7477 F350.00
G01 X37.3571 Y51.7570 F350.00
G01 X37.3647 Y51.7667 F350.00
G01 X37.4231 Y51.8455 F350.00
G01 X37.4302 Y51.8555 F350.00
G01 X37.4368 Y51.8659 F350.00
G01 X37.4872 Y51.9501 F350.00
G01 X37.4933 Y51.9608 F350.00
G01 X37.4988 Y51.9717 F350.00
G01 X37.5407 Y52.0604 F350.00
G01 X37.5457 Y52.0716 F350.00
G01 X37.5501 Y52.0831 F350.00
G01 X37.5832 Y52.1755 F350.00
G01 X37.5870 Y52.1871 F350.00
G01 X37.5903 Y52.1990 F350.00
G01 X37.6142 Y52.2942 F350.00
G01 X37.6168 Y52.3061 F350.00
G01 X37.6189 Y52.3182 F350.00
G01 X37.6333 Y52.4153 F350.00
G01 X37.6348 Y52.4275 F350.00
G01 X37.6357 Y52.4397 F350.00
G01 X37.6408 Y52.5439 F350.00
G01 X37.6406 Y52.5623 F350.00
G01 X37.6357 Y52.6603 F350.00
G01 X37.6348 Y52.6725 F350.00
G01 X37.6333 Y52.6847 F350.00
G01 X37.6189 Y52.7818 F350.00
G01 X37.6168 Y52.7939 F350.00
G01 X37.6142 Y52.8058 F350.00
G01 X37.5903 Y52.9010 F350.00
G01 X37.5870 Y52.9129 F350.00
G01 X37.5832 Y52.9245 F350.00
G01 X37.5501 Y53.0169 F350.00
G01 X37.5457 Y53.0284 F350.00
G01 X37.5407 Y53.0396 F350.00
G01 X37.4988 Y53.1283 F350.00
G01 X37.4933 Y53.1392 F350.00
G01 X37.4872 Y53.1499 F350.00
G01 X37.4368 Y53.2341 F350.00
G01 X37.4302 Y53.2445 F350.00
G01 X37.4231 Y53.2545 F350.00
G01 X37.3647 Y53.3333 F350.00
G01 X37.3571 Y53.3430 F350.00
G01 X37.3491 Y53.3523 F350.00
G01 X37.2832 Y53.4250 F350.00
G01 X37.2747 Y53.4339 F350.00
G01 X37.2659 Y53.4423 F350.00
G01 X37.1931 Y53.5082 F350.00
G01 X37.1839 Y53.5163 F350.00
G01 X37.1742 Y53.5238 F350.00
G01 X37.0954 Y53.5823 F350.00
G01 X37.0853 Y53.5893 F350.00
G01 X37.0750 Y53.5959 F350.00
G01 X36.9908 Y53.6464 F350.00
G01 X36.9801 Y53.6524 F350.00
G01 X36.9691 Y53.6579 F350.00
G01 X36.8804 Y53.6999 F350.00
G01 X36.8692 Y53.7048 F350.00
G01 X36.8578 Y53.7093 F350.00
G01 X36.7654 Y53.7423 F350.00
G01 X36.7537 Y53.7462 F350.00
G01 X36.7419 Y53.7494 F350.00
G01 X36.6467 Y53.7733 F350.00
G01 X36.6347 Y53.7760 F350.00
G01 X36.6226 Y53.7781 F350.00
G01 X36.5256 Y53.7925 F350.00
G01 X36.5134 Y53.7940 F350.00
G01 X36.5011 Y53.7949 F350.00
G01 X36.3970 Y53.7999 F350.00
G01 X35.3909 Y53.8000 F350.00
G01 X35.3786 Y53.7997 F350.00
G01 X35.2806 Y53.7949 F350.00
G01 X35.2683 Y53.7940 F350.00
G01 X35.2562 Y53.7925 F350.00
G01 X35.1591 Y53.7781 F350.00
G01 X35.1470 Y53.7760 F350.00
G01 X35.1350 Y53.7733 F350.00
G01 X35.0398 Y53.7494 F350.00
G01 X35.0222 Y53.7443 F350.00
G01 X34.9240 Y53.7093 F350.00
G01 X34.9125 Y53.7048 F350.00
G01 X34.9013 Y53.6999 F350.00
G01 X34.8126 Y53.6579 F350.00
G01 X34.8016 Y53.6524 F350.00
G01 X34.7909 Y53.6464 F350.00
G01 X34.7068 Y53.5959 F350.00
G01 X34.6964 Y53.5893 F350.00
G01 X34.6864 Y53.5823 F350.00
G01 X34.6075 Y53.5238 F350.00
G01 X34.5979 Y53.5163 F350.00
G01 X34.5886 Y53.5082 F350.00
G01 X34.5159 Y53.4423 F350.00
G01 X34.5070 Y53.4339 F350.00
G01 X34.4985 Y53.4250 F350.00
G01 X34.4326 Y53.3523 F350.00
G01 X34.4246 Y53.3430 F350.00
G01 X34.4170 Y53.3333 F350.00
G01 X34.3586 Y53.2545 F350.00
G01 X34.3515 Y53.2445 F350.00
G01 X34.3450 Y53.2341 F350.00
G01 X34.2945 Y53.1499 F350.00
G01 X34.2885 Y53.1392 F350.00
G01 X34.2829 Y53.1283 F350.00
G01 X34.2410 Y53.0396 F350.00
G01 X34.2360 Y53.0284 F350.00
G01 X34.2316 Y53.0169 F350.00
G01 X34.1985 Y52.9245 F350.00
G01 X34.1947 Y52.9129 F350.00
G01 X34.1914 Y52.9010 F350.00
G01 X34.1676 Y52.8058 F350.00
G01 X34.1649 Y52.7939 F350.00
G01 X34.1628 Y52.7818 F350.00
G01 X34.1484 Y52.6847 F350.00
G01 X34.1469 Y52.6725 F350.00
G01 X34.1460 Y52.6603 F350.00
G01 X34.1412 Y52.5623 F350.00
G01 X34.1409 Y52.5500 F350.00
G01 X34.1412 Y52.5377 F350.00
G01 X34.1460 Y52.4397 F350.00
G01 X34.1469 Y52.4275 F350.00
G01 X34.1484 Y52.4153 F350.00
G01 X34.1628 Y52.3182 F350.00
G01 X34.1649 Y52.3061 F350.00
G01 X34.1676 Y52.2942 F350.00
G01 X34.1914 Y52.1990 F350.00
G01 X34.1947 Y52.1871 F350.00
G01 X34.1985 Y52.1755 F350.00
G01 X34.2316 Y52.0831 F350.00
G01 X34.2360 Y52.0716 F350.00
G01 X34.2410 Y52.0604 F350.00
G01 X34.2829 Y51.9717 F350.00
G01 X34.2885 Y51.9608 F350.00
G01 X34.2945 Y51.9501 F350.00
G01 X34.3450 Y51.8659 F350.00
G01 X34.3515 Y51.8555 F350.00
G01 X34.3586 Y51.8455 F350.00
G01 X34.4170 Y51.7667 F350.00
G01 X34.4246 Y51.7570 F350.00
G01 X34.4326 Y51.7477 F350.00
G01 X34.4985 Y51.6750 F350.00
G01 X34.5070 Y51.6661 F350.00
G01 X34.5159 Y51.6577 F350.00
G01 X34.5886 Y51.5918 F350.00
G01 X34.5979 Y51.5837 F350.00
G01 X34.6075 Y51.5762 F350.00
G01 X34.6864 Y51.5177 F350.00
G01 X34.6964 Y51.5107 F350.00
G01 X34.7068 Y51.5041 F350.00
G01 X34.7909 Y51.4536 F350.00
G01 X34.8016 Y51.4476 F350.00
G01 X34.8126 Y51.4421 F350.00
G01 X34.9013 Y51.4001 F350.00
G01 X34.9125 Y51.3952 F350.00
G01 X34.9240 Y51.3907 F350.00
G01 X35.0164 Y51.3577 F350.00
G01 X35.0280 Y51.3538 F350.00
G01 X35.0398 Y51.3506 F350.00
G01 X35.1406 Y51.3254 F350.00
G01 X35.1406 Y42.3003 F350.00
G01 X30.2309 Y42.3003 F350.00
G01 X30.1696 Y42.2975 F350.00
G01 X30.1573 Y42.2966 F350.00
G01 X30.1451 Y42.2951 F350.00
G01 X30.0845 Y42.2858 F350.00
G01 X30.0249 Y42.2712 F350.00
G01 X30.0131 Y42.2679 F350.00
G01 X30.0014 Y42.2641 F350.00
G01 X29.9438 Y42.2431 F350.00
G01 X29.8882 Y42.2172 F350.00
G01 X29.8772 Y42.2117 F350.00
G01 X29.8244 Y42.1804 F350.00
G01 X29.8140 Y42.1738 F350.00
G01 X29.8040 Y42.1667 F350.00
G01 X29.7597 Y42.1338 F350.00
G01 X29.7456 Y42.1219 F350.00
G01 X29.7004 Y42.0805 F350.00
G01 X29.6919 Y42.0716 F350.00
G01 X29.6509 Y42.0260 F350.00
G01 X29.6141 Y41.9768 F350.00
G01 X29.6071 Y41.9668 F350.00
G01 X29.5752 Y41.9143 F350.00
G01 X29.5692 Y41.9037 F350.00
G01 X29.5637 Y41.8927 F350.00
G01 X29.5427 Y41.8483 F350.00
G01 X29.5354 Y41.8314 F350.00
G01 X29.5168 Y41.7794 F350.00
G01 X29.5129 Y41.7678 F350.00
G01 X29.5096 Y41.7560 F350.00
G01 X29.4963 Y41.7024 F350.00
G01 X29.4929 Y41.6843 F350.00
G01 X29.4842 Y41.6235 F350.00
G01 X29.4833 Y41.6113 F350.00
G01 X29.4806 Y41.5500 F350.00
G01 X29.4806 Y22.3003 F350.00
G01 X23.2247 Y22.3002 F350.00
G01 X23.1696 Y22.2975 F350.00
G01 X23.1573 Y22.2966 F350.00
G01 X23.1451 Y22.2951 F350.00
G01 X23.0845 Y22.2858 F350.00
G01 X23.0249 Y22.2712 F350.00
G01 X23.0131 Y22.2679 F350.00
G01 X22.9552 Y22.2476 F350.00
G01 X22.9381 Y22.2407 F350.00
G01 X22.8882 Y22.2172 F350.00
G01 X22.8772 Y22.2117 F350.00
G01 X22.8665 Y22.2056 F350.00
G01 X22.8140 Y22.1738 F350.00
G01 X22.8040 Y22.1667 F350.00
G01 X22.7549 Y22.1300 F350.00
G01 X22.7092 Y22.0890 F350.00
G01 X22.7004 Y22.0805 F350.00
G01 X20.6561 Y20.0361 F350.00
G01 X20.6149 Y19.9906 F350.00
G01 X20.6034 Y19.9763 F350.00
G01 X20.5671 Y19.9268 F350.00
G01 X20.5352 Y19.8743 F350.00
G01 X20.5292 Y19.8637 F350.00
G01 X20.5237 Y19.8527 F350.00
G01 X20.4977 Y19.7971 F350.00
G01 X20.4933 Y19.7857 F350.00
G01 X20.4729 Y19.7278 F350.00
G01 X20.4577 Y19.6683 F350.00
G01 X20.4550 Y19.6564 F350.00
G01 X20.4457 Y19.5957 F350.00
G01 X20.4442 Y19.5835 F350.00
G01 X20.4433 Y19.5713 F350.00
G01 X20.4406 Y19.5100 F350.00
G01 X20.4406 Y14.7358 F350.00
G00 Z0.5000
G00 X25.7963 Y12.2996
G01 F250.00
G01 Z-0.0500
G01 F350.00
G01 X25.8705 Y12.1995 F350.00
G01 X25.8781 Y12.1898 F350.00
G01 X25.8861 Y12.1805 F350.00
G01 X25.9850 Y12.0715 F350.00
G01 X25.9934 Y12.0626 F350.00
G01 X26.0023 Y12.0541 F350.00
G01 X26.1114 Y11.9552 F350.00
G01 X26.1207 Y11.9472 F350.00
G01 X26.1303 Y11.9397 F350.00
G01 X26.2486 Y11.8520 F350.00
G01 X26.2586 Y11.8449 F350.00
G01 X26.2690 Y11.8384 F350.00
G01 X26.3952 Y11.7627 F350.00
G01 X26.4059 Y11.7566 F350.00
G01 X26.4169 Y11.7511 F350.00
G01 X26.5499 Y11.6882 F350.00
G01 X26.5612 Y11.6832 F350.00
G01 X26.5726 Y11.6788 F350.00
G01 X26.7112 Y11.6292 F350.00
G01 X26.7229 Y11.6254 F350.00
G01 X26.7347 Y11.6221 F350.00
G01 X26.8775 Y11.5863 F350.00
G01 X26.8895 Y11.5836 F350.00
G01 X26.9015 Y11.5815 F350.00
G01 X27.0472 Y11.5599 F350.00
G01 X27.0593 Y11.5584 F350.00
G01 X27.0716 Y11.5575 F350.00
G01 X27.2186 Y11.5503 F350.00
G01 X27.2309 Y11.5500 F350.00
G01 X27.2431 Y11.5503 F350.00
G01 X27.3902 Y11.5575 F350.00
G01 X27.4024 Y11.5584 F350.00
G01 X27.4146 Y11.5599 F350.00
G01 X27.5602 Y11.5815 F350.00
G01 X27.5723 Y11.5836 F350.00
G01 X27.5842 Y11.5863 F350.00
G01 X27.7270 Y11.6221 F350.00
G01 X27.7389 Y11.6254 F350.00
G01 X27.7505 Y11.6292 F350.00
G01 X27.8891 Y11.6788 F350.00
G01 X27.9006 Y11.6832 F350.00
G01 X27.9118 Y11.6882 F350.00
G01 X28.0448 Y11.7511 F350.00
G01 X28.0558 Y11.7566 F350.00
G01 X28.0665 Y11.7627 F350.00
G01 X28.1927 Y11.8384 F350.00
G01 X28.2031 Y11.8449 F350.00
G01 X28.2131 Y11.8520 F350.00
G01 X28.3314 Y11.9397 F350.00
G01 X28.3410 Y11.9472 F350.00
G01 X28.3503 Y11.9552 F350.00
G01 X28.4594 Y12.0541 F350.00
G01 X28.4683 Y12.0626 F350.00
G01 X28.4768 Y12.0715 F350.00
G01 X28.5756 Y12.1805 F350.00
G01 X28.5836 Y12.1898 F350.00
G01 X28.5912 Y12.1995 F350.00
G01 X28.6789 Y12.3177 F350.00
G01 X28.6859 Y12.3278 F350.00
G01 X28.6925 Y12.3381 F350.00
G01 X28.7682 Y12.4644 F350.00
G01 X28.7742 Y12.4751 F350.00
G01 X28.7797 Y12.4860 F350.00
G01 X28.8427 Y12.6191 F350.00
G01 X28.8477 Y12.6303 F350.00
G01 X28.8521 Y12.6418 F350.00
G01 X28.9017 Y12.7804 F350.00
G01 X28.9055 Y12.7920 F350.00
G01 X28.9088 Y12.8038 F350.00
G01 X28.9445 Y12.9466 F350.00
G01 X28.9472 Y12.9586 F350.00
G01 X28.9493 Y12.9707 F350.00
G01 X28.9709 Y13.1163 F350.00
G01 X28.9724 Y13.1285 F350.00
G01 X28.9733 Y13.1407 F350.00
G01 X28.9806 Y13.2877 F350.00
G01 X28.9809 Y13.3000 F350.00
G01 X28.9806 Y13.3123 F350.00
G01 X28.9733 Y13.4593 F350.00
G01 X28.9724 Y13.4715 F350.00
G01 X28.9709 Y13.4837 F350.00
G01 X28.9493 Y13.6293 F350.00
G01 X28.9472 Y13.6414 F350.00
G01 X28.9445 Y13.6534 F350.00
G01 X28.9088 Y13.7962 F350.00
G01 X28.9055 Y13.8080 F350.00
G01 X28.9017 Y13.8196 F350.00
G01 X28.8521 Y13.9582 F350.00
G01 X28.8477 Y13.9697 F350.00
G01 X28.8427 Y13.9809 F350.00
G01 X28.7797 Y14.1140 F350.00
G01 X28.7742 Y14.1249 F350.00
G01 X28.7682 Y14.1356 F350.00
G01 X28.6925 Y14.2619 F350.00
G01 X28.6859 Y14.2722 F350.00
G01 X28.6789 Y14.2823 F350.00
G01 X28.5912 Y14.4005 F350.00
G01 X28.5836 Y14.4102 F350.00
G01 X28.5756 Y14.4195 F350.00
G01 X28.4768 Y14.5285 F350.00
G01 X28.4683 Y14.5374 F350.00
G01 X28.4594 Y14.5459 F350.00
G01 X28.3503 Y14.6448 F350.00
G01 X28.3410 Y14.6528 F350.00
G01 X28.3314 Y14.6603 F350.00
G01 X28.2131 Y14.7480 F350.00
G01 X28.2031 Y14.7551 F350.00
G01 X28.1927 Y14.7616 F350.00
G01 X28.0665 Y14.8373 F350.00
G01 X28.0558 Y14.8434 F350.00
G01 X28.0448 Y14.8489 F350.00
G01 X27.9118 Y14.9118 F350.00
G01 X27.9006 Y14.9168 F350.00
G01 X27.8891 Y14.9212 F350.00
G01 X27.7505 Y14.9708 F350.00
G01 X27.7389 Y14.9746 F350.00
G01 X27.7270 Y14.9779 F350.00
G01 X27.5842 Y15.0137 F350.00
G01 X27.5723 Y15.0164 F350.00
G01 X27.5602 Y15.0185 F350.00
G01 X27.4146 Y15.0401 F350.00
G01 X27.4024 Y15.0416 F350.00
G01 X27.3902 Y15.0425 F350.00
G01 X27.2431 Y15.0497 F350.00
G01 X27.2309 Y15.0500 F350.00
G01 X27.2186 Y15.0497 F350.00
G01 X27.0716 Y15.0425 F350.00
G01 X27.0593 Y15.0416 F350.00
G01 X27.0472 Y15.0401 F350.00
G01 X26.9015 Y15.0185 F350.00
G01 X26.8895 Y15.0164 F350.00
G01 X26.8775 Y15.0137 F350.00
G01 X26.7347 Y14.9779 F350.00
G01 X26.7229 Y14.9746 F350.00
G01 X26.7112 Y14.9708 F350.00
G01 X26.5726 Y14.9212 F350.00
G01 X26.5612 Y14.9168 F350.00
G01 X26.5499 Y14.9118 F350.00
G01 X26.4169 Y14.8489 F350.00
G01 X26.4059 Y14.8434 F350.00
G01 X26.3952 Y14.8373 F350.00
G01 X26.2690 Y14.7616 F350.00
G01 X26.2586 Y14.7551 F350.00
G01 X26.2486 Y14.7480 F350.00
G01 X26.1303 Y14.6603 F350.00
G01 X26.1207 Y14.6528 F350.00
G01 X26.1114 Y14.6448 F350.00
G01 X26.0023 Y14.5459 F350.00
G01 X25.9934 Y14.5374 F350.00
G01 X25.9850 Y14.5285 F350.00
G01 X25.8861 Y14.4195 F350.00
G01 X25.8781 Y14.4102 F350.00
G01 X25.8705 Y14.4005 F350.00
G01 X25.7963 Y14.3004 F350.00
G01 X24.9809 Y14.3004 F350.00
G01 X24.9808 Y14.7436 F350.00
G01 X24.9797 Y14.7620 F350.00
G01 X24.9772 Y14.7802 F350.00
G01 X24.9748 Y14.7923 F350.00
G01 X24.9701 Y14.8101 F350.00
G01 X24.9641 Y14.8275 F350.00
G01 X24.9569 Y14.8444 F350.00
G01 X24.9484 Y14.8607 F350.00
G01 X24.9421 Y14.8712 F350.00
G01 X24.9317 Y14.8864 F350.00
G01 X24.9202 Y14.9008 F350.00
G01 X24.9119 Y14.9099 F350.00
G01 X24.8988 Y14.9227 F350.00
G01 X24.8847 Y14.9346 F350.00
G01 X24.8698 Y14.9454 F350.00
G01 X24.8541 Y14.9550 F350.00
G01 X24.8377 Y14.9635 F350.00
G01 X24.8208 Y14.9707 F350.00
G01 X24.8034 Y14.9767 F350.00
G01 X24.7916 Y14.9800 F350.00
G01 X24.7736 Y14.9838 F350.00
G01 X24.7615 Y14.9856 F350.00
G01 X24.7493 Y14.9868 F350.00
G01 X24.7309 Y14.9875 F350.00
G01 X22.7309 Y14.9875 F350.00
G01 X22.7186 Y14.9872 F350.00
G01 X22.7064 Y14.9863 F350.00
G01 X22.6942 Y14.9848 F350.00
G01 X22.6761 Y14.9814 F350.00
G01 X22.6642 Y14.9784 F350.00
G01 X22.6524 Y14.9749 F350.00
G01 X22.6409 Y14.9707 F350.00
G01 X22.6296 Y14.9661 F350.00
G01 X22.6130 Y14.9580 F350.00
G01 X22.6023 Y14.9519 F350.00
G01 X22.5920 Y14.9454 F350.00
G01 X22.5771 Y14.9346 F350.00
G01 X22.5676 Y14.9268 F350.00
G01 X22.5585 Y14.9186 F350.00
G01 X22.5498 Y14.9099 F350.00
G01 X22.5416 Y14.9008 F350.00
G01 X22.5338 Y14.8913 F350.00
G01 X22.5230 Y14.8764 F350.00
G01 X22.5133 Y14.8607 F350.00
G01 X22.5049 Y14.8444 F350.00
G01 X22.4999 Y14.8332 F350.00
G01 X22.4955 Y14.8217 F350.00
G01 X22.4899 Y14.8042 F350.00
G01 X22.4869 Y14.7923 F350.00
G01 X22.4845 Y14.7802 F350.00
G01 X22.4821 Y14.7620 F350.00
G01 X22.4809 Y14.7436 F350.00
G01 X22.4809 Y11.7314 F350.00
G01 X22.4815 Y11.7191 F350.00
G01 X22.4827 Y11.7069 F350.00
G01 X22.4857 Y11.6887 F350.00
G01 X22.4884 Y11.6768 F350.00
G01 X22.4916 Y11.6649 F350.00
G01 X22.4955 Y11.6533 F350.00
G01 X22.5023 Y11.6362 F350.00
G01 X22.5076 Y11.6251 F350.00
G01 X22.5164 Y11.6090 F350.00
G01 X22.5230 Y11.5986 F350.00
G01 X22.5301 Y11.5886 F350.00
G01 X22.5376 Y11.5789 F350.00
G01 X22.5456 Y11.5696 F350.00
G01 X22.5541 Y11.5607 F350.00
G01 X22.5630 Y11.5523 F350.00
G01 X22.5771 Y11.5404 F350.00
G01 X22.5920 Y11.5296 F350.00
G01 X22.6076 Y11.5200 F350.00
G01 X22.6240 Y11.5115 F350.00
G01 X22.6352 Y11.5065 F350.00
G01 X22.6466 Y11.5021 F350.00
G01 X22.6642 Y11.4966 F350.00
G01 X22.6761 Y11.4936 F350.00
G01 X22.6881 Y11.4912 F350.00
G01 X22.7064 Y11.4887 F350.00
G01 X22.7247 Y11.4876 F350.00
G01 X24.7309 Y11.4875 F350.00
G01 X24.7431 Y11.4878 F350.00
G01 X24.7615 Y11.4894 F350.00
G01 X24.7736 Y11.4912 F350.00
G01 X24.7856 Y11.4936 F350.00
G01 X24.8034 Y11.4983 F350.00
G01 X24.8208 Y11.5043 F350.00
G01 X24.8377 Y11.5115 F350.00
G01 X24.8487 Y11.5170 F350.00
G01 X24.8594 Y11.5231 F350.00
G01 X24.8748 Y11.5331 F350.00
G01 X24.8895 Y11.5442 F350.00
G01 X24.9032 Y11.5564 F350.00
G01 X24.9119 Y11.5651 F350.00
G01 X24.9241 Y11.5789 F350.00
G01 X24.9353 Y11.5935 F350.00
G01 X24.9453 Y11.6090 F350.00
G01 X24.9542 Y11.6251 F350.00
G01 X24.9618 Y11.6418 F350.00
G01 X24.9682 Y11.6591 F350.00
G01 X24.9734 Y11.6768 F350.00
G01 X24.9761 Y11.6887 F350.00
G01 X24.9790 Y11.7069 F350.00
G01 X24.9806 Y11.7252 F350.00
G01 X24.9809 Y11.7375 F350.00
G01 X24.9809 Y12.2996 F350.00
G01 X25.7963 Y12.2996 F350.00
G00 Z0.5000
G00 X25.7963 Y-1.9504
G01 F250.00
G01 Z-0.0500
G01 F350.00
G01 X25.8705 Y-2.0505 F350.00
G01 X25.8781 Y-2.0602 F350.00
G01 X25.8861 Y-2.0695 F350.00
G01 X25.9850 Y-2.1785 F350.00
G01 X25.9934 Y-2.1874 F350.00
G01 X26.0023 Y-2.1959 F350.00
G01 X26.1114 Y-2.2948 F350.00
G01 X26.1207 Y-2.3028 F350.00
G01 X26.1303 Y-2.3103 F350.00
G01 X26.2486 Y-2.3980 F350.00
G01 X26.2586 Y-2.4051 F350.00
G01 X26.2690 Y-2.4116 F350.00
G01 X26.3952 Y-2.4873 F350.00
G01 X26.4059 Y-2.4934 F350.00
G01 X26.4169 Y-2.4989 F350.00
G01 X26.5499 Y-2.5618 F350.00
G01 X26.5612 Y-2.5668 F350.00
G01 X26.5726 Y-2.5712 F350.00
G01 X26.7112 Y-2.6208 F350.00
G01 X26.7229 Y-2.6246 F350.00
G01 X26.7347 Y-2.6279 F350.00
G01 X26.8775 Y-2.6637 F350.00
G01 X26.8895 Y-2.6664 F350.00
G01 X26.9015 Y-2.6685 F350.00
G01 X27.0472 Y-2.6901 F350.00
G01 X27.0593 Y-2.6916 F350.00
G01 X27.0716 Y-2.6925 F350.00
G01 X27.2186 Y-2.6997 F350.00
G01 X27.2309 Y-2.7000 F350.00
G01 X27.2431 Y-2.6997 F350.00
G01 X27.3902 Y-2.6925 F350.00
G01 X27.4024 Y-2.6916 F350.00
G01 X27.4146 Y-2.6901 F350.00
G01 X27.5602 Y-2.6685 F350.00
G01 X27.5723 Y-2.6664 F350.00
G01 X27.5842 Y-2.6637 F350.00
G01 X27.7270 Y-2.6279 F350.00
G01 X27.7389 Y-2.6246 F350.00
G01 X27.7505 Y-2.6208 F350.00
G01 X27.8891 Y-2.5712 F350.00
G01 X27.9006 Y-2.5668 F350.00
G01 X27.9118 Y-2.5618 F350.00
G01 X28.0448 Y-2.4989 F350.00
G01 X28.0558 Y-2.4934 F350.00
G01 X28.0665 Y-2.4873 F350.00
G01 X28.1927 Y-2.4116 F350.00
G01 X28.2031 Y-2.4051 F350.00
G01 X28.2131 Y-2.3980 F350.00
G01 X28.3314 Y-2.3103 F350.00
G01 X28.3410 Y-2.3028 F350.00
G01 X28.3503 Y-2.2948 F350.00
G01 X28.4594 Y-2.1959 F350.00
G01 X28.4683 Y-2.1874 F350.00
G01 X28.4768 Y-2.1785 F350.00
G01 X28.5756 Y-2.0695 F350.00
G01 X28.5836 Y-2.0602 F350.00
G01 X28.5912 Y-2.0505 F350.00
G01 X28.6789 Y-1.9323 F350.00
G01 X28.6859 Y-1.9222 F350.00
G01 X28.6925 Y-1.9119 F350.00
G01 X28.7682 Y-1.7856 F350.00
G01 X28.7742 Y-1.7749 F350.00
G01 X28.7797 Y-1.7640 F350.00
G01 X28.8427 Y-1.6309 F350.00
G01 X28.8477 Y-1.6197 F350.00
G01 X28.8521 Y-1.6082 F350.00
G01 X28.9017 Y-1.4696 F350.00
G01 X28.9055 Y-1.4580 F350.00
G01 X28.9088 Y-1.4462 F350.00
G01 X28.9445 Y-1.3034 F350.00
G01 X28.9472 Y-1.2914 F350.00
G01 X28.9493 Y-1.2793 F350.00
G01 X28.9709 Y-1.1337 F350.00
G01 X28.9724 Y-1.1215 F350.00
G01 X28.9733 Y-1.1093 F350.00
G01 X28.9806 Y-0.9623 F350.00
G01 X28.9809 Y-0.9500 F350.00
G01 X28.9806 Y-0.9377 F350.00
G01 X28.9733 Y-0.7907 F350.00
G01 X28.9724 Y-0.7785 F350.00
G01 X28.9709 Y-0.7663 F350.00
G01 X28.9493 Y-0.6207 F350.00
G01 X28.9472 Y-0.6086 F350.00
G01 X28.9445 Y-0.5966 F350.00
G01 X28.9088 Y-0.4538 F350.00
G01 X28.9055 Y-0.4420 F350.00
G01 X28.9017 Y-0.4304 F350.00
G01 X28.8521 Y-0.2918 F350.00
G01 X28.8452 Y-0.2747 F350.00
G01 X28.7797 Y-0.1360 F350.00
G01 X28.7742 Y-0.1251 F350.00
G01 X28.7682 Y-0.1144 F350.00
G01 X28.6925 Y0.0119 F350.00
G01 X28.6859 Y0.0222 F350.00
G01 X28.6789 Y0.0323 F350.00
G01 X28.5912 Y0.1505 F350.00
G01 X28.5836 Y0.1602 F350.00
G01 X28.5756 Y0.1695 F350.00
G01 X28.4768 Y0.2785 F350.00
G01 X28.4683 Y0.2874 F350.00
G01 X28.4594 Y0.2959 F350.00
G01 X28.3503 Y0.3948 F350.00
G01 X28.3410 Y0.4028 F350.00
G01 X28.3314 Y0.4103 F350.00
G01 X28.2131 Y0.4980 F350.00
G01 X28.2031 Y0.5051 F350.00
G01 X28.1927 Y0.5116 F350.00
G01 X28.0665 Y0.5873 F350.00
G01 X28.0558 Y0.5934 F350.00
G01 X28.0448 Y0.5989 F350.00
G01 X27.9118 Y0.6618 F350.00
G01 X27.9006 Y0.6668 F350.00
G01 X27.8891 Y0.6712 F350.00
G01 X27.7505 Y0.7208 F350.00
G01 X27.7389 Y0.7246 F350.00
G01 X27.7270 Y0.7279 F350.00
G01 X27.5842 Y0.7637 F350.00
G01 X27.5723 Y0.7664 F350.00
G01 X27.5602 Y0.7685 F350.00
G01 X27.4085 Y0.7909 F350.00
G01 X27.3902 Y0.7925 F350.00
G01 X27.2431 Y0.7997 F350.00
G01 X27.2309 Y0.8000 F350.00
G01 X27.2186 Y0.7997 F350.00
G01 X27.0716 Y0.7925 F350.00
G01 X27.0593 Y0.7916 F350.00
G01 X27.0472 Y0.7901 F350.00
G01 X26.9015 Y0.7685 F350.00
G01 X26.8895 Y0.7664 F350.00
G01 X26.8775 Y0.7637 F350.00
G01 X26.7347 Y0.7279 F350.00
G01 X26.7229 Y0.7246 F350.00
G01 X26.7112 Y0.7208 F350.00
G01 X26.5726 Y0.6712 F350.00
G01 X26.5612 Y0.6668 F350.00
G01 X26.5499 Y0.6618 F350.00
G01 X26.4169 Y0.5989 F350.00
G01 X26.4059 Y0.5934 F350.00
G01 X26.3952 Y0.5873 F350.00
G01 X26.2690 Y0.5116 F350.00
G01 X26.2586 Y0.5051 F350.00
G01 X26.2486 Y0.4980 F350.00
G01 X26.1303 Y0.4103 F350.00
G01 X26.1207 Y0.4028 F350.00
G01 X26.1114 Y0.3948 F350.00
G01 X26.0023 Y0.2959 F350.00
G01 X25.9934 Y0.2874 F350.00
G01 X25.9850 Y0.2785 F350.00
G01 X25.8861 Y0.1695 F350.00
G01 X25.8781 Y0.1602 F350.00
G01 X25.8705 Y0.1505 F350.00
G01 X25.7963 Y0.0504 F350.00
G01 X24.9809 Y0.0504 F350.00
G01 X24.9808 Y0.4936 F350.00
G01 X24.9797 Y0.5120 F350.00
G01 X24.9772 Y0.5302 F350.00
G01 X24.9734 Y0.5482 F350.00
G01 X24.9682 Y0.5659 F350.00
G01 X24.9618 Y0.5832 F350.00
G01 X24.9542 Y0.5999 F350.00
G01 X24.9453 Y0.6160 F350.00
G01 X24.9353 Y0.6315 F350.00
G01 X24.9241 Y0.6461 F350.00
G01 X24.9119 Y0.6599 F350.00
G01 X24.8988 Y0.6727 F350.00
G01 X24.8895 Y0.6808 F350.00
G01 X24.8748 Y0.6919 F350.00
G01 X24.8646 Y0.6987 F350.00
G01 X24.8487 Y0.7080 F350.00
G01 X24.8322 Y0.7161 F350.00
G01 X24.8151 Y0.7229 F350.00
G01 X24.7975 Y0.7284 F350.00
G01 X24.7796 Y0.7327 F350.00
G01 X24.7615 Y0.7356 F350.00
G01 X24.7493 Y0.7368 F350.00
G01 X24.7309 Y0.7375 F350.00
G01 X22.7309 Y0.7375 F350.00
G01 X22.7186 Y0.7372 F350.00
G01 X22.7064 Y0.7363 F350.00
G01 X22.6942 Y0.7348 F350.00
G01 X22.6821 Y0.7327 F350.00
G01 X22.6642 Y0.7284 F350.00
G01 X22.6466 Y0.7229 F350.00
G01 X22.6352 Y0.7185 F350.00
G01 X22.6240 Y0.7135 F350.00
G01 X22.6130 Y0.7080 F350.00
G01 X22.6023 Y0.7019 F350.00
G01 X22.5920 Y0.6954 F350.00
G01 X22.5819 Y0.6883 F350.00
G01 X22.5676 Y0.6768 F350.00
G01 X22.5585 Y0.6686 F350.00
G01 X22.5498 Y0.6599 F350.00
G01 X22.5416 Y0.6508 F350.00
G01 X22.5338 Y0.6413 F350.00
G01 X22.5265 Y0.6315 F350.00
G01 X22.5196 Y0.6212 F350.00
G01 X22.5133 Y0.6107 F350.00
G01 X22.5076 Y0.5999 F350.00
G01 X22.4999 Y0.5832 F350.00
G01 X22.4955 Y0.5717 F350.00
G01 X22.4916 Y0.5601 F350.00
G01 X22.4869 Y0.5423 F350.00
G01 X22.4845 Y0.5302 F350.00
G01 X22.4827 Y0.5181 F350.00
G01 X22.4811 Y0.4984 F350.00
G01 X22.4811 Y5.5497 F350.00
G01 X29.7370 Y5.5498 F350.00
G01 X29.7922 Y5.5525 F350.00
G01 X29.8044 Y5.5534 F350.00
G01 X29.8166 Y5.5549 F350.00
G01 X29.8772 Y5.5642 F350.00
G01 X29.9368 Y5.5788 F350.00
G01 X29.9486 Y5.5821 F350.00
G01 X30.0065 Y5.6024 F350.00
G01 X30.0236 Y5.6093 F350.00
G01 X30.0736 Y5.6328 F350.00
G01 X30.0845 Y5.6383 F350.00
G01 X30.0952 Y5.6444 F350.00
G01 X30.1477 Y5.6762 F350.00
G01 X30.1577 Y5.6833 F350.00
G01 X30.2068 Y5.7200 F350.00
G01 X30.2525 Y5.7610 F350.00
G01 X30.2614 Y5.7695 F350.00
G01 X30.2698 Y5.7784 F350.00
G01 X30.3108 Y5.8240 F350.00
G01 X30.3476 Y5.8732 F350.00
G01 X30.3547 Y5.8832 F350.00
G01 X30.3612 Y5.8936 F350.00
G01 X30.3925 Y5.9463 F350.00
G01 X30.3980 Y5.9573 F350.00
G01 X30.4240 Y6.0129 F350.00
G01 X30.4284 Y6.0243 F350.00
G01 X30.4488 Y6.0822 F350.00
G01 X30.4640 Y6.1417 F350.00
G01 X30.4667 Y6.1536 F350.00
G01 X30.4760 Y6.2143 F350.00
G01 X30.4780 Y6.2326 F350.00
G01 X30.4808 Y6.2877 F350.00
G01 X30.4811 Y6.3000 F350.00
G01 X30.4811 Y9.4892 F350.00
G01 X43.0114 Y22.0195 F350.00
G01 X43.0198 Y22.0284 F350.00
G01 X43.0608 Y22.0740 F350.00
G01 X43.0976 Y22.1232 F350.00
G01 X43.1047 Y22.1332 F350.00
G01 X43.1112 Y22.1436 F350.00
G01 X43.1425 Y22.1963 F350.00
G01 X43.1690 Y22.2517 F350.00
G01 X43.1763 Y22.2686 F350.00
G01 X43.1950 Y22.3206 F350.00
G01 X43.1988 Y22.3322 F350.00
G01 X43.2140 Y22.3917 F350.00
G01 X43.2167 Y22.4036 F350.00
G01 X43.2260 Y22.4643 F350.00
G01 X43.2275 Y22.4765 F350.00
G01 X43.2284 Y22.4887 F350.00
G01 X43.2311 Y22.5500 F350.00
G01 X43.2311 Y45.7392 F350.00
G01 X45.0416 Y47.5497 F350.00
G01 X76.6525 Y47.5497 F350.00
G01 X76.6770 Y47.5167 F350.00
G01 X76.6885 Y47.5023 F350.00
G01 X76.7585 Y47.4250 F350.00
G01 X76.7714 Y47.4118 F350.00
G01 X76.8486 Y47.3418 F350.00
G01 X76.8579 Y47.3337 F350.00
G01 X76.8675 Y47.3262 F350.00
G01 X76.9464 Y47.2677 F350.00
G01 X76.9615 Y47.2573 F350.00
G01 X77.0509 Y47.2036 F350.00
G01 X77.0616 Y47.1976 F350.00
G01 X77.0726 Y47.1921 F350.00
G01 X77.1613 Y47.1501 F350.00
G01 X77.1725 Y47.1452 F350.00
G01 X77.1840 Y47.1407 F350.00
G01 X77.2764 Y47.1077 F350.00
G01 X77.2880 Y47.1038 F350.00
G01 X77.2998 Y47.1006 F350.00
G01 X77.3950 Y47.0767 F350.00
G01 X77.4070 Y47.0740 F350.00
G01 X77.4191 Y47.0719 F350.00
G01 X77.5162 Y47.0575 F350.00
G01 X77.5283 Y47.0560 F350.00
G01 X77.5406 Y47.0551 F350.00
G01 X77.6447 Y47.0501 F350.00
G01 X78.6509 Y47.0500 F350.00
G01 X78.6631 Y47.0503 F350.00
G01 X78.7611 Y47.0551 F350.00
G01 X78.7734 Y47.0560 F350.00
G01 X78.7856 Y47.0575 F350.00
G01 X78.8826 Y47.0719 F350.00
G01 X78.8947 Y47.0740 F350.00
G01 X78.9067 Y47.0767 F350.00
G01 X79.0019 Y47.1006 F350.00
G01 X79.0137 Y47.1038 F350.00
G01 X79.0254 Y47.1077 F350.00
G01 X79.1178 Y47.1407 F350.00
G01 X79.1292 Y47.1452 F350.00
G01 X79.1404 Y47.1501 F350.00
G01 X79.2291 Y47.1921 F350.00
G01 X79.2401 Y47.1976 F350.00
G01 X79.2508 Y47.2036 F350.00
G01 X79.3350 Y47.2541 F350.00
G01 X79.3453 Y47.2607 F350.00
G01 X79.3554 Y47.2677 F350.00
G01 X79.4342 Y47.3262 F350.00
G01 X79.4439 Y47.3337 F350.00
G01 X79.4531 Y47.3418 F350.00
G01 X79.5259 Y47.4077 F350.00
G01 X79.5347 Y47.4161 F350.00
G01 X79.5432 Y47.4250 F350.00
G01 X79.6091 Y47.4977 F350.00
G01 X79.6171 Y47.5070 F350.00
G01 X79.6247 Y47.5167 F350.00
G01 X79.6831 Y47.5955 F350.00
G01 X79.6902 Y47.6055 F350.00
G01 X79.6968 Y47.6159 F350.00
G01 X79.7472 Y47.7001 F350.00
G01 X79.7533 Y47.7108 F350.00
G01 X79.7588 Y47.7217 F350.00
G01 X79.8007 Y47.8104 F350.00
G01 X79.8057 Y47.8216 F350.00
G01 X79.8101 Y47.8331 F350.00
G01 X79.8432 Y47.9255 F350.00
G01 X79.8470 Y47.9371 F350.00
G01 X79.8503 Y47.9490 F350.00
G01 X79.8742 Y48.0442 F350.00
G01 X79.8768 Y48.0561 F350.00
G01 X79.8789 Y48.0682 F350.00
G01 X79.8933 Y48.1653 F350.00
G01 X79.8948 Y48.1775 F350.00
G01 X79.8957 Y48.1897 F350.00
G01 X79.9006 Y48.2877 F350.00
G01 X79.9009 Y48.3000 F350.00
G01 X79.9006 Y48.3123 F350.00
G01 X79.8957 Y48.4103 F350.00
G01 X79.8948 Y48.4225 F350.00
G01 X79.8933 Y48.4347 F350.00
G01 X79.8789 Y48.5318 F350.00
G01 X79.8768 Y48.5439 F350.00
G01 X79.8742 Y48.5558 F350.00
G01 X79.8503 Y48.6510 F350.00
G01 X79.8470 Y48.6629 F350.00
G01 X79.8432 Y48.6745 F350.00
G01 X79.8101 Y48.7669 F350.00
G01 X79.8057 Y48.7784 F350.00
G01 X79.8007 Y48.7896 F350.00
G01 X79.7588 Y48.8783 F350.00
G01 X79.7533 Y48.8892 F350.00
G01 X79.7472 Y48.8999 F350.00
G01 X79.6968 Y48.9841 F350.00
G01 X79.6902 Y48.9945 F350.00
G01 X79.6831 Y49.0045 F350.00
G01 X79.6247 Y49.0833 F350.00
G01 X79.6171 Y49.0930 F350.00
G01 X79.6091 Y49.1023 F350.00
G01 X79.5390 Y49.1795 F350.00
G01 X79.5259 Y49.1923 F350.00
G01 X79.4531 Y49.2582 F350.00
G01 X79.4439 Y49.2663 F350.00
G01 X79.4342 Y49.2738 F350.00
G01 X79.3554 Y49.3323 F350.00
G01 X79.3453 Y49.3393 F350.00
G01 X79.3350 Y49.3459 F350.00
G01 X79.2508 Y49.3964 F350.00
G01 X79.2401 Y49.4024 F350.00
G01 X79.2291 Y49.4079 F350.00
G01 X79.1404 Y49.4499 F350.00
G01 X79.1292 Y49.4548 F350.00
G01 X79.1178 Y49.4593 F350.00
G01 X79.0254 Y49.4923 F350.00
G01 X79.0137 Y49.4962 F350.00
G01 X79.0019 Y49.4994 F350.00
G01 X78.9067 Y49.5233 F350.00
G01 X78.8947 Y49.5260 F350.00
G01 X78.8826 Y49.5281 F350.00
G01 X78.7856 Y49.5425 F350.00
G01 X78.7734 Y49.5440 F350.00
G01 X78.7611 Y49.5449 F350.00
G01 X78.6570 Y49.5499 F350.00
G01 X77.6509 Y49.5500 F350.00
G01 X77.6386 Y49.5497 F350.00
G01 X77.5406 Y49.5449 F350.00
G01 X77.5283 Y49.5440 F350.00
G01 X77.5162 Y49.5425 F350.00
G01 X77.4191 Y49.5281 F350.00
G01 X77.4070 Y49.5260 F350.00
G01 X77.3950 Y49.5233 F350.00
G01 X77.2998 Y49.4994 F350.00
G01 X77.2880 Y49.4962 F350.00
G01 X77.2764 Y49.4923 F350.00
G01 X77.1840 Y49.4593 F350.00
G01 X77.1725 Y49.4548 F350.00
G01 X77.1613 Y49.4499 F350.00
G01 X77.0671 Y49.4052 F350.00
G01 X77.0509 Y49.3964 F350.00
G01 X76.9668 Y49.3459 F350.00
G01 X76.9564 Y49.3393 F350.00
G01 X76.9464 Y49.3323 F350.00
G01 X76.8675 Y49.2738 F350.00
G01 X76.8532 Y49.2623 F350.00
G01 X76.7759 Y49.1923 F350.00
G01 X76.7627 Y49.1795 F350.00
G01 X76.6885 Y49.0977 F350.00
G01 X76.6770 Y49.0833 F350.00
G01 X76.6525 Y49.0503 F350.00
G01 X44.5416 Y49.0503 F350.00
G01 X37.6088 Y55.9830 F350.00
G01 X37.6242 Y56.0442 F350.00
G01 X37.6268 Y56.0561 F350.00
G01 X37.6289 Y56.0682 F350.00
G01 X37.6442 Y56.1714 F350.00
G01 X37.6457 Y56.1897 F350.00
G01 X37.6506 Y56.2877 F350.00
G01 X37.6508 Y56.3061 F350.00
G01 X37.6457 Y56.4103 F350.00
G01 X37.6448 Y56.4225 F350.00
G01 X37.6433 Y56.4347 F350.00
G01 X37.6289 Y56.5318 F350.00
G01 X37.6268 Y56.5439 F350.00
G01 X37.6242 Y56.5558 F350.00
G01 X37.6003 Y56.6510 F350.00
G01 X37.5952 Y56.6687 F350.00
G01 X37.5601 Y56.7669 F350.00
G01 X37.5557 Y56.7784 F350.00
G01 X37.5507 Y56.7896 F350.00
G01 X37.5088 Y56.8783 F350.00
G01 X37.5033 Y56.8892 F350.00
G01 X37.4972 Y56.8999 F350.00
G01 X37.4468 Y56.9841 F350.00
G01 X37.4402 Y56.9945 F350.00
G01 X37.4331 Y57.0045 F350.00
G01 X37.3747 Y57.0833 F350.00
G01 X37.3671 Y57.0930 F350.00
G01 X37.3591 Y57.1023 F350.00
G01 X37.2932 Y57.1750 F350.00
G01 X37.2847 Y57.1839 F350.00
G01 X37.2759 Y57.1923 F350.00
G01 X37.2031 Y57.2582 F350.00
G01 X37.1939 Y57.2663 F350.00
G01 X37.1842 Y57.2738 F350.00
G01 X37.1054 Y57.3323 F350.00
G01 X37.0953 Y57.3393 F350.00
G01 X37.0850 Y57.3459 F350.00
G01 X37.0008 Y57.3964 F350.00
G01 X36.9901 Y57.4024 F350.00
G01 X36.9791 Y57.4079 F350.00
G01 X36.8904 Y57.4499 F350.00
G01 X36.8792 Y57.4548 F350.00
G01 X36.8678 Y57.4593 F350.00
G01 X36.7754 Y57.4923 F350.00
G01 X36.7637 Y57.4962 F350.00
G01 X36.7519 Y57.4994 F350.00
G01 X36.6567 Y57.5233 F350.00
G01 X36.6447 Y57.5260 F350.00
G01 X36.6326 Y57.5281 F350.00
G01 X36.5356 Y57.5425 F350.00
G01 X36.5234 Y57.5440 F350.00
G01 X36.5111 Y57.5449 F350.00
G01 X36.4070 Y57.5499 F350.00
G01 X35.3947 Y57.5499 F350.00
G01 X35.2906 Y57.5449 F350.00
G01 X35.2783 Y57.5440 F350.00
G01 X35.2662 Y57.5425 F350.00
G01 X35.1691 Y57.5281 F350.00
G01 X35.1570 Y57.5260 F350.00
G01 X35.1450 Y57.5233 F350.00
G01 X35.0498 Y57.4994 F350.00
G01 X35.0380 Y57.4962 F350.00
G01 X35.0264 Y57.4923 F350.00
G01 X34.9340 Y57.4593 F350.00
G01 X34.9225 Y57.4548 F350.00
G01 X34.9113 Y57.4499 F350.00
G01 X34.8226 Y57.4079 F350.00
G01 X34.8116 Y57.4024 F350.00
G01 X34.8009 Y57.3964 F350.00
G01 X34.7168 Y57.3459 F350.00
G01 X34.7064 Y57.3393 F350.00
G01 X34.6964 Y57.3323 F350.00
G01 X34.6175 Y57.2738 F350.00
G01 X34.6079 Y57.2663 F350.00
G01 X34.5986 Y57.2582 F350.00
G01 X34.5214 Y57.1882 F350.00
G01 X34.5085 Y57.1750 F350.00
G01 X34.4426 Y57.1023 F350.00
G01 X34.4346 Y57.0930 F350.00
G01 X34.4270 Y57.0833 F350.00
G01 X34.3686 Y57.0045 F350.00
G01 X34.3615 Y56.9945 F350.00
G01 X34.3550 Y56.9841 F350.00
G01 X34.3045 Y56.8999 F350.00
G01 X34.2985 Y56.8892 F350.00
