(G-CODE GENERATED BY FLATCAM v8.994 - www.flatcam.org - Version Date: 2020/11/7)

(Name: FRONT_2mm_ISOLATION_cnc)
(Type: G-code from Geometry)
(Units: MM)

(Created on Saturday, 27 June 2026 at 20:04)

(This preprocessor is used with a motion controller loaded with GRBL firmware.)
(It is configured to be compatible with almost any version of GRBL firmware.)

(TOOL DIAMETER: 2.0 mm)
(Feedrate_XY: 350.0 mm/min)
(Feedrate_Z: 250.0 mm/min)
(Feedrate rapids 1500.0 mm/min)

(Z_Cut: -0.05 mm)
(Z_Move: 0.5 mm)
(Z Start: None mm)
(Z End: 40.0 mm)
(X,Y End: None mm)
(Steps per circle: 64)
(Steps per circle: 64)
(Preprocessor Geometry: grbl_11)

(X range:   -6.1002 ...  127.9300  mm)
(Y range:   -5.1125 ...   70.1502  mm)

(Spindle Speed: 0.0 RPM)
G21
G90
G17
G94


G01 F350.00

M5             
G00 Z40.0000
G00 X0.0000 Y0.0000                
T1
M6
(MSG, Change to Tool Dia = 2.0000)
M0
G00 Z40.0000

M03
G01 F350.00
G00 X2.7916 Y1.7303
G01 F250.00
G01 Z-0.0500
G01 F350.00
G01 X2.8060 Y1.6332 F350.00
G01 X2.8099 Y1.6089 F350.00
G01 X2.8144 Y1.5848 F350.00
G01 X2.8195 Y1.5608 F350.00
G01 X2.8252 Y1.5369 F350.00
G01 X2.8490 Y1.4417 F350.00
G01 X2.8553 Y1.4180 F350.00
G01 X2.8621 Y1.3944 F350.00
G01 X2.8695 Y1.3710 F350.00
G01 X2.9106 Y1.2554 F350.00
G01 X2.9191 Y1.2324 F350.00
G01 X2.9282 Y1.2096 F350.00
G01 X2.9379 Y1.1871 F350.00
G01 X2.9481 Y1.1648 F350.00
G01 X3.0009 Y1.0540 F350.00
G01 X3.0122 Y1.0322 F350.00
G01 X3.0240 Y1.0107 F350.00
G01 X3.0364 Y0.9895 F350.00
G01 X3.0868 Y0.9053 F350.00
G01 X3.0997 Y0.8844 F350.00
G01 X3.1131 Y0.8639 F350.00
G01 X3.1269 Y0.8436 F350.00
G01 X3.1413 Y0.8237 F350.00
G01 X3.1998 Y0.7449 F350.00
G01 X3.2146 Y0.7254 F350.00
G01 X3.2300 Y0.7062 F350.00
G01 X3.2458 Y0.6874 F350.00
G01 X3.3279 Y0.5963 F350.00
G01 X3.3446 Y0.5784 F350.00
G01 X3.3618 Y0.5608 F350.00
G01 X3.3794 Y0.5436 F350.00
G01 X3.3973 Y0.5269 F350.00
G01 X3.4700 Y0.4610 F350.00
G01 X3.4884 Y0.4448 F350.00
G01 X3.5072 Y0.4290 F350.00
G01 X3.5264 Y0.4136 F350.00
G01 X3.6247 Y0.3403 F350.00
G01 X3.6446 Y0.3259 F350.00
G01 X3.6649 Y0.3121 F350.00
G01 X3.6854 Y0.2987 F350.00
G01 X3.7063 Y0.2858 F350.00
G01 X3.7905 Y0.2354 F350.00
G01 X3.8117 Y0.2230 F350.00
G01 X3.8332 Y0.2112 F350.00
G01 X3.8550 Y0.1999 F350.00
G01 X3.9658 Y0.1471 F350.00
G01 X3.9881 Y0.1369 F350.00
G01 X4.0106 Y0.1272 F350.00
G01 X4.0334 Y0.1181 F350.00
G01 X4.0564 Y0.1096 F350.00
G01 X4.1720 Y0.0685 F350.00
G01 X4.1954 Y0.0611 F350.00
G01 X4.2190 Y0.0543 F350.00
G01 X4.2427 Y0.0480 F350.00
G01 X4.3379 Y0.0242 F350.00
G01 X4.3618 Y0.0185 F350.00
G01 X4.3858 Y0.0134 F350.00
G01 X4.4099 Y0.0089 F350.00
G01 X4.4342 Y0.0050 F350.00
G01 X4.5556 Y-0.0127 F350.00
G01 X4.5800 Y-0.0154 F350.00
G01 X4.6044 Y-0.0175 F350.00
G01 X4.6289 Y-0.0190 F350.00
G01 X4.7269 Y-0.0238 F350.00
G01 X4.7515 Y-0.0247 F350.00
G01 X4.7760 Y-0.0250 F350.00
G01 X4.8005 Y-0.0247 F350.00
G01 X4.8251 Y-0.0238 F350.00
G01 X4.9476 Y-0.0175 F350.00
G01 X4.9720 Y-0.0154 F350.00
G01 X4.9964 Y-0.0127 F350.00
G01 X5.0207 Y-0.0094 F350.00
G01 X5.1178 Y0.0050 F350.00
G01 X5.1421 Y0.0089 F350.00
G01 X5.1662 Y0.0134 F350.00
G01 X5.1902 Y0.0185 F350.00
G01 X5.2141 Y0.0242 F350.00
G01 X5.3093 Y0.0480 F350.00
G01 X5.3330 Y0.0543 F350.00
G01 X5.3566 Y0.0611 F350.00
G01 X5.3800 Y0.0685 F350.00
G01 X5.4956 Y0.1096 F350.00
G01 X5.5186 Y0.1181 F350.00
G01 X5.5414 Y0.1272 F350.00
G01 X5.5639 Y0.1369 F350.00
G01 X5.5862 Y0.1471 F350.00
G01 X5.6970 Y0.1999 F350.00
G01 X5.7188 Y0.2112 F350.00
G01 X5.7403 Y0.2230 F350.00
G01 X5.7615 Y0.2354 F350.00
G01 X5.8457 Y0.2858 F350.00
G01 X5.8666 Y0.2987 F350.00
G01 X5.8871 Y0.3121 F350.00
G01 X5.9074 Y0.3259 F350.00
G01 X5.9273 Y0.3403 F350.00
G01 X6.0256 Y0.4136 F350.00
G01 X6.0448 Y0.4290 F350.00
G01 X6.0636 Y0.4448 F350.00
G01 X6.0820 Y0.4610 F350.00
G01 X6.1547 Y0.5269 F350.00
G01 X6.1726 Y0.5436 F350.00
G01 X6.1902 Y0.5608 F350.00
G01 X6.2074 Y0.5784 F350.00
G01 X6.2241 Y0.5963 F350.00
G01 X6.2900 Y0.6690 F350.00
G01 X6.3062 Y0.6874 F350.00
G01 X6.3220 Y0.7062 F350.00
G01 X6.3374 Y0.7254 F350.00
G01 X6.3522 Y0.7449 F350.00
G01 X6.4107 Y0.8237 F350.00
G01 X6.4251 Y0.8436 F350.00
G01 X6.4389 Y0.8639 F350.00
G01 X6.4523 Y0.8844 F350.00
G01 X6.4652 Y0.9053 F350.00
G01 X6.5156 Y0.9895 F350.00
G01 X6.5280 Y1.0107 F350.00
G01 X6.5398 Y1.0322 F350.00
G01 X6.5511 Y1.0540 F350.00
G01 X6.5619 Y1.0760 F350.00
G01 X6.6039 Y1.1648 F350.00
G01 X6.6141 Y1.1871 F350.00
G01 X6.6238 Y1.2096 F350.00
G01 X6.6329 Y1.2324 F350.00
G01 X6.6414 Y1.2554 F350.00
G01 X6.6745 Y1.3478 F350.00
G01 X6.6825 Y1.3710 F350.00
G01 X6.6899 Y1.3944 F350.00
G01 X6.6967 Y1.4180 F350.00
G01 X6.7030 Y1.4417 F350.00
G01 X6.7268 Y1.5369 F350.00
G01 X6.7325 Y1.5608 F350.00
G01 X6.7376 Y1.5848 F350.00
G01 X6.7421 Y1.6089 F350.00
G01 X6.7460 Y1.6332 F350.00
G01 X6.7604 Y1.7303 F350.00
G01 X6.7637 Y1.7546 F350.00
G01 X6.7664 Y1.7790 F350.00
G01 X6.7685 Y1.8034 F350.00
G01 X6.7748 Y1.9259 F350.00
G01 X6.7757 Y1.9505 F350.00
G01 X6.7760 Y1.9750 F350.00
G01 X6.7760 Y3.2250 F350.00
G01 X6.7757 Y3.2495 F350.00
G01 X6.7700 Y3.3721 F350.00
G01 X6.7685 Y3.3966 F350.00
G01 X6.7664 Y3.4210 F350.00
G01 X6.7637 Y3.4454 F350.00
G01 X6.7604 Y3.4697 F350.00
G01 X6.7421 Y3.5911 F350.00
G01 X6.7376 Y3.6152 F350.00
G01 X6.7325 Y3.6392 F350.00
G01 X6.7268 Y3.6631 F350.00
G01 X6.7030 Y3.7583 F350.00
G01 X6.6967 Y3.7820 F350.00
G01 X6.6899 Y3.8056 F350.00
G01 X6.6825 Y3.8290 F350.00
G01 X6.6745 Y3.8522 F350.00
G01 X6.6414 Y3.9446 F350.00
G01 X6.6329 Y3.9676 F350.00
G01 X6.6238 Y3.9904 F350.00
G01 X6.6141 Y4.0129 F350.00
G01 X6.5619 Y4.1240 F350.00
G01 X6.5511 Y4.1460 F350.00
G01 X6.5398 Y4.1678 F350.00
G01 X6.5280 Y4.1893 F350.00
G01 X6.5156 Y4.2105 F350.00
G01 X6.4652 Y4.2947 F350.00
G01 X6.4523 Y4.3156 F350.00
G01 X6.4389 Y4.3361 F350.00
G01 X6.4251 Y4.3564 F350.00
G01 X6.4107 Y4.3763 F350.00
G01 X6.3374 Y4.4746 F350.00
G01 X6.3220 Y4.4938 F350.00
G01 X6.3062 Y4.5126 F350.00
G01 X6.2900 Y4.5310 F350.00
G01 X6.2241 Y4.6037 F350.00
G01 X6.2074 Y4.6216 F350.00
G01 X6.1902 Y4.6392 F350.00
G01 X6.1726 Y4.6564 F350.00
G01 X6.1547 Y4.6731 F350.00
G01 X6.0820 Y4.7390 F350.00
G01 X6.0636 Y4.7552 F350.00
G01 X6.0448 Y4.7710 F350.00
G01 X6.0256 Y4.7864 F350.00
G01 X6.0061 Y4.8012 F350.00
G01 X5.9273 Y4.8597 F350.00
G01 X5.9074 Y4.8741 F350.00
G01 X5.8871 Y4.8879 F350.00
G01 X5.8666 Y4.9013 F350.00
G01 X5.8457 Y4.9142 F350.00
G01 X5.7615 Y4.9646 F350.00
G01 X5.7403 Y4.9770 F350.00
G01 X5.7188 Y4.9888 F350.00
G01 X5.6970 Y5.0001 F350.00
G01 X5.6750 Y5.0109 F350.00
G01 X5.5862 Y5.0529 F350.00
G01 X5.5639 Y5.0631 F350.00
G01 X5.5414 Y5.0728 F350.00
G01 X5.5186 Y5.0819 F350.00
G01 X5.4956 Y5.0904 F350.00
G01 X5.4032 Y5.1235 F350.00
G01 X5.3800 Y5.1315 F350.00
G01 X5.3566 Y5.1389 F350.00
G01 X5.3330 Y5.1457 F350.00
G01 X5.3093 Y5.1520 F350.00
G01 X5.2141 Y5.1758 F350.00
G01 X5.1902 Y5.1815 F350.00
G01 X5.1662 Y5.1866 F350.00
G01 X5.1421 Y5.1911 F350.00
G01 X5.1178 Y5.1950 F350.00
G01 X5.0207 Y5.2094 F350.00
G01 X4.9964 Y5.2127 F350.00
G01 X4.9720 Y5.2154 F350.00
G01 X4.9476 Y5.2175 F350.00
G01 X4.9231 Y5.2190 F350.00
G01 X4.8251 Y5.2238 F350.00
G01 X4.8005 Y5.2247 F350.00
G01 X4.7760 Y5.2250 F350.00
G01 X4.7515 Y5.2247 F350.00
G01 X4.7269 Y5.2238 F350.00
G01 X4.6289 Y5.2190 F350.00
G01 X4.6044 Y5.2175 F350.00
G01 X4.5800 Y5.2154 F350.00
G01 X4.5556 Y5.2127 F350.00
G01 X4.5313 Y5.2094 F350.00
G01 X4.4342 Y5.1950 F350.00
G01 X4.4099 Y5.1911 F350.00
G01 X4.3858 Y5.1866 F350.00
G01 X4.3618 Y5.1815 F350.00
G01 X4.3379 Y5.1758 F350.00
G01 X4.2427 Y5.1520 F350.00
G01 X4.2190 Y5.1457 F350.00
G01 X4.1954 Y5.1389 F350.00
G01 X4.1720 Y5.1315 F350.00
G01 X4.1488 Y5.1235 F350.00
G01 X4.0564 Y5.0904 F350.00
G01 X4.0334 Y5.0819 F350.00
G01 X4.0106 Y5.0728 F350.00
G01 X3.9881 Y5.0631 F350.00
G01 X3.9658 Y5.0529 F350.00
G01 X3.8770 Y5.0109 F350.00
G01 X3.8550 Y5.0001 F350.00
G01 X3.8332 Y4.9888 F350.00
G01 X3.8117 Y4.9770 F350.00
G01 X3.7905 Y4.9646 F350.00
G01 X3.7063 Y4.9142 F350.00
G01 X3.6854 Y4.9013 F350.00
G01 X3.6649 Y4.8879 F350.00
G01 X3.6446 Y4.8741 F350.00
G01 X3.6247 Y4.8597 F350.00
G01 X3.5264 Y4.7864 F350.00
G01 X3.5072 Y4.7710 F350.00
G01 X3.4884 Y4.7552 F350.00
G01 X3.4700 Y4.7390 F350.00
G01 X3.3794 Y4.6564 F350.00
G01 X3.3618 Y4.6392 F350.00
G01 X3.3446 Y4.6216 F350.00
G01 X3.2620 Y4.5310 F350.00
G01 X3.2458 Y4.5126 F350.00
G01 X3.2300 Y4.4938 F350.00
G01 X3.2146 Y4.4746 F350.00
G01 X3.1998 Y4.4551 F350.00
G01 X3.1269 Y4.3564 F350.00
G01 X3.1131 Y4.3361 F350.00
G01 X3.0997 Y4.3156 F350.00
G01 X3.0364 Y4.2105 F350.00
G01 X3.0240 Y4.1893 F350.00
G01 X3.0122 Y4.1678 F350.00
G01 X3.0009 Y4.1460 F350.00
G01 X2.9901 Y4.1240 F350.00
G01 X2.9481 Y4.0352 F350.00
G01 X2.9379 Y4.0129 F350.00
G01 X2.9282 Y3.9904 F350.00
G01 X2.9191 Y3.9676 F350.00
G01 X2.9106 Y3.9446 F350.00
G01 X2.8775 Y3.8522 F350.00
G01 X2.8695 Y3.8290 F350.00
G01 X2.8621 Y3.8056 F350.00
G01 X2.8553 Y3.7820 F350.00
G01 X2.8490 Y3.7583 F350.00
G01 X2.8252 Y3.6631 F350.00
G01 X2.8195 Y3.6392 F350.00
G01 X2.8144 Y3.6152 F350.00
G01 X2.8099 Y3.5911 F350.00
G01 X2.7916 Y3.4697 F350.00
G01 X2.7883 Y3.4454 F350.00
G01 X2.7856 Y3.4210 F350.00
G01 X2.7835 Y3.3966 F350.00
G01 X2.7820 Y3.3721 F350.00
G01 X2.7763 Y3.2495 F350.00
G01 X2.7760 Y3.2250 F350.00
G01 X2.7760 Y1.9750 F350.00
G01 X2.7763 Y1.9505 F350.00
G01 X2.7772 Y1.9259 F350.00
G01 X2.7835 Y1.8034 F350.00
G01 X2.7856 Y1.7790 F350.00
G01 X2.7883 Y1.7546 F350.00
G01 X2.7916 Y1.7303 F350.00
G00 Z0.5000
G00 X11.6570 Y1.4955
G01 F250.00
G01 Z-0.0500
G01 F350.00
G01 X11.6714 Y1.3984 F350.00
G01 X11.6815 Y1.3354 F350.00
G01 X11.6932 Y1.2727 F350.00
G01 X11.7064 Y1.2102 F350.00
G01 X11.7211 Y1.1482 F350.00
G01 X11.7450 Y1.0530 F350.00
G01 X11.7612 Y0.9913 F350.00
G01 X11.7790 Y0.9300 F350.00
G01 X11.7983 Y0.8691 F350.00
G01 X11.8190 Y0.8088 F350.00
G01 X11.8521 Y0.7164 F350.00
G01 X11.8743 Y0.6566 F350.00
G01 X11.8980 Y0.5973 F350.00
G01 X11.9232 Y0.5387 F350.00
G01 X11.9497 Y0.4807 F350.00
G01 X11.9917 Y0.3920 F350.00
G01 X12.0197 Y0.3346 F350.00
G01 X12.0491 Y0.2780 F350.00
G01 X12.0799 Y0.2221 F350.00
G01 X12.1120 Y0.1669 F350.00
G01 X12.1624 Y0.0828 F350.00
G01 X12.1959 Y0.0284 F350.00
G01 X12.2307 Y-0.0251 F350.00
G01 X12.2668 Y-0.0777 F350.00
G01 X12.3042 Y-0.1294 F350.00
G01 X12.3627 Y-0.2082 F350.00
G01 X12.4013 Y-0.2590 F350.00
G01 X12.4412 Y-0.3088 F350.00
G01 X12.4822 Y-0.3576 F350.00
G01 X12.5245 Y-0.4054 F350.00
G01 X12.5904 Y-0.4782 F350.00
G01 X12.6339 Y-0.5249 F350.00
G01 X12.6784 Y-0.5706 F350.00
G01 X12.7241 Y-0.6151 F350.00
G01 X12.7708 Y-0.6586 F350.00
G01 X12.8436 Y-0.7245 F350.00
G01 X12.8914 Y-0.7668 F350.00
G01 X12.9402 Y-0.8078 F350.00
G01 X12.9900 Y-0.8477 F350.00
G01 X13.0408 Y-0.8863 F350.00
G01 X13.1196 Y-0.9448 F350.00
G01 X13.1713 Y-0.9822 F350.00
G01 X13.2239 Y-1.0183 F350.00
G01 X13.2774 Y-1.0531 F350.00
G01 X13.3318 Y-1.0866 F350.00
G01 X13.4159 Y-1.1370 F350.00
G01 X13.4711 Y-1.1691 F350.00
G01 X13.5270 Y-1.1999 F350.00
G01 X13.5836 Y-1.2293 F350.00
G01 X13.6410 Y-1.2573 F350.00
G01 X13.7297 Y-1.2993 F350.00
G01 X13.7877 Y-1.3258 F350.00
G01 X13.8463 Y-1.3510 F350.00
G01 X13.9056 Y-1.3747 F350.00
G01 X13.9654 Y-1.3969 F350.00
G01 X14.0578 Y-1.4300 F350.00
G01 X14.1181 Y-1.4507 F350.00
G01 X14.1790 Y-1.4700 F350.00
G01 X14.2403 Y-1.4878 F350.00
G01 X14.3020 Y-1.5040 F350.00
G01 X14.3972 Y-1.5279 F350.00
G01 X14.4592 Y-1.5426 F350.00
G01 X14.5217 Y-1.5558 F350.00
G01 X14.5844 Y-1.5675 F350.00
G01 X14.6474 Y-1.5776 F350.00
G01 X14.7445 Y-1.5920 F350.00
G01 X14.8077 Y-1.6006 F350.00
G01 X14.8711 Y-1.6077 F350.00
G01 X14.9347 Y-1.6131 F350.00
G01 X14.9984 Y-1.6171 F350.00
G01 X15.0964 Y-1.6219 F350.00
G01 X15.1602 Y-1.6242 F350.00
G01 X15.2240 Y-1.6250 F350.00
G01 X15.2878 Y-1.6242 F350.00
G01 X15.3516 Y-1.6219 F350.00
G01 X15.4496 Y-1.6171 F350.00
G01 X15.5133 Y-1.6131 F350.00
G01 X15.5769 Y-1.6077 F350.00
G01 X15.6403 Y-1.6006 F350.00
G01 X15.7035 Y-1.5920 F350.00
G01 X15.8006 Y-1.5776 F350.00
G01 X15.8636 Y-1.5675 F350.00
G01 X15.9263 Y-1.5558 F350.00
G01 X15.9888 Y-1.5426 F350.00
G01 X16.0508 Y-1.5279 F350.00
G01 X16.1460 Y-1.5040 F350.00
G01 X16.2077 Y-1.4878 F350.00
G01 X16.2690 Y-1.4700 F350.00
G01 X16.3299 Y-1.4507 F350.00
G01 X16.3902 Y-1.4300 F350.00
G01 X16.4826 Y-1.3969 F350.00
G01 X16.5424 Y-1.3747 F350.00
G01 X16.6017 Y-1.3510 F350.00
G01 X16.6603 Y-1.3258 F350.00
G01 X16.7183 Y-1.2993 F350.00
G01 X16.8070 Y-1.2573 F350.00
G01 X16.8644 Y-1.2293 F350.00
G01 X16.9210 Y-1.1999 F350.00
G01 X16.9769 Y-1.1691 F350.00
G01 X17.0321 Y-1.1370 F350.00
G01 X17.1162 Y-1.0866 F350.00
G01 X17.1706 Y-1.0531 F350.00
G01 X17.2241 Y-1.0183 F350.00
G01 X17.2767 Y-0.9822 F350.00
G01 X17.3284 Y-0.9448 F350.00
G01 X17.4072 Y-0.8863 F350.00
G01 X17.4580 Y-0.8477 F350.00
G01 X17.5078 Y-0.8078 F350.00
G01 X17.5566 Y-0.7668 F350.00
G01 X17.6044 Y-0.7245 F350.00
G01 X17.6772 Y-0.6586 F350.00
G01 X17.7239 Y-0.6151 F350.00
G01 X17.7696 Y-0.5706 F350.00
G01 X17.8141 Y-0.5249 F350.00
G01 X17.8576 Y-0.4782 F350.00
G01 X17.9235 Y-0.4054 F350.00
G01 X17.9658 Y-0.3576 F350.00
G01 X18.0068 Y-0.3088 F350.00
G01 X18.0467 Y-0.2590 F350.00
G01 X18.0853 Y-0.2082 F350.00
G01 X18.1438 Y-0.1294 F350.00
G01 X18.1812 Y-0.0777 F350.00
G01 X18.2173 Y-0.0251 F350.00
G01 X18.2521 Y0.0284 F350.00
G01 X18.2856 Y0.0828 F350.00
G01 X18.3360 Y0.1669 F350.00
G01 X18.3681 Y0.2221 F350.00
G01 X18.3989 Y0.2780 F350.00
G01 X18.4283 Y0.3346 F350.00
G01 X18.4563 Y0.3920 F350.00
G01 X18.4983 Y0.4807 F350.00
G01 X18.5248 Y0.5387 F350.00
G01 X18.5500 Y0.5973 F350.00
G01 X18.5737 Y0.6566 F350.00
G01 X18.5959 Y0.7164 F350.00
G01 X18.6290 Y0.8088 F350.00
G01 X18.6497 Y0.8691 F350.00
G01 X18.6690 Y0.9300 F350.00
G01 X18.6868 Y0.9913 F350.00
G01 X18.7030 Y1.0530 F350.00
G01 X18.7269 Y1.1482 F350.00
G01 X18.7416 Y1.2102 F350.00
G01 X18.7548 Y1.2727 F350.00
G01 X18.7665 Y1.3354 F350.00
G01 X18.7766 Y1.3984 F350.00
G01 X18.7910 Y1.4955 F350.00
G01 X18.7996 Y1.5587 F350.00
G01 X18.8067 Y1.6221 F350.00
G01 X18.8121 Y1.6857 F350.00
G01 X18.8161 Y1.7494 F350.00
G01 X18.8209 Y1.8474 F350.00
G01 X18.8232 Y1.9112 F350.00
G01 X18.8240 Y1.9750 F350.00
G01 X18.8240 Y3.2250 F350.00
G01 X18.8232 Y3.2888 F350.00
G01 X18.8209 Y3.3526 F350.00
G01 X18.8161 Y3.4506 F350.00
G01 X18.8121 Y3.5143 F350.00
G01 X18.8067 Y3.5779 F350.00
G01 X18.7996 Y3.6413 F350.00
G01 X18.7910 Y3.7045 F350.00
G01 X18.7766 Y3.8016 F350.00
G01 X18.7665 Y3.8646 F350.00
G01 X18.7548 Y3.9273 F350.00
G01 X18.7416 Y3.9898 F350.00
G01 X18.7269 Y4.0518 F350.00
G01 X18.7030 Y4.1470 F350.00
G01 X18.6868 Y4.2087 F350.00
G01 X18.6690 Y4.2700 F350.00
G01 X18.6497 Y4.3309 F350.00
G01 X18.6290 Y4.3912 F350.00
G01 X18.5959 Y4.4836 F350.00
G01 X18.5737 Y4.5434 F350.00
G01 X18.5500 Y4.6027 F350.00
G01 X18.5248 Y4.6613 F350.00
G01 X18.4983 Y4.7193 F350.00
G01 X18.4563 Y4.8080 F350.00
G01 X18.4283 Y4.8654 F350.00
G01 X18.3989 Y4.9220 F350.00
G01 X18.3681 Y4.9779 F350.00
G01 X18.3360 Y5.0331 F350.00
G01 X18.2856 Y5.1172 F350.00
G01 X18.2521 Y5.1716 F350.00
G01 X18.2173 Y5.2251 F350.00
G01 X18.1812 Y5.2777 F350.00
G01 X18.1438 Y5.3294 F350.00
G01 X18.0853 Y5.4082 F350.00
G01 X18.0467 Y5.4590 F350.00
G01 X18.0068 Y5.5088 F350.00
G01 X17.9658 Y5.5576 F350.00
G01 X17.9235 Y5.6054 F350.00
G01 X17.8576 Y5.6782 F350.00
G01 X17.8141 Y5.7249 F350.00
G01 X17.7696 Y5.7706 F350.00
G01 X17.7239 Y5.8151 F350.00
G01 X17.6772 Y5.8586 F350.00
G01 X17.6044 Y5.9245 F350.00
G01 X17.5566 Y5.9668 F350.00
G01 X17.5078 Y6.0078 F350.00
G01 X17.4580 Y6.0477 F350.00
G01 X17.4072 Y6.0863 F350.00
G01 X17.3284 Y6.1448 F350.00
G01 X17.2767 Y6.1822 F350.00
G01 X17.2241 Y6.2183 F350.00
G01 X17.1706 Y6.2531 F350.00
G01 X17.1162 Y6.2866 F350.00
G01 X17.0321 Y6.3370 F350.00
G01 X16.9769 Y6.3691 F350.00
G01 X16.9210 Y6.3999 F350.00
G01 X16.8644 Y6.4293 F350.00
G01 X16.8070 Y6.4573 F350.00
G01 X16.7183 Y6.4993 F350.00
G01 X16.6603 Y6.5258 F350.00
G01 X16.6017 Y6.5510 F350.00
G01 X16.5424 Y6.5747 F350.00
G01 X16.4826 Y6.5969 F350.00
G01 X16.3902 Y6.6300 F350.00
G01 X16.3299 Y6.6507 F350.00
G01 X16.2690 Y6.6700 F350.00
G01 X16.2077 Y6.6878 F350.00
G01 X16.1460 Y6.7040 F350.00
G01 X16.0508 Y6.7279 F350.00
G01 X15.9888 Y6.7426 F350.00
G01 X15.9263 Y6.7558 F350.00
G01 X15.8636 Y6.7675 F350.00
G01 X15.8006 Y6.7776 F350.00
G01 X15.7035 Y6.7920 F350.00
G01 X15.6403 Y6.8006 F350.00
G01 X15.5769 Y6.8077 F350.00
G01 X15.5133 Y6.8131 F350.00
G01 X15.4496 Y6.8171 F350.00
G01 X15.3516 Y6.8219 F350.00
G01 X15.2878 Y6.8242 F350.00
G01 X15.2240 Y6.8250 F350.00
G01 X15.1602 Y6.8242 F350.00
G01 X15.0964 Y6.8219 F350.00
G01 X14.9984 Y6.8171 F350.00
G01 X14.9347 Y6.8131 F350.00
G01 X14.8711 Y6.8077 F350.00
G01 X14.8077 Y6.8006 F350.00
G01 X14.7445 Y6.7920 F350.00
G01 X14.6474 Y6.7776 F350.00
G01 X14.5844 Y6.7675 F350.00
G01 X14.5217 Y6.7558 F350.00
G01 X14.4592 Y6.7426 F350.00
G01 X14.3972 Y6.7279 F350.00
G01 X14.3020 Y6.7040 F350.00
G01 X14.2403 Y6.6878 F350.00
G01 X14.1790 Y6.6700 F350.00
G01 X14.1181 Y6.6507 F350.00
G01 X14.0578 Y6.6300 F350.00
G01 X13.9654 Y6.5969 F350.00
G01 X13.9056 Y6.5747 F350.00
G01 X13.8463 Y6.5510 F350.00
G01 X13.7877 Y6.5258 F350.00
G01 X13.7297 Y6.4993 F350.00
G01 X13.6410 Y6.4573 F350.00
G01 X13.5836 Y6.4293 F350.00
G01 X13.5270 Y6.3999 F350.00
G01 X13.4711 Y6.3691 F350.00
G01 X13.4159 Y6.3370 F350.00
G01 X13.3318 Y6.2866 F350.00
G01 X13.2774 Y6.2531 F350.00
G01 X13.2239 Y6.2183 F350.00
G01 X13.1713 Y6.1822 F350.00
G01 X13.1196 Y6.1448 F350.00
G01 X13.0408 Y6.0863 F350.00
G01 X12.9900 Y6.0477 F350.00
G01 X12.9402 Y6.0078 F350.00
G01 X12.8914 Y5.9668 F350.00
G01 X12.8436 Y5.9245 F350.00
G01 X12.7708 Y5.8586 F350.00
G01 X12.7241 Y5.8151 F350.00
G01 X12.6784 Y5.7706 F350.00
G01 X12.6339 Y5.7249 F350.00
G01 X12.5904 Y5.6782 F350.00
G01 X12.5245 Y5.6054 F350.00
G01 X12.4822 Y5.5576 F350.00
G01 X12.4412 Y5.5088 F350.00
G01 X12.4013 Y5.4590 F350.00
G01 X12.3627 Y5.4082 F350.00
G01 X12.3042 Y5.3294 F350.00
G01 X12.2668 Y5.2777 F350.00
G01 X12.2307 Y5.2251 F350.00
G01 X12.1959 Y5.1716 F350.00
G01 X12.1624 Y5.1172 F350.00
G01 X12.1120 Y5.0331 F350.00
G01 X12.0799 Y4.9779 F350.00
G01 X12.0491 Y4.9220 F350.00
G01 X12.0197 Y4.8654 F350.00
G01 X11.9917 Y4.8080 F350.00
G01 X11.9497 Y4.7193 F350.00
G01 X11.9232 Y4.6613 F350.00
G01 X11.8980 Y4.6027 F350.00
G01 X11.8743 Y4.5434 F350.00
G01 X11.8521 Y4.4836 F350.00
G01 X11.8190 Y4.3912 F350.00
G01 X11.7983 Y4.3309 F350.00
G01 X11.7790 Y4.2700 F350.00
G01 X11.7612 Y4.2087 F350.00
G01 X11.7450 Y4.1470 F350.00
G01 X11.7211 Y4.0518 F350.00
G01 X11.7064 Y3.9898 F350.00
G01 X11.6932 Y3.9273 F350.00
G01 X11.6815 Y3.8646 F350.00
G01 X11.6714 Y3.8016 F350.00
G01 X11.6570 Y3.7045 F350.00
G01 X11.6484 Y3.6413 F350.00
G01 X11.6413 Y3.5779 F350.00
G01 X11.6359 Y3.5143 F350.00
G01 X11.6319 Y3.4506 F350.00
G01 X11.6271 Y3.3526 F350.00
G01 X11.6248 Y3.2888 F350.00
G01 X11.6240 Y3.2250 F350.00
G01 X11.6240 Y1.9750 F350.00
G01 X11.6248 Y1.9112 F350.00
G01 X11.6271 Y1.8474 F350.00
G01 X11.6319 Y1.7494 F350.00
G01 X11.6359 Y1.6857 F350.00
G01 X11.6413 Y1.6221 F350.00
G01 X11.6484 Y1.5587 F350.00
G01 X11.6570 Y1.4955 F350.00
G00 Z0.5000
G00 X13.2396 Y1.7303
G01 F250.00
G01 Z-0.0500
G01 F350.00
G01 X13.2540 Y1.6332 F350.00
G01 X13.2579 Y1.6089 F350.00
G01 X13.2624 Y1.5848 F350.00
G01 X13.2675 Y1.5608 F350.00
G01 X13.2732 Y1.5369 F350.00
G01 X13.2970 Y1.4417 F350.00
G01 X13.3033 Y1.4180 F350.00
G01 X13.3101 Y1.3944 F350.00
G01 X13.3175 Y1.3710 F350.00
G01 X13.3586 Y1.2554 F350.00
G01 X13.3671 Y1.2324 F350.00
G01 X13.3762 Y1.2096 F350.00
G01 X13.3859 Y1.1871 F350.00
G01 X13.3961 Y1.1648 F350.00
G01 X13.4489 Y1.0540 F350.00
G01 X13.4602 Y1.0322 F350.00
G01 X13.4720 Y1.0107 F350.00
G01 X13.4844 Y0.9895 F350.00
G01 X13.5348 Y0.9053 F350.00
G01 X13.5477 Y0.8844 F350.00
G01 X13.5611 Y0.8639 F350.00
G01 X13.5749 Y0.8436 F350.00
G01 X13.5893 Y0.8237 F350.00
G01 X13.6478 Y0.7449 F350.00
G01 X13.6626 Y0.7254 F350.00
G01 X13.6780 Y0.7062 F350.00
G01 X13.6938 Y0.6874 F350.00
G01 X13.7759 Y0.5963 F350.00
G01 X13.7926 Y0.5784 F350.00
G01 X13.8098 Y0.5608 F350.00
G01 X13.8274 Y0.5436 F350.00
G01 X13.8453 Y0.5269 F350.00
G01 X13.9180 Y0.4610 F350.00
G01 X13.9364 Y0.4448 F350.00
G01 X13.9552 Y0.4290 F350.00
G01 X13.9744 Y0.4136 F350.00
G01 X14.0727 Y0.3403 F350.00
G01 X14.0926 Y0.3259 F350.00
G01 X14.1129 Y0.3121 F350.00
G01 X14.1334 Y0.2987 F350.00
G01 X14.1543 Y0.2858 F350.00
G01 X14.2385 Y0.2354 F350.00
G01 X14.2597 Y0.2230 F350.00
G01 X14.2812 Y0.2112 F350.00
G01 X14.3030 Y0.1999 F350.00
G01 X14.4138 Y0.1471 F350.00
G01 X14.4361 Y0.1369 F350.00
G01 X14.4586 Y0.1272 F350.00
G01 X14.4814 Y0.1181 F350.00
G01 X14.5044 Y0.1096 F350.00
G01 X14.6200 Y0.0685 F350.00
G01 X14.6434 Y0.0611 F350.00
G01 X14.6670 Y0.0543 F350.00
G01 X14.6907 Y0.0480 F350.00
G01 X14.7859 Y0.0242 F350.00
G01 X14.8098 Y0.0185 F350.00
G01 X14.8338 Y0.0134 F350.00
G01 X14.8579 Y0.0089 F350.00
G01 X14.8822 Y0.0050 F350.00
G01 X15.0036 Y-0.0127 F350.00
G01 X15.0280 Y-0.0154 F350.00
G01 X15.0524 Y-0.0175 F350.00
G01 X15.0769 Y-0.0190 F350.00
G01 X15.1749 Y-0.0238 F350.00
G01 X15.1995 Y-0.0247 F350.00
G01 X15.2240 Y-0.0250 F350.00
G01 X15.2485 Y-0.0247 F350.00
G01 X15.2731 Y-0.0238 F350.00
G01 X15.3956 Y-0.0175 F350.00
G01 X15.4200 Y-0.0154 F350.00
G01 X15.4444 Y-0.0127 F350.00
G01 X15.4687 Y-0.0094 F350.00
G01 X15.5658 Y0.0050 F350.00
G01 X15.5901 Y0.0089 F350.00
G01 X15.6142 Y0.0134 F350.00
G01 X15.6382 Y0.0185 F350.00
G01 X15.6621 Y0.0242 F350.00
G01 X15.7573 Y0.0480 F350.00
G01 X15.7810 Y0.0543 F350.00
G01 X15.8046 Y0.0611 F350.00
G01 X15.8280 Y0.0685 F350.00
G01 X15.9436 Y0.1096 F350.00
G01 X15.9666 Y0.1181 F350.00
G01 X15.9894 Y0.1272 F350.00
G01 X16.0119 Y0.1369 F350.00
G01 X16.0342 Y0.1471 F350.00
G01 X16.1450 Y0.1999 F350.00
G01 X16.1668 Y0.2112 F350.00
G01 X16.1883 Y0.2230 F350.00
G01 X16.2095 Y0.2354 F350.00
G01 X16.2937 Y0.2858 F350.00
G01 X16.3146 Y0.2987 F350.00
G01 X16.3351 Y0.3121 F350.00
G01 X16.3554 Y0.3259 F350.00
G01 X16.3753 Y0.3403 F350.00
G01 X16.4736 Y0.4136 F350.00
G01 X16.4928 Y0.4290 F350.00
G01 X16.5116 Y0.4448 F350.00
G01 X16.5300 Y0.4610 F350.00
G01 X16.6027 Y0.5269 F350.00
G01 X16.6206 Y0.5436 F350.00
G01 X16.6382 Y0.5608 F350.00
G01 X16.6554 Y0.5784 F350.00
G01 X16.6721 Y0.5963 F350.00
G01 X16.7380 Y0.6690 F350.00
G01 X16.7542 Y0.6874 F350.00
G01 X16.7700 Y0.7062 F350.00
G01 X16.7854 Y0.7254 F350.00
G01 X16.8002 Y0.7449 F350.00
G01 X16.8587 Y0.8237 F350.00
G01 X16.8731 Y0.8436 F350.00
G01 X16.8869 Y0.8639 F350.00
G01 X16.9003 Y0.8844 F350.00
G01 X16.9132 Y0.9053 F350.00
G01 X16.9636 Y0.9895 F350.00
G01 X16.9760 Y1.0107 F350.00
G01 X16.9878 Y1.0322 F350.00
G01 X16.9991 Y1.0540 F350.00
G01 X17.0099 Y1.0760 F350.00
G01 X17.0519 Y1.1648 F350.00
G01 X17.0621 Y1.1871 F350.00
G01 X17.0718 Y1.2096 F350.00
G01 X17.0809 Y1.2324 F350.00
G01 X17.0894 Y1.2554 F350.00
G01 X17.1225 Y1.3478 F350.00
G01 X17.1305 Y1.3710 F350.00
G01 X17.1379 Y1.3944 F350.00
G01 X17.1447 Y1.4180 F350.00
G01 X17.1510 Y1.4417 F350.00
G01 X17.1748 Y1.5369 F350.00
G01 X17.1805 Y1.5608 F350.00
G01 X17.1856 Y1.5848 F350.00
G01 X17.1901 Y1.6089 F350.00
G01 X17.1940 Y1.6332 F350.00
G01 X17.2084 Y1.7303 F350.00
G01 X17.2117 Y1.7546 F350.00
G01 X17.2144 Y1.7790 F350.00
G01 X17.2165 Y1.8034 F350.00
G01 X17.2228 Y1.9259 F350.00
G01 X17.2237 Y1.9505 F350.00
G01 X17.2240 Y1.9750 F350.00
G01 X17.2240 Y3.2250 F350.00
G01 X17.2237 Y3.2495 F350.00
G01 X17.2180 Y3.3721 F350.00
G01 X17.2165 Y3.3966 F350.00
G01 X17.2144 Y3.4210 F350.00
G01 X17.2117 Y3.4454 F350.00
G01 X17.2084 Y3.4697 F350.00
G01 X17.1901 Y3.5911 F350.00
G01 X17.1856 Y3.6152 F350.00
G01 X17.1805 Y3.6392 F350.00
G01 X17.1748 Y3.6631 F350.00
G01 X17.1510 Y3.7583 F350.00
G01 X17.1447 Y3.7820 F350.00
G01 X17.1379 Y3.8056 F350.00
G01 X17.1305 Y3.8290 F350.00
G01 X17.1225 Y3.8522 F350.00
G01 X17.0894 Y3.9446 F350.00
G01 X17.0809 Y3.9676 F350.00
G01 X17.0718 Y3.9904 F350.00
G01 X17.0621 Y4.0129 F350.00
G01 X17.0099 Y4.1240 F350.00
G01 X16.9991 Y4.1460 F350.00
G01 X16.9878 Y4.1678 F350.00
G01 X16.9760 Y4.1893 F350.00
G01 X16.9636 Y4.2105 F350.00
G01 X16.9132 Y4.2947 F350.00
G01 X16.9003 Y4.3156 F350.00
G01 X16.8869 Y4.3361 F350.00
G01 X16.8731 Y4.3564 F350.00
G01 X16.8587 Y4.3763 F350.00
G01 X16.7854 Y4.4746 F350.00
G01 X16.7700 Y4.4938 F350.00
G01 X16.7542 Y4.5126 F350.00
G01 X16.7380 Y4.5310 F350.00
G01 X16.6721 Y4.6037 F350.00
G01 X16.6554 Y4.6216 F350.00
G01 X16.6382 Y4.6392 F350.00
G01 X16.6206 Y4.6564 F350.00
G01 X16.6027 Y4.6731 F350.00
G01 X16.5300 Y4.7390 F350.00
G01 X16.5116 Y4.7552 F350.00
G01 X16.4928 Y4.7710 F350.00
G01 X16.4736 Y4.7864 F350.00
G01 X16.4541 Y4.8012 F350.00
G01 X16.3753 Y4.8597 F350.00
G01 X16.3554 Y4.8741 F350.00
G01 X16.3351 Y4.8879 F350.00
G01 X16.3146 Y4.9013 F350.00
G01 X16.2937 Y4.9142 F350.00
G01 X16.2095 Y4.9646 F350.00
G01 X16.1883 Y4.9770 F350.00
G01 X16.1668 Y4.9888 F350.00
G01 X16.1450 Y5.0001 F350.00
G01 X16.1230 Y5.0109 F350.00
G01 X16.0342 Y5.0529 F350.00
G01 X16.0119 Y5.0631 F350.00
G01 X15.9894 Y5.0728 F350.00
G01 X15.9666 Y5.0819 F350.00
G01 X15.9436 Y5.0904 F350.00
G01 X15.8512 Y5.1235 F350.00
G01 X15.8280 Y5.1315 F350.00
G01 X15.8046 Y5.1389 F350.00
G01 X15.7810 Y5.1457 F350.00
G01 X15.7573 Y5.1520 F350.00
G01 X15.6621 Y5.1758 F350.00
G01 X15.6382 Y5.1815 F350.00
G01 X15.6142 Y5.1866 F350.00
G01 X15.5901 Y5.1911 F350.00
G01 X15.5658 Y5.1950 F350.00
G01 X15.4687 Y5.2094 F350.00
G01 X15.4444 Y5.2127 F350.00
G01 X15.4200 Y5.2154 F350.00
G01 X15.3956 Y5.2175 F350.00
G01 X15.3711 Y5.2190 F350.00
G01 X15.2731 Y5.2238 F350.00
G01 X15.2485 Y5.2247 F350.00
G01 X15.2240 Y5.2250 F350.00
G01 X15.1995 Y5.2247 F350.00
G01 X15.1749 Y5.2238 F350.00
G01 X15.0769 Y5.2190 F350.00
G01 X15.0524 Y5.2175 F350.00
G01 X15.0280 Y5.2154 F350.00
G01 X15.0036 Y5.2127 F350.00
G01 X14.9793 Y5.2094 F350.00
G01 X14.8822 Y5.1950 F350.00
G01 X14.8579 Y5.1911 F350.00
G01 X14.8338 Y5.1866 F350.00
G01 X14.8098 Y5.1815 F350.00
G01 X14.7859 Y5.1758 F350.00
G01 X14.6907 Y5.1520 F350.00
G01 X14.6670 Y5.1457 F350.00
G01 X14.6434 Y5.1389 F350.00
G01 X14.6200 Y5.1315 F350.00
G01 X14.5968 Y5.1235 F350.00
G01 X14.5044 Y5.0904 F350.00
G01 X14.4814 Y5.0819 F350.00
G01 X14.4586 Y5.0728 F350.00
G01 X14.4361 Y5.0631 F350.00
G01 X14.4138 Y5.0529 F350.00
G01 X14.3250 Y5.0109 F350.00
G01 X14.3030 Y5.0001 F350.00
G01 X14.2812 Y4.9888 F350.00
G01 X14.2597 Y4.9770 F350.00
G01 X14.2385 Y4.9646 F350.00
G01 X14.1543 Y4.9142 F350.00
G01 X14.1334 Y4.9013 F350.00
G01 X14.1129 Y4.8879 F350.00
G01 X14.0926 Y4.8741 F350.00
G01 X14.0727 Y4.8597 F350.00
G01 X13.9744 Y4.7864 F350.00
G01 X13.9552 Y4.7710 F350.00
G01 X13.9364 Y4.7552 F350.00
G01 X13.9180 Y4.7390 F350.00
G01 X13.8274 Y4.6564 F350.00
G01 X13.8098 Y4.6392 F350.00
G01 X13.7926 Y4.6216 F350.00
G01 X13.7100 Y4.5310 F350.00
G01 X13.6938 Y4.5126 F350.00
G01 X13.6780 Y4.4938 F350.00
G01 X13.6626 Y4.4746 F350.00
G01 X13.6478 Y4.4551 F350.00
G01 X13.5749 Y4.3564 F350.00
G01 X13.5611 Y4.3361 F350.00
G01 X13.5477 Y4.3156 F350.00
G01 X13.4844 Y4.2105 F350.00
G01 X13.4720 Y4.1893 F350.00
G01 X13.4602 Y4.1678 F350.00
G01 X13.4489 Y4.1460 F350.00
G01 X13.4381 Y4.1240 F350.00
G01 X13.3961 Y4.0352 F350.00
G01 X13.3859 Y4.0129 F350.00
G01 X13.3762 Y3.9904 F350.00
G01 X13.3671 Y3.9676 F350.00
G01 X13.3586 Y3.9446 F350.00
G01 X13.3255 Y3.8522 F350.00
G01 X13.3175 Y3.8290 F350.00
G01 X13.3101 Y3.8056 F350.00
G01 X13.3033 Y3.7820 F350.00
G01 X13.2970 Y3.7583 F350.00
G01 X13.2732 Y3.6631 F350.00
G01 X13.2675 Y3.6392 F350.00
G01 X13.2624 Y3.6152 F350.00
G01 X13.2579 Y3.5911 F350.00
G01 X13.2396 Y3.4697 F350.00
G01 X13.2363 Y3.4454 F350.00
G01 X13.2336 Y3.4210 F350.00
G01 X13.2315 Y3.3966 F350.00
G01 X13.2300 Y3.3721 F350.00
G01 X13.2243 Y3.2495 F350.00
G01 X13.2240 Y3.2250 F350.00
G01 X13.2240 Y1.9750 F350.00
G01 X13.2243 Y1.9505 F350.00
G01 X13.2252 Y1.9259 F350.00
G01 X13.2315 Y1.8034 F350.00
G01 X13.2336 Y1.7790 F350.00
G01 X13.2363 Y1.7546 F350.00
G01 X13.2396 Y1.7303 F350.00
G00 Z0.5000
G00 X2.7788 Y10.8928
G01 F250.00
G01 Z-0.0500
G01 F350.00
G01 X2.7763 Y10.9505 F350.00
G01 X2.7760 Y10.9750 F350.00
G01 X2.7760 Y12.2250 F350.00
G01 X2.7763 Y12.2495 F350.00
G01 X2.7772 Y12.2741 F350.00
G01 X2.7820 Y12.3721 F350.00
G01 X2.7835 Y12.3966 F350.00
G01 X2.7856 Y12.4210 F350.00
G01 X2.7883 Y12.4454 F350.00
G01 X2.7916 Y12.4697 F350.00
G01 X2.8060 Y12.5668 F350.00
G01 X2.8099 Y12.5911 F350.00
G01 X2.8144 Y12.6152 F350.00
G01 X2.8195 Y12.6392 F350.00
G01 X2.8490 Y12.7583 F350.00
G01 X2.8553 Y12.7820 F350.00
G01 X2.8621 Y12.8056 F350.00
G01 X2.8695 Y12.8290 F350.00
G01 X2.9106 Y12.9446 F350.00
G01 X2.9191 Y12.9676 F350.00
G01 X2.9282 Y12.9904 F350.00
G01 X2.9379 Y13.0129 F350.00
G01 X2.9481 Y13.0352 F350.00
G01 X2.9901 Y13.1240 F350.00
G01 X3.0009 Y13.1460 F350.00
G01 X3.0122 Y13.1678 F350.00
G01 X3.0240 Y13.1893 F350.00
G01 X3.0364 Y13.2105 F350.00
G01 X3.0868 Y13.2947 F350.00
G01 X3.0997 Y13.3156 F350.00
G01 X3.1131 Y13.3361 F350.00
G01 X3.1269 Y13.3564 F350.00
G01 X3.1413 Y13.3763 F350.00
G01 X3.1998 Y13.4551 F350.00
G01 X3.2146 Y13.4746 F350.00
G01 X3.2300 Y13.4938 F350.00
G01 X3.2458 Y13.5126 F350.00
G01 X3.2620 Y13.5310 F350.00
G01 X3.3446 Y13.6216 F350.00
G01 X3.3618 Y13.6392 F350.00
G01 X3.3794 Y13.6564 F350.00
G01 X3.3973 Y13.6731 F350.00
G01 X3.4884 Y13.7552 F350.00
G01 X3.5072 Y13.7710 F350.00
G01 X3.5264 Y13.7864 F350.00
G01 X3.5606 Y13.8121 F350.00
G01 X3.4814 Y13.8241 F350.00
G01 X3.4573 Y13.8286 F350.00
G01 X3.4333 Y13.8337 F350.00
G01 X3.3618 Y13.8513 F350.00
G01 X3.3381 Y13.8575 F350.00
G01 X3.3145 Y13.8644 F350.00
G01 X3.2911 Y13.8718 F350.00
G01 X3.2679 Y13.8797 F350.00
G01 X3.2217 Y13.8963 F350.00
G01 X3.1987 Y13.9048 F350.00
G01 X3.1759 Y13.9139 F350.00
G01 X3.1533 Y13.9236 F350.00
G01 X3.1310 Y13.9338 F350.00
G01 X3.0646 Y13.9656 F350.00
G01 X3.0428 Y13.9769 F350.00
G01 X3.0213 Y13.9887 F350.00
G01 X2.9580 Y14.0263 F350.00
G01 X2.9371 Y14.0392 F350.00
G01 X2.9165 Y14.0526 F350.00
G01 X2.8963 Y14.0665 F350.00
G01 X2.8764 Y14.0808 F350.00
G01 X2.8174 Y14.1250 F350.00
G01 X2.7983 Y14.1403 F350.00
G01 X2.7795 Y14.1561 F350.00
G01 X2.7247 Y14.2053 F350.00
G01 X2.7067 Y14.2220 F350.00
G01 X2.6892 Y14.2392 F350.00
G01 X-0.9108 Y17.8392 F350.00
G01 X-0.9280 Y17.8567 F350.00
G01 X-0.9447 Y17.8747 F350.00
G01 X-0.9776 Y17.9111 F350.00
G01 X-0.9939 Y17.9295 F350.00
G01 X-1.0097 Y17.9483 F350.00
G01 X-1.0250 Y17.9674 F350.00
G01 X-1.0399 Y17.9869 F350.00
G01 X-1.0835 Y18.0463 F350.00
G01 X-1.0974 Y18.0665 F350.00
G01 X-1.1108 Y18.0871 F350.00
G01 X-1.1237 Y18.1080 F350.00
G01 X-1.1613 Y18.1713 F350.00
G01 X-1.1731 Y18.1928 F350.00
G01 X-1.1844 Y18.2146 F350.00
G01 X-1.2162 Y18.2810 F350.00
G01 X-1.2264 Y18.3033 F350.00
G01 X-1.2361 Y18.3259 F350.00
G01 X-1.2452 Y18.3487 F350.00
G01 X-1.2537 Y18.3717 F350.00
G01 X-1.2703 Y18.4179 F350.00
G01 X-1.2782 Y18.4411 F350.00
G01 X-1.2856 Y18.4645 F350.00
G01 X-1.2925 Y18.4881 F350.00
G01 X-1.3107 Y18.5594 F350.00
G01 X-1.3163 Y18.5833 F350.00
G01 X-1.3214 Y18.6073 F350.00
G01 X-1.3259 Y18.6314 F350.00
G01 X-1.3298 Y18.6557 F350.00
G01 X-1.3370 Y18.7042 F350.00
G01 X-1.3403 Y18.7286 F350.00
G01 X-1.3430 Y18.7529 F350.00
G01 X-1.3451 Y18.7774 F350.00
G01 X-1.3466 Y18.8019 F350.00
G01 X-1.3490 Y18.8509 F350.00
G01 X-1.3499 Y18.8755 F350.00
G01 X-1.3502 Y18.9000 F350.00
G01 X-1.3502 Y32.8904 F350.00
G01 X-1.4374 Y32.9037 F350.00
G01 X-1.4615 Y32.9081 F350.00
G01 X-1.4997 Y32.9166 F350.00
G01 X-1.4998 Y15.1714 F350.00
G01 X2.7788 Y10.8928 F350.00
G00 Z0.5000
G00 X2.8166 Y19.9856
G01 F250.00
G01 Z-0.0500
G01 F350.00
G01 X2.8339 Y19.8692 F350.00
G01 X2.8378 Y19.8449 F350.00
G01 X2.8423 Y19.8208 F350.00
G01 X2.8474 Y19.7968 F350.00
G01 X2.8530 Y19.7729 F350.00
G01 X2.8879 Y19.6349 F350.00
G01 X2.8947 Y19.6114 F350.00
G01 X2.9021 Y19.5880 F350.00
G01 X2.9498 Y19.4539 F350.00
G01 X2.9584 Y19.4309 F350.00
G01 X2.9675 Y19.4081 F350.00
G01 X2.9771 Y19.3855 F350.00
G01 X2.9874 Y19.3632 F350.00
G01 X3.0377 Y19.2568 F350.00
G01 X3.0485 Y19.2347 F350.00
G01 X3.0598 Y19.2129 F350.00
G01 X3.0716 Y19.1914 F350.00
G01 X3.0840 Y19.1702 F350.00
G01 X3.1445 Y19.0692 F350.00
G01 X3.1574 Y19.0483 F350.00
G01 X3.1708 Y19.0277 F350.00
G01 X3.1847 Y19.0075 F350.00
G01 X3.1990 Y18.9876 F350.00
G01 X3.2692 Y18.8930 F350.00
G01 X3.2840 Y18.8735 F350.00
G01 X3.2994 Y18.8543 F350.00
G01 X3.3152 Y18.8356 F350.00
G01 X3.3314 Y18.8172 F350.00
G01 X3.4105 Y18.7299 F350.00
G01 X3.4272 Y18.7119 F350.00
G01 X3.4444 Y18.6944 F350.00
G01 X3.4619 Y18.6772 F350.00
G01 X3.4799 Y18.6605 F350.00
G01 X3.5856 Y18.5652 F350.00
G01 X3.6043 Y18.5494 F350.00
G01 X3.6235 Y18.5340 F350.00
G01 X3.7376 Y18.4490 F350.00
G01 X3.7575 Y18.4347 F350.00
G01 X3.7777 Y18.4208 F350.00
G01 X3.7983 Y18.4074 F350.00
G01 X3.8192 Y18.3945 F350.00
G01 X3.9414 Y18.3216 F350.00
G01 X3.9629 Y18.3098 F350.00
G01 X3.9847 Y18.2985 F350.00
G01 X4.1132 Y18.2374 F350.00
G01 X4.1355 Y18.2271 F350.00
G01 X4.1581 Y18.2175 F350.00
G01 X4.1809 Y18.2084 F350.00
G01 X4.2039 Y18.1998 F350.00
G01 X4.3148 Y18.1601 F350.00
G01 X4.3380 Y18.1521 F350.00
G01 X4.3614 Y18.1447 F350.00
G01 X4.3849 Y18.1379 F350.00
G01 X4.4087 Y18.1316 F350.00
G01 X4.5468 Y18.0974 F350.00
G01 X4.5708 Y18.0923 F350.00
G01 X4.5949 Y18.0878 F350.00
G01 X4.6192 Y18.0839 F350.00
G01 X4.7356 Y18.0666 F350.00
G01 X4.7600 Y18.0633 F350.00
G01 X4.7844 Y18.0606 F350.00
G01 X4.8088 Y18.0585 F350.00
G01 X4.8333 Y18.0570 F350.00
G01 X4.9755 Y18.0503 F350.00
G01 X5.0000 Y18.0500 F350.00
G01 X5.0245 Y18.0503 F350.00
G01 X5.0491 Y18.0512 F350.00
G01 X5.1667 Y18.0570 F350.00
G01 X5.1912 Y18.0585 F350.00
G01 X5.2156 Y18.0606 F350.00
G01 X5.2400 Y18.0633 F350.00
G01 X5.2644 Y18.0666 F350.00
G01 X5.3808 Y18.0839 F350.00
G01 X5.4051 Y18.0878 F350.00
G01 X5.4292 Y18.0923 F350.00
G01 X5.4532 Y18.0974 F350.00
G01 X5.5913 Y18.1316 F350.00
G01 X5.6151 Y18.1379 F350.00
G01 X5.6386 Y18.1447 F350.00
G01 X5.6620 Y18.1521 F350.00
G01 X5.6852 Y18.1601 F350.00
G01 X5.7961 Y18.1998 F350.00
G01 X5.8191 Y18.2084 F350.00
G01 X5.8419 Y18.2175 F350.00
G01 X5.8645 Y18.2271 F350.00
G01 X5.8868 Y18.2374 F350.00
G01 X5.9932 Y18.2877 F350.00
G01 X6.0153 Y18.2985 F350.00
G01 X6.0371 Y18.3098 F350.00
G01 X6.0586 Y18.3216 F350.00
G01 X6.1808 Y18.3945 F350.00
G01 X6.2017 Y18.4074 F350.00
G01 X6.2223 Y18.4208 F350.00
G01 X6.2425 Y18.4347 F350.00
G01 X6.2624 Y18.4490 F350.00
G01 X6.3570 Y18.5192 F350.00
G01 X6.3765 Y18.5340 F350.00
G01 X6.3957 Y18.5494 F350.00
G01 X6.4144 Y18.5652 F350.00
G01 X6.4328 Y18.5814 F350.00
G01 X6.5000 Y18.6423 F350.00
G01 X6.5856 Y18.5652 F350.00
G01 X6.6043 Y18.5494 F350.00
G01 X6.6235 Y18.5340 F350.00
G01 X6.7376 Y18.4490 F350.00
G01 X6.7575 Y18.4347 F350.00
G01 X6.7777 Y18.4208 F350.00
G01 X6.7983 Y18.4074 F350.00
G01 X6.8192 Y18.3945 F350.00
G01 X6.9202 Y18.3340 F350.00
G01 X6.9414 Y18.3216 F350.00
G01 X6.9629 Y18.3098 F350.00
G01 X6.9847 Y18.2985 F350.00
G01 X7.0068 Y18.2877 F350.00
G01 X7.1355 Y18.2271 F350.00
G01 X7.1581 Y18.2175 F350.00
G01 X7.1809 Y18.2084 F350.00
G01 X7.3148 Y18.1601 F350.00
G01 X7.3380 Y18.1521 F350.00
G01 X7.3614 Y18.1447 F350.00
G01 X7.3849 Y18.1379 F350.00
G01 X7.4087 Y18.1316 F350.00
G01 X7.5229 Y18.1030 F350.00
G01 X7.5468 Y18.0974 F350.00
G01 X7.5708 Y18.0923 F350.00
G01 X7.5949 Y18.0878 F350.00
G01 X7.6192 Y18.0839 F350.00
G01 X7.7356 Y18.0666 F350.00
G01 X7.7600 Y18.0633 F350.00
G01 X7.7844 Y18.0606 F350.00
G01 X7.8088 Y18.0585 F350.00
G01 X7.8333 Y18.0570 F350.00
G01 X7.9509 Y18.0512 F350.00
G01 X7.9755 Y18.0503 F350.00
G01 X8.0000 Y18.0500 F350.00
G01 X8.0245 Y18.0503 F350.00
G01 X8.0491 Y18.0512 F350.00
G01 X8.1667 Y18.0570 F350.00
G01 X8.1912 Y18.0585 F350.00
G01 X8.2156 Y18.0606 F350.00
G01 X8.2400 Y18.0633 F350.00
G01 X8.2644 Y18.0666 F350.00
G01 X8.3808 Y18.0839 F350.00
G01 X8.4051 Y18.0878 F350.00
G01 X8.4292 Y18.0923 F350.00
G01 X8.4532 Y18.0974 F350.00
G01 X8.4771 Y18.1030 F350.00
G01 X8.5913 Y18.1316 F350.00
G01 X8.6151 Y18.1379 F350.00
G01 X8.6386 Y18.1447 F350.00
G01 X8.6620 Y18.1521 F350.00
G01 X8.7961 Y18.1998 F350.00
G01 X8.8191 Y18.2084 F350.00
G01 X8.8419 Y18.2175 F350.00
G01 X8.8645 Y18.2271 F350.00
G01 X8.8868 Y18.2374 F350.00
G01 X9.0153 Y18.2985 F350.00
G01 X9.0371 Y18.3098 F350.00
G01 X9.0586 Y18.3216 F350.00
G01 X9.0798 Y18.3340 F350.00
G01 X9.2017 Y18.4074 F350.00
G01 X9.2223 Y18.4208 F350.00
G01 X9.2425 Y18.4347 F350.00
G01 X9.2624 Y18.4490 F350.00
G01 X9.3570 Y18.5192 F350.00
G01 X9.3765 Y18.5340 F350.00
G01 X9.3957 Y18.5494 F350.00
G01 X9.4144 Y18.5652 F350.00
G01 X9.4328 Y18.5814 F350.00
G01 X9.5000 Y18.6423 F350.00
G01 X9.5672 Y18.5814 F350.00
G01 X9.5856 Y18.5652 F350.00
G01 X9.6043 Y18.5494 F350.00
G01 X9.6235 Y18.5340 F350.00
G01 X9.6430 Y18.5192 F350.00
G01 X9.7376 Y18.4490 F350.00
G01 X9.7575 Y18.4347 F350.00
G01 X9.7777 Y18.4208 F350.00
G01 X9.7983 Y18.4074 F350.00
G01 X9.8192 Y18.3945 F350.00
G01 X9.9414 Y18.3216 F350.00
G01 X9.9629 Y18.3098 F350.00
G01 X9.9847 Y18.2985 F350.00
G01 X10.0068 Y18.2877 F350.00
G01 X10.1132 Y18.2374 F350.00
G01 X10.1355 Y18.2271 F350.00
G01 X10.1581 Y18.2175 F350.00
G01 X10.1809 Y18.2084 F350.00
G01 X10.2039 Y18.1998 F350.00
G01 X10.3148 Y18.1601 F350.00
G01 X10.3380 Y18.1521 F350.00
G01 X10.3614 Y18.1447 F350.00
G01 X10.3849 Y18.1379 F350.00
G01 X10.4087 Y18.1316 F350.00
G01 X10.5468 Y18.0974 F350.00
G01 X10.5708 Y18.0923 F350.00
G01 X10.5949 Y18.0878 F350.00
G01 X10.6192 Y18.0839 F350.00
G01 X10.7356 Y18.0666 F350.00
G01 X10.7600 Y18.0633 F350.00
G01 X10.7844 Y18.0606 F350.00
G01 X10.8088 Y18.0585 F350.00
G01 X10.8333 Y18.0570 F350.00
G01 X10.9509 Y18.0512 F350.00
G01 X10.9755 Y18.0503 F350.00
G01 X11.0000 Y18.0500 F350.00
G01 X11.0245 Y18.0503 F350.00
G01 X11.1667 Y18.0570 F350.00
G01 X11.1912 Y18.0585 F350.00
G01 X11.2156 Y18.0606 F350.00
G01 X11.2400 Y18.0633 F350.00
G01 X11.2644 Y18.0666 F350.00
G01 X11.3808 Y18.0839 F350.00
G01 X11.4051 Y18.0878 F350.00
G01 X11.4292 Y18.0923 F350.00
G01 X11.4532 Y18.0974 F350.00
G01 X11.5913 Y18.1316 F350.00
G01 X11.6151 Y18.1379 F350.00
G01 X11.6386 Y18.1447 F350.00
G01 X11.6620 Y18.1521 F350.00
G01 X11.6852 Y18.1601 F350.00
G01 X11.7961 Y18.1998 F350.00
G01 X11.8191 Y18.2084 F350.00
G01 X11.8419 Y18.2175 F350.00
G01 X11.8645 Y18.2271 F350.00
G01 X11.8868 Y18.2374 F350.00
G01 X11.9932 Y18.2877 F350.00
G01 X12.0153 Y18.2985 F350.00
G01 X12.0371 Y18.3098 F350.00
G01 X12.0586 Y18.3216 F350.00
G01 X12.1808 Y18.3945 F350.00
G01 X12.2017 Y18.4074 F350.00
G01 X12.2223 Y18.4208 F350.00
G01 X12.2425 Y18.4347 F350.00
G01 X12.2624 Y18.4490 F350.00
G01 X12.3570 Y18.5192 F350.00
G01 X12.3765 Y18.5340 F350.00
G01 X12.3957 Y18.5494 F350.00
G01 X12.4144 Y18.5652 F350.00
G01 X12.4328 Y18.5814 F350.00
G01 X12.5381 Y18.6772 F350.00
G01 X12.5556 Y18.6944 F350.00
G01 X12.5728 Y18.7119 F350.00
G01 X12.5895 Y18.7299 F350.00
G01 X12.6686 Y18.8172 F350.00
G01 X12.6848 Y18.8356 F350.00
G01 X12.7006 Y18.8543 F350.00
G01 X12.7160 Y18.8735 F350.00
G01 X12.7308 Y18.8930 F350.00
G01 X12.8010 Y18.9876 F350.00
G01 X12.8153 Y19.0075 F350.00
G01 X12.8292 Y19.0277 F350.00
G01 X12.8426 Y19.0483 F350.00
G01 X12.8555 Y19.0692 F350.00
G01 X12.9284 Y19.1914 F350.00
G01 X12.9402 Y19.2129 F350.00
G01 X12.9515 Y19.2347 F350.00
G01 X12.9623 Y19.2568 F350.00
G01 X13.0126 Y19.3632 F350.00
G01 X13.0229 Y19.3855 F350.00
G01 X13.0325 Y19.4081 F350.00
G01 X13.0416 Y19.4309 F350.00
G01 X13.0502 Y19.4539 F350.00
G01 X13.0899 Y19.5648 F350.00
G01 X13.0979 Y19.5880 F350.00
G01 X13.1053 Y19.6114 F350.00
G01 X13.1121 Y19.6349 F350.00
G01 X13.1184 Y19.6587 F350.00
G01 X13.1470 Y19.7729 F350.00
G01 X13.1526 Y19.7968 F350.00
G01 X13.1577 Y19.8208 F350.00
G01 X13.1622 Y19.8449 F350.00
G01 X13.1661 Y19.8692 F350.00
G01 X13.1834 Y19.9856 F350.00
G01 X13.1867 Y20.0100 F350.00
G01 X13.1894 Y20.0344 F350.00
G01 X13.1915 Y20.0588 F350.00
G01 X13.1930 Y20.0833 F350.00
G01 X13.1988 Y20.2009 F350.00
G01 X13.1997 Y20.2255 F350.00
G01 X13.2000 Y20.2500 F350.00
G01 X13.2000 Y21.8500 F350.00
G01 X13.1997 Y21.8745 F350.00
G01 X13.1930 Y22.0167 F350.00
G01 X13.1915 Y22.0412 F350.00
G01 X13.1894 Y22.0656 F350.00
G01 X13.1867 Y22.0900 F350.00
G01 X13.1834 Y22.1144 F350.00
G01 X13.1661 Y22.2308 F350.00
G01 X13.1622 Y22.2551 F350.00
G01 X13.1577 Y22.2792 F350.00
G01 X13.1526 Y22.3032 F350.00
G01 X13.1184 Y22.4413 F350.00
G01 X13.1121 Y22.4651 F350.00
G01 X13.1053 Y22.4886 F350.00
G01 X13.0979 Y22.5120 F350.00
G01 X13.0899 Y22.5352 F350.00
G01 X13.0502 Y22.6461 F350.00
G01 X13.0416 Y22.6691 F350.00
G01 X13.0325 Y22.6919 F350.00
G01 X13.0229 Y22.7145 F350.00
G01 X12.9623 Y22.8432 F350.00
G01 X12.9515 Y22.8653 F350.00
G01 X12.9402 Y22.8871 F350.00
G01 X12.9284 Y22.9086 F350.00
G01 X12.9160 Y22.9298 F350.00
G01 X12.8426 Y23.0517 F350.00
G01 X12.8292 Y23.0723 F350.00
G01 X12.8153 Y23.0925 F350.00
G01 X12.8010 Y23.1124 F350.00
G01 X12.7308 Y23.2070 F350.00
G01 X12.7160 Y23.2265 F350.00
G01 X12.7006 Y23.2457 F350.00
G01 X12.6848 Y23.2644 F350.00
G01 X12.6686 Y23.2828 F350.00
G01 X12.5895 Y23.3701 F350.00
G01 X12.5728 Y23.3881 F350.00
G01 X12.5556 Y23.4056 F350.00
G01 X12.5381 Y23.4228 F350.00
G01 X12.5201 Y23.4395 F350.00
G01 X12.4328 Y23.5186 F350.00
G01 X12.4144 Y23.5348 F350.00
G01 X12.3957 Y23.5506 F350.00
G01 X12.3765 Y23.5660 F350.00
G01 X12.3570 Y23.5808 F350.00
G01 X12.2624 Y23.6510 F350.00
G01 X12.2425 Y23.6653 F350.00
G01 X12.2223 Y23.6792 F350.00
G01 X12.2017 Y23.6926 F350.00
G01 X12.0798 Y23.7660 F350.00
G01 X12.0586 Y23.7784 F350.00
G01 X12.0371 Y23.7902 F350.00
G01 X12.0153 Y23.8015 F350.00
G01 X11.9932 Y23.8123 F350.00
G01 X11.8868 Y23.8626 F350.00
G01 X11.8645 Y23.8729 F350.00
G01 X11.8419 Y23.8825 F350.00
G01 X11.8191 Y23.8916 F350.00
G01 X11.7961 Y23.9002 F350.00
G01 X11.6852 Y23.9399 F350.00
G01 X11.6620 Y23.9479 F350.00
G01 X11.6386 Y23.9553 F350.00
G01 X11.6151 Y23.9621 F350.00
G01 X11.4771 Y23.9970 F350.00
G01 X11.4532 Y24.0026 F350.00
G01 X11.4292 Y24.0077 F350.00
G01 X11.4051 Y24.0122 F350.00
G01 X11.3808 Y24.0161 F350.00
G01 X11.2644 Y24.0334 F350.00
G01 X11.2400 Y24.0367 F350.00
G01 X11.2156 Y24.0394 F350.00
G01 X11.1912 Y24.0415 F350.00
G01 X11.1667 Y24.0430 F350.00
G01 X11.0245 Y24.0497 F350.00
G01 X11.0000 Y24.0500 F350.00
G01 X10.9755 Y24.0497 F350.00
G01 X10.9509 Y24.0488 F350.00
G01 X10.8333 Y24.0430 F350.00
G01 X10.8088 Y24.0415 F350.00
G01 X10.7844 Y24.0394 F350.00
G01 X10.7600 Y24.0367 F350.00
G01 X10.7356 Y24.0334 F350.00
G01 X10.6192 Y24.0161 F350.00
G01 X10.5949 Y24.0122 F350.00
G01 X10.5708 Y24.0077 F350.00
G01 X10.5468 Y24.0026 F350.00
G01 X10.4087 Y23.9684 F350.00
G01 X10.3849 Y23.9621 F350.00
G01 X10.3614 Y23.9553 F350.00
G01 X10.3380 Y23.9479 F350.00
G01 X10.3148 Y23.9399 F350.00
G01 X10.2039 Y23.9002 F350.00
G01 X10.1809 Y23.8916 F350.00
G01 X10.1581 Y23.8825 F350.00
G01 X10.1355 Y23.8729 F350.00
G01 X10.1132 Y23.8626 F350.00
G01 X10.0068 Y23.8123 F350.00
G01 X9.9847 Y23.8015 F350.00
G01 X9.9629 Y23.7902 F350.00
G01 X9.9414 Y23.7784 F350.00
G01 X9.8192 Y23.7055 F350.00
G01 X9.7983 Y23.6926 F350.00
G01 X9.7777 Y23.6792 F350.00
G01 X9.7575 Y23.6653 F350.00
G01 X9.7376 Y23.6510 F350.00
G01 X9.6430 Y23.5808 F350.00
G01 X9.6235 Y23.5660 F350.00
G01 X9.6043 Y23.5506 F350.00
G01 X9.5856 Y23.5348 F350.00
G01 X9.5672 Y23.5186 F350.00
G01 X9.5000 Y23.4577 F350.00
G01 X9.4144 Y23.5348 F350.00
G01 X9.3957 Y23.5506 F350.00
G01 X9.3765 Y23.5660 F350.00
G01 X9.2624 Y23.6510 F350.00
G01 X9.2425 Y23.6653 F350.00
G01 X9.2223 Y23.6792 F350.00
G01 X9.2017 Y23.6926 F350.00
G01 X9.1808 Y23.7055 F350.00
G01 X9.0798 Y23.7660 F350.00
G01 X9.0586 Y23.7784 F350.00
G01 X9.0371 Y23.7902 F350.00
G01 X9.0153 Y23.8015 F350.00
G01 X8.9932 Y23.8123 F350.00
G01 X8.8645 Y23.8729 F350.00
G01 X8.8419 Y23.8825 F350.00
G01 X8.8191 Y23.8916 F350.00
G01 X8.6852 Y23.9399 F350.00
G01 X8.6620 Y23.9479 F350.00
G01 X8.6386 Y23.9553 F350.00
G01 X8.6151 Y23.9621 F350.00
G01 X8.5913 Y23.9684 F350.00
G01 X8.4771 Y23.9970 F350.00
G01 X8.4532 Y24.0026 F350.00
G01 X8.4292 Y24.0077 F350.00
G01 X8.4051 Y24.0122 F350.00
G01 X8.3808 Y24.0161 F350.00
G01 X8.2644 Y24.0334 F350.00
G01 X8.2400 Y24.0367 F350.00
G01 X8.2156 Y24.0394 F350.00
G01 X8.1912 Y24.0415 F350.00
G01 X8.1667 Y24.0430 F350.00
G01 X8.0491 Y24.0488 F350.00
G01 X8.0245 Y24.0497 F350.00
G01 X8.0000 Y24.0500 F350.00
G01 X7.9755 Y24.0497 F350.00
G01 X7.9509 Y24.0488 F350.00
G01 X7.8333 Y24.0430 F350.00
G01 X7.8088 Y24.0415 F350.00
G01 X7.7844 Y24.0394 F350.00
G01 X7.7600 Y24.0367 F350.00
G01 X7.7356 Y24.0334 F350.00
G01 X7.6192 Y24.0161 F350.00
G01 X7.5949 Y24.0122 F350.00
G01 X7.5708 Y24.0077 F350.00
G01 X7.5468 Y24.0026 F350.00
G01 X7.5229 Y23.9970 F350.00
G01 X7.4087 Y23.9684 F350.00
G01 X7.3849 Y23.9621 F350.00
G01 X7.3614 Y23.9553 F350.00
G01 X7.3380 Y23.9479 F350.00
G01 X7.2039 Y23.9002 F350.00
G01 X7.1809 Y23.8916 F350.00
G01 X7.1581 Y23.8825 F350.00
G01 X7.1355 Y23.8729 F350.00
G01 X7.1132 Y23.8626 F350.00
G01 X6.9847 Y23.8015 F350.00
G01 X6.9629 Y23.7902 F350.00
G01 X6.9414 Y23.7784 F350.00
G01 X6.9202 Y23.7660 F350.00
G01 X6.7983 Y23.6926 F350.00
G01 X6.7777 Y23.6792 F350.00
G01 X6.7575 Y23.6653 F350.00
G01 X6.7376 Y23.6510 F350.00
G01 X6.6430 Y23.5808 F350.00
G01 X6.6235 Y23.5660 F350.00
G01 X6.6043 Y23.5506 F350.00
G01 X6.5856 Y23.5348 F350.00
G01 X6.5672 Y23.5186 F350.00
G01 X6.5000 Y23.4577 F350.00
G01 X6.4328 Y23.5186 F350.00
G01 X6.4144 Y23.5348 F350.00
G01 X6.3957 Y23.5506 F350.00
G01 X6.3765 Y23.5660 F350.00
G01 X6.3570 Y23.5808 F350.00
G01 X6.2624 Y23.6510 F350.00
G01 X6.2425 Y23.6653 F350.00
G01 X6.2223 Y23.6792 F350.00
G01 X6.2017 Y23.6926 F350.00
G01 X6.1808 Y23.7055 F350.00
G01 X6.0586 Y23.7784 F350.00
G01 X6.0371 Y23.7902 F350.00
G01 X6.0153 Y23.8015 F350.00
G01 X5.9932 Y23.8123 F350.00
G01 X5.8868 Y23.8626 F350.00
G01 X5.8645 Y23.8729 F350.00
G01 X5.8419 Y23.8825 F350.00
G01 X5.8191 Y23.8916 F350.00
G01 X5.7961 Y23.9002 F350.00
G01 X5.6852 Y23.9399 F350.00
G01 X5.6620 Y23.9479 F350.00
G01 X5.6386 Y23.9553 F350.00
G01 X5.6151 Y23.9621 F350.00
G01 X5.5913 Y23.9684 F350.00
G01 X5.4532 Y24.0026 F350.00
G01 X5.4292 Y24.0077 F350.00
G01 X5.4051 Y24.0122 F350.00
G01 X5.3808 Y24.0161 F350.00
G01 X5.2644 Y24.0334 F350.00
G01 X5.2400 Y24.0367 F350.00
G01 X5.2156 Y24.0394 F350.00
G01 X5.1912 Y24.0415 F350.00
G01 X5.1667 Y24.0430 F350.00
G01 X5.0491 Y24.0488 F350.00
G01 X5.0245 Y24.0497 F350.00
G01 X5.0000 Y24.0500 F350.00
G01 X4.9755 Y24.0497 F350.00
G01 X4.8333 Y24.0430 F350.00
G01 X4.8088 Y24.0415 F350.00
G01 X4.7844 Y24.0394 F350.00
G01 X4.7600 Y24.0367 F350.00
G01 X4.7356 Y24.0334 F350.00
G01 X4.6192 Y24.0161 F350.00
G01 X4.5949 Y24.0122 F350.00
G01 X4.5708 Y24.0077 F350.00
G01 X4.5468 Y24.0026 F350.00
G01 X4.4087 Y23.9684 F350.00
G01 X4.3849 Y23.9621 F350.00
G01 X4.3614 Y23.9553 F350.00
G01 X4.3380 Y23.9479 F350.00
G01 X4.3148 Y23.9399 F350.00
G01 X4.2039 Y23.9002 F350.00
G01 X4.1809 Y23.8916 F350.00
G01 X4.1581 Y23.8825 F350.00
G01 X4.1355 Y23.8729 F350.00
G01 X4.1132 Y23.8626 F350.00
G01 X4.0068 Y23.8123 F350.00
G01 X3.9847 Y23.8015 F350.00
G01 X3.9629 Y23.7902 F350.00
G01 X3.9414 Y23.7784 F350.00
G01 X3.8192 Y23.7055 F350.00
G01 X3.7983 Y23.6926 F350.00
G01 X3.7777 Y23.6792 F350.00
G01 X3.7575 Y23.6653 F350.00
G01 X3.7376 Y23.6510 F350.00
G01 X3.6430 Y23.5808 F350.00
G01 X3.6235 Y23.5660 F350.00
G01 X3.6043 Y23.5506 F350.00
G01 X3.5856 Y23.5348 F350.00
G01 X3.5672 Y23.5186 F350.00
G01 X3.4799 Y23.4395 F350.00
G01 X3.4619 Y23.4228 F350.00
G01 X3.4444 Y23.4056 F350.00
G01 X3.4272 Y23.3881 F350.00
G01 X3.3314 Y23.2828 F350.00
G01 X3.3152 Y23.2644 F350.00
G01 X3.2994 Y23.2457 F350.00
G01 X3.2840 Y23.2265 F350.00
G01 X3.2692 Y23.2070 F350.00
G01 X3.1990 Y23.1124 F350.00
G01 X3.1847 Y23.0925 F350.00
G01 X3.1708 Y23.0723 F350.00
G01 X3.1574 Y23.0517 F350.00
G01 X3.1445 Y23.0308 F350.00
G01 X3.0840 Y22.9298 F350.00
G01 X3.0716 Y22.9086 F350.00
G01 X3.0598 Y22.8871 F350.00
G01 X3.0485 Y22.8653 F350.00
G01 X2.9874 Y22.7368 F350.00
G01 X2.9771 Y22.7145 F350.00
G01 X2.9675 Y22.6919 F350.00
G01 X2.9584 Y22.6691 F350.00
G01 X2.9498 Y22.6461 F350.00
G01 X2.9021 Y22.5120 F350.00
G01 X2.8947 Y22.4886 F350.00
G01 X2.8879 Y22.4651 F350.00
G01 X2.8530 Y22.3271 F350.00
G01 X2.8474 Y22.3032 F350.00
G01 X2.8423 Y22.2792 F350.00
G01 X2.8378 Y22.2551 F350.00
G01 X2.8166 Y22.1144 F350.00
G01 X2.8133 Y22.0900 F350.00
G01 X2.8106 Y22.0656 F350.00
G01 X2.8085 Y22.0412 F350.00
G01 X2.8070 Y22.0167 F350.00
G01 X2.8012 Y21.8991 F350.00
G01 X2.8003 Y21.8745 F350.00
G01 X2.8000 Y21.8500 F350.00
G01 X2.8000 Y20.2500 F350.00
G01 X2.8003 Y20.2255 F350.00
G01 X2.8012 Y20.2009 F350.00
G01 X2.8085 Y20.0588 F350.00
G01 X2.8106 Y20.0344 F350.00
G01 X2.8133 Y20.0100 F350.00
G01 X2.8166 Y19.9856 F350.00
G00 Z0.5000
G00 X5.2752 Y25.6392
G01 F250.00
G01 Z-0.0500
G01 F350.00
G01 X5.3089 Y25.6372 F350.00
G01 X5.3725 Y25.6317 F350.00
G01 X5.4359 Y25.6247 F350.00
G01 X5.4991 Y25.6161 F350.00
G01 X5.6156 Y25.5988 F350.00
G01 X5.6786 Y25.5887 F350.00
G01 X5.7413 Y25.5770 F350.00
G01 X5.8038 Y25.5638 F350.00
G01 X5.8659 Y25.5490 F350.00
G01 X5.9801 Y25.5204 F350.00
G01 X6.0418 Y25.5041 F350.00
G01 X6.1031 Y25.4864 F350.00
G01 X6.1639 Y25.4671 F350.00
G01 X6.2243 Y25.4463 F350.00
G01 X6.3351 Y25.4067 F350.00
G01 X6.3949 Y25.3844 F350.00
G01 X6.4542 Y25.3607 F350.00
G01 X6.5000 Y25.3411 F350.00
G01 X6.5458 Y25.3607 F350.00
G01 X6.6051 Y25.3844 F350.00
G01 X6.6649 Y25.4067 F350.00
G01 X6.7757 Y25.4463 F350.00
G01 X6.8361 Y25.4671 F350.00
G01 X6.8969 Y25.4864 F350.00
G01 X6.9582 Y25.5041 F350.00
G01 X7.0199 Y25.5204 F350.00
G01 X7.1341 Y25.5490 F350.00
G01 X7.1962 Y25.5638 F350.00
G01 X7.2587 Y25.5770 F350.00
G01 X7.3214 Y25.5887 F350.00
G01 X7.3844 Y25.5988 F350.00
G01 X7.5009 Y25.6161 F350.00
G01 X7.5641 Y25.6247 F350.00
G01 X7.6275 Y25.6317 F350.00
G01 X7.6911 Y25.6372 F350.00
G01 X7.7548 Y25.6411 F350.00
G01 X7.8724 Y25.6469 F350.00
G01 X7.9362 Y25.6492 F350.00
G01 X8.0000 Y25.6500 F350.00
G01 X8.0638 Y25.6492 F350.00
G01 X8.1276 Y25.6469 F350.00
G01 X8.2452 Y25.6411 F350.00
G01 X8.3089 Y25.6372 F350.00
G01 X8.3725 Y25.6317 F350.00
G01 X8.4359 Y25.6247 F350.00
G01 X8.4991 Y25.6161 F350.00
G01 X8.6156 Y25.5988 F350.00
G01 X8.6786 Y25.5887 F350.00
G01 X8.7413 Y25.5770 F350.00
G01 X8.8038 Y25.5638 F350.00
G01 X8.8668 Y25.5488 F350.00
G01 X8.0078 Y26.4078 F350.00
G01 X7.9632 Y26.4535 F350.00
G01 X7.9198 Y26.5002 F350.00
G01 X7.8868 Y26.5366 F350.00
G01 X7.8446 Y26.5844 F350.00
G01 X7.8035 Y26.6332 F350.00
G01 X7.7636 Y26.6830 F350.00
G01 X7.7250 Y26.7338 F350.00
G01 X7.6957 Y26.7733 F350.00
G01 X7.6583 Y26.8250 F350.00
G01 X7.6222 Y26.8776 F350.00
G01 X7.5874 Y26.9311 F350.00
G01 X7.5540 Y26.9854 F350.00
G01 X7.5287 Y27.0275 F350.00
G01 X7.4966 Y27.0826 F350.00
G01 X7.4658 Y27.1386 F350.00
G01 X7.4364 Y27.1952 F350.00
G01 X7.4084 Y27.2525 F350.00
G01 X7.3875 Y27.2969 F350.00
G01 X7.3609 Y27.3549 F350.00
G01 X7.3357 Y27.4136 F350.00
G01 X7.3120 Y27.4728 F350.00
G01 X7.2898 Y27.5326 F350.00
G01 X7.2733 Y27.5789 F350.00
G01 X7.2525 Y27.6392 F350.00
G01 X7.2332 Y27.7000 F350.00
G01 X7.2155 Y27.7613 F350.00
G01 X7.1992 Y27.8230 F350.00
G01 X7.1873 Y27.8707 F350.00
G01 X7.1725 Y27.9327 F350.00
G01 X7.1593 Y27.9952 F350.00
G01 X7.1476 Y28.0579 F350.00
G01 X7.1375 Y28.1209 F350.00
G01 X7.1303 Y28.1695 F350.00
G01 X7.1217 Y28.2327 F350.00
G01 X7.1147 Y28.2961 F350.00
G01 X7.1092 Y28.3597 F350.00
G01 X7.1053 Y28.4234 F350.00
G01 X7.1029 Y28.4724 F350.00
G01 X7.1005 Y28.5362 F350.00
G01 X7.0998 Y28.6000 F350.00
G01 X7.0998 Y28.7653 F350.00
G01 X7.0883 Y28.7539 F350.00
G01 X7.0857 Y28.7117 F350.00
G01 X7.0803 Y28.6481 F350.00
G01 X7.0732 Y28.5847 F350.00
G01 X7.0646 Y28.5215 F350.00
G01 X7.0430 Y28.3759 F350.00
G01 X7.0329 Y28.3129 F350.00
G01 X7.0212 Y28.2501 F350.00
G01 X7.0080 Y28.1877 F350.00
G01 X6.9933 Y28.1256 F350.00
G01 X6.9575 Y27.9828 F350.00
G01 X6.9412 Y27.9211 F350.00
G01 X6.9235 Y27.8598 F350.00
G01 X6.9042 Y27.7990 F350.00
G01 X6.8834 Y27.7387 F350.00
G01 X6.8338 Y27.6001 F350.00
G01 X6.8116 Y27.5402 F350.00
G01 X6.7879 Y27.4810 F350.00
G01 X6.7628 Y27.4223 F350.00
G01 X6.7362 Y27.3643 F350.00
G01 X6.6733 Y27.2313 F350.00
G01 X6.6453 Y27.1739 F350.00
G01 X6.6159 Y27.1173 F350.00
G01 X6.5851 Y27.0614 F350.00
G01 X6.5530 Y27.0062 F350.00
G01 X6.4773 Y26.8800 F350.00
G01 X6.4438 Y26.8257 F350.00
G01 X6.4090 Y26.7722 F350.00
G01 X6.3729 Y26.7195 F350.00
G01 X6.3355 Y26.6678 F350.00
G01 X6.2479 Y26.5496 F350.00
G01 X6.2092 Y26.4988 F350.00
G01 X6.1693 Y26.4490 F350.00
G01 X6.1283 Y26.4002 F350.00
G01 X6.0860 Y26.3524 F350.00
G01 X5.9871 Y26.2433 F350.00
G01 X5.9437 Y26.1965 F350.00
G01 X5.8991 Y26.1509 F350.00
G01 X5.8535 Y26.1063 F350.00
G01 X5.8067 Y26.0629 F350.00
G01 X5.6976 Y25.9640 F350.00
G01 X5.6498 Y25.9217 F350.00
G01 X5.6010 Y25.8807 F350.00
G01 X5.5512 Y25.8408 F350.00
G01 X5.5004 Y25.8021 F350.00
G01 X5.3822 Y25.7145 F350.00
G01 X5.3305 Y25.6771 F350.00
G01 X5.2752 Y25.6392 F350.00
G00 Z0.5000
G00 X1.6503 Y26.9465
G01 F250.00
G01 Z-0.0500
G01 F350.00
G01 X1.6502 Y19.5214 F350.00
G01 X4.3714 Y16.8003 F350.00
G01 X5.5024 Y16.8002 F350.00
G01 X5.5521 Y16.8668 F350.00
G01 X5.5675 Y16.8860 F350.00
G01 X5.5833 Y16.9048 F350.00
G01 X5.5995 Y16.9231 F350.00
G01 X5.6984 Y17.0322 F350.00
G01 X5.7151 Y17.0502 F350.00
G01 X5.7322 Y17.0678 F350.00
G01 X5.7498 Y17.0849 F350.00
G01 X5.7678 Y17.1016 F350.00
G01 X5.8769 Y17.2005 F350.00
G01 X5.8952 Y17.2167 F350.00
G01 X5.9140 Y17.2325 F350.00
G01 X5.9332 Y17.2479 F350.00
G01 X5.9527 Y17.2627 F350.00
G01 X6.0709 Y17.3504 F350.00
G01 X6.0908 Y17.3648 F350.00
G01 X6.1111 Y17.3787 F350.00
G01 X6.1316 Y17.3921 F350.00
G01 X6.1525 Y17.4049 F350.00
G01 X6.2788 Y17.4806 F350.00
G01 X6.3000 Y17.4930 F350.00
G01 X6.3215 Y17.5048 F350.00
G01 X6.3433 Y17.5161 F350.00
G01 X6.3653 Y17.5269 F350.00
G01 X6.4984 Y17.5898 F350.00
G01 X6.5207 Y17.6000 F350.00
G01 X6.5433 Y17.6097 F350.00
G01 X6.5661 Y17.6188 F350.00
G01 X6.5891 Y17.6274 F350.00
G01 X6.7277 Y17.6770 F350.00
G01 X6.7509 Y17.6849 F350.00
G01 X6.7743 Y17.6924 F350.00
G01 X6.7979 Y17.6992 F350.00
G01 X6.8216 Y17.7054 F350.00
G01 X6.9644 Y17.7412 F350.00
G01 X6.9883 Y17.7469 F350.00
G01 X7.0123 Y17.7520 F350.00
G01 X7.0364 Y17.7565 F350.00
G01 X7.0606 Y17.7604 F350.00
G01 X7.2062 Y17.7820 F350.00
G01 X7.2306 Y17.7853 F350.00
G01 X7.2550 Y17.7880 F350.00
G01 X7.2794 Y17.7901 F350.00
G01 X7.3039 Y17.7916 F350.00
G01 X7.4509 Y17.7988 F350.00
G01 X7.4755 Y17.7997 F350.00
G01 X7.5000 Y17.8000 F350.00
G01 X7.5245 Y17.7997 F350.00
G01 X7.5491 Y17.7988 F350.00
G01 X7.6961 Y17.7916 F350.00
G01 X7.7206 Y17.7901 F350.00
G01 X7.7450 Y17.7880 F350.00
G01 X7.7694 Y17.7853 F350.00
G01 X7.7938 Y17.7820 F350.00
G01 X7.9394 Y17.7604 F350.00
G01 X7.9636 Y17.7565 F350.00
G01 X7.9877 Y17.7520 F350.00
G01 X8.0117 Y17.7469 F350.00
G01 X8.0356 Y17.7412 F350.00
G01 X8.1784 Y17.7054 F350.00
G01 X8.2021 Y17.6992 F350.00
G01 X8.2257 Y17.6924 F350.00
G01 X8.2491 Y17.6849 F350.00
G01 X8.2723 Y17.6770 F350.00
G01 X8.4109 Y17.6274 F350.00
G01 X8.4339 Y17.6188 F350.00
G01 X8.4567 Y17.6097 F350.00
G01 X8.4793 Y17.6000 F350.00
G01 X8.5016 Y17.5898 F350.00
G01 X8.6347 Y17.5269 F350.00
G01 X8.6567 Y17.5161 F350.00
G01 X8.6785 Y17.5048 F350.00
G01 X8.7000 Y17.4930 F350.00
G01 X8.7212 Y17.4806 F350.00
G01 X8.8475 Y17.4049 F350.00
G01 X8.8684 Y17.3921 F350.00
G01 X8.8889 Y17.3787 F350.00
G01 X8.9092 Y17.3648 F350.00
G01 X8.9291 Y17.3504 F350.00
G01 X9.0473 Y17.2627 F350.00
G01 X9.0668 Y17.2479 F350.00
G01 X9.0860 Y17.2325 F350.00
G01 X9.1048 Y17.2167 F350.00
G01 X9.1231 Y17.2005 F350.00
G01 X9.2322 Y17.1016 F350.00
G01 X9.2502 Y17.0849 F350.00
G01 X9.2678 Y17.0678 F350.00
G01 X9.2849 Y17.0502 F350.00
G01 X9.3016 Y17.0322 F350.00
G01 X9.4005 Y16.9231 F350.00
G01 X9.4167 Y16.9048 F350.00
G01 X9.4325 Y16.8860 F350.00
G01 X9.4479 Y16.8668 F350.00
G01 X9.4627 Y16.8473 F350.00
G01 X9.5504 Y16.7291 F350.00
G01 X9.5648 Y16.7092 F350.00
G01 X9.5787 Y16.6889 F350.00
G01 X9.5921 Y16.6684 F350.00
G01 X9.6049 Y16.6475 F350.00
G01 X9.6806 Y16.5212 F350.00
G01 X9.6930 Y16.5000 F350.00
G01 X9.7048 Y16.4785 F350.00
G01 X9.7161 Y16.4567 F350.00
G01 X9.7269 Y16.4347 F350.00
G01 X9.7898 Y16.3016 F350.00
G01 X9.8000 Y16.2793 F350.00
G01 X9.8097 Y16.2567 F350.00
G01 X9.8188 Y16.2339 F350.00
G01 X9.8274 Y16.2109 F350.00
G01 X9.8770 Y16.0723 F350.00
G01 X9.8849 Y16.0491 F350.00
G01 X9.8924 Y16.0257 F350.00
G01 X9.8992 Y16.0021 F350.00
G01 X9.9054 Y15.9784 F350.00
G01 X9.9412 Y15.8356 F350.00
G01 X9.9469 Y15.8117 F350.00
G01 X9.9520 Y15.7877 F350.00
G01 X9.9565 Y15.7636 F350.00
G01 X9.9604 Y15.7394 F350.00
G01 X9.9820 Y15.5938 F350.00
G01 X9.9853 Y15.5694 F350.00
G01 X9.9880 Y15.5450 F350.00
G01 X9.9901 Y15.5206 F350.00
G01 X9.9916 Y15.4961 F350.00
G01 X9.9988 Y15.3491 F350.00
G01 X9.9997 Y15.3245 F350.00
G01 X10.0000 Y15.3000 F350.00
G01 X9.9997 Y15.2755 F350.00
G01 X9.9988 Y15.2509 F350.00
G01 X9.9916 Y15.1039 F350.00
G01 X9.9901 Y15.0794 F350.00
G01 X9.9880 Y15.0550 F350.00
G01 X9.9853 Y15.0306 F350.00
G01 X9.9820 Y15.0062 F350.00
G01 X9.9604 Y14.8606 F350.00
G01 X9.9565 Y14.8364 F350.00
G01 X9.9520 Y14.8123 F350.00
G01 X9.9469 Y14.7883 F350.00
G01 X9.9412 Y14.7644 F350.00
G01 X9.9054 Y14.6216 F350.00
G01 X9.8992 Y14.5979 F350.00
G01 X9.8924 Y14.5743 F350.00
G01 X9.8849 Y14.5509 F350.00
G01 X9.8770 Y14.5277 F350.00
G01 X9.8274 Y14.3891 F350.00
G01 X9.8188 Y14.3661 F350.00
G01 X9.8097 Y14.3433 F350.00
G01 X9.8000 Y14.3207 F350.00
G01 X9.7898 Y14.2984 F350.00
G01 X9.7269 Y14.1653 F350.00
G01 X9.7161 Y14.1433 F350.00
G01 X9.7048 Y14.1215 F350.00
G01 X9.6930 Y14.1000 F350.00
G01 X9.6806 Y14.0788 F350.00
G01 X9.6049 Y13.9525 F350.00
G01 X9.5921 Y13.9316 F350.00
G01 X9.5787 Y13.9111 F350.00
G01 X9.5648 Y13.8908 F350.00
G01 X9.5504 Y13.8709 F350.00
G01 X9.4627 Y13.7527 F350.00
G01 X9.4479 Y13.7332 F350.00
G01 X9.4325 Y13.7140 F350.00
G01 X9.4167 Y13.6952 F350.00
G01 X9.4005 Y13.6769 F350.00
G01 X9.3016 Y13.5678 F350.00
G01 X9.2849 Y13.5498 F350.00
G01 X9.2678 Y13.5322 F350.00
G01 X9.2502 Y13.5151 F350.00
G01 X9.2322 Y13.4984 F350.00
G01 X9.1231 Y13.3995 F350.00
G01 X9.1003 Y13.3795 F350.00
G01 X9.1002 Y13.1274 F350.00
G01 X9.1439 Y13.0352 F350.00
G01 X9.1541 Y13.0129 F350.00
G01 X9.1638 Y12.9904 F350.00
G01 X9.1729 Y12.9676 F350.00
G01 X9.1814 Y12.9446 F350.00
G01 X9.2145 Y12.8522 F350.00
G01 X9.2225 Y12.8290 F350.00
G01 X9.2299 Y12.8056 F350.00
G01 X9.2367 Y12.7820 F350.00
G01 X9.2430 Y12.7583 F350.00
G01 X9.2668 Y12.6631 F350.00
G01 X9.2725 Y12.6392 F350.00
G01 X9.2776 Y12.6152 F350.00
G01 X9.2821 Y12.5911 F350.00
G01 X9.3004 Y12.4697 F350.00
G01 X9.3037 Y12.4454 F350.00
G01 X9.3064 Y12.4210 F350.00
G01 X9.3085 Y12.3966 F350.00
G01 X9.3100 Y12.3721 F350.00
G01 X9.3157 Y12.2495 F350.00
G01 X9.3160 Y12.2250 F350.00
G01 X9.3160 Y10.9750 F350.00
G01 X9.3157 Y10.9505 F350.00
G01 X9.3148 Y10.9259 F350.00
G01 X9.3085 Y10.8034 F350.00
G01 X9.3064 Y10.7790 F350.00
G01 X9.3037 Y10.7546 F350.00
G01 X9.2860 Y10.6332 F350.00
G01 X9.2821 Y10.6089 F350.00
G01 X9.2776 Y10.5848 F350.00
G01 X9.2725 Y10.5608 F350.00
G01 X9.2668 Y10.5369 F350.00
G01 X9.2367 Y10.4180 F350.00
G01 X9.2299 Y10.3944 F350.00
G01 X9.2225 Y10.3710 F350.00
G01 X9.1814 Y10.2554 F350.00
G01 X9.1729 Y10.2324 F350.00
G01 X9.1576 Y10.1953 F350.00
G01 X10.6840 Y11.7217 F350.00
G01 X10.6840 Y13.1000 F350.00
G01 X10.6843 Y13.1245 F350.00
G01 X10.6852 Y13.1491 F350.00
G01 X10.6867 Y13.1736 F350.00
G01 X10.6888 Y13.1980 F350.00
G01 X10.6915 Y13.2224 F350.00
G01 X10.6948 Y13.2467 F350.00
G01 X10.6987 Y13.2710 F350.00
G01 X10.7032 Y13.2951 F350.00
G01 X10.7083 Y13.3191 F350.00
G01 X10.7140 Y13.3430 F350.00
G01 X10.7202 Y13.3667 F350.00
G01 X10.7271 Y13.3903 F350.00
G01 X10.7345 Y13.4137 F350.00
G01 X10.7425 Y13.4369 F350.00
G01 X10.7510 Y13.4599 F350.00
G01 X10.7601 Y13.4827 F350.00
G01 X10.7698 Y13.5052 F350.00
G01 X10.7800 Y13.5276 F350.00
G01 X10.7908 Y13.5496 F350.00
G01 X10.8021 Y13.5714 F350.00
G01 X10.8139 Y13.5929 F350.00
G01 X10.8263 Y13.6141 F350.00
G01 X10.8391 Y13.6350 F350.00
G01 X10.8525 Y13.6556 F350.00
G01 X10.8664 Y13.6758 F350.00
G01 X10.8808 Y13.6957 F350.00
G01 X10.8957 Y13.7152 F350.00
G01 X10.9110 Y13.7344 F350.00
G01 X10.9268 Y13.7532 F350.00
G01 X10.9430 Y13.7716 F350.00
G01 X10.9598 Y13.7895 F350.00
G01 X10.9769 Y13.8071 F350.00
G01 X10.9945 Y13.8242 F350.00
G01 X11.0124 Y13.8410 F350.00
G01 X11.0308 Y13.8572 F350.00
G01 X11.0496 Y13.8730 F350.00
G01 X11.0688 Y13.8883 F350.00
G01 X11.0883 Y13.9032 F350.00
G01 X11.1082 Y13.9176 F350.00
G01 X11.1284 Y13.9315 F350.00
G01 X11.1490 Y13.9449 F350.00
G01 X11.1699 Y13.9577 F350.00
G01 X11.1911 Y13.9701 F350.00
G01 X11.2126 Y13.9819 F350.00
G01 X11.2418 Y13.9968 F350.00
G01 X11.2484 Y14.0195 F350.00
G01 X11.2558 Y14.0429 F350.00
G01 X11.2637 Y14.0661 F350.00
G01 X11.2888 Y14.1353 F350.00
G01 X11.2979 Y14.1581 F350.00
G01 X11.3076 Y14.1807 F350.00
G01 X11.3388 Y14.2474 F350.00
G01 X11.3496 Y14.2694 F350.00
G01 X11.3609 Y14.2912 F350.00
G01 X11.3727 Y14.3127 F350.00
G01 X11.4103 Y14.3760 F350.00
G01 X11.4232 Y14.3969 F350.00
G01 X11.4366 Y14.4175 F350.00
G01 X11.4505 Y14.4377 F350.00
G01 X11.4648 Y14.4576 F350.00
G01 X11.5090 Y14.5166 F350.00
G01 X11.5243 Y14.5357 F350.00
G01 X11.5401 Y14.5545 F350.00
G01 X11.5893 Y14.6093 F350.00
G01 X11.6060 Y14.6273 F350.00
G01 X11.6232 Y14.6448 F350.00
G01 X12.0469 Y15.0685 F350.00
G01 X12.0435 Y15.0864 F350.00
G01 X12.0396 Y15.1106 F350.00
G01 X12.0180 Y15.2562 F350.00
G01 X12.0147 Y15.2806 F350.00
G01 X12.0120 Y15.3050 F350.00
G01 X12.0099 Y15.3294 F350.00
G01 X12.0084 Y15.3539 F350.00
G01 X12.0012 Y15.5009 F350.00
G01 X12.0003 Y15.5255 F350.00
G01 X12.0000 Y15.5500 F350.00
G01 X12.0003 Y15.5745 F350.00
G01 X12.0012 Y15.5991 F350.00
G01 X12.0084 Y15.7461 F350.00
G01 X12.0099 Y15.7706 F350.00
G01 X12.0120 Y15.7950 F350.00
G01 X12.0147 Y15.8194 F350.00
G01 X12.0180 Y15.8438 F350.00
G01 X12.0396 Y15.9894 F350.00
G01 X12.0435 Y16.0136 F350.00
G01 X12.0480 Y16.0377 F350.00
G01 X12.0531 Y16.0617 F350.00
G01 X12.0588 Y16.0856 F350.00
G01 X12.0946 Y16.2284 F350.00
G01 X12.1008 Y16.2521 F350.00
G01 X12.1076 Y16.2757 F350.00
G01 X12.1151 Y16.2991 F350.00
G01 X12.1230 Y16.3223 F350.00
G01 X12.1726 Y16.4609 F350.00
G01 X12.1812 Y16.4839 F350.00
G01 X12.1903 Y16.5067 F350.00
G01 X12.2000 Y16.5293 F350.00
G01 X12.2102 Y16.5516 F350.00
G01 X12.2731 Y16.6847 F350.00
G01 X12.2839 Y16.7067 F350.00
G01 X12.2952 Y16.7285 F350.00
G01 X12.3070 Y16.7500 F350.00
G01 X12.3194 Y16.7712 F350.00
G01 X12.3951 Y16.8975 F350.00
G01 X12.4079 Y16.9184 F350.00
G01 X12.4213 Y16.9389 F350.00
G01 X12.4352 Y16.9592 F350.00
G01 X12.4496 Y16.9791 F350.00
G01 X12.5373 Y17.0973 F350.00
G01 X12.5521 Y17.1168 F350.00
G01 X12.5675 Y17.1360 F350.00
G01 X12.5833 Y17.1548 F350.00
G01 X12.5995 Y17.1731 F350.00
G01 X12.6984 Y17.2822 F350.00
G01 X12.7151 Y17.3002 F350.00
G01 X12.7322 Y17.3178 F350.00
G01 X12.7498 Y17.3349 F350.00
G01 X12.7678 Y17.3516 F350.00
G01 X12.8769 Y17.4505 F350.00
G01 X12.8952 Y17.4667 F350.00
G01 X12.9140 Y17.4825 F350.00
G01 X12.9332 Y17.4979 F350.00
G01 X12.9527 Y17.5127 F350.00
G01 X13.0709 Y17.6004 F350.00
G01 X13.0908 Y17.6148 F350.00
G01 X13.1111 Y17.6287 F350.00
G01 X13.1316 Y17.6421 F350.00
G01 X13.1525 Y17.6549 F350.00
G01 X13.2788 Y17.7306 F350.00
G01 X13.3000 Y17.7430 F350.00
G01 X13.3215 Y17.7548 F350.00
G01 X13.3433 Y17.7661 F350.00
G01 X13.3653 Y17.7769 F350.00
G01 X13.4984 Y17.8398 F350.00
G01 X13.5207 Y17.8500 F350.00
G01 X13.5433 Y17.8597 F350.00
G01 X13.5661 Y17.8688 F350.00
G01 X13.5891 Y17.8774 F350.00
G01 X13.7277 Y17.9270 F350.00
G01 X13.7509 Y17.9349 F350.00
G01 X13.7743 Y17.9424 F350.00
G01 X13.7979 Y17.9492 F350.00
G01 X13.8216 Y17.9554 F350.00
G01 X13.9644 Y17.9912 F350.00
G01 X13.9883 Y17.9969 F350.00
G01 X14.0123 Y18.0020 F350.00
G01 X14.0364 Y18.0065 F350.00
G01 X14.0606 Y18.0104 F350.00
G01 X14.2062 Y18.0320 F350.00
G01 X14.2306 Y18.0353 F350.00
G01 X14.2550 Y18.0380 F350.00
G01 X14.2794 Y18.0401 F350.00
G01 X14.3039 Y18.0416 F350.00
G01 X14.4509 Y18.0488 F350.00
G01 X14.4755 Y18.0497 F350.00
G01 X14.5000 Y18.0500 F350.00
G01 X14.5245 Y18.0497 F350.00
G01 X14.5491 Y18.0488 F350.00
G01 X14.6961 Y18.0416 F350.00
G01 X14.7206 Y18.0401 F350.00
G01 X14.7450 Y18.0380 F350.00
G01 X14.7694 Y18.0353 F350.00
G01 X14.7938 Y18.0320 F350.00
G01 X14.9394 Y18.0104 F350.00
G01 X14.9636 Y18.0065 F350.00
G01 X14.9815 Y18.0031 F350.00
G01 X14.9997 Y18.0214 F350.00
G01 X14.9998 Y21.6786 F350.00
G01 X12.8783 Y23.8000 F350.00
G01 X12.5000 Y23.8000 F350.00
G01 X12.4755 Y23.8003 F350.00
G01 X12.3529 Y23.8060 F350.00
G01 X12.3284 Y23.8075 F350.00
G01 X12.3040 Y23.8096 F350.00
G01 X12.2796 Y23.8123 F350.00
G01 X12.2553 Y23.8156 F350.00
G01 X12.1582 Y23.8300 F350.00
G01 X12.1339 Y23.8339 F350.00
G01 X12.1098 Y23.8384 F350.00
G01 X12.0858 Y23.8435 F350.00
G01 X12.0619 Y23.8492 F350.00
G01 X11.9667 Y23.8730 F350.00
G01 X11.9430 Y23.8793 F350.00
G01 X11.9194 Y23.8861 F350.00
G01 X11.8960 Y23.8935 F350.00
G01 X11.8728 Y23.9015 F350.00
G01 X11.7574 Y23.9431 F350.00
G01 X11.7346 Y23.9522 F350.00
G01 X11.7121 Y23.9619 F350.00
G01 X11.6898 Y23.9721 F350.00
G01 X11.6010 Y24.0141 F350.00
G01 X11.5790 Y24.0249 F350.00
G01 X11.5572 Y24.0362 F350.00
G01 X11.5357 Y24.0480 F350.00
G01 X11.5145 Y24.0604 F350.00
G01 X11.4303 Y24.1108 F350.00
G01 X11.4094 Y24.1237 F350.00
G01 X11.3889 Y24.1371 F350.00
G01 X11.3686 Y24.1509 F350.00
G01 X11.3487 Y24.1653 F350.00
G01 X11.2504 Y24.2386 F350.00
G01 X11.2312 Y24.2540 F350.00
G01 X11.2124 Y24.2698 F350.00
G01 X11.1940 Y24.2860 F350.00
G01 X11.1213 Y24.3519 F350.00
G01 X11.1034 Y24.3686 F350.00
G01 X11.0858 Y24.3858 F350.00
G01 X11.0686 Y24.4034 F350.00
G01 X11.0519 Y24.4213 F350.00
G01 X10.9698 Y24.5124 F350.00
G01 X10.9540 Y24.5312 F350.00
G01 X10.9386 Y24.5504 F350.00
G01 X10.9238 Y24.5699 F350.00
G01 X10.8653 Y24.6487 F350.00
G01 X10.8509 Y24.6686 F350.00
G01 X10.8371 Y24.6889 F350.00
G01 X10.8237 Y24.7094 F350.00
G01 X10.8108 Y24.7303 F350.00
G01 X10.7604 Y24.8145 F350.00
G01 X10.7480 Y24.8357 F350.00
G01 X10.7362 Y24.8572 F350.00
G01 X10.7249 Y24.8790 F350.00
G01 X10.6721 Y24.9898 F350.00
G01 X10.6619 Y25.0121 F350.00
G01 X10.6522 Y25.0346 F350.00
G01 X10.6431 Y25.0574 F350.00
G01 X10.6346 Y25.0804 F350.00
G01 X10.6015 Y25.1728 F350.00
G01 X10.5935 Y25.1960 F350.00
G01 X10.5861 Y25.2194 F350.00
G01 X10.5793 Y25.2430 F350.00
G01 X10.5730 Y25.2667 F350.00
G01 X10.5492 Y25.3619 F350.00
G01 X10.5435 Y25.3858 F350.00
G01 X10.5384 Y25.4098 F350.00
G01 X10.5339 Y25.4339 F350.00
G01 X10.5156 Y25.5553 F350.00
G01 X10.5123 Y25.5796 F350.00
G01 X10.5096 Y25.6040 F350.00
G01 X10.5075 Y25.6284 F350.00
G01 X10.5060 Y25.6529 F350.00
G01 X10.5012 Y25.7509 F350.00
G01 X10.5003 Y25.7755 F350.00
G01 X10.5000 Y25.8000 F350.00
G01 X10.5003 Y25.8245 F350.00
G01 X10.5012 Y25.8491 F350.00
G01 X10.5060 Y25.9471 F350.00
G01 X10.5075 Y25.9716 F350.00
G01 X10.5096 Y25.9960 F350.00
G01 X10.5123 Y26.0204 F350.00
G01 X10.5156 Y26.0447 F350.00
G01 X10.5309 Y26.1474 F350.00
G01 X9.1392 Y27.5392 F350.00
G01 X9.1220 Y27.5567 F350.00
G01 X9.0724 Y27.6111 F350.00
G01 X9.0561 Y27.6295 F350.00
G01 X9.0403 Y27.6483 F350.00
G01 X9.0250 Y27.6674 F350.00
G01 X9.0101 Y27.6869 F350.00
G01 X8.9808 Y27.7264 F350.00
G01 X8.9665 Y27.7463 F350.00
G01 X8.9526 Y27.7665 F350.00
G01 X8.9392 Y27.7871 F350.00
G01 X8.9263 Y27.8080 F350.00
G01 X8.8887 Y27.8713 F350.00
G01 X8.8769 Y27.8928 F350.00
G01 X8.8656 Y27.9146 F350.00
G01 X8.8548 Y27.9366 F350.00
G01 X8.8338 Y27.9810 F350.00
G01 X8.8236 Y28.0033 F350.00
G01 X8.8139 Y28.0259 F350.00
G01 X8.8048 Y28.0487 F350.00
G01 X8.7963 Y28.0717 F350.00
G01 X8.7797 Y28.1179 F350.00
G01 X8.7718 Y28.1411 F350.00
G01 X8.7644 Y28.1645 F350.00
G01 X8.7575 Y28.1881 F350.00
G01 X8.7393 Y28.2594 F350.00
G01 X8.7337 Y28.2833 F350.00
G01 X8.7286 Y28.3073 F350.00
G01 X8.7241 Y28.3314 F350.00
G01 X8.7202 Y28.3557 F350.00
G01 X8.7130 Y28.4042 F350.00
G01 X8.7097 Y28.4286 F350.00
G01 X8.7070 Y28.4529 F350.00
G01 X8.7049 Y28.4774 F350.00
G01 X8.7034 Y28.5019 F350.00
G01 X8.7010 Y28.5509 F350.00
G01 X8.7001 Y28.5755 F350.00
G01 X8.6998 Y28.6000 F350.00
G01 X8.6998 Y32.4000 F350.00
G01 X8.7001 Y32.4245 F350.00
G01 X8.7010 Y32.4491 F350.00
G01 X8.7049 Y32.5226 F350.00
G01 X8.7070 Y32.5471 F350.00
G01 X8.7097 Y32.5714 F350.00
G01 X8.7123 Y32.5906 F350.00
G01 X8.0608 Y31.9392 F350.00
G01 X8.0433 Y31.9220 F350.00
G01 X8.0253 Y31.9053 F350.00
G01 X7.9705 Y31.8561 F350.00
G01 X7.9517 Y31.8403 F350.00
G01 X7.9326 Y31.8250 F350.00
G01 X7.8736 Y31.7808 F350.00
G01 X7.8537 Y31.7665 F350.00
G01 X7.8335 Y31.7526 F350.00
G01 X7.8076 Y31.7359 F350.00
G01 X5.4734 Y29.4017 F350.00
G01 X5.4853 Y29.3194 F350.00
G01 X5.4880 Y29.2950 F350.00
G01 X5.4901 Y29.2706 F350.00
G01 X5.4916 Y29.2461 F350.00
G01 X5.4988 Y29.0991 F350.00
G01 X5.4997 Y29.0745 F350.00
G01 X5.5000 Y29.0500 F350.00
G01 X5.4997 Y29.0255 F350.00
G01 X5.4988 Y29.0009 F350.00
G01 X5.4916 Y28.8539 F350.00
G01 X5.4901 Y28.8294 F350.00
G01 X5.4880 Y28.8050 F350.00
G01 X5.4853 Y28.7806 F350.00
G01 X5.4820 Y28.7562 F350.00
G01 X5.4604 Y28.6106 F350.00
G01 X5.4565 Y28.5864 F350.00
G01 X5.4520 Y28.5623 F350.00
G01 X5.4469 Y28.5383 F350.00
G01 X5.4412 Y28.5144 F350.00
G01 X5.4054 Y28.3716 F350.00
G01 X5.3992 Y28.3479 F350.00
G01 X5.3924 Y28.3243 F350.00
G01 X5.3849 Y28.3009 F350.00
G01 X5.3770 Y28.2777 F350.00
G01 X5.3274 Y28.1391 F350.00
G01 X5.3188 Y28.1161 F350.00
G01 X5.3097 Y28.0933 F350.00
G01 X5.3000 Y28.0707 F350.00
G01 X5.2898 Y28.0484 F350.00
G01 X5.2269 Y27.9153 F350.00
G01 X5.2161 Y27.8933 F350.00
G01 X5.2048 Y27.8715 F350.00
G01 X5.1930 Y27.8500 F350.00
G01 X5.1806 Y27.8288 F350.00
G01 X5.1049 Y27.7025 F350.00
G01 X5.0921 Y27.6816 F350.00
G01 X5.0787 Y27.6611 F350.00
G01 X5.0648 Y27.6408 F350.00
G01 X5.0504 Y27.6209 F350.00
G01 X4.9627 Y27.5027 F350.00
G01 X4.9479 Y27.4832 F350.00
G01 X4.9325 Y27.4640 F350.00
G01 X4.9167 Y27.4452 F350.00
G01 X4.9005 Y27.4269 F350.00
G01 X4.8016 Y27.3178 F350.00
G01 X4.7849 Y27.2998 F350.00
G01 X4.7678 Y27.2822 F350.00
G01 X4.7502 Y27.2651 F350.00
G01 X4.7322 Y27.2484 F350.00
G01 X4.6231 Y27.1495 F350.00
G01 X4.6048 Y27.1333 F350.00
G01 X4.5860 Y27.1175 F350.00
G01 X4.5668 Y27.1021 F350.00
G01 X4.5473 Y27.0873 F350.00
G01 X4.4291 Y26.9996 F350.00
G01 X4.4092 Y26.9852 F350.00
G01 X4.3889 Y26.9713 F350.00
G01 X4.3684 Y26.9579 F350.00
G01 X4.3475 Y26.9451 F350.00
G01 X4.2212 Y26.8694 F350.00
G01 X4.2000 Y26.8570 F350.00
G01 X4.1785 Y26.8452 F350.00
G01 X4.1567 Y26.8339 F350.00
G01 X4.1347 Y26.8231 F350.00
G01 X4.0016 Y26.7602 F350.00
G01 X3.9793 Y26.7500 F350.00
G01 X3.9567 Y26.7403 F350.00
G01 X3.9339 Y26.7312 F350.00
G01 X3.9109 Y26.7226 F350.00
G01 X3.7723 Y26.6730 F350.00
G01 X3.7491 Y26.6651 F350.00
G01 X3.7257 Y26.6576 F350.00
G01 X3.7021 Y26.6508 F350.00
G01 X3.6784 Y26.6446 F350.00
G01 X3.5356 Y26.6088 F350.00
G01 X3.5117 Y26.6031 F350.00
G01 X3.4877 Y26.5980 F350.00
G01 X3.4636 Y26.5935 F350.00
G01 X3.4394 Y26.5896 F350.00
G01 X3.2938 Y26.5680 F350.00
G01 X3.2694 Y26.5647 F350.00
G01 X3.2450 Y26.5620 F350.00
G01 X3.2206 Y26.5599 F350.00
G01 X3.1961 Y26.5584 F350.00
G01 X3.0491 Y26.5512 F350.00
G01 X3.0245 Y26.5503 F350.00
G01 X3.0000 Y26.5500 F350.00
G01 X2.9755 Y26.5503 F350.00
G01 X2.9509 Y26.5512 F350.00
G01 X2.8039 Y26.5584 F350.00
G01 X2.7794 Y26.5599 F350.00
G01 X2.7550 Y26.5620 F350.00
G01 X2.7306 Y26.5647 F350.00
G01 X2.7062 Y26.5680 F350.00
G01 X2.5606 Y26.5896 F350.00
G01 X2.5364 Y26.5935 F350.00
G01 X2.5123 Y26.5980 F350.00
G01 X2.4883 Y26.6031 F350.00
G01 X2.4644 Y26.6088 F350.00
G01 X2.3216 Y26.6446 F350.00
G01 X2.2979 Y26.6508 F350.00
G01 X2.2743 Y26.6576 F350.00
G01 X2.2509 Y26.6651 F350.00
G01 X2.2277 Y26.6730 F350.00
G01 X2.0891 Y26.7226 F350.00
G01 X2.0661 Y26.7312 F350.00
G01 X2.0433 Y26.7403 F350.00
G01 X2.0207 Y26.7500 F350.00
G01 X1.9984 Y26.7602 F350.00
G01 X1.8653 Y26.8231 F350.00
G01 X1.8433 Y26.8339 F350.00
G01 X1.8215 Y26.8452 F350.00
G01 X1.8000 Y26.8570 F350.00
G01 X1.7788 Y26.8694 F350.00
G01 X1.6503 Y26.9465 F350.00
G00 Z0.5000
G00 X13.9242 Y27.7541
G01 F250.00
G01 Z-0.0500
G01 F350.00
G01 X12.8783 Y28.8000 F350.00
G01 X12.5000 Y28.8000 F350.00
G01 X12.4755 Y28.8003 F350.00
G01 X12.4509 Y28.8012 F350.00
G01 X12.3529 Y28.8060 F350.00
G01 X12.3284 Y28.8075 F350.00
G01 X12.3040 Y28.8096 F350.00
G01 X12.2796 Y28.8123 F350.00
G01 X12.2553 Y28.8156 F350.00
G01 X12.1339 Y28.8339 F350.00
G01 X12.1098 Y28.8384 F350.00
G01 X12.0758 Y28.8459 F350.00
G01 X13.1217 Y27.8000 F350.00
G01 X13.5000 Y27.8000 F350.00
G01 X13.5245 Y27.7997 F350.00
G01 X13.5491 Y27.7988 F350.00
G01 X13.6471 Y27.7940 F350.00
G01 X13.6716 Y27.7925 F350.00
G01 X13.6960 Y27.7904 F350.00
G01 X13.7204 Y27.7877 F350.00
G01 X13.7447 Y27.7844 F350.00
G01 X13.8661 Y27.7661 F350.00
G01 X13.8902 Y27.7616 F350.00
G01 X13.9242 Y27.7541 F350.00
G00 Z0.5000
G00 X12.7217 Y32.8000
G01 F250.00
G01 Z-0.0500
G01 F350.00
G01 X13.5000 Y32.8000 F350.00
G01 X13.5245 Y32.7997 F350.00
G01 X13.5491 Y32.7988 F350.00
G01 X13.6471 Y32.7940 F350.00
G01 X13.6716 Y32.7925 F350.00
G01 X13.6960 Y32.7904 F350.00
G01 X13.7204 Y32.7877 F350.00
G01 X13.7447 Y32.7844 F350.00
G01 X13.8661 Y32.7661 F350.00
G01 X13.8902 Y32.7616 F350.00
G01 X13.9142 Y32.7565 F350.00
G01 X14.0333 Y32.7270 F350.00
G01 X14.0570 Y32.7207 F350.00
G01 X14.0806 Y32.7139 F350.00
G01 X14.1040 Y32.7065 F350.00
G01 X14.2196 Y32.6654 F350.00
G01 X14.2426 Y32.6569 F350.00
G01 X14.2654 Y32.6478 F350.00
G01 X14.2879 Y32.6381 F350.00
G01 X14.3102 Y32.6279 F350.00
G01 X14.3990 Y32.5859 F350.00
G01 X14.4210 Y32.5751 F350.00
G01 X14.4428 Y32.5638 F350.00
G01 X14.4643 Y32.5520 F350.00
G01 X14.5697 Y32.4892 F350.00
G01 X14.5906 Y32.4763 F350.00
G01 X14.6111 Y32.4629 F350.00
G01 X14.6314 Y32.4491 F350.00
G01 X14.6513 Y32.4347 F350.00
G01 X14.7301 Y32.3762 F350.00
G01 X14.7496 Y32.3614 F350.00
G01 X14.7688 Y32.3460 F350.00
G01 X14.7876 Y32.3302 F350.00
G01 X14.8787 Y32.2481 F350.00
G01 X14.8966 Y32.2314 F350.00
G01 X14.9142 Y32.2142 F350.00
G01 X14.9314 Y32.1966 F350.00
G01 X14.9481 Y32.1787 F350.00
G01 X15.0140 Y32.1060 F350.00
G01 X15.0302 Y32.0876 F350.00
G01 X15.0460 Y32.0688 F350.00
G01 X15.0614 Y32.0496 F350.00
G01 X15.0762 Y32.0301 F350.00
G01 X15.1491 Y31.9314 F350.00
G01 X15.1629 Y31.9111 F350.00
G01 X15.1763 Y31.8906 F350.00
G01 X15.1892 Y31.8697 F350.00
G01 X15.2396 Y31.7855 F350.00
G01 X15.2520 Y31.7643 F350.00
G01 X15.2638 Y31.7428 F350.00
G01 X15.2751 Y31.7210 F350.00
G01 X15.2859 Y31.6990 F350.00
G01 X15.3279 Y31.6102 F350.00
G01 X15.3381 Y31.5879 F350.00
G01 X15.3478 Y31.5654 F350.00
G01 X15.3569 Y31.5426 F350.00
G01 X15.3654 Y31.5196 F350.00
G01 X15.4065 Y31.4040 F350.00
G01 X15.4139 Y31.3806 F350.00
G01 X15.4207 Y31.3570 F350.00
G01 X15.4270 Y31.3333 F350.00
G01 X15.4508 Y31.2381 F350.00
G01 X15.4565 Y31.2142 F350.00
G01 X15.4616 Y31.1902 F350.00
G01 X15.4661 Y31.1661 F350.00
G01 X15.4700 Y31.1418 F350.00
G01 X15.4844 Y31.0447 F350.00
G01 X15.4877 Y31.0204 F350.00
G01 X15.4904 Y30.9960 F350.00
G01 X15.4925 Y30.9716 F350.00
G01 X15.4940 Y30.9471 F350.00
G01 X15.4997 Y30.8245 F350.00
G01 X15.5000 Y30.8000 F350.00
G01 X15.4997 Y30.7755 F350.00
G01 X15.4988 Y30.7509 F350.00
G01 X15.4940 Y30.6529 F350.00
G01 X15.4925 Y30.6284 F350.00
G01 X15.4904 Y30.6040 F350.00
G01 X15.4877 Y30.5796 F350.00
G01 X15.4844 Y30.5553 F350.00
G01 X15.4691 Y30.4526 F350.00
G01 X18.6214 Y27.3003 F350.00
G01 X23.2497 Y27.3002 F350.00
G01 X23.2498 Y34.8000 F350.00
G01 X23.2501 Y34.8245 F350.00
G01 X23.2510 Y34.8491 F350.00
G01 X23.2534 Y34.8981 F350.00
G01 X23.2549 Y34.9226 F350.00
G01 X23.2570 Y34.9471 F350.00
G01 X23.2597 Y34.9714 F350.00
G01 X23.2702 Y35.0443 F350.00
G01 X23.2741 Y35.0686 F350.00
G01 X23.2786 Y35.0927 F350.00
G01 X23.2837 Y35.1167 F350.00
G01 X23.2893 Y35.1406 F350.00
G01 X23.3013 Y35.1882 F350.00
G01 X23.3075 Y35.2119 F350.00
G01 X23.3144 Y35.2355 F350.00
G01 X23.3218 Y35.2589 F350.00
G01 X23.3297 Y35.2821 F350.00
G01 X23.3548 Y35.3513 F350.00
G01 X23.3639 Y35.3741 F350.00
G01 X23.3736 Y35.3967 F350.00
G01 X23.3838 Y35.4190 F350.00
G01 X23.4048 Y35.4634 F350.00
G01 X23.4156 Y35.4854 F350.00
G01 X23.4269 Y35.5072 F350.00
G01 X23.4387 Y35.5287 F350.00
G01 X23.4511 Y35.5499 F350.00
G01 X23.4763 Y35.5920 F350.00
G01 X23.4892 Y35.6129 F350.00
G01 X23.5026 Y35.6335 F350.00
G01 X23.5165 Y35.6537 F350.00
G01 X23.5601 Y35.7131 F350.00
G01 X23.5750 Y35.7326 F350.00
G01 X23.5903 Y35.7517 F350.00
G01 X23.6061 Y35.7705 F350.00
G01 X23.6224 Y35.7889 F350.00
G01 X23.6720 Y35.8433 F350.00
G01 X23.6892 Y35.8608 F350.00
G01 X24.3281 Y36.4998 F350.00
G01 X16.4214 Y36.4998 F350.00
G01 X12.7217 Y32.8000 F350.00
G00 Z0.5000
G00 X15.7746 Y33.5902
G01 F250.00
G01 Z-0.0500
G01 F350.00
G01 X15.8326 Y33.5418 F350.00
G01 X15.8804 Y33.4995 F350.00
G01 X15.9532 Y33.4336 F350.00
G01 X15.9999 Y33.3901 F350.00
G01 X16.0456 Y33.3456 F350.00
G01 X16.0901 Y33.2999 F350.00
G01 X16.1336 Y33.2532 F350.00
G01 X16.1995 Y33.1804 F350.00
G01 X16.2418 Y33.1326 F350.00
G01 X16.2828 Y33.0838 F350.00
G01 X16.3227 Y33.0340 F350.00
G01 X16.3613 Y32.9832 F350.00
G01 X16.4198 Y32.9044 F350.00
G01 X16.4572 Y32.8527 F350.00
G01 X16.4933 Y32.8001 F350.00
G01 X16.5281 Y32.7466 F350.00
G01 X16.5616 Y32.6922 F350.00
G01 X16.6120 Y32.6081 F350.00
G01 X16.6441 Y32.5529 F350.00
G01 X16.6749 Y32.4970 F350.00
G01 X16.7043 Y32.4404 F350.00
G01 X16.7323 Y32.3830 F350.00
G01 X16.7743 Y32.2943 F350.00
G01 X16.8008 Y32.2363 F350.00
G01 X16.8260 Y32.1777 F350.00
G01 X16.8497 Y32.1184 F350.00
G01 X16.8719 Y32.0586 F350.00
G01 X16.9050 Y31.9662 F350.00
G01 X16.9257 Y31.9059 F350.00
G01 X16.9450 Y31.8450 F350.00
G01 X16.9628 Y31.7837 F350.00
G01 X16.9790 Y31.7220 F350.00
G01 X17.0029 Y31.6268 F350.00
G01 X17.0176 Y31.5648 F350.00
G01 X17.0308 Y31.5023 F350.00
G01 X17.0425 Y31.4396 F350.00
G01 X17.0526 Y31.3766 F350.00
G01 X17.0670 Y31.2795 F350.00
G01 X17.0756 Y31.2163 F350.00
G01 X17.0827 Y31.1529 F350.00
G01 X17.0875 Y31.0969 F350.00
G01 X19.2842 Y28.9002 F350.00
G01 X21.6498 Y28.9002 F350.00
G01 X21.6498 Y34.8000 F350.00
G01 X21.6505 Y34.8638 F350.00
G01 X21.6519 Y34.8998 F350.00
G01 X17.0842 Y34.8998 F350.00
G01 X15.7746 Y33.5902 F350.00
G00 Z0.5000
G00 X16.8299 Y39.5002
G01 F250.00
G01 Z-0.0500
G01 F350.00
G01 X25.7786 Y39.5002 F350.00
G01 X30.3297 Y44.0514 F350.00
G01 X30.3298 Y49.1794 F350.00
G01 X30.2699 Y49.2238 F350.00
G01 X30.2504 Y49.2386 F350.00
G01 X30.2312 Y49.2540 F350.00
G01 X30.2124 Y49.2698 F350.00
G01 X30.1940 Y49.2860 F350.00
G01 X30.1034 Y49.3686 F350.00
G01 X30.0858 Y49.3858 F350.00
G01 X30.0686 Y49.4034 F350.00
G01 X30.0519 Y49.4213 F350.00
G01 X29.9860 Y49.4940 F350.00
G01 X29.9698 Y49.5124 F350.00
G01 X29.9540 Y49.5312 F350.00
G01 X29.9386 Y49.5504 F350.00
G01 X29.9238 Y49.5699 F350.00
G01 X29.8509 Y49.6686 F350.00
G01 X29.8371 Y49.6889 F350.00
G01 X29.8237 Y49.7094 F350.00
G01 X29.8108 Y49.7303 F350.00
G01 X29.7604 Y49.8145 F350.00
G01 X29.7480 Y49.8357 F350.00
G01 X29.7362 Y49.8572 F350.00
G01 X29.7249 Y49.8790 F350.00
G01 X29.7141 Y49.9010 F350.00
G01 X29.6721 Y49.9898 F350.00
G01 X29.6619 Y50.0121 F350.00
G01 X29.6522 Y50.0346 F350.00
G01 X29.6431 Y50.0574 F350.00
G01 X29.6015 Y50.1728 F350.00
G01 X29.5935 Y50.1960 F350.00
G01 X29.5861 Y50.2194 F350.00
G01 X29.5793 Y50.2430 F350.00
G01 X29.5730 Y50.2667 F350.00
G01 X29.5492 Y50.3619 F350.00
G01 X29.5435 Y50.3858 F350.00
G01 X29.5384 Y50.4098 F350.00
G01 X29.5339 Y50.4339 F350.00
G01 X29.5156 Y50.5553 F350.00
G01 X29.5123 Y50.5796 F350.00
G01 X29.5096 Y50.6040 F350.00
G01 X29.5075 Y50.6284 F350.00
G01 X29.5060 Y50.6529 F350.00
G01 X29.5012 Y50.7509 F350.00
G01 X29.5003 Y50.7755 F350.00
G01 X29.5000 Y50.8000 F350.00
G01 X29.5003 Y50.8245 F350.00
G01 X29.5012 Y50.8491 F350.00
G01 X29.5075 Y50.9716 F350.00
G01 X29.5096 Y50.9960 F350.00
G01 X29.5123 Y51.0204 F350.00
G01 X29.5300 Y51.1418 F350.00
G01 X29.5339 Y51.1661 F350.00
G01 X29.5384 Y51.1902 F350.00
G01 X29.5435 Y51.2142 F350.00
G01 X29.5492 Y51.2381 F350.00
G01 X29.5730 Y51.3333 F350.00
G01 X29.5793 Y51.3570 F350.00
G01 X29.5861 Y51.3806 F350.00
G01 X29.5935 Y51.4040 F350.00
G01 X29.6015 Y51.4272 F350.00
G01 X29.6431 Y51.5426 F350.00
G01 X29.6522 Y51.5654 F350.00
G01 X29.6619 Y51.5879 F350.00
G01 X29.6721 Y51.6102 F350.00
G01 X29.7249 Y51.7210 F350.00
G01 X29.7362 Y51.7428 F350.00
G01 X29.7480 Y51.7643 F350.00
G01 X29.8108 Y51.8697 F350.00
G01 X29.8237 Y51.8906 F350.00
G01 X29.8371 Y51.9111 F350.00
G01 X29.8509 Y51.9314 F350.00
G01 X29.8653 Y51.9513 F350.00
G01 X29.9386 Y52.0496 F350.00
G01 X29.9540 Y52.0688 F350.00
G01 X29.9698 Y52.0876 F350.00
G01 X30.0519 Y52.1787 F350.00
G01 X30.0686 Y52.1966 F350.00
G01 X30.0858 Y52.2142 F350.00
G01 X30.1034 Y52.2314 F350.00
G01 X30.1213 Y52.2481 F350.00
G01 X30.1940 Y52.3140 F350.00
G01 X30.2124 Y52.3302 F350.00
G01 X30.2312 Y52.3460 F350.00
G01 X30.2504 Y52.3614 F350.00
G01 X30.2699 Y52.3762 F350.00
G01 X30.3487 Y52.4347 F350.00
G01 X30.3686 Y52.4491 F350.00
G01 X30.3889 Y52.4629 F350.00
G01 X30.4094 Y52.4763 F350.00
G01 X30.4303 Y52.4892 F350.00
G01 X30.5357 Y52.5520 F350.00
G01 X30.5572 Y52.5638 F350.00
G01 X30.5790 Y52.5751 F350.00
G01 X30.6010 Y52.5859 F350.00
G01 X30.6898 Y52.6279 F350.00
G01 X30.7121 Y52.6381 F350.00
G01 X30.7346 Y52.6478 F350.00
G01 X30.7574 Y52.6569 F350.00
G01 X30.7804 Y52.6654 F350.00
G01 X30.8960 Y52.7065 F350.00
G01 X30.9194 Y52.7139 F350.00
G01 X30.9430 Y52.7207 F350.00
G01 X31.0619 Y52.7508 F350.00
G01 X31.0858 Y52.7565 F350.00
G01 X31.1098 Y52.7616 F350.00
G01 X31.1339 Y52.7661 F350.00
G01 X31.1582 Y52.7700 F350.00
G01 X31.2553 Y52.7844 F350.00
G01 X31.2796 Y52.7877 F350.00
G01 X31.3040 Y52.7904 F350.00
G01 X31.3284 Y52.7925 F350.00
G01 X31.3529 Y52.7940 F350.00
G01 X31.4509 Y52.7988 F350.00
G01 X31.4755 Y52.7997 F350.00
G01 X31.5000 Y52.8000 F350.00
G01 X32.5000 Y52.8000 F350.00
G01 X32.5245 Y52.7997 F350.00
G01 X32.5491 Y52.7988 F350.00
G01 X32.6471 Y52.7940 F350.00
G01 X32.6716 Y52.7925 F350.00
G01 X32.6960 Y52.7904 F350.00
G01 X32.7204 Y52.7877 F350.00
G01 X32.8418 Y52.7700 F350.00
G01 X32.8661 Y52.7661 F350.00
G01 X32.8902 Y52.7616 F350.00
G01 X32.9142 Y52.7565 F350.00
G01 X32.9381 Y52.7508 F350.00
G01 X33.0333 Y52.7270 F350.00
G01 X33.0570 Y52.7207 F350.00
G01 X33.0806 Y52.7139 F350.00
G01 X33.1040 Y52.7065 F350.00
G01 X33.2196 Y52.6654 F350.00
G01 X33.2426 Y52.6569 F350.00
G01 X33.2654 Y52.6478 F350.00
G01 X33.2879 Y52.6381 F350.00
G01 X33.3102 Y52.6279 F350.00
G01 X33.3990 Y52.5859 F350.00
G01 X33.4210 Y52.5751 F350.00
G01 X33.4428 Y52.5638 F350.00
G01 X33.4643 Y52.5520 F350.00
G01 X33.5697 Y52.4892 F350.00
G01 X33.5906 Y52.4763 F350.00
G01 X33.6111 Y52.4629 F350.00
G01 X33.6314 Y52.4491 F350.00
G01 X33.6513 Y52.4347 F350.00
G01 X33.7496 Y52.3614 F350.00
G01 X33.7688 Y52.3460 F350.00
G01 X33.7876 Y52.3302 F350.00
G01 X33.8060 Y52.3140 F350.00
G01 X33.8966 Y52.2314 F350.00
G01 X33.9142 Y52.2142 F350.00
G01 X33.9314 Y52.1966 F350.00
G01 X33.9481 Y52.1787 F350.00
G01 X34.0140 Y52.1060 F350.00
G01 X34.0302 Y52.0876 F350.00
G01 X34.0460 Y52.0688 F350.00
G01 X34.0614 Y52.0496 F350.00
G01 X34.0762 Y52.0301 F350.00
G01 X34.1347 Y51.9513 F350.00
G01 X34.1491 Y51.9314 F350.00
G01 X34.1629 Y51.9111 F350.00
G01 X34.1763 Y51.8906 F350.00
G01 X34.1892 Y51.8697 F350.00
G01 X34.2520 Y51.7643 F350.00
G01 X34.2638 Y51.7428 F350.00
G01 X34.2751 Y51.7210 F350.00
G01 X34.2859 Y51.6990 F350.00
G01 X34.3381 Y51.5879 F350.00
G01 X34.3478 Y51.5654 F350.00
G01 X34.3569 Y51.5426 F350.00
G01 X34.3654 Y51.5196 F350.00
G01 X34.3985 Y51.4272 F350.00
G01 X34.4065 Y51.4040 F350.00
G01 X34.4139 Y51.3806 F350.00
G01 X34.4207 Y51.3570 F350.00
G01 X34.4270 Y51.3333 F350.00
G01 X34.4508 Y51.2381 F350.00
G01 X34.4565 Y51.2142 F350.00
G01 X34.4616 Y51.1902 F350.00
G01 X34.4661 Y51.1661 F350.00
G01 X34.4700 Y51.1418 F350.00
G01 X34.4844 Y51.0447 F350.00
G01 X34.4877 Y51.0204 F350.00
G01 X34.4904 Y50.9960 F350.00
G01 X34.4925 Y50.9716 F350.00
G01 X34.4940 Y50.9471 F350.00
G01 X34.4997 Y50.8245 F350.00
G01 X34.5000 Y50.8000 F350.00
G01 X34.4997 Y50.7755 F350.00
G01 X34.4988 Y50.7509 F350.00
G01 X34.4940 Y50.6529 F350.00
G01 X34.4925 Y50.6284 F350.00
G01 X34.4904 Y50.6040 F350.00
G01 X34.4877 Y50.5796 F350.00
G01 X34.4844 Y50.5553 F350.00
G01 X34.4661 Y50.4339 F350.00
G01 X34.4616 Y50.4098 F350.00
G01 X34.4565 Y50.3858 F350.00
G01 X34.4508 Y50.3619 F350.00
G01 X34.4270 Y50.2667 F350.00
G01 X34.4207 Y50.2430 F350.00
G01 X34.4139 Y50.2194 F350.00
G01 X34.4065 Y50.1960 F350.00
G01 X34.3985 Y50.1728 F350.00
G01 X34.3569 Y50.0574 F350.00
G01 X34.3478 Y50.0346 F350.00
G01 X34.3381 Y50.0121 F350.00
G01 X34.3279 Y49.9898 F350.00
G01 X34.2751 Y49.8790 F350.00
G01 X34.2638 Y49.8572 F350.00
G01 X34.2520 Y49.8357 F350.00
G01 X34.1892 Y49.7303 F350.00
G01 X34.1763 Y49.7094 F350.00
G01 X34.1629 Y49.6889 F350.00
G01 X34.1491 Y49.6686 F350.00
G01 X34.1347 Y49.6487 F350.00
G01 X34.0614 Y49.5504 F350.00
G01 X34.0460 Y49.5312 F350.00
G01 X34.0302 Y49.5124 F350.00
G01 X34.0140 Y49.4940 F350.00
G01 X33.9314 Y49.4034 F350.00
G01 X33.9142 Y49.3858 F350.00
G01 X33.8966 Y49.3686 F350.00
G01 X33.8787 Y49.3519 F350.00
G01 X33.7876 Y49.2698 F350.00
G01 X33.7688 Y49.2540 F350.00
G01 X33.7496 Y49.2386 F350.00
G01 X33.7301 Y49.2238 F350.00
G01 X33.6314 Y49.1509 F350.00
G01 X33.6111 Y49.1371 F350.00
G01 X33.5906 Y49.1237 F350.00
G01 X33.5697 Y49.1108 F350.00
G01 X33.4643 Y49.0480 F350.00
G01 X33.4428 Y49.0362 F350.00
G01 X33.4210 Y49.0249 F350.00
G01 X33.3303 Y48.9816 F350.00
G01 X33.3303 Y47.0519 F350.00
G01 X33.4492 Y47.1708 F350.00
G01 X33.4667 Y47.1880 F350.00
G01 X33.5211 Y47.2376 F350.00
G01 X33.5395 Y47.2539 F350.00
G01 X33.5583 Y47.2697 F350.00
G01 X33.5774 Y47.2850 F350.00
G01 X33.5969 Y47.2999 F350.00
G01 X33.6563 Y47.3435 F350.00
G01 X33.6765 Y47.3574 F350.00
G01 X33.6971 Y47.3708 F350.00
G01 X33.7601 Y47.4089 F350.00
G01 X33.7813 Y47.4213 F350.00
G01 X33.8028 Y47.4331 F350.00
G01 X33.8246 Y47.4444 F350.00
G01 X33.8466 Y47.4552 F350.00
G01 X33.9133 Y47.4864 F350.00
G01 X33.9359 Y47.4961 F350.00
G01 X33.9587 Y47.5052 F350.00
G01 X34.0279 Y47.5303 F350.00
G01 X34.0511 Y47.5382 F350.00
G01 X34.0745 Y47.5456 F350.00
G01 X34.0981 Y47.5525 F350.00
G01 X34.1218 Y47.5587 F350.00
G01 X34.1694 Y47.5707 F350.00
G01 X34.1933 Y47.5763 F350.00
G01 X34.2173 Y47.5814 F350.00
G01 X34.2414 Y47.5859 F350.00
G01 X34.2657 Y47.5898 F350.00
G01 X34.3142 Y47.5970 F350.00
G01 X34.3386 Y47.6003 F350.00
G01 X34.3629 Y47.6030 F350.00
G01 X34.3874 Y47.6051 F350.00
G01 X34.4119 Y47.6066 F350.00
G01 X34.4855 Y47.6099 F350.00
G01 X34.5100 Y47.6102 F350.00
G01 X36.1228 Y47.6102 F350.00
G01 X36.1579 Y47.6684 F350.00
G01 X36.1713 Y47.6889 F350.00
G01 X36.1852 Y47.7092 F350.00
G01 X36.1996 Y47.7291 F350.00
G01 X36.2873 Y47.8473 F350.00
G01 X36.3021 Y47.8668 F350.00
G01 X36.3175 Y47.8860 F350.00
G01 X36.3333 Y47.9048 F350.00
G01 X36.3495 Y47.9231 F350.00
G01 X36.4484 Y48.0322 F350.00
G01 X36.4651 Y48.0502 F350.00
G01 X36.4822 Y48.0678 F350.00
G01 X36.4998 Y48.0849 F350.00
G01 X36.5178 Y48.1016 F350.00
G01 X36.6269 Y48.2005 F350.00
G01 X36.6452 Y48.2167 F350.00
G01 X36.6640 Y48.2325 F350.00
G01 X36.6832 Y48.2479 F350.00
G01 X36.7027 Y48.2627 F350.00
G01 X36.8209 Y48.3504 F350.00
G01 X36.8408 Y48.3648 F350.00
G01 X36.8611 Y48.3787 F350.00
G01 X36.8816 Y48.3921 F350.00
G01 X36.9025 Y48.4049 F350.00
G01 X37.0288 Y48.4806 F350.00
G01 X37.0500 Y48.4930 F350.00
G01 X37.0715 Y48.5048 F350.00
G01 X37.0933 Y48.5161 F350.00
G01 X37.1153 Y48.5269 F350.00
G01 X37.2484 Y48.5898 F350.00
G01 X37.2707 Y48.6000 F350.00
G01 X37.2933 Y48.6097 F350.00
G01 X37.3161 Y48.6188 F350.00
G01 X37.3391 Y48.6274 F350.00
G01 X37.4777 Y48.6770 F350.00
G01 X37.5009 Y48.6849 F350.00
G01 X37.5243 Y48.6924 F350.00
G01 X37.5479 Y48.6992 F350.00
G01 X37.5716 Y48.7054 F350.00
G01 X37.7144 Y48.7412 F350.00
G01 X37.7383 Y48.7469 F350.00
G01 X37.7623 Y48.7520 F350.00
G01 X37.7864 Y48.7565 F350.00
G01 X37.8106 Y48.7604 F350.00
G01 X37.9562 Y48.7820 F350.00
G01 X37.9806 Y48.7853 F350.00
G01 X38.0050 Y48.7880 F350.00
G01 X38.0294 Y48.7901 F350.00
G01 X38.0539 Y48.7916 F350.00
G01 X38.2009 Y48.7988 F350.00
G01 X38.2255 Y48.7997 F350.00
G01 X38.2500 Y48.8000 F350.00
G01 X38.2745 Y48.7997 F350.00
G01 X38.2991 Y48.7988 F350.00
G01 X38.4461 Y48.7916 F350.00
G01 X38.4706 Y48.7901 F350.00
G01 X38.4950 Y48.7880 F350.00
G01 X38.5194 Y48.7853 F350.00
G01 X38.5438 Y48.7820 F350.00
G01 X38.6894 Y48.7604 F350.00
G01 X38.7136 Y48.7565 F350.00
G01 X38.7377 Y48.7520 F350.00
G01 X38.7617 Y48.7469 F350.00
G01 X38.7856 Y48.7412 F350.00
G01 X38.9284 Y48.7054 F350.00
G01 X38.9521 Y48.6992 F350.00
G01 X38.9757 Y48.6924 F350.00
G01 X38.9991 Y48.6849 F350.00
G01 X39.0223 Y48.6770 F350.00
G01 X39.1609 Y48.6274 F350.00
G01 X39.1839 Y48.6188 F350.00
G01 X39.2067 Y48.6097 F350.00
G01 X39.2293 Y48.6000 F350.00
G01 X39.2516 Y48.5898 F350.00
G01 X39.3847 Y48.5269 F350.00
G01 X39.4067 Y48.5161 F350.00
G01 X39.4285 Y48.5048 F350.00
G01 X39.4500 Y48.4930 F350.00
G01 X39.4712 Y48.4806 F350.00
G01 X39.5975 Y48.4049 F350.00
G01 X39.6184 Y48.3921 F350.00
G01 X39.6389 Y48.3787 F350.00
G01 X39.6592 Y48.3648 F350.00
G01 X39.6791 Y48.3504 F350.00
G01 X39.7973 Y48.2627 F350.00
G01 X39.8168 Y48.2479 F350.00
G01 X39.8360 Y48.2325 F350.00
G01 X39.8548 Y48.2167 F350.00
G01 X39.8731 Y48.2005 F350.00
G01 X39.9822 Y48.1016 F350.00
G01 X40.0002 Y48.0849 F350.00
G01 X40.0178 Y48.0678 F350.00
G01 X40.0349 Y48.0502 F350.00
G01 X40.0516 Y48.0322 F350.00
G01 X40.1505 Y47.9231 F350.00
G01 X40.1667 Y47.9048 F350.00
G01 X40.1825 Y47.8860 F350.00
G01 X40.1979 Y47.8668 F350.00
G01 X40.2127 Y47.8473 F350.00
G01 X40.3004 Y47.7291 F350.00
G01 X40.3148 Y47.7092 F350.00
G01 X40.3287 Y47.6889 F350.00
G01 X40.3421 Y47.6684 F350.00
G01 X40.3772 Y47.6103 F350.00
G01 X40.7939 Y47.6103 F350.00
G01 X40.7635 Y47.6960 F350.00
G01 X40.7561 Y47.7194 F350.00
G01 X40.7493 Y47.7430 F350.00
G01 X40.7192 Y47.8619 F350.00
G01 X40.7135 Y47.8858 F350.00
G01 X40.7084 Y47.9098 F350.00
G01 X40.7039 Y47.9339 F350.00
G01 X40.6856 Y48.0553 F350.00
G01 X40.6823 Y48.0796 F350.00
G01 X40.6796 Y48.1040 F350.00
G01 X40.6775 Y48.1284 F350.00
G01 X40.6760 Y48.1529 F350.00
G01 X40.6712 Y48.2509 F350.00
G01 X40.6703 Y48.2755 F350.00
G01 X40.6700 Y48.3000 F350.00
G01 X40.6703 Y48.3245 F350.00
G01 X40.6712 Y48.3491 F350.00
G01 X40.6760 Y48.4471 F350.00
G01 X40.6775 Y48.4716 F350.00
G01 X40.6796 Y48.4960 F350.00
G01 X40.6823 Y48.5204 F350.00
G01 X40.6856 Y48.5447 F350.00
G01 X40.7039 Y48.6661 F350.00
G01 X40.7084 Y48.6902 F350.00
G01 X40.7135 Y48.7142 F350.00
G01 X40.7192 Y48.7381 F350.00
G01 X40.7493 Y48.8570 F350.00
G01 X40.7561 Y48.8806 F350.00
G01 X40.7635 Y48.9040 F350.00
G01 X40.7966 Y48.9973 F350.00
G01 X40.7390 Y49.0249 F350.00
G01 X40.7172 Y49.0362 F350.00
G01 X40.6957 Y49.0480 F350.00
G01 X40.5903 Y49.1108 F350.00
G01 X40.5694 Y49.1237 F350.00
G01 X40.5489 Y49.1371 F350.00
G01 X40.5286 Y49.1509 F350.00
G01 X40.5087 Y49.1653 F350.00
G01 X40.4104 Y49.2386 F350.00
G01 X40.3912 Y49.2540 F350.00
G01 X40.3724 Y49.2698 F350.00
G01 X40.3540 Y49.2860 F350.00
G01 X40.2813 Y49.3519 F350.00
G01 X40.2634 Y49.3686 F350.00
G01 X40.2458 Y49.3858 F350.00
G01 X40.2286 Y49.4034 F350.00
G01 X40.2119 Y49.4213 F350.00
G01 X40.1460 Y49.4940 F350.00
G01 X40.1298 Y49.5124 F350.00
G01 X40.1140 Y49.5312 F350.00
G01 X40.0986 Y49.5504 F350.00
G01 X40.0253 Y49.6487 F350.00
G01 X40.0109 Y49.6686 F350.00
G01 X39.9971 Y49.6889 F350.00
G01 X39.9837 Y49.7094 F350.00
G01 X39.9708 Y49.7303 F350.00
G01 X39.9080 Y49.8357 F350.00
G01 X39.8962 Y49.8572 F350.00
G01 X39.8849 Y49.8790 F350.00
G01 X39.8741 Y49.9010 F350.00
G01 X39.8219 Y50.0121 F350.00
G01 X39.8122 Y50.0346 F350.00
G01 X39.8031 Y50.0574 F350.00
G01 X39.7946 Y50.0804 F350.00
G01 X39.7615 Y50.1728 F350.00
G01 X39.7535 Y50.1960 F350.00
G01 X39.7461 Y50.2194 F350.00
G01 X39.7393 Y50.2430 F350.00
G01 X39.7330 Y50.2667 F350.00
G01 X39.7092 Y50.3619 F350.00
G01 X39.7035 Y50.3858 F350.00
G01 X39.6984 Y50.4098 F350.00
G01 X39.6939 Y50.4339 F350.00
G01 X39.6900 Y50.4582 F350.00
G01 X39.6723 Y50.5796 F350.00
G01 X39.6696 Y50.6040 F350.00
G01 X39.6675 Y50.6284 F350.00
G01 X39.6612 Y50.7509 F350.00
G01 X39.6603 Y50.7755 F350.00
G01 X39.6600 Y50.8000 F350.00
G01 X39.6603 Y50.8245 F350.00
G01 X39.6612 Y50.8491 F350.00
G01 X39.6660 Y50.9471 F350.00
G01 X39.6675 Y50.9716 F350.00
G01 X39.6696 Y50.9960 F350.00
G01 X39.6723 Y51.0204 F350.00
G01 X39.6756 Y51.0447 F350.00
G01 X39.6900 Y51.1418 F350.00
G01 X39.6939 Y51.1661 F350.00
G01 X39.6984 Y51.1902 F350.00
G01 X39.7035 Y51.2142 F350.00
G01 X39.7092 Y51.2381 F350.00
G01 X39.7393 Y51.3570 F350.00
G01 X39.7461 Y51.3806 F350.00
G01 X39.7535 Y51.4040 F350.00
G01 X39.7946 Y51.5196 F350.00
G01 X39.8031 Y51.5426 F350.00
G01 X39.8122 Y51.5654 F350.00
G01 X39.8219 Y51.5879 F350.00
G01 X39.8321 Y51.6102 F350.00
G01 X39.8741 Y51.6990 F350.00
G01 X39.8849 Y51.7210 F350.00
G01 X39.8962 Y51.7428 F350.00
G01 X39.9080 Y51.7643 F350.00
G01 X39.9204 Y51.7855 F350.00
G01 X39.9708 Y51.8697 F350.00
G01 X39.9837 Y51.8906 F350.00
G01 X39.9971 Y51.9111 F350.00
G01 X40.0109 Y51.9314 F350.00
G01 X40.0253 Y51.9513 F350.00
G01 X40.0838 Y52.0301 F350.00
G01 X40.0986 Y52.0496 F350.00
G01 X40.1140 Y52.0688 F350.00
G01 X40.1298 Y52.0876 F350.00
G01 X40.1460 Y52.1060 F350.00
G01 X40.2286 Y52.1966 F350.00
G01 X40.2458 Y52.2142 F350.00
G01 X40.2634 Y52.2314 F350.00
G01 X40.2813 Y52.2481 F350.00
G01 X40.3724 Y52.3302 F350.00
G01 X40.3912 Y52.3460 F350.00
G01 X40.4104 Y52.3614 F350.00
G01 X40.5087 Y52.4347 F350.00
G01 X40.5286 Y52.4491 F350.00
G01 X40.5489 Y52.4629 F350.00
G01 X40.5694 Y52.4763 F350.00
G01 X40.5903 Y52.4892 F350.00
G01 X40.6957 Y52.5520 F350.00
G01 X40.7172 Y52.5638 F350.00
G01 X40.7390 Y52.5751 F350.00
G01 X40.7610 Y52.5859 F350.00
G01 X40.8498 Y52.6279 F350.00
G01 X40.8721 Y52.6381 F350.00
G01 X40.8946 Y52.6478 F350.00
G01 X40.9174 Y52.6569 F350.00
G01 X40.9404 Y52.6654 F350.00
G01 X41.0560 Y52.7065 F350.00
G01 X41.0794 Y52.7139 F350.00
G01 X41.1030 Y52.7207 F350.00
G01 X41.1267 Y52.7270 F350.00
G01 X41.2458 Y52.7565 F350.00
G01 X41.2698 Y52.7616 F350.00
G01 X41.2939 Y52.7661 F350.00
G01 X41.4153 Y52.7844 F350.00
G01 X41.4396 Y52.7877 F350.00
G01 X41.4640 Y52.7904 F350.00
G01 X41.4884 Y52.7925 F350.00
G01 X41.5129 Y52.7940 F350.00
G01 X41.6109 Y52.7988 F350.00
G01 X41.6355 Y52.7997 F350.00
G01 X41.6600 Y52.8000 F350.00
G01 X42.0383 Y52.8000 F350.00
G01 X42.1167 Y52.8780 F350.00
G01 X42.1711 Y52.9276 F350.00
G01 X42.1895 Y52.9439 F350.00
G01 X42.2083 Y52.9597 F350.00
G01 X42.2274 Y52.9750 F350.00
G01 X42.2864 Y53.0192 F350.00
G01 X42.3063 Y53.0335 F350.00
G01 X42.3265 Y53.0474 F350.00
G01 X42.3471 Y53.0608 F350.00
G01 X42.3680 Y53.0737 F350.00
G01 X42.4101 Y53.0989 F350.00
G01 X42.4313 Y53.1113 F350.00
G01 X42.4528 Y53.1231 F350.00
G01 X42.4746 Y53.1344 F350.00
G01 X42.4966 Y53.1452 F350.00
G01 X42.5410 Y53.1662 F350.00
G01 X42.5633 Y53.1764 F350.00
G01 X42.5859 Y53.1861 F350.00
G01 X42.6087 Y53.1952 F350.00
G01 X42.6317 Y53.2037 F350.00
G01 X42.7011 Y53.2282 F350.00
G01 X42.7245 Y53.2356 F350.00
G01 X42.7481 Y53.2425 F350.00
G01 X42.7718 Y53.2487 F350.00
G01 X42.8194 Y53.2607 F350.00
G01 X42.8433 Y53.2663 F350.00
G01 X42.8673 Y53.2714 F350.00
G01 X42.8914 Y53.2759 F350.00
G01 X42.9157 Y53.2798 F350.00
G01 X42.9886 Y53.2903 F350.00
G01 X43.0129 Y53.2930 F350.00
G01 X43.0374 Y53.2951 F350.00
G01 X43.0619 Y53.2966 F350.00
G01 X43.1355 Y53.2999 F350.00
G01 X43.1600 Y53.3002 F350.00
G01 X43.5126 Y53.3002 F350.00
G01 X43.5147 Y53.3194 F350.00
G01 X43.5180 Y53.3438 F350.00
G01 X43.5266 Y53.4017 F350.00
G01 X42.3783 Y54.5500 F350.00
G01 X42.0000 Y54.5500 F350.00
G01 X41.9755 Y54.5503 F350.00
G01 X41.9509 Y54.5512 F350.00
G01 X41.8529 Y54.5560 F350.00
G01 X41.8284 Y54.5575 F350.00
G01 X41.8040 Y54.5596 F350.00
G01 X41.7796 Y54.5623 F350.00
G01 X41.7553 Y54.5656 F350.00
G01 X41.6339 Y54.5839 F350.00
G01 X41.6098 Y54.5884 F350.00
G01 X41.5858 Y54.5935 F350.00
G01 X41.4667 Y54.6230 F350.00
G01 X41.4430 Y54.6293 F350.00
G01 X41.4194 Y54.6361 F350.00
G01 X41.3960 Y54.6435 F350.00
G01 X41.3728 Y54.6515 F350.00
G01 X41.2804 Y54.6846 F350.00
G01 X41.2574 Y54.6931 F350.00
G01 X41.2346 Y54.7022 F350.00
G01 X41.2121 Y54.7119 F350.00
G01 X41.1898 Y54.7221 F350.00
G01 X41.1010 Y54.7641 F350.00
G01 X41.0790 Y54.7749 F350.00
G01 X41.0572 Y54.7862 F350.00
G01 X41.0357 Y54.7980 F350.00
G01 X41.0145 Y54.8104 F350.00
G01 X40.9303 Y54.8608 F350.00
G01 X40.9094 Y54.8737 F350.00
G01 X40.8889 Y54.8871 F350.00
G01 X40.8686 Y54.9009 F350.00
G01 X40.7699 Y54.9738 F350.00
G01 X40.7504 Y54.9886 F350.00
G01 X40.7312 Y55.0040 F350.00
G01 X40.7124 Y55.0198 F350.00
G01 X40.6940 Y55.0360 F350.00
G01 X40.6213 Y55.1019 F350.00
G01 X40.6034 Y55.1186 F350.00
G01 X40.5858 Y55.1358 F350.00
G01 X40.5686 Y55.1534 F350.00
G01 X40.4860 Y55.2440 F350.00
G01 X40.4698 Y55.2624 F350.00
G01 X40.4540 Y55.2812 F350.00
G01 X40.4386 Y55.3004 F350.00
G01 X40.4238 Y55.3199 F350.00
G01 X40.3509 Y55.4186 F350.00
G01 X40.3371 Y55.4389 F350.00
G01 X40.3237 Y55.4594 F350.00
G01 X40.3108 Y55.4803 F350.00
G01 X40.2604 Y55.5645 F350.00
G01 X40.2480 Y55.5857 F350.00
G01 X40.2362 Y55.6072 F350.00
G01 X40.2249 Y55.6290 F350.00
G01 X40.2141 Y55.6510 F350.00
G01 X40.1619 Y55.7621 F350.00
G01 X40.1522 Y55.7846 F350.00
G01 X40.1431 Y55.8074 F350.00
G01 X40.1346 Y55.8304 F350.00
G01 X40.1015 Y55.9228 F350.00
G01 X40.0935 Y55.9460 F350.00
G01 X40.0861 Y55.9694 F350.00
G01 X40.0793 Y55.9930 F350.00
G01 X40.0730 Y56.0167 F350.00
G01 X40.0492 Y56.1119 F350.00
G01 X40.0435 Y56.1358 F350.00
G01 X40.0384 Y56.1598 F350.00
G01 X40.0339 Y56.1839 F350.00
G01 X40.0300 Y56.2082 F350.00
G01 X40.0156 Y56.3053 F350.00
G01 X40.0123 Y56.3296 F350.00
G01 X40.0096 Y56.3540 F350.00
G01 X40.0075 Y56.3784 F350.00
G01 X40.0060 Y56.4029 F350.00
G01 X40.0012 Y56.5009 F350.00
G01 X40.0003 Y56.5255 F350.00
G01 X40.0000 Y56.5500 F350.00
G01 X40.0003 Y56.5745 F350.00
G01 X40.0012 Y56.5991 F350.00
G01 X40.0060 Y56.6971 F350.00
G01 X40.0075 Y56.7216 F350.00
G01 X40.0096 Y56.7460 F350.00
G01 X40.0123 Y56.7704 F350.00
G01 X40.0156 Y56.7947 F350.00
G01 X40.0300 Y56.8918 F350.00
G01 X40.0339 Y56.9161 F350.00
G01 X40.0384 Y56.9402 F350.00
G01 X40.0435 Y56.9642 F350.00
G01 X40.0492 Y56.9881 F350.00
G01 X40.0730 Y57.0833 F350.00
G01 X40.0793 Y57.1070 F350.00
G01 X40.0861 Y57.1306 F350.00
G01 X40.0935 Y57.1540 F350.00
G01 X40.1015 Y57.1772 F350.00
G01 X40.1346 Y57.2696 F350.00
G01 X40.1431 Y57.2926 F350.00
G01 X40.1522 Y57.3154 F350.00
G01 X40.1619 Y57.3379 F350.00
G01 X40.1721 Y57.3602 F350.00
G01 X40.2141 Y57.4490 F350.00
G01 X40.2249 Y57.4710 F350.00
G01 X40.2362 Y57.4928 F350.00
G01 X40.2480 Y57.5143 F350.00
G01 X40.2604 Y57.5355 F350.00
G01 X40.3108 Y57.6197 F350.00
G01 X40.3237 Y57.6406 F350.00
G01 X40.3371 Y57.6611 F350.00
G01 X40.3509 Y57.6814 F350.00
G01 X40.3653 Y57.7013 F350.00
G01 X40.4238 Y57.7801 F350.00
G01 X40.4386 Y57.7996 F350.00
G01 X40.4540 Y57.8188 F350.00
G01 X40.4698 Y57.8376 F350.00
G01 X40.4860 Y57.8560 F350.00
G01 X40.5519 Y57.9287 F350.00
G01 X40.5686 Y57.9466 F350.00
G01 X40.5858 Y57.9642 F350.00
G01 X40.6034 Y57.9814 F350.00
G01 X40.6940 Y58.0640 F350.00
G01 X40.7124 Y58.0802 F350.00
G01 X40.7312 Y58.0960 F350.00
G01 X40.7504 Y58.1114 F350.00
G01 X40.8487 Y58.1847 F350.00
G01 X40.8686 Y58.1991 F350.00
G01 X40.8889 Y58.2129 F350.00
G01 X40.9094 Y58.2263 F350.00
G01 X40.9303 Y58.2392 F350.00
G01 X41.0357 Y58.3020 F350.00
G01 X41.0572 Y58.3138 F350.00
G01 X41.0790 Y58.3251 F350.00
G01 X41.1898 Y58.3779 F350.00
G01 X41.2121 Y58.3881 F350.00
G01 X41.2346 Y58.3978 F350.00
G01 X41.2574 Y58.4069 F350.00
G01 X41.2951 Y58.4207 F350.00
G01 X35.6481 Y58.4243 F350.00
G01 X35.5516 Y58.3178 F350.00
G01 X35.5349 Y58.2998 F350.00
G01 X35.5178 Y58.2822 F350.00
G01 X35.5002 Y58.2651 F350.00
G01 X35.4822 Y58.2484 F350.00
G01 X35.3731 Y58.1495 F350.00
G01 X35.3548 Y58.1333 F350.00
G01 X35.3360 Y58.1175 F350.00
G01 X35.3168 Y58.1021 F350.00
G01 X35.2973 Y58.0873 F350.00
G01 X35.1791 Y57.9996 F350.00
G01 X35.1592 Y57.9852 F350.00
G01 X35.1389 Y57.9713 F350.00
G01 X35.1184 Y57.9579 F350.00
G01 X35.0975 Y57.9451 F350.00
G01 X34.9712 Y57.8694 F350.00
G01 X34.9500 Y57.8570 F350.00
G01 X34.9285 Y57.8452 F350.00
G01 X34.9067 Y57.8339 F350.00
G01 X34.8847 Y57.8231 F350.00
G01 X34.7516 Y57.7602 F350.00
G01 X34.7293 Y57.7500 F350.00
G01 X34.7067 Y57.7403 F350.00
G01 X34.6839 Y57.7312 F350.00
G01 X34.6609 Y57.7226 F350.00
G01 X34.5000 Y57.6654 F350.00
G01 X34.5163 Y57.6406 F350.00
G01 X34.5292 Y57.6197 F350.00
G01 X34.5796 Y57.5355 F350.00
G01 X34.5920 Y57.5143 F350.00
G01 X34.6038 Y57.4928 F350.00
G01 X34.6151 Y57.4710 F350.00
G01 X34.6259 Y57.4490 F350.00
G01 X34.6781 Y57.3379 F350.00
G01 X34.6878 Y57.3154 F350.00
G01 X34.6969 Y57.2926 F350.00
G01 X34.7054 Y57.2696 F350.00
G01 X34.7385 Y57.1772 F350.00
G01 X34.7465 Y57.1540 F350.00
G01 X34.7539 Y57.1306 F350.00
G01 X34.7607 Y57.1070 F350.00
G01 X34.7670 Y57.0833 F350.00
G01 X34.7908 Y56.9881 F350.00
G01 X34.7965 Y56.9642 F350.00
G01 X34.8016 Y56.9402 F350.00
G01 X34.8061 Y56.9161 F350.00
G01 X34.8244 Y56.7947 F350.00
G01 X34.8277 Y56.7704 F350.00
G01 X34.8304 Y56.7460 F350.00
G01 X34.8325 Y56.7216 F350.00
G01 X34.8340 Y56.6971 F350.00
G01 X34.8388 Y56.5991 F350.00
G01 X34.8397 Y56.5745 F350.00
G01 X34.8400 Y56.5500 F350.00
G01 X34.8397 Y56.5255 F350.00
G01 X34.8340 Y56.4029 F350.00
