(G-CODE GENERATED BY FLATCAM v8.994 - www.flatcam.org - Version Date: 2020/11/7)

(Name: Buzzer PCB-B_Cu.gbr_iso_combined_cnc)
(Type: G-code from Geometry)
(Units: MM)

(Created on Friday, 26 June 2026 at 10:13)

(This preprocessor is used with a motion controller loaded with GRBL firmware.)
(It is configured to be compatible with almost any version of GRBL firmware.)

(TOOL DIAMETER: 0.4 mm)
(Feedrate_XY: 350.0 mm/min)
(Feedrate_Z: 250.0 mm/min)
(Feedrate rapids 1500.0 mm/min)

(Z_Cut: -0.05 mm)
(Z_Move: 0.5 mm)
(Z Start: None mm)
(Z End: 40.0 mm)
(X,Y End: None mm)
(Steps per circle: 64)
(Steps per circle: 64)
(Preprocessor Geometry: grbl_11)

(X range:   -1.2593 ...  133.5309  mm)
(Y range:   -3.4101 ...   69.6503  mm)

(Spindle Speed: 0.0 RPM)
G21
G90
G17
G94


G01 F350.00

M5             
G00 Z40.0000
G00 X0.0000 Y0.0000                
T1
M6
(MSG, Change to Tool Dia = 0.4000)
M0
G00 Z40.0000

M03
G01 F350.00
G00 X3.0307 Y17.6878
G01 F250.00
G01 Z-0.0500
G01 F350.00
G01 X3.0307 Y14.3000 F350.00
G01 X3.0329 Y14.2559 F350.00
G01 X3.0394 Y14.2122 F350.00
G01 X3.0475 Y14.1788 F350.00
G01 X3.0516 Y14.1647 F350.00
G01 X3.0615 Y14.1369 F350.00
G01 X3.0690 Y14.1188 F350.00
G01 X3.0839 Y14.0878 F350.00
G01 X3.1066 Y14.0499 F350.00
G01 X3.1329 Y14.0144 F350.00
G01 X3.1558 Y13.9888 F350.00
G01 X3.1697 Y13.9749 F350.00
G01 X3.1915 Y13.9552 F350.00
G01 X3.2030 Y13.9460 F350.00
G01 X3.2308 Y13.9257 F350.00
G01 X3.2687 Y13.9030 F350.00
G01 X3.3041 Y13.8861 F350.00
G01 X3.3178 Y13.8806 F350.00
G01 X3.3502 Y13.8693 F350.00
G01 X3.3930 Y13.8585 F350.00
G01 X3.4367 Y13.8520 F350.00
G01 X3.4809 Y13.8499 F350.00
G01 X21.1074 Y13.8499 F350.00
G01 X21.1515 Y13.8520 F350.00
G01 X21.1904 Y13.8576 F350.00
G01 X21.2048 Y13.8607 F350.00
G01 X21.2381 Y13.8693 F350.00
G01 X21.2705 Y13.8806 F350.00
G01 X21.2842 Y13.8861 F350.00
G01 X21.3196 Y13.9030 F350.00
G01 X21.3575 Y13.9257 F350.00
G01 X21.3852 Y13.9460 F350.00
G01 X21.3967 Y13.9552 F350.00
G01 X21.4257 Y13.9817 F350.00
G01 X23.8991 Y16.4552 F350.00
G01 X23.9288 Y16.4879 F350.00
G01 X23.9523 Y16.5193 F350.00
G01 X23.9604 Y16.5317 F350.00
G01 X23.9755 Y16.5570 F350.00
G01 X23.9822 Y16.5700 F350.00
G01 X23.9967 Y16.6012 F350.00
G01 X24.0085 Y16.6335 F350.00
G01 X24.0142 Y16.6522 F350.00
G01 X24.0213 Y16.6808 F350.00
G01 X24.0240 Y16.6953 F350.00
G01 X24.0288 Y16.7293 F350.00
G01 X24.0310 Y16.7735 F350.00
G01 X24.0310 Y21.6636 F350.00
G01 X40.5491 Y38.1817 F350.00
G01 X40.5788 Y38.2144 F350.00
G01 X40.5995 Y38.2419 F350.00
G01 X40.6104 Y38.2582 F350.00
G01 X40.6255 Y38.2835 F350.00
G01 X40.6301 Y38.2922 F350.00
G01 X40.6448 Y38.3232 F350.00
G01 X40.6503 Y38.3369 F350.00
G01 X40.6616 Y38.3693 F350.00
G01 X40.6702 Y38.4026 F350.00
G01 X40.6732 Y38.4170 F350.00
G01 X40.6788 Y38.4559 F350.00
G01 X40.6810 Y38.5000 F350.00
G01 X40.6810 Y46.5500 F350.00
G01 X40.6788 Y46.5941 F350.00
G01 X40.6740 Y46.6281 F350.00
G01 X40.6713 Y46.6426 F350.00
G01 X40.6616 Y46.6807 F350.00
G01 X40.6503 Y46.7131 F350.00
G01 X40.6448 Y46.7268 F350.00
G01 X40.6278 Y46.7622 F350.00
G01 X40.6078 Y46.7960 F350.00
G01 X40.5995 Y46.8081 F350.00
G01 X40.5788 Y46.8356 F350.00
G01 X40.5526 Y46.8648 F350.00
G01 X36.5883 Y50.8291 F350.00
G01 X36.5911 Y50.8900 F350.00
G01 X36.5911 Y51.3678 F350.00
G01 X36.6201 Y51.3722 F350.00
G01 X36.6298 Y51.3741 F350.00
G01 X36.7297 Y51.3991 F350.00
G01 X36.7439 Y51.4032 F350.00
G01 X36.8501 Y51.4413 F350.00
G01 X36.9522 Y51.4894 F350.00
G01 X36.9651 Y51.4965 F350.00
G01 X37.0493 Y51.5470 F350.00
G01 X37.0656 Y51.5579 F350.00
G01 X37.1521 Y51.6224 F350.00
G01 X37.2359 Y51.6980 F350.00
G01 X37.2462 Y51.7086 F350.00
G01 X37.3121 Y51.7813 F350.00
G01 X37.3245 Y51.7965 F350.00
G01 X37.3886 Y51.8833 F350.00
G01 X37.4492 Y51.9843 F350.00
G01 X37.4955 Y52.0818 F350.00
G01 X37.5030 Y52.0999 F350.00
G01 X37.5392 Y52.2017 F350.00
G01 X37.5668 Y52.3111 F350.00
G01 X37.5695 Y52.3256 F350.00
G01 X37.5839 Y52.4226 F350.00
G01 X37.5858 Y52.4422 F350.00
G01 X37.5909 Y52.5500 F350.00
G01 X37.5858 Y52.6578 F350.00
G01 X37.5839 Y52.6774 F350.00
G01 X37.5678 Y52.7841 F350.00
G01 X37.5418 Y52.8889 F350.00
G01 X37.5361 Y52.9077 F350.00
G01 X37.4995 Y53.0092 F350.00
G01 X37.4536 Y53.1069 F350.00
G01 X37.4443 Y53.1242 F350.00
G01 X37.3886 Y53.2167 F350.00
G01 X37.3245 Y53.3035 F350.00
G01 X37.3121 Y53.3187 F350.00
G01 X37.2394 Y53.3985 F350.00
G01 X37.1521 Y53.4776 F350.00
G01 X37.0575 Y53.5478 F350.00
G01 X36.9651 Y53.6035 F350.00
G01 X36.9478 Y53.6127 F350.00
G01 X36.8501 Y53.6587 F350.00
G01 X36.7485 Y53.6952 F350.00
G01 X36.7297 Y53.7009 F350.00
G01 X36.6250 Y53.7269 F350.00
G01 X36.5182 Y53.7430 F350.00
G01 X36.4987 Y53.7449 F350.00
G01 X36.3909 Y53.7500 F350.00
G01 X35.3909 Y53.7500 F350.00
G01 X35.2781 Y53.7446 F350.00
G01 X35.2635 Y53.7430 F350.00
G01 X35.1568 Y53.7269 F350.00
G01 X35.0425 Y53.6983 F350.00
G01 X34.9316 Y53.6587 F350.00
G01 X34.8252 Y53.6083 F350.00
G01 X34.7242 Y53.5478 F350.00
G01 X34.6296 Y53.4776 F350.00
G01 X34.5423 Y53.3985 F350.00
G01 X34.4632 Y53.3113 F350.00
G01 X34.3931 Y53.2167 F350.00
G01 X34.3374 Y53.1242 F350.00
G01 X34.3281 Y53.1069 F350.00
G01 X34.2822 Y53.0092 F350.00
G01 X34.2456 Y52.9077 F350.00
G01 X34.2399 Y52.8889 F350.00
G01 X34.2139 Y52.7841 F350.00
G01 X34.1978 Y52.6774 F350.00
G01 X34.1959 Y52.6578 F350.00
G01 X34.1909 Y52.5500 F350.00
G01 X34.1959 Y52.4422 F350.00
G01 X34.1978 Y52.4226 F350.00
G01 X34.2139 Y52.3159 F350.00
G01 X34.2399 Y52.2111 F350.00
G01 X34.2440 Y52.1970 F350.00
G01 X34.2822 Y52.0908 F350.00
G01 X34.3281 Y51.9931 F350.00
G01 X34.3374 Y51.9758 F350.00
G01 X34.3931 Y51.8833 F350.00
G01 X34.4572 Y51.7965 F350.00
G01 X34.4697 Y51.7813 F350.00
G01 X34.5423 Y51.7015 F350.00
G01 X34.6258 Y51.6255 F350.00
G01 X34.6373 Y51.6163 F350.00
G01 X34.7162 Y51.5579 F350.00
G01 X34.7325 Y51.5470 F350.00
G01 X34.8252 Y51.4917 F350.00
G01 X34.9271 Y51.4433 F350.00
G01 X34.9408 Y51.4378 F350.00
G01 X35.0332 Y51.4048 F350.00
G01 X35.0472 Y51.4003 F350.00
G01 X35.1520 Y51.3741 F350.00
G01 X35.1616 Y51.3722 F350.00
G01 X35.1906 Y51.3678 F350.00
G01 X35.1906 Y51.0501 F350.00
G01 X24.7815 Y51.0501 F350.00
G01 X22.9310 Y52.9007 F350.00
G01 X22.9310 Y61.1136 F350.00
G01 X28.0673 Y66.2499 F350.00
G01 X60.1944 Y66.2499 F350.00
G01 X60.7126 Y65.7317 F350.00
G01 X60.7415 Y65.7052 F350.00
G01 X60.7530 Y65.6960 F350.00
G01 X60.7808 Y65.6757 F350.00
G01 X60.8144 Y65.6554 F350.00
G01 X60.8274 Y65.6486 F350.00
G01 X60.8586 Y65.6341 F350.00
G01 X60.8909 Y65.6223 F350.00
G01 X60.9049 Y65.6179 F350.00
G01 X60.9382 Y65.6095 F350.00
G01 X60.9527 Y65.6068 F350.00
G01 X60.9867 Y65.6020 F350.00
G01 X61.0309 Y65.5999 F350.00
G01 X63.0986 Y65.5999 F350.00
G01 X63.0866 Y65.5176 F350.00
G01 X63.0811 Y65.4098 F350.00
G01 X63.0811 Y65.3902 F350.00
G01 X63.0859 Y65.2922 F350.00
G01 X63.0878 Y65.2726 F350.00
G01 X63.1039 Y65.1659 F350.00
G01 X63.1312 Y65.0564 F350.00
G01 X63.1356 Y65.0423 F350.00
G01 X63.1722 Y64.9408 F350.00
G01 X63.2226 Y64.8343 F350.00
G01 X63.2831 Y64.7333 F350.00
G01 X63.3472 Y64.6465 F350.00
G01 X63.3564 Y64.6350 F350.00
G01 X63.4323 Y64.5515 F350.00
G01 X63.5122 Y64.4788 F350.00
G01 X63.5273 Y64.4663 F350.00
G01 X63.6062 Y64.4079 F350.00
G01 X63.6225 Y64.3970 F350.00
G01 X63.7152 Y64.3417 F350.00
G01 X63.8127 Y64.2953 F350.00
G01 X63.8308 Y64.2878 F350.00
G01 X63.9325 Y64.2517 F350.00
G01 X64.0468 Y64.2231 F350.00
G01 X64.1632 Y64.2058 F350.00
G01 X64.2809 Y64.2000 F350.00
G01 X65.2858 Y64.2001 F350.00
G01 X65.3985 Y64.2058 F350.00
G01 X65.5150 Y64.2231 F350.00
G01 X65.6292 Y64.2517 F350.00
G01 X65.7309 Y64.2878 F350.00
G01 X65.7491 Y64.2953 F350.00
G01 X65.8465 Y64.3417 F350.00
G01 X65.9393 Y64.3970 F350.00
G01 X65.9556 Y64.4079 F350.00
G01 X66.0421 Y64.4724 F350.00
G01 X66.1294 Y64.5515 F350.00
G01 X66.2085 Y64.6387 F350.00
G01 X66.2786 Y64.7333 F350.00
G01 X66.3392 Y64.8343 F350.00
G01 X66.3855 Y64.9318 F350.00
G01 X66.3930 Y64.9499 F350.00
G01 X66.4261 Y65.0423 F350.00
G01 X66.4318 Y65.0611 F350.00
G01 X66.4578 Y65.1659 F350.00
G01 X66.4739 Y65.2726 F350.00
G01 X66.4758 Y65.2922 F350.00
G01 X66.4809 Y65.4000 F350.00
G01 X66.4751 Y65.5176 F350.00
G01 X66.4578 Y65.6341 F350.00
G01 X66.4292 Y65.7483 F350.00
G01 X66.3895 Y65.8592 F350.00
G01 X66.3392 Y65.9657 F350.00
G01 X66.2786 Y66.0667 F350.00
G01 X66.2115 Y66.1574 F350.00
G01 X66.2021 Y66.1687 F350.00
G01 X66.1294 Y66.2485 F350.00
G01 X66.0421 Y66.3276 F350.00
G01 X65.9475 Y66.3978 F350.00
G01 X65.8465 Y66.4583 F350.00
G01 X65.7401 Y66.5087 F350.00
G01 X65.6292 Y66.5483 F350.00
G01 X65.5150 Y66.5769 F350.00
G01 X65.4082 Y66.5930 F350.00
G01 X65.3936 Y66.5946 F350.00
G01 X65.2809 Y66.6000 F350.00
G01 X64.2809 Y66.6000 F350.00
G01 X64.1730 Y66.5949 F350.00
G01 X64.1535 Y66.5930 F350.00
G01 X64.0468 Y66.5769 F350.00
G01 X63.9420 Y66.5509 F350.00
G01 X63.9232 Y66.5452 F350.00
G01 X63.8308 Y66.5122 F350.00
G01 X63.8171 Y66.5067 F350.00
G01 X63.8030 Y66.5001 F350.00
G01 X61.2173 Y66.5001 F350.00
G01 X60.6991 Y67.0183 F350.00
G01 X60.6739 Y67.0415 F350.00
G01 X60.6626 Y67.0510 F350.00
G01 X60.6309 Y67.0743 F350.00
G01 X60.5930 Y67.0970 F350.00
G01 X60.5531 Y67.1159 F350.00
G01 X60.5208 Y67.1277 F350.00
G01 X60.5021 Y67.1334 F350.00
G01 X60.4735 Y67.1405 F350.00
G01 X60.4639 Y67.1424 F350.00
G01 X60.4250 Y67.1480 F350.00
G01 X60.3858 Y67.1501 F350.00
G01 X27.8809 Y67.1501 F350.00
G01 X27.8367 Y67.1480 F350.00
G01 X27.8027 Y67.1432 F350.00
G01 X27.7835 Y67.1393 F350.00
G01 X27.7549 Y67.1321 F350.00
G01 X27.7409 Y67.1277 F350.00
G01 X27.7086 Y67.1159 F350.00
G01 X27.6687 Y67.0970 F350.00
G01 X27.6308 Y67.0743 F350.00
G01 X27.5991 Y67.0510 F350.00
G01 X27.5879 Y67.0415 F350.00
G01 X27.5626 Y67.0183 F350.00
G01 X22.1626 Y61.6183 F350.00
G01 X22.1329 Y61.5856 F350.00
G01 X22.1066 Y61.5501 F350.00
G01 X22.0839 Y61.5122 F350.00
G01 X22.0690 Y61.4812 F350.00
G01 X22.0632 Y61.4677 F350.00
G01 X22.0501 Y61.4307 F350.00
G01 X22.0394 Y61.3878 F350.00
G01 X22.0329 Y61.3441 F350.00
G01 X22.0307 Y61.3000 F350.00
G01 X22.0307 Y52.7142 F350.00
G01 X22.0329 Y52.6701 F350.00
G01 X22.0394 Y52.6264 F350.00
G01 X22.0501 Y52.5835 F350.00
G01 X22.0615 Y52.5511 F350.00
G01 X22.0669 Y52.5374 F350.00
G01 X22.0839 Y52.5020 F350.00
G01 X22.1066 Y52.4641 F350.00
G01 X22.1329 Y52.4287 F350.00
G01 X22.1626 Y52.3959 F350.00
G01 X24.2803 Y50.2783 F350.00
G01 X24.3095 Y50.2520 F350.00
G01 X24.3370 Y50.2314 F350.00
G01 X24.3491 Y50.2231 F350.00
G01 X24.3829 Y50.2030 F350.00
G01 X24.4228 Y50.1841 F350.00
G01 X24.4551 Y50.1723 F350.00
G01 X24.4739 Y50.1666 F350.00
G01 X24.5025 Y50.1595 F350.00
G01 X24.5121 Y50.1576 F350.00
G01 X24.5510 Y50.1520 F350.00
G01 X24.5951 Y50.1499 F350.00
G01 X35.8909 Y50.1499 F350.00
G01 X35.9350 Y50.1520 F350.00
G01 X35.9690 Y50.1568 F350.00
G01 X35.9845 Y50.1598 F350.00
G01 X39.7807 Y46.3636 F350.00
G01 X39.7807 Y38.6864 F350.00
G01 X23.2626 Y22.1683 F350.00
G01 X23.2393 Y22.1430 F350.00
G01 X23.2298 Y22.1317 F350.00
G01 X23.2066 Y22.1001 F350.00
G01 X23.1839 Y22.0622 F350.00
G01 X23.1650 Y22.0223 F350.00
G01 X23.1532 Y21.9900 F350.00
G01 X23.1475 Y21.9712 F350.00
G01 X23.1404 Y21.9426 F350.00
G01 X23.1385 Y21.9330 F350.00
G01 X23.1329 Y21.8941 F350.00
G01 X23.1308 Y21.8549 F350.00
G01 X23.1307 Y16.9599 F350.00
G01 X20.9210 Y14.7501 F350.00
G01 X3.9310 Y14.7501 F350.00
G01 X3.9310 Y17.6878 F350.00
G01 X3.9491 Y17.6953 F350.00
G01 X4.0465 Y17.7417 F350.00
G01 X4.1475 Y17.8022 F350.00
G01 X4.2421 Y17.8724 F350.00
G01 X4.3223 Y17.9447 F350.00
G01 X4.3362 Y17.9586 F350.00
G01 X4.4085 Y18.0387 F350.00
G01 X4.4730 Y18.1253 F350.00
G01 X4.4839 Y18.1416 F350.00
G01 X4.5343 Y18.2258 F350.00
G01 X4.5436 Y18.2431 F350.00
G01 X4.5895 Y18.3408 F350.00
G01 X4.6261 Y18.4423 F350.00
G01 X4.6318 Y18.4611 F350.00
G01 X4.6557 Y18.5563 F350.00
G01 X4.6595 Y18.5756 F350.00
G01 X4.6751 Y18.6824 F350.00
G01 X4.6806 Y18.7902 F350.00
G01 X4.6808 Y19.8049 F350.00
G01 X4.6751 Y19.9176 F350.00
G01 X4.6578 Y20.0341 F350.00
G01 X4.6292 Y20.1483 F350.00
G01 X4.5930 Y20.2501 F350.00
G01 X4.5855 Y20.2682 F350.00
G01 X4.5436 Y20.3569 F350.00
G01 X4.5343 Y20.3742 F350.00
G01 X4.4786 Y20.4667 F350.00
G01 X4.4085 Y20.5613 F350.00
G01 X4.3294 Y20.6485 F350.00
G01 X4.2421 Y20.7276 F350.00
G01 X4.1475 Y20.7978 F350.00
G01 X4.0551 Y20.8535 F350.00
G01 X4.0378 Y20.8627 F350.00
G01 X3.9491 Y20.9047 F350.00
G01 X3.9309 Y20.9122 F350.00
G01 X3.8292 Y20.9483 F350.00
G01 X3.7245 Y20.9748 F350.00
G01 X3.7101 Y20.9778 F350.00
G01 X3.5985 Y20.9942 F350.00
G01 X3.4809 Y21.0000 F350.00
G01 X3.3632 Y20.9942 F350.00
G01 X3.2468 Y20.9769 F350.00
G01 X3.1325 Y20.9483 F350.00
G01 X3.0216 Y20.9087 F350.00
G01 X2.9152 Y20.8583 F350.00
G01 X2.8142 Y20.7978 F350.00
G01 X2.7196 Y20.7276 F350.00
G01 X2.6323 Y20.6485 F350.00
G01 X2.5532 Y20.5613 F350.00
G01 X2.4831 Y20.4667 F350.00
G01 X2.4226 Y20.3657 F350.00
G01 X2.3722 Y20.2592 F350.00
G01 X2.3325 Y20.1483 F350.00
G01 X2.3039 Y20.0341 F350.00
G01 X2.2866 Y19.9176 F350.00
G01 X2.2809 Y19.8049 F350.00
G01 X2.2809 Y18.7951 F350.00
G01 X2.2866 Y18.6824 F350.00
G01 X2.3022 Y18.5756 F350.00
G01 X2.3061 Y18.5563 F350.00
G01 X2.3325 Y18.4517 F350.00
G01 X2.3722 Y18.3408 F350.00
G01 X2.4181 Y18.2431 F350.00
G01 X2.4274 Y18.2258 F350.00
G01 X2.4831 Y18.1333 F350.00
G01 X2.5472 Y18.0465 F350.00
G01 X2.5597 Y18.0313 F350.00
G01 X2.6256 Y17.9586 F350.00
G01 X2.6394 Y17.9447 F350.00
G01 X2.7196 Y17.8724 F350.00
G01 X2.8142 Y17.8022 F350.00
G01 X2.9152 Y17.7417 F350.00
G01 X3.0127 Y17.6953 F350.00
G01 X3.0307 Y17.6878 F350.00
G00 Z0.5000
G00 X7.0209 Y17.6000
G01 F250.00
G01 Z-0.0500
G01 F350.00
G01 X7.0405 Y17.6010 F350.00
G01 X7.0599 Y17.6038 F350.00
G01 X7.0789 Y17.6086 F350.00
G01 X7.0974 Y17.6152 F350.00
G01 X7.1151 Y17.6236 F350.00
G01 X7.1320 Y17.6337 F350.00
G01 X7.1477 Y17.6454 F350.00
G01 X7.1588 Y17.6552 F350.00
G01 X7.1723 Y17.6694 F350.00
G01 X7.1844 Y17.6848 F350.00
G01 X7.1949 Y17.7014 F350.00
G01 X7.2037 Y17.7190 F350.00
G01 X7.2108 Y17.7373 F350.00
G01 X7.2149 Y17.7514 F350.00
G01 X7.2187 Y17.7707 F350.00
G01 X7.2206 Y17.7902 F350.00
G01 X7.2209 Y20.8000 F350.00
G01 X7.2203 Y20.8147 F350.00
G01 X7.2187 Y20.8293 F350.00
G01 X7.2160 Y20.8438 F350.00
G01 X7.2122 Y20.8581 F350.00
G01 X7.2092 Y20.8674 F350.00
G01 X7.2037 Y20.8810 F350.00
G01 X7.1972 Y20.8943 F350.00
G01 X7.1898 Y20.9070 F350.00
G01 X7.1815 Y20.9191 F350.00
G01 X7.1755 Y20.9269 F350.00
G01 X7.1657 Y20.9379 F350.00
G01 X7.1588 Y20.9448 F350.00
G01 X7.1477 Y20.9546 F350.00
G01 X7.1400 Y20.9606 F350.00
G01 X7.1320 Y20.9663 F350.00
G01 X7.1194 Y20.9740 F350.00
G01 X7.1108 Y20.9786 F350.00
G01 X7.0974 Y20.9848 F350.00
G01 X7.0882 Y20.9883 F350.00
G01 X7.0742 Y20.9928 F350.00
G01 X7.0647 Y20.9951 F350.00
G01 X7.0502 Y20.9978 F350.00
G01 X7.0356 Y20.9995 F350.00
G01 X7.0258 Y20.9999 F350.00
G01 X5.0160 Y20.9999 F350.00
G01 X5.0013 Y20.9990 F350.00
G01 X4.9867 Y20.9971 F350.00
G01 X4.9770 Y20.9951 F350.00
G01 X4.9628 Y20.9914 F350.00
G01 X4.9489 Y20.9866 F350.00
G01 X4.9354 Y20.9808 F350.00
G01 X4.9223 Y20.9740 F350.00
G01 X4.9139 Y20.9690 F350.00
G01 X4.9017 Y20.9606 F350.00
G01 X4.8940 Y20.9546 F350.00
G01 X4.8830 Y20.9448 F350.00
G01 X4.8760 Y20.9379 F350.00
G01 X4.8663 Y20.9269 F350.00
G01 X4.8602 Y20.9191 F350.00
G01 X4.8519 Y20.9070 F350.00
G01 X4.8468 Y20.8986 F350.00
G01 X4.8422 Y20.8899 F350.00
G01 X4.8361 Y20.8765 F350.00
G01 X4.8310 Y20.8627 F350.00
G01 X4.8281 Y20.8533 F350.00
G01 X4.8247 Y20.8390 F350.00
G01 X4.8230 Y20.8293 F350.00
G01 X4.8214 Y20.8147 F350.00
G01 X4.8209 Y20.8049 F350.00
G01 X4.8209 Y17.8000 F350.00
G01 X4.8214 Y17.7853 F350.00
G01 X4.8230 Y17.7707 F350.00
G01 X4.8257 Y17.7562 F350.00
G01 X4.8295 Y17.7419 F350.00
G01 X4.8343 Y17.7280 F350.00
G01 X4.8380 Y17.7190 F350.00
G01 X4.8445 Y17.7057 F350.00
G01 X4.8519 Y17.6930 F350.00
G01 X4.8573 Y17.6848 F350.00
G01 X4.8663 Y17.6731 F350.00
G01 X4.8727 Y17.6657 F350.00
G01 X4.8830 Y17.6552 F350.00
G01 X4.8902 Y17.6486 F350.00
G01 X4.9017 Y17.6394 F350.00
G01 X4.9097 Y17.6337 F350.00
G01 X4.9223 Y17.6260 F350.00
G01 X4.9354 Y17.6192 F350.00
G01 X4.9443 Y17.6152 F350.00
G01 X4.9535 Y17.6117 F350.00
G01 X4.9675 Y17.6072 F350.00
G01 X4.9867 Y17.6029 F350.00
G01 X5.0013 Y17.6010 F350.00
G01 X5.0110 Y17.6002 F350.00
G01 X7.0209 Y17.6000 F350.00
G00 Z0.5000
G00 X8.4906 Y20.9544
G01 F250.00
G01 Z-0.0500
G01 F350.00
G01 X8.4722 Y20.9497 F350.00
G01 X8.4628 Y20.9468 F350.00
G01 X8.3566 Y20.9087 F350.00
G01 X8.2590 Y20.8627 F350.00
G01 X8.2459 Y20.8559 F350.00
G01 X8.1492 Y20.7978 F350.00
G01 X8.0623 Y20.7337 F350.00
G01 X8.0472 Y20.7212 F350.00
G01 X7.9708 Y20.6520 F350.00
G01 X7.9606 Y20.6414 F350.00
G01 X7.8882 Y20.5613 F350.00
G01 X7.8237 Y20.4747 F350.00
G01 X7.8128 Y20.4584 F350.00
G01 X7.7624 Y20.3742 F350.00
G01 X7.7531 Y20.3569 F350.00
G01 X7.7072 Y20.2592 F350.00
G01 X7.6706 Y20.1577 F350.00
G01 X7.6649 Y20.1389 F350.00
G01 X7.6411 Y20.0437 F350.00
G01 X7.6372 Y20.0244 F350.00
G01 X7.6216 Y19.9176 F350.00
G01 X7.6159 Y19.8049 F350.00
G01 X7.6159 Y18.7951 F350.00
G01 X7.6216 Y18.6824 F350.00
G01 X7.6380 Y18.5707 F350.00
G01 X7.6411 Y18.5563 F350.00
G01 X7.6675 Y18.4517 F350.00
G01 X7.7072 Y18.3408 F350.00
G01 X7.7576 Y18.2343 F350.00
G01 X7.8181 Y18.1333 F350.00
G01 X7.8882 Y18.0387 F350.00
G01 X7.9673 Y17.9515 F350.00
G01 X8.0546 Y17.8724 F350.00
G01 X8.1492 Y17.8022 F350.00
G01 X8.2502 Y17.7417 F350.00
G01 X8.3566 Y17.6913 F350.00
G01 X8.4675 Y17.6517 F350.00
G01 X8.5818 Y17.6231 F350.00
G01 X8.6982 Y17.6058 F350.00
G01 X8.8159 Y17.6000 F350.00
G01 X8.9335 Y17.6058 F350.00
G01 X9.0451 Y17.6222 F350.00
G01 X9.0595 Y17.6252 F350.00
G01 X9.1547 Y17.6491 F350.00
G01 X9.1735 Y17.6548 F350.00
G01 X9.2751 Y17.6913 F350.00
G01 X9.3815 Y17.7417 F350.00
G01 X9.4825 Y17.8022 F350.00
G01 X9.5694 Y17.8663 F350.00
G01 X9.5846 Y17.8788 F350.00
G01 X9.6573 Y17.9447 F350.00
G01 X9.6712 Y17.9586 F350.00
G01 X9.7435 Y18.0387 F350.00
G01 X9.8136 Y18.1333 F350.00
G01 X9.8742 Y18.2343 F350.00
G01 X9.9205 Y18.3318 F350.00
G01 X9.9280 Y18.3499 F350.00
G01 X9.9611 Y18.4423 F350.00
G01 X9.9668 Y18.4611 F350.00
G01 X9.9928 Y18.5659 F350.00
G01 X10.0095 Y18.6775 F350.00
G01 X10.0108 Y18.6922 F350.00
G01 X10.0159 Y18.8000 F350.00
G01 X10.0159 Y19.8000 F350.00
G01 X10.0105 Y19.9127 F350.00
G01 X10.0089 Y19.9274 F350.00
G01 X9.9928 Y20.0341 F350.00
G01 X9.9656 Y20.1436 F350.00
G01 X9.9611 Y20.1577 F350.00
G01 X9.9263 Y20.2547 F350.00
G01 X9.9205 Y20.2682 F350.00
G01 X9.8911 Y20.3304 F350.00
G01 X9.8911 Y24.2199 F350.00
G01 X11.0119 Y25.3407 F350.00
G01 X11.0562 Y25.3079 F350.00
G01 X11.0683 Y25.2996 F350.00
G01 X11.1566 Y25.2465 F350.00
G01 X11.1695 Y25.2394 F350.00
G01 X11.2716 Y25.1913 F350.00
G01 X11.3732 Y25.1548 F350.00
G01 X11.3872 Y25.1503 F350.00
G01 X11.4968 Y25.1231 F350.00
G01 X11.6132 Y25.1058 F350.00
G01 X11.7309 Y25.1000 F350.00
G01 X11.8436 Y25.1054 F350.00
G01 X11.8582 Y25.1070 F350.00
G01 X11.9650 Y25.1231 F350.00
G01 X12.0697 Y25.1491 F350.00
G01 X12.0885 Y25.1548 F350.00
G01 X12.1809 Y25.1878 F350.00
G01 X12.1991 Y25.1953 F350.00
G01 X12.2965 Y25.2417 F350.00
G01 X12.3975 Y25.3022 F350.00
G01 X12.4921 Y25.3724 F350.00
G01 X12.5794 Y25.4515 F350.00
G01 X12.6585 Y25.5387 F350.00
G01 X12.7230 Y25.6253 F350.00
G01 X12.7339 Y25.6416 F350.00
G01 X12.7892 Y25.7343 F350.00
G01 X12.8395 Y25.8408 F350.00
G01 X12.8761 Y25.9423 F350.00
G01 X12.8818 Y25.9611 F350.00
G01 X12.9078 Y26.0659 F350.00
G01 X12.9251 Y26.1824 F350.00
G01 X12.9308 Y26.2951 F350.00
G01 X12.9309 Y27.2597 F350.00
G01 X14.9794 Y29.3084 F350.00
G01 X15.0157 Y29.3483 F350.00
G01 X15.0282 Y29.3635 F350.00
G01 X15.0631 Y29.4110 F350.00
G01 X15.0936 Y29.4614 F350.00
G01 X15.1028 Y29.4787 F350.00
G01 X15.1278 Y29.5320 F350.00
G01 X15.1510 Y29.5967 F350.00
G01 X15.1677 Y29.6634 F350.00
G01 X15.1765 Y29.7216 F350.00
G01 X15.1785 Y29.7412 F350.00
G01 X15.1811 Y29.8000 F350.00
G01 X15.1811 Y38.0648 F350.00
G01 X15.3003 Y38.1365 F350.00
G01 X15.4266 Y38.2298 F350.00
G01 X15.4418 Y38.2423 F350.00
G01 X15.5579 Y38.3479 F350.00
G01 X15.6636 Y38.4641 F350.00
G01 X15.6760 Y38.4793 F350.00
G01 X15.7694 Y38.6055 F350.00
G01 X15.8503 Y38.7401 F350.00
G01 X15.8595 Y38.7574 F350.00
G01 X15.9265 Y38.8994 F350.00
G01 X15.9796 Y39.0472 F350.00
G01 X15.9853 Y39.0660 F350.00
G01 X16.0232 Y39.2183 F350.00
G01 X16.0465 Y39.3736 F350.00
G01 X16.0484 Y39.3932 F350.00
G01 X16.0556 Y39.5402 F350.00
G01 X16.0558 Y39.5549 F350.00
G01 X16.0477 Y39.7166 F350.00
G01 X16.0249 Y39.8720 F350.00
G01 X16.0210 Y39.8912 F350.00
G01 X15.9853 Y40.0340 F350.00
G01 X15.9796 Y40.0528 F350.00
G01 X15.9265 Y40.2006 F350.00
G01 X15.8551 Y40.3514 F350.00
G01 X15.7694 Y40.4945 F350.00
G01 X15.6760 Y40.6207 F350.00
G01 X15.6636 Y40.6359 F350.00
G01 X15.5647 Y40.7450 F350.00
G01 X15.5508 Y40.7589 F350.00
G01 X15.4343 Y40.8641 F350.00
G01 X15.3003 Y40.9635 F350.00
G01 X15.1658 Y41.0444 F350.00
G01 X15.1485 Y41.0537 F350.00
G01 X15.0064 Y41.1206 F350.00
G01 X14.8493 Y41.1768 F350.00
G01 X14.6875 Y41.2173 F350.00
G01 X14.5225 Y41.2418 F350.00
G01 X14.3559 Y41.2500 F350.00
G01 X14.1990 Y41.2425 F350.00
G01 X14.1795 Y41.2406 F350.00
G01 X14.0242 Y41.2173 F350.00
G01 X13.8718 Y41.1794 F350.00
G01 X13.8531 Y41.1737 F350.00
G01 X13.7145 Y41.1241 F350.00
G01 X13.6963 Y41.1166 F350.00
G01 X13.5545 Y41.0493 F350.00
G01 X13.4114 Y40.9635 F350.00
G01 X13.2774 Y40.8641 F350.00
G01 X13.1609 Y40.7589 F350.00
G01 X13.1470 Y40.7450 F350.00
G01 X13.0417 Y40.6285 F350.00
G01 X12.9480 Y40.5025 F350.00
G01 X12.9371 Y40.4862 F350.00
G01 X12.8614 Y40.3599 F350.00
G01 X12.8522 Y40.3426 F350.00
G01 X12.7853 Y40.2006 F350.00
G01 X12.7291 Y40.0435 F350.00
G01 X12.6885 Y39.8817 F350.00
G01 X12.6640 Y39.7166 F350.00
G01 X12.6559 Y39.5500 F350.00
G01 X12.6633 Y39.3932 F350.00
G01 X12.6652 Y39.3736 F350.00
G01 X12.6868 Y39.2280 F350.00
G01 X12.6907 Y39.2088 F350.00
G01 X12.7291 Y39.0565 F350.00
G01 X12.7853 Y38.8994 F350.00
G01 X12.8566 Y38.7486 F350.00
G01 X12.9397 Y38.6096 F350.00
G01 X12.9480 Y38.5975 F350.00
G01 X13.0357 Y38.4793 F350.00
G01 X13.0482 Y38.4641 F350.00
G01 X13.1538 Y38.3479 F350.00
G01 X13.2700 Y38.2423 F350.00
G01 X13.2812 Y38.2328 F350.00
G01 X13.4114 Y38.1365 F350.00
G01 X13.5502 Y38.0531 F350.00
G01 X13.5633 Y38.0463 F350.00
G01 X13.7008 Y37.9813 F350.00
G01 X13.7145 Y37.9759 F350.00
G01 X13.7806 Y37.9522 F350.00
G01 X13.7806 Y30.0901 F350.00
G01 X12.1233 Y28.4328 F350.00
G01 X12.0885 Y28.4452 F350.00
G01 X12.0745 Y28.4497 F350.00
G01 X11.9698 Y28.4759 F350.00
G01 X11.9553 Y28.4786 F350.00
G01 X11.8582 Y28.4930 F350.00
G01 X11.8436 Y28.4946 F350.00
G01 X11.7309 Y28.5000 F350.00
G01 X11.6230 Y28.4949 F350.00
G01 X11.6035 Y28.4930 F350.00
G01 X11.5064 Y28.4786 F350.00
G01 X11.4920 Y28.4759 F350.00
G01 X11.3825 Y28.4483 F350.00
G01 X11.2808 Y28.4122 F350.00
G01 X11.2627 Y28.4047 F350.00
G01 X11.1652 Y28.3583 F350.00
G01 X11.0642 Y28.2978 F350.00
G01 X10.9773 Y28.2337 F350.00
G01 X10.9622 Y28.2212 F350.00
G01 X10.8823 Y28.1485 F350.00
G01 X10.8097 Y28.0687 F350.00
G01 X10.7972 Y28.0535 F350.00
G01 X10.7331 Y27.9667 F350.00
G01 X10.6774 Y27.8742 F350.00
G01 X10.6681 Y27.8569 F350.00
G01 X10.6222 Y27.7592 F350.00
G01 X10.5856 Y27.6577 F350.00
G01 X10.5812 Y27.6436 F350.00
G01 X10.5539 Y27.5341 F350.00
G01 X10.5378 Y27.4274 F350.00
G01 X10.5362 Y27.4127 F350.00
G01 X10.5309 Y27.3000 F350.00
G01 X10.5309 Y26.8403 F350.00
G01 X8.6957 Y25.0052 F350.00
G01 X8.6560 Y24.9617 F350.00
G01 X8.6435 Y24.9465 F350.00
G01 X8.6086 Y24.8990 F350.00
G01 X8.5757 Y24.8444 F350.00
G01 X8.5689 Y24.8313 F350.00
G01 X8.5439 Y24.7780 F350.00
G01 X8.5238 Y24.7226 F350.00
G01 X8.5181 Y24.7038 F350.00
G01 X8.5041 Y24.6466 F350.00
G01 X8.4952 Y24.5884 F350.00
G01 X8.4933 Y24.5688 F350.00
G01 X8.4907 Y24.5149 F350.00
G01 X8.4906 Y20.9544 F350.00
G00 Z0.5000
G00 X10.9057 Y20.9122
G01 F250.00
G01 Z-0.0500
G01 F350.00
G01 X10.8877 Y20.9047 F350.00
G01 X10.7902 Y20.8583 F350.00
G01 X10.6892 Y20.7978 F350.00
G01 X10.5946 Y20.7276 F350.00
G01 X10.5144 Y20.6553 F350.00
G01 X10.5006 Y20.6414 F350.00
G01 X10.4282 Y20.5613 F350.00
G01 X10.3637 Y20.4747 F350.00
G01 X10.3528 Y20.4584 F350.00
G01 X10.3024 Y20.3742 F350.00
G01 X10.2931 Y20.3569 F350.00
G01 X10.2472 Y20.2592 F350.00
G01 X10.2075 Y20.1483 F350.00
G01 X10.1811 Y20.0437 F350.00
G01 X10.1772 Y20.0244 F350.00
G01 X10.1616 Y19.9176 F350.00
G01 X10.1559 Y19.8049 F350.00
G01 X10.1559 Y18.7951 F350.00
G01 X10.1616 Y18.6824 F350.00
G01 X10.1789 Y18.5659 F350.00
G01 X10.2075 Y18.4517 F350.00
G01 X10.2472 Y18.3408 F350.00
G01 X10.2976 Y18.2343 F350.00
G01 X10.3581 Y18.1333 F350.00
G01 X10.4282 Y18.0387 F350.00
G01 X10.5073 Y17.9515 F350.00
G01 X10.5946 Y17.8724 F350.00
G01 X10.6892 Y17.8022 F350.00
G01 X10.7902 Y17.7417 F350.00
G01 X10.8966 Y17.6913 F350.00
G01 X11.0075 Y17.6517 F350.00
G01 X11.1218 Y17.6231 F350.00
G01 X11.2382 Y17.6058 F350.00
G01 X11.3559 Y17.6000 F350.00
G01 X11.4735 Y17.6058 F350.00
G01 X11.5900 Y17.6231 F350.00
G01 X11.7042 Y17.6517 F350.00
G01 X11.8059 Y17.6878 F350.00
G01 X11.8241 Y17.6953 F350.00
G01 X11.9128 Y17.7373 F350.00
G01 X11.9301 Y17.7465 F350.00
G01 X12.0225 Y17.8022 F350.00
G01 X12.1171 Y17.8724 F350.00
G01 X12.2044 Y17.9515 F350.00
G01 X12.2771 Y18.0313 F350.00
G01 X12.2895 Y18.0465 F350.00
G01 X12.3480 Y18.1253 F350.00
G01 X12.3589 Y18.1416 F350.00
G01 X12.4142 Y18.2343 F350.00
G01 X12.4645 Y18.3408 F350.00
G01 X12.5042 Y18.4517 F350.00
G01 X12.5307 Y18.5563 F350.00
G01 X12.5345 Y18.5756 F350.00
G01 X12.5489 Y18.6726 F350.00
G01 X12.5508 Y18.6922 F350.00
G01 X12.5559 Y18.8000 F350.00
G01 X12.5558 Y19.8049 F350.00
G01 X12.5501 Y19.9176 F350.00
G01 X12.5345 Y20.0244 F350.00
G01 X12.5307 Y20.0437 F350.00
G01 X12.5068 Y20.1389 F350.00
G01 X12.5011 Y20.1577 F350.00
G01 X12.4645 Y20.2592 F350.00
G01 X12.4186 Y20.3569 F350.00
G01 X12.4093 Y20.3742 F350.00
G01 X12.3536 Y20.4667 F350.00
G01 X12.2835 Y20.5613 F350.00
G01 X12.2112 Y20.6414 F350.00
G01 X12.1973 Y20.6553 F350.00
G01 X12.1171 Y20.7276 F350.00
G01 X12.0306 Y20.7921 F350.00
G01 X12.0143 Y20.8030 F350.00
G01 X11.9215 Y20.8583 F350.00
G01 X11.8241 Y20.9047 F350.00
G01 X11.8060 Y20.9122 F350.00
G01 X11.8060 Y21.7886 F350.00
G01 X16.9241 Y26.9067 F350.00
G01 X16.9507 Y26.9357 F350.00
G01 X16.9599 Y26.9472 F350.00
G01 X16.9801 Y26.9749 F350.00
G01 X16.9980 Y27.0043 F350.00
G01 X17.0051 Y27.0172 F350.00
G01 X17.0217 Y27.0527 F350.00
G01 X17.0335 Y27.0850 F350.00
G01 X17.0380 Y27.0991 F350.00
G01 X17.0473 Y27.1372 F350.00
G01 X17.0526 Y27.1711 F350.00
G01 X17.0542 Y27.1858 F350.00
G01 X17.0560 Y27.2250 F350.00
G01 X17.0560 Y43.1000 F350.00
G01 X17.0538 Y43.1441 F350.00
G01 X17.0482 Y43.1830 F350.00
G01 X17.0452 Y43.1974 F350.00
G01 X17.0366 Y43.2307 F350.00
G01 X17.0253 Y43.2631 F350.00
G01 X17.0198 Y43.2768 F350.00
G01 X17.0028 Y43.3122 F350.00
G01 X16.9828 Y43.3460 F350.00
G01 X16.9745 Y43.3581 F350.00
G01 X16.9538 Y43.3856 F350.00
G01 X16.9241 Y43.4183 F350.00
G01 X16.8952 Y43.4448 F350.00
G01 X16.8837 Y43.4540 F350.00
G01 X16.8559 Y43.4743 F350.00
G01 X16.8266 Y43.4921 F350.00
G01 X16.8137 Y43.4992 F350.00
G01 X16.7781 Y43.5159 F350.00
G01 X16.7412 Y43.5293 F350.00
G01 X16.7271 Y43.5334 F350.00
G01 X16.6937 Y43.5415 F350.00
G01 X16.6597 Y43.5468 F350.00
G01 X16.6451 Y43.5484 F350.00
G01 X16.6059 Y43.5501 F350.00
G01 X-0.8091 Y43.5501 F350.00
G01 X-0.8533 Y43.5480 F350.00
G01 X-0.8921 Y43.5424 F350.00
G01 X-0.9065 Y43.5393 F350.00
G01 X-0.9398 Y43.5307 F350.00
G01 X-0.9722 Y43.5194 F350.00
G01 X-0.9859 Y43.5139 F350.00
G01 X-1.0213 Y43.4970 F350.00
G01 X-1.0592 Y43.4743 F350.00
G01 X-1.0870 Y43.4540 F350.00
G01 X-1.0985 Y43.4448 F350.00
G01 X-1.1274 Y43.4183 F350.00
G01 X-1.1539 Y43.3893 F350.00
G01 X-1.1631 Y43.3778 F350.00
G01 X-1.1834 Y43.3501 F350.00
G01 X-1.2013 Y43.3207 F350.00
G01 X-1.2084 Y43.3078 F350.00
G01 X-1.2250 Y43.2723 F350.00
G01 X-1.2384 Y43.2353 F350.00
G01 X-1.2425 Y43.2212 F350.00
G01 X-1.2506 Y43.1878 F350.00
G01 X-1.2559 Y43.1539 F350.00
G01 X-1.2575 Y43.1392 F350.00
G01 X-1.2593 Y43.1000 F350.00
G01 X-1.2593 Y15.6900 F350.00
G01 X-1.2571 Y15.6459 F350.00
G01 X-1.2523 Y15.6119 F350.00
G01 X-1.2485 Y15.5926 F350.00
G01 X-1.2412 Y15.5641 F350.00
G01 X-1.2368 Y15.5500 F350.00
G01 X-1.2250 Y15.5177 F350.00
G01 X-1.2061 Y15.4778 F350.00
G01 X-1.1834 Y15.4399 F350.00
G01 X-1.1602 Y15.4083 F350.00
G01 X-1.1507 Y15.3970 F350.00
G01 X-1.1274 Y15.3717 F350.00
G01 X1.5661 Y12.6783 F350.00
G01 X1.5953 Y12.6520 F350.00
G01 X1.6267 Y12.6285 F350.00
G01 X1.6349 Y12.6231 F350.00
G01 X1.6601 Y12.6079 F350.00
G01 X1.6774 Y12.5986 F350.00
G01 X1.7086 Y12.5841 F350.00
G01 X1.7502 Y12.5693 F350.00
G01 X1.7930 Y12.5585 F350.00
G01 X1.8319 Y12.5526 F350.00
G01 X1.8465 Y12.5513 F350.00
G01 X1.8809 Y12.5499 F350.00
G01 X23.3809 Y12.5499 F350.00
G01 X23.4201 Y12.5516 F350.00
G01 X23.4347 Y12.5532 F350.00
G01 X23.4639 Y12.5576 F350.00
G01 X23.4735 Y12.5595 F350.00
G01 X23.5021 Y12.5666 F350.00
G01 X23.5162 Y12.5707 F350.00
G01 X23.5440 Y12.5806 F350.00
G01 X23.5621 Y12.5881 F350.00
G01 X23.5930 Y12.6030 F350.00
G01 X23.6309 Y12.6257 F350.00
G01 X23.6664 Y12.6520 F350.00
G01 X23.6956 Y12.6783 F350.00
G01 X24.9059 Y13.8888 F350.00
G01 X24.9288 Y13.9144 F350.00
G01 X24.9495 Y13.9419 F350.00
G01 X24.9578 Y13.9540 F350.00
G01 X24.9778 Y13.9878 F350.00
G01 X24.9948 Y14.0232 F350.00
G01 X25.0003 Y14.0369 F350.00
G01 X25.0116 Y14.0693 F350.00
G01 X25.0223 Y14.1122 F350.00
G01 X25.0288 Y14.1559 F350.00
G01 X25.0310 Y14.2000 F350.00
G01 X25.0310 Y21.0136 F350.00
G01 X44.9241 Y40.9067 F350.00
G01 X44.9538 Y40.9394 F350.00
G01 X44.9773 Y40.9709 F350.00
G01 X44.9854 Y40.9832 F350.00
G01 X45.0028 Y41.0128 F350.00
G01 X45.0177 Y41.0438 F350.00
G01 X45.0235 Y41.0573 F350.00
G01 X45.0366 Y41.0943 F350.00
G01 X45.0473 Y41.1372 F350.00
G01 X45.0526 Y41.1711 F350.00
G01 X45.0542 Y41.1858 F350.00
G01 X45.0560 Y41.2250 F350.00
G01 X45.0560 Y48.5999 F350.00
G01 X77.0387 Y48.5999 F350.00
G01 X77.0462 Y48.5818 F350.00
G01 X77.0881 Y48.4931 F350.00
G01 X77.0974 Y48.4758 F350.00
G01 X77.1531 Y48.3833 F350.00
G01 X77.2232 Y48.2887 F350.00
G01 X77.2956 Y48.2086 F350.00
G01 X77.3094 Y48.1947 F350.00
G01 X77.3896 Y48.1224 F350.00
G01 X77.4842 Y48.0522 F350.00
G01 X77.5766 Y47.9965 F350.00
G01 X77.5940 Y47.9873 F350.00
G01 X77.6916 Y47.9413 F350.00
G01 X77.8025 Y47.9017 F350.00
G01 X77.9168 Y47.8731 F350.00
G01 X78.0235 Y47.8570 F350.00
G01 X78.0430 Y47.8551 F350.00
G01 X78.1410 Y47.8502 F350.00
G01 X78.1558 Y47.8501 F350.00
G01 X78.2587 Y47.8551 F350.00
G01 X78.2782 Y47.8570 F350.00
G01 X78.3850 Y47.8731 F350.00
G01 X78.4897 Y47.8991 F350.00
G01 X78.5085 Y47.9048 F350.00
G01 X78.6101 Y47.9413 F350.00
G01 X78.7165 Y47.9917 F350.00
G01 X78.8175 Y48.0522 F350.00
G01 X78.9044 Y48.1163 F350.00
G01 X78.9196 Y48.1288 F350.00
G01 X78.9994 Y48.2015 F350.00
G01 X79.0721 Y48.2813 F350.00
G01 X79.0845 Y48.2965 F350.00
G01 X79.1486 Y48.3833 F350.00
G01 X79.2092 Y48.4843 F350.00
G01 X79.2555 Y48.5818 F350.00
G01 X79.2630 Y48.5999 F350.00
G01 X79.2992 Y48.7017 F350.00
G01 X79.3257 Y48.8063 F350.00
G01 X79.3295 Y48.8256 F350.00
G01 X79.3451 Y48.9324 F350.00
G01 X79.3509 Y49.0500 F350.00
G01 X79.3458 Y49.1578 F350.00
G01 X79.3439 Y49.1774 F350.00
G01 X79.3278 Y49.2841 F350.00
G01 X79.3018 Y49.3889 F350.00
G01 X79.2961 Y49.4077 F350.00
G01 X79.2595 Y49.5092 F350.00
G01 X79.2092 Y49.6157 F350.00
G01 X79.1539 Y49.7084 F350.00
G01 X79.1430 Y49.7247 F350.00
G01 X79.0785 Y49.8113 F350.00
G01 X79.0062 Y49.8914 F350.00
G01 X78.9923 Y49.9053 F350.00
G01 X78.9121 Y49.9776 F350.00
G01 X78.8175 Y50.0478 F350.00
G01 X78.7251 Y50.1035 F350.00
G01 X78.7078 Y50.1127 F350.00
G01 X78.6101 Y50.1587 F350.00
G01 X78.4992 Y50.1983 F350.00
G01 X78.3945 Y50.2248 F350.00
G01 X78.3753 Y50.2286 F350.00
G01 X78.2685 Y50.2442 F350.00
G01 X78.1509 Y50.2500 F350.00
G01 X78.0430 Y50.2449 F350.00
G01 X78.0235 Y50.2430 F350.00
G01 X77.9168 Y50.2269 F350.00
G01 X77.8025 Y50.1983 F350.00
G01 X77.7008 Y50.1622 F350.00
G01 X77.6827 Y50.1547 F350.00
G01 X77.5852 Y50.1083 F350.00
G01 X77.4842 Y50.0478 F350.00
G01 X77.3896 Y49.9776 F350.00
G01 X77.3094 Y49.9053 F350.00
G01 X77.2956 Y49.8914 F350.00
G01 X77.2232 Y49.8113 F350.00
G01 X77.1531 Y49.7167 F350.00
G01 X77.0974 Y49.6242 F350.00
G01 X77.0881 Y49.6069 F350.00
G01 X77.0462 Y49.5182 F350.00
G01 X77.0387 Y49.5001 F350.00
G01 X45.1673 Y49.5001 F350.00
G01 X38.0491 Y56.6183 F350.00
G01 X38.0202 Y56.6448 F350.00
G01 X38.0087 Y56.6540 F350.00
G01 X37.9809 Y56.6743 F350.00
G01 X37.9516 Y56.6921 F350.00
G01 X37.9387 Y56.6992 F350.00
G01 X37.9121 Y56.7119 F350.00
G01 X37.8986 Y56.7177 F350.00
G01 X37.8615 Y56.7307 F350.00
G01 X37.8187 Y56.7415 F350.00
G01 X37.7750 Y56.7480 F350.00
G01 X37.7358 Y56.7501 F350.00
G01 X37.5130 Y56.7501 F350.00
G01 X37.5055 Y56.7682 F350.00
G01 X37.4592 Y56.8657 F350.00
G01 X37.4039 Y56.9584 F350.00
G01 X37.3930 Y56.9747 F350.00
G01 X37.3285 Y57.0613 F350.00
G01 X37.2562 Y57.1414 F350.00
G01 X37.2423 Y57.1553 F350.00
G01 X37.1621 Y57.2276 F350.00
G01 X37.0675 Y57.2978 F350.00
G01 X36.9751 Y57.3535 F350.00
G01 X36.9578 Y57.3627 F350.00
G01 X36.8601 Y57.4087 F350.00
G01 X36.7585 Y57.4452 F350.00
G01 X36.7397 Y57.4509 F350.00
G01 X36.6350 Y57.4769 F350.00
G01 X36.5185 Y57.4942 F350.00
G01 X36.4058 Y57.4999 F350.00
G01 X35.4009 Y57.5000 F350.00
G01 X35.2832 Y57.4942 F350.00
G01 X35.1668 Y57.4769 F350.00
G01 X35.0620 Y57.4509 F350.00
G01 X35.0432 Y57.4452 F350.00
G01 X34.9416 Y57.4087 F350.00
G01 X34.8440 Y57.3627 F350.00
G01 X34.8266 Y57.3535 F350.00
G01 X34.7383 Y57.3004 F350.00
G01 X34.7262 Y57.2921 F350.00
G01 X34.6396 Y57.2276 F350.00
G01 X34.5594 Y57.1553 F350.00
G01 X34.5456 Y57.1414 F350.00
G01 X34.4732 Y57.0613 F350.00
G01 X34.4087 Y56.9747 F350.00
G01 X34.3978 Y56.9584 F350.00
G01 X34.3474 Y56.8742 F350.00
G01 X34.3381 Y56.8569 F350.00
G01 X34.2922 Y56.7592 F350.00
G01 X34.2525 Y56.6483 F350.00
G01 X34.2239 Y56.5341 F350.00
G01 X34.2078 Y56.4274 F350.00
G01 X34.2059 Y56.4078 F350.00
G01 X34.2011 Y56.3098 F350.00
G01 X34.2011 Y56.2902 F350.00
G01 X34.2066 Y56.1824 F350.00
G01 X34.2222 Y56.0756 F350.00
G01 X34.2261 Y56.0563 F350.00
G01 X34.2525 Y55.9517 F350.00
G01 X34.2922 Y55.8408 F350.00
G01 X34.3426 Y55.7343 F350.00
G01 X34.3978 Y55.6416 F350.00
G01 X34.4087 Y55.6253 F350.00
G01 X34.4732 Y55.5387 F350.00
G01 X34.5456 Y55.4586 F350.00
G01 X34.5594 Y55.4447 F350.00
G01 X34.6358 Y55.3755 F350.00
G01 X34.6473 Y55.3663 F350.00
G01 X34.7262 Y55.3079 F350.00
G01 X34.7425 Y55.2970 F350.00
G01 X34.8352 Y55.2417 F350.00
G01 X34.9416 Y55.1913 F350.00
G01 X35.0432 Y55.1548 F350.00
G01 X35.0620 Y55.1491 F350.00
G01 X35.1668 Y55.1231 F350.00
G01 X35.2784 Y55.1063 F350.00
G01 X35.2930 Y55.1051 F350.00
G01 X35.4009 Y55.1000 F350.00
G01 X36.4009 Y55.1000 F350.00
G01 X36.5185 Y55.1058 F350.00
G01 X36.6301 Y55.1222 F350.00
G01 X36.6445 Y55.1252 F350.00
G01 X36.7492 Y55.1517 F350.00
G01 X36.8509 Y55.1878 F350.00
G01 X36.8691 Y55.1953 F350.00
G01 X36.9665 Y55.2417 F350.00
G01 X37.0593 Y55.2970 F350.00
G01 X37.0756 Y55.3079 F350.00
G01 X37.1583 Y55.3693 F350.00
G01 X37.1696 Y55.3788 F350.00
G01 X37.2494 Y55.4515 F350.00
G01 X37.3285 Y55.5387 F350.00
G01 X37.3986 Y55.6333 F350.00
G01 X37.4543 Y55.7258 F350.00
G01 X37.4636 Y55.7431 F350.00
G01 X37.5055 Y55.8318 F350.00
G01 X37.5130 Y55.8499 F350.00
G01 X37.5444 Y55.8499 F350.00
G01 X44.1557 Y49.2386 F350.00
G01 X44.1557 Y41.4114 F350.00
G01 X24.2626 Y21.5183 F350.00
G01 X24.2361 Y21.4893 F350.00
G01 X24.2269 Y21.4778 F350.00
G01 X24.2066 Y21.4501 F350.00
G01 X24.1839 Y21.4122 F350.00
G01 X24.1650 Y21.3723 F350.00
G01 X24.1532 Y21.3400 F350.00
G01 X24.1475 Y21.3212 F350.00
G01 X24.1404 Y21.2926 F350.00
G01 X24.1385 Y21.2830 F350.00
G01 X24.1329 Y21.2441 F350.00
G01 X24.1308 Y21.2049 F350.00
G01 X24.1307 Y14.3864 F350.00
G01 X23.1944 Y13.4501 F350.00
G01 X2.0673 Y13.4501 F350.00
G01 X-0.3590 Y15.8764 F350.00
G01 X-0.3590 Y42.6499 F350.00
G01 X16.1557 Y42.6499 F350.00
G01 X16.1557 Y27.4114 F350.00
G01 X11.0376 Y22.2933 F350.00
G01 X11.0079 Y22.2606 F350.00
G01 X10.9816 Y22.2251 F350.00
G01 X10.9637 Y22.1957 F350.00
G01 X10.9566 Y22.1828 F350.00
G01 X10.9400 Y22.1473 F350.00
G01 X10.9251 Y22.1057 F350.00
G01 X10.9165 Y22.0724 F350.00
G01 X10.9127 Y22.0531 F350.00
G01 X10.9084 Y22.0240 F350.00
G01 X10.9075 Y22.0142 F350.00
G01 X10.9057 Y21.9750 F350.00
G01 X10.9057 Y20.9122 F350.00
G00 Z0.5000
G00 X15.9906 Y20.7732
G01 F250.00
G01 Z-0.0500
G01 F350.00
G01 X15.9373 Y20.7337 F350.00
G01 X15.9258 Y20.7245 F350.00
G01 X15.8494 Y20.6553 F350.00
G01 X15.8389 Y20.6450 F350.00
G01 X15.7632 Y20.5613 F350.00
G01 X15.6987 Y20.4747 F350.00
G01 X15.6904 Y20.4626 F350.00
G01 X15.6326 Y20.3657 F350.00
G01 X15.5822 Y20.2592 F350.00
G01 X15.5425 Y20.1483 F350.00
G01 X15.5139 Y20.0341 F350.00
G01 X15.4966 Y19.9176 F350.00
G01 X15.4909 Y19.8049 F350.00
G01 X15.4909 Y18.7951 F350.00
G01 X15.4966 Y18.6824 F350.00
G01 X15.5122 Y18.5756 F350.00
G01 X15.5161 Y18.5563 F350.00
G01 X15.5399 Y18.4611 F350.00
G01 X15.5440 Y18.4470 F350.00
G01 X15.5822 Y18.3408 F350.00
G01 X15.6326 Y18.2343 F350.00
G01 X15.6931 Y18.1333 F350.00
G01 X15.7632 Y18.0387 F350.00
G01 X15.8423 Y17.9515 F350.00
G01 X15.9296 Y17.8724 F350.00
G01 X16.0242 Y17.8022 F350.00
G01 X16.1252 Y17.7417 F350.00
G01 X16.2316 Y17.6913 F350.00
G01 X16.3425 Y17.6517 F350.00
G01 X16.4568 Y17.6231 F350.00
G01 X16.5732 Y17.6058 F350.00
G01 X16.6909 Y17.6000 F350.00
G01 X16.8085 Y17.6058 F350.00
G01 X16.9250 Y17.6231 F350.00
G01 X17.0297 Y17.6491 F350.00
G01 X17.0439 Y17.6532 F350.00
G01 X17.1501 Y17.6913 F350.00
G01 X17.2478 Y17.7373 F350.00
G01 X17.2651 Y17.7465 F350.00
G01 X17.3575 Y17.8022 F350.00
G01 X17.4444 Y17.8663 F350.00
G01 X17.4596 Y17.8788 F350.00
G01 X17.5394 Y17.9515 F350.00
G01 X17.6185 Y18.0387 F350.00
G01 X17.6830 Y18.1253 F350.00
G01 X17.6939 Y18.1416 F350.00
G01 X17.7492 Y18.2343 F350.00
G01 X17.7995 Y18.3408 F350.00
G01 X17.8392 Y18.4517 F350.00
G01 X17.8657 Y18.5563 F350.00
G01 X17.8695 Y18.5756 F350.00
G01 X17.8839 Y18.6726 F350.00
G01 X17.8858 Y18.6922 F350.00
G01 X17.8909 Y18.8000 F350.00
G01 X17.8908 Y19.8049 F350.00
G01 X17.8851 Y19.9176 F350.00
G01 X17.8695 Y20.0244 F350.00
G01 X17.8657 Y20.0437 F350.00
G01 X17.8392 Y20.1483 F350.00
G01 X17.7995 Y20.2592 F350.00
G01 X17.7492 Y20.3657 F350.00
G01 X17.6913 Y20.4626 F350.00
G01 X17.6830 Y20.4747 F350.00
G01 X17.6185 Y20.5613 F350.00
G01 X17.5428 Y20.6450 F350.00
G01 X17.5323 Y20.6553 F350.00
G01 X17.4559 Y20.7245 F350.00
G01 X17.4444 Y20.7337 F350.00
G01 X17.3911 Y20.7732 F350.00
G01 X17.3911 Y24.2199 F350.00
G01 X18.6276 Y25.4564 F350.00
G01 X18.6394 Y25.4447 F350.00
G01 X18.7196 Y25.3724 F350.00
G01 X18.8142 Y25.3022 F350.00
G01 X18.9152 Y25.2417 F350.00
G01 X19.0216 Y25.1913 F350.00
G01 X19.1325 Y25.1517 F350.00
G01 X19.2468 Y25.1231 F350.00
G01 X19.3632 Y25.1058 F350.00
G01 X19.4809 Y25.1000 F350.00
G01 X19.5985 Y25.1058 F350.00
G01 X19.7150 Y25.1231 F350.00
G01 X19.8292 Y25.1517 F350.00
G01 X19.9401 Y25.1913 F350.00
G01 X20.0465 Y25.2417 F350.00
G01 X20.1475 Y25.3022 F350.00
G01 X20.2421 Y25.3724 F350.00
G01 X20.3294 Y25.4515 F350.00
G01 X20.4085 Y25.5387 F350.00
G01 X20.4730 Y25.6253 F350.00
G01 X20.4839 Y25.6416 F350.00
G01 X20.5392 Y25.7343 F350.00
G01 X20.5895 Y25.8408 F350.00
G01 X20.6261 Y25.9423 F350.00
G01 X20.6318 Y25.9611 F350.00
G01 X20.6557 Y26.0563 F350.00
G01 X20.6587 Y26.0707 F350.00
G01 X20.6751 Y26.1824 F350.00
G01 X20.6809 Y26.3000 F350.00
G01 X20.6808 Y27.3049 F350.00
G01 X20.6751 Y27.4176 F350.00
G01 X20.6641 Y27.4930 F350.00
G01 X23.9760 Y30.8048 F350.00
G01 X24.0222 Y30.8558 F350.00
G01 X24.0574 Y30.9029 F350.00
G01 X24.0683 Y30.9193 F350.00
G01 X24.0984 Y30.9699 F350.00
G01 X24.1238 Y31.0231 F350.00
G01 X24.1313 Y31.0412 F350.00
G01 X24.1510 Y31.0967 F350.00
G01 X24.1655 Y31.1538 F350.00
G01 X24.1693 Y31.1731 F350.00
G01 X24.1777 Y31.2314 F350.00
G01 X24.1809 Y31.2902 F350.00
G01 X24.1811 Y33.4099 F350.00
G01 X27.2260 Y36.4548 F350.00
G01 X27.2722 Y36.5058 F350.00
G01 X27.3074 Y36.5529 F350.00
G01 X27.3183 Y36.5693 F350.00
G01 X27.3484 Y36.6199 F350.00
G01 X27.3738 Y36.6731 F350.00
G01 X27.3813 Y36.6912 F350.00
G01 X27.4010 Y36.7467 F350.00
G01 X27.4155 Y36.8038 F350.00
G01 X27.4193 Y36.8231 F350.00
G01 X27.4265 Y36.8716 F350.00
G01 X27.4282 Y36.8863 F350.00
G01 X27.4311 Y36.9500 F350.00
G01 X27.4311 Y38.0026 F350.00
G01 X27.5322 Y38.0507 F350.00
G01 X27.6670 Y38.1312 F350.00
G01 X27.6834 Y38.1422 F350.00
G01 X27.8055 Y38.2328 F350.00
G01 X27.8168 Y38.2423 F350.00
G01 X27.9329 Y38.3479 F350.00
G01 X28.0418 Y38.4678 F350.00
G01 X28.0510 Y38.4793 F350.00
G01 X28.1444 Y38.6055 F350.00
G01 X28.2301 Y38.7486 F350.00
G01 X28.3015 Y38.8994 F350.00
G01 X28.3562 Y39.0518 F350.00
G01 X28.3603 Y39.0660 F350.00
G01 X28.3982 Y39.2183 F350.00
G01 X28.4215 Y39.3736 F350.00
G01 X28.4234 Y39.3932 F350.00
G01 X28.4306 Y39.5402 F350.00
G01 X28.4306 Y39.5598 F350.00
G01 X28.4227 Y39.7166 F350.00
G01 X28.3982 Y39.8817 F350.00
G01 X28.3577 Y40.0435 F350.00
G01 X28.3015 Y40.2006 F350.00
G01 X28.2301 Y40.3514 F350.00
G01 X28.1496 Y40.4862 F350.00
G01 X28.1387 Y40.5025 F350.00
G01 X28.0510 Y40.6207 F350.00
G01 X28.0386 Y40.6359 F350.00
G01 X27.9329 Y40.7521 F350.00
G01 X27.8093 Y40.8641 F350.00
G01 X27.6753 Y40.9635 F350.00
G01 X27.5365 Y41.0469 F350.00
G01 X27.5235 Y41.0537 F350.00
G01 X27.3814 Y41.1206 F350.00
G01 X27.2243 Y41.1768 F350.00
G01 X27.0625 Y41.2173 F350.00
G01 X26.8975 Y41.2418 F350.00
G01 X26.7309 Y41.2500 F350.00
G01 X26.5642 Y41.2418 F350.00
G01 X26.3992 Y41.2173 F350.00
G01 X26.2374 Y41.1768 F350.00
G01 X26.0803 Y41.1206 F350.00
G01 X25.9295 Y41.0493 F350.00
G01 X25.7864 Y40.9635 F350.00
G01 X25.6524 Y40.8641 F350.00
G01 X25.5288 Y40.7521 F350.00
G01 X25.4167 Y40.6285 F350.00
G01 X25.3174 Y40.4945 F350.00
G01 X25.2364 Y40.3599 F350.00
G01 X25.2293 Y40.3470 F350.00
G01 X25.1603 Y40.2006 F350.00
G01 X25.1041 Y40.0435 F350.00
G01 X25.0635 Y39.8817 F350.00
G01 X25.0390 Y39.7166 F350.00
G01 X25.0309 Y39.5500 F350.00
G01 X25.0390 Y39.3834 F350.00
G01 X25.0635 Y39.2183 F350.00
G01 X25.1014 Y39.0660 F350.00
G01 X25.1071 Y39.0472 F350.00
G01 X25.1603 Y38.8994 F350.00
G01 X25.2316 Y38.7486 F350.00
G01 X25.3174 Y38.6055 F350.00
G01 X25.4107 Y38.4793 F350.00
G01 X25.4199 Y38.4678 F350.00
G01 X25.5288 Y38.3479 F350.00
G01 X25.6450 Y38.2423 F350.00
G01 X25.6562 Y38.2328 F350.00
G01 X25.7784 Y38.1422 F350.00
G01 X25.7947 Y38.1312 F350.00
G01 X25.9295 Y38.0507 F350.00
G01 X26.0306 Y38.0026 F350.00
G01 X26.0306 Y37.2401 F350.00
G01 X22.9857 Y34.1952 F350.00
G01 X22.9460 Y34.1517 F350.00
G01 X22.9335 Y34.1365 F350.00
G01 X22.8986 Y34.0890 F350.00
G01 X22.8657 Y34.0344 F350.00
G01 X22.8589 Y34.0213 F350.00
G01 X22.8339 Y33.9680 F350.00
G01 X22.8138 Y33.9126 F350.00
G01 X22.8081 Y33.8938 F350.00
G01 X22.7941 Y33.8366 F350.00
G01 X22.7852 Y33.7784 F350.00
G01 X22.7833 Y33.7588 F350.00
G01 X22.7807 Y33.7049 F350.00
G01 X22.7806 Y31.5901 F350.00
G01 X19.6738 Y28.4833 F350.00
G01 X19.5985 Y28.4942 F350.00
G01 X19.4907 Y28.4998 F350.00
G01 X19.4710 Y28.4998 F350.00
G01 X19.3681 Y28.4946 F350.00
G01 X19.3535 Y28.4930 F350.00
G01 X19.2468 Y28.4769 F350.00
G01 X19.1420 Y28.4509 F350.00
G01 X19.1278 Y28.4468 F350.00
G01 X19.0308 Y28.4122 F350.00
G01 X19.0127 Y28.4047 F350.00
G01 X18.9152 Y28.3583 F350.00
G01 X18.8225 Y28.3030 F350.00
G01 X18.8062 Y28.2921 F350.00
G01 X18.7196 Y28.2276 F350.00
G01 X18.6323 Y28.1485 F350.00
G01 X18.5532 Y28.0613 F350.00
G01 X18.4887 Y27.9747 F350.00
G01 X18.4778 Y27.9584 F350.00
G01 X18.4226 Y27.8657 F350.00
G01 X18.3762 Y27.7682 F350.00
G01 X18.3687 Y27.7501 F350.00
G01 X18.3340 Y27.6530 F350.00
G01 X18.3299 Y27.6389 F350.00
G01 X18.3039 Y27.5341 F350.00
G01 X18.2866 Y27.4176 F350.00
G01 X18.2809 Y27.3049 F350.00
G01 X18.2809 Y27.0903 F350.00
G01 X16.1957 Y25.0052 F350.00
G01 X16.1560 Y24.9617 F350.00
G01 X16.1435 Y24.9465 F350.00
G01 X16.1086 Y24.8990 F350.00
G01 X16.0757 Y24.8444 F350.00
G01 X16.0689 Y24.8313 F350.00
G01 X16.0439 Y24.7780 F350.00
G01 X16.0238 Y24.7226 F350.00
G01 X16.0181 Y24.7038 F350.00
G01 X16.0041 Y24.6466 F350.00
G01 X15.9952 Y24.5884 F350.00
G01 X15.9933 Y24.5688 F350.00
G01 X15.9907 Y24.5149 F350.00
G01 X15.9906 Y20.7732 F350.00
G00 Z0.5000
G00 X18.7807 Y20.9122
G01 F250.00
G01 Z-0.0500
G01 F350.00
G01 X18.7627 Y20.9047 F350.00
G01 X18.6652 Y20.8583 F350.00
G01 X18.5642 Y20.7978 F350.00
G01 X18.4696 Y20.7276 F350.00
G01 X18.3894 Y20.6553 F350.00
G01 X18.3756 Y20.6414 F350.00
G01 X18.3032 Y20.5613 F350.00
G01 X18.2387 Y20.4747 F350.00
G01 X18.2278 Y20.4584 F350.00
G01 X18.1774 Y20.3742 F350.00
G01 X18.1681 Y20.3569 F350.00
G01 X18.1222 Y20.2592 F350.00
G01 X18.0825 Y20.1483 F350.00
G01 X18.0561 Y20.0437 F350.00
G01 X18.0522 Y20.0244 F350.00
G01 X18.0366 Y19.9176 F350.00
G01 X18.0309 Y19.8049 F350.00
G01 X18.0309 Y18.7951 F350.00
G01 X18.0366 Y18.6824 F350.00
G01 X18.0539 Y18.5659 F350.00
G01 X18.0825 Y18.4517 F350.00
G01 X18.1222 Y18.3408 F350.00
G01 X18.1726 Y18.2343 F350.00
G01 X18.2331 Y18.1333 F350.00
G01 X18.3032 Y18.0387 F350.00
G01 X18.3823 Y17.9515 F350.00
G01 X18.4696 Y17.8724 F350.00
G01 X18.5642 Y17.8022 F350.00
G01 X18.6652 Y17.7417 F350.00
G01 X18.7716 Y17.6913 F350.00
G01 X18.8825 Y17.6517 F350.00
G01 X18.9968 Y17.6231 F350.00
G01 X19.1132 Y17.6058 F350.00
G01 X19.2309 Y17.6000 F350.00
G01 X19.3485 Y17.6058 F350.00
G01 X19.4650 Y17.6231 F350.00
G01 X19.5792 Y17.6517 F350.00
G01 X19.6809 Y17.6878 F350.00
G01 X19.6991 Y17.6953 F350.00
G01 X19.7878 Y17.7373 F350.00
G01 X19.8051 Y17.7465 F350.00
G01 X19.8975 Y17.8022 F350.00
G01 X19.9921 Y17.8724 F350.00
G01 X20.0794 Y17.9515 F350.00
G01 X20.1521 Y18.0313 F350.00
G01 X20.1645 Y18.0465 F350.00
G01 X20.2230 Y18.1253 F350.00
G01 X20.2339 Y18.1416 F350.00
G01 X20.2892 Y18.2343 F350.00
G01 X20.3395 Y18.3408 F350.00
G01 X20.3792 Y18.4517 F350.00
G01 X20.4057 Y18.5563 F350.00
G01 X20.4095 Y18.5756 F350.00
G01 X20.4239 Y18.6726 F350.00
G01 X20.4255 Y18.6873 F350.00
G01 X20.4309 Y18.8000 F350.00
G01 X20.4308 Y19.8049 F350.00
G01 X20.4251 Y19.9176 F350.00
G01 X20.4095 Y20.0244 F350.00
G01 X20.4057 Y20.0437 F350.00
G01 X20.3818 Y20.1389 F350.00
G01 X20.3777 Y20.1530 F350.00
G01 X20.3395 Y20.2592 F350.00
G01 X20.2892 Y20.3657 F350.00
G01 X20.2286 Y20.4667 F350.00
G01 X20.1645 Y20.5535 F350.00
G01 X20.1553 Y20.5650 F350.00
G01 X20.0862 Y20.6414 F350.00
G01 X20.0723 Y20.6553 F350.00
G01 X19.9921 Y20.7276 F350.00
G01 X19.9056 Y20.7921 F350.00
G01 X19.8893 Y20.8030 F350.00
G01 X19.7965 Y20.8583 F350.00
G01 X19.6991 Y20.9047 F350.00
G01 X19.6810 Y20.9122 F350.00
G01 X19.6810 Y20.9636 F350.00
G01 X35.0734 Y36.3559 F350.00
G01 X35.0999 Y36.3849 F350.00
G01 X35.1091 Y36.3964 F350.00
G01 X35.1293 Y36.4241 F350.00
G01 X35.1520 Y36.4620 F350.00
G01 X35.1709 Y36.5020 F350.00
G01 X35.1827 Y36.5342 F350.00
G01 X35.1884 Y36.5530 F350.00
G01 X35.1955 Y36.5816 F350.00
G01 X35.1974 Y36.5912 F350.00
G01 X35.2030 Y36.6301 F350.00
G01 X35.2052 Y36.6742 F350.00
G01 X35.2052 Y49.5000 F350.00
G01 X35.2030 Y49.5441 F350.00
G01 X35.1982 Y49.5781 F350.00
G01 X35.1955 Y49.5926 F350.00
G01 X35.1884 Y49.6212 F350.00
G01 X35.1827 Y49.6400 F350.00
G01 X35.1709 Y49.6723 F350.00
G01 X35.1520 Y49.7122 F350.00
G01 X35.1293 Y49.7501 F350.00
G01 X35.1030 Y49.7856 F350.00
G01 X35.0734 Y49.8183 F350.00
G01 X35.0406 Y49.8480 F350.00
G01 X35.0052 Y49.8743 F350.00
G01 X34.9716 Y49.8946 F350.00
G01 X34.9585 Y49.9014 F350.00
G01 X34.9273 Y49.9159 F350.00
G01 X34.8951 Y49.9277 F350.00
G01 X34.8810 Y49.9321 F350.00
G01 X34.8525 Y49.9393 F350.00
G01 X34.8381 Y49.9424 F350.00
G01 X34.8041 Y49.9474 F350.00
G01 X34.7894 Y49.9487 F350.00
G01 X34.7600 Y49.9501 F350.00
G01 X24.4673 Y49.9501 F350.00
G01 X21.6810 Y52.7364 F350.00
G01 X21.6810 Y62.6136 F350.00
G01 X26.3173 Y67.2499 F350.00
G01 X66.8307 Y67.2499 F350.00
G01 X66.8307 Y64.0501 F350.00
G01 X61.6673 Y64.0501 F350.00
G01 X59.6956 Y66.0217 F350.00
G01 X59.6664 Y66.0480 F350.00
G01 X59.6309 Y66.0743 F350.00
G01 X59.5930 Y66.0970 F350.00
G01 X59.5621 Y66.1119 F350.00
G01 X59.5486 Y66.1177 F350.00
G01 X59.5208 Y66.1277 F350.00
G01 X59.5021 Y66.1334 F350.00
G01 X59.4735 Y66.1405 F350.00
G01 X59.4639 Y66.1424 F350.00
G01 X59.4347 Y66.1468 F350.00
G01 X59.4201 Y66.1484 F350.00
G01 X59.3809 Y66.1501 F350.00
G01 X35.9009 Y66.1501 F350.00
G01 X35.8567 Y66.1480 F350.00
G01 X35.8227 Y66.1432 F350.00
G01 X35.8082 Y66.1405 F350.00
G01 X35.7702 Y66.1307 F350.00
G01 X35.7332 Y66.1177 F350.00
G01 X35.7241 Y66.1139 F350.00
G01 X35.6974 Y66.1014 F350.00
G01 X35.6801 Y66.0921 F350.00
G01 X35.6508 Y66.0743 F350.00
G01 X35.6153 Y66.0480 F350.00
G01 X35.5826 Y66.0183 F350.00
G01 X35.5593 Y65.9930 F350.00
G01 X35.5498 Y65.9817 F350.00
G01 X35.5322 Y65.9581 F350.00
G01 X35.5213 Y65.9418 F350.00
G01 X35.5039 Y65.9122 F350.00
G01 X35.4850 Y65.8723 F350.00
G01 X35.4701 Y65.8307 F350.00
G01 X35.4615 Y65.7974 F350.00
G01 X35.4577 Y65.7781 F350.00
G01 X35.4534 Y65.7490 F350.00
G01 X35.4525 Y65.7392 F350.00
G01 X35.4507 Y65.7000 F350.00
G01 X35.4507 Y61.2500 F350.00
G01 X35.3960 Y61.2499 F350.00
G01 X35.2881 Y61.2446 F350.00
G01 X35.2735 Y61.2430 F350.00
G01 X35.1716 Y61.2278 F350.00
G01 X35.1572 Y61.2248 F350.00
G01 X35.0525 Y61.1983 F350.00
G01 X34.9508 Y61.1622 F350.00
G01 X34.9371 Y61.1567 F350.00
G01 X34.8352 Y61.1083 F350.00
G01 X34.7425 Y61.0530 F350.00
G01 X34.7262 Y61.0421 F350.00
G01 X34.6396 Y60.9776 F350.00
G01 X34.5594 Y60.9053 F350.00
G01 X34.5456 Y60.8914 F350.00
G01 X34.4764 Y60.8150 F350.00
G01 X34.4672 Y60.8035 F350.00
G01 X34.4031 Y60.7167 F350.00
G01 X34.3426 Y60.6157 F350.00
G01 X34.2922 Y60.5092 F350.00
G01 X34.2556 Y60.4077 F350.00
G01 X34.2499 Y60.3889 F350.00
G01 X34.2239 Y60.2841 F350.00
G01 X34.2078 Y60.1774 F350.00
G01 X34.2059 Y60.1578 F350.00
G01 X34.2011 Y60.0598 F350.00
G01 X34.2011 Y60.0402 F350.00
G01 X34.2066 Y59.9324 F350.00
G01 X34.2222 Y59.8256 F350.00
G01 X34.2249 Y59.8111 F350.00
G01 X34.2499 Y59.7111 F350.00
G01 X34.2556 Y59.6923 F350.00
G01 X34.2922 Y59.5908 F350.00
G01 X34.3381 Y59.4931 F350.00
G01 X34.3474 Y59.4758 F350.00
G01 X34.4031 Y59.3833 F350.00
G01 X34.4732 Y59.2887 F350.00
G01 X34.5523 Y59.2015 F350.00
G01 X34.6322 Y59.1288 F350.00
G01 X34.6473 Y59.1163 F350.00
G01 X34.7342 Y59.0522 F350.00
G01 X34.8266 Y58.9965 F350.00
G01 X34.8440 Y58.9873 F350.00
G01 X34.9416 Y58.9413 F350.00
G01 X35.0525 Y58.9017 F350.00
G01 X35.1572 Y58.8752 F350.00
G01 X35.1764 Y58.8714 F350.00
G01 X35.2735 Y58.8570 F350.00
G01 X35.2930 Y58.8551 F350.00
G01 X35.4009 Y58.8500 F350.00
G01 X36.4009 Y58.8500 F350.00
G01 X36.4615 Y58.8527 F350.00
G01 X39.3361 Y55.9783 F350.00
G01 X39.3653 Y55.9520 F350.00
G01 X39.3928 Y55.9314 F350.00
G01 X39.4049 Y55.9231 F350.00
G01 X39.4387 Y55.9030 F350.00
G01 X39.4786 Y55.8841 F350.00
G01 X39.5109 Y55.8723 F350.00
G01 X39.5249 Y55.8679 F350.00
G01 X39.5630 Y55.8585 F350.00
G01 X39.6067 Y55.8520 F350.00
G01 X39.6509 Y55.8499 F350.00
G01 X56.5444 Y55.8499 F350.00
G01 X58.8161 Y53.5783 F350.00
G01 X58.8453 Y53.5520 F350.00
G01 X58.8728 Y53.5314 F350.00
G01 X58.8849 Y53.5231 F350.00
G01 X58.9187 Y53.5030 F350.00
G01 X58.9541 Y53.4861 F350.00
G01 X58.9678 Y53.4806 F350.00
G01 X59.0002 Y53.4693 F350.00
G01 X59.0382 Y53.4595 F350.00
G01 X59.0527 Y53.4568 F350.00
G01 X59.0867 Y53.4520 F350.00
G01 X59.1309 Y53.4499 F350.00
G01 X68.8687 Y53.4499 F350.00
G01 X68.8762 Y53.4318 F350.00
G01 X68.9226 Y53.3343 F350.00
G01 X68.9778 Y53.2416 F350.00
G01 X68.9887 Y53.2253 F350.00
G01 X69.0472 Y53.1465 F350.00
G01 X69.0597 Y53.1313 F350.00
G01 X69.1323 Y53.0515 F350.00
G01 X69.2196 Y52.9724 F350.00
G01 X69.3142 Y52.9022 F350.00
G01 X69.4152 Y52.8417 F350.00
G01 X69.5216 Y52.7913 F350.00
G01 X69.6232 Y52.7548 F350.00
G01 X69.6420 Y52.7491 F350.00
G01 X69.7372 Y52.7252 F350.00
G01 X69.7564 Y52.7214 F350.00
G01 X69.8632 Y52.7058 F350.00
G01 X69.9809 Y52.7000 F350.00
G01 X70.0985 Y52.7058 F350.00
G01 X70.2101 Y52.7222 F350.00
G01 X70.2245 Y52.7252 F350.00
G01 X70.3292 Y52.7517 F350.00
G01 X70.4309 Y52.7878 F350.00
G01 X70.4491 Y52.7953 F350.00
G01 X70.5378 Y52.8373 F350.00
G01 X70.5551 Y52.8465 F350.00
G01 X70.6475 Y52.9022 F350.00
G01 X70.7421 Y52.9724 F350.00
G01 X70.8294 Y53.0515 F350.00
G01 X70.9085 Y53.1387 F350.00
G01 X70.9786 Y53.2333 F350.00
G01 X71.0392 Y53.3343 F350.00
G01 X71.0895 Y53.4408 F350.00
G01 X71.1261 Y53.5423 F350.00
G01 X71.1318 Y53.5611 F350.00
G01 X71.1557 Y53.6563 F350.00
G01 X71.1595 Y53.6756 F350.00
G01 X71.1751 Y53.7824 F350.00
G01 X71.1806 Y53.8902 F350.00
G01 X71.1806 Y53.9098 F350.00
G01 X71.1751 Y54.0176 F350.00
G01 X71.1578 Y54.1341 F350.00
G01 X71.1292 Y54.2483 F350.00
G01 X71.0895 Y54.3592 F350.00
G01 X71.0392 Y54.4657 F350.00
G01 X70.9786 Y54.5667 F350.00
G01 X70.9085 Y54.6613 F350.00
G01 X70.8362 Y54.7414 F350.00
G01 X70.8223 Y54.7553 F350.00
G01 X70.7421 Y54.8276 F350.00
G01 X70.6556 Y54.8921 F350.00
G01 X70.6393 Y54.9030 F350.00
G01 X70.5551 Y54.9535 F350.00
G01 X70.5378 Y54.9627 F350.00
G01 X70.4401 Y55.0087 F350.00
G01 X70.3292 Y55.0483 F350.00
G01 X70.2150 Y55.0769 F350.00
G01 X70.1034 Y55.0937 F350.00
G01 X70.0887 Y55.0949 F350.00
G01 X69.9809 Y55.1000 F350.00
G01 X69.8730 Y55.0949 F350.00
G01 X69.8535 Y55.0930 F350.00
G01 X69.7564 Y55.0786 F350.00
G01 X69.7372 Y55.0748 F350.00
G01 X69.6325 Y55.0483 F350.00
G01 X69.5216 Y55.0087 F350.00
G01 X69.4152 Y54.9583 F350.00
G01 X69.3225 Y54.9030 F350.00
G01 X69.3062 Y54.8921 F350.00
G01 X69.2273 Y54.8337 F350.00
G01 X69.2122 Y54.8212 F350.00
G01 X69.1323 Y54.7485 F350.00
G01 X69.0532 Y54.6613 F350.00
G01 X68.9831 Y54.5667 F350.00
G01 X68.9274 Y54.4742 F350.00
G01 X68.9181 Y54.4569 F350.00
G01 X68.8762 Y54.3682 F350.00
G01 X68.8687 Y54.3501 F350.00
G01 X59.3173 Y54.3501 F350.00
G01 X57.0456 Y56.6217 F350.00
G01 X57.0164 Y56.6480 F350.00
G01 X56.9850 Y56.6715 F350.00
G01 X56.9768 Y56.6769 F350.00
G01 X56.9516 Y56.6921 F350.00
G01 X56.9343 Y56.7014 F350.00
G01 X56.9031 Y56.7159 F350.00
G01 X56.8615 Y56.7307 F350.00
G01 X56.8187 Y56.7415 F350.00
G01 X56.7799 Y56.7474 F350.00
G01 X56.7652 Y56.7487 F350.00
G01 X56.7309 Y56.7501 F350.00
G01 X39.8373 Y56.7501 F350.00
G01 X37.3145 Y59.2729 F350.00
G01 X37.3253 Y59.2850 F350.00
G01 X37.3345 Y59.2965 F350.00
G01 X37.3930 Y59.3753 F350.00
G01 X37.4039 Y59.3916 F350.00
G01 X37.4592 Y59.4843 F350.00
G01 X37.5055 Y59.5818 F350.00
G01 X37.5130 Y59.5999 F350.00
G01 X37.5492 Y59.7017 F350.00
G01 X37.5778 Y59.8159 F350.00
G01 X37.5951 Y59.9324 F350.00
G01 X37.6009 Y60.0500 F350.00
G01 X37.5951 Y60.1676 F350.00
G01 X37.5795 Y60.2744 F350.00
G01 X37.5757 Y60.2937 F350.00
G01 X37.5518 Y60.3889 F350.00
G01 X37.5461 Y60.4077 F350.00
G01 X37.5095 Y60.5092 F350.00
G01 X37.4592 Y60.6157 F350.00
G01 X37.3986 Y60.7167 F350.00
G01 X37.3315 Y60.8074 F350.00
G01 X37.3221 Y60.8187 F350.00
G01 X37.2494 Y60.8985 F350.00
G01 X37.1696 Y60.9712 F350.00
G01 X37.1544 Y60.9837 F350.00
G01 X37.0675 Y61.0478 F350.00
G01 X36.9751 Y61.1035 F350.00
G01 X36.9578 Y61.1127 F350.00
G01 X36.8646 Y61.1567 F350.00
G01 X36.8509 Y61.1622 F350.00
G01 X36.7492 Y61.1983 F350.00
G01 X36.6445 Y61.2248 F350.00
G01 X36.6301 Y61.2278 F350.00
G01 X36.5282 Y61.2430 F350.00
G01 X36.5136 Y61.2446 F350.00
G01 X36.4058 Y61.2499 F350.00
G01 X36.3510 Y61.2500 F350.00
G01 X36.3510 Y65.2499 F350.00
G01 X59.1944 Y65.2499 F350.00
G01 X61.1661 Y63.2783 F350.00
G01 X61.1915 Y63.2552 F350.00
G01 X61.2030 Y63.2460 F350.00
G01 X61.2308 Y63.2257 F350.00
G01 X61.2644 Y63.2054 F350.00
G01 X61.2774 Y63.1986 F350.00
G01 X61.3086 Y63.1841 F350.00
G01 X61.3455 Y63.1707 F350.00
G01 X61.3597 Y63.1666 F350.00
G01 X61.3930 Y63.1585 F350.00
G01 X61.4270 Y63.1532 F350.00
G01 X61.4416 Y63.1516 F350.00
G01 X61.4809 Y63.1499 F350.00
G01 X67.2809 Y63.1499 F350.00
G01 X67.3250 Y63.1520 F350.00
G01 X67.3590 Y63.1568 F350.00
G01 X67.3735 Y63.1595 F350.00
G01 X67.4115 Y63.1693 F350.00
G01 X67.4531 Y63.1841 F350.00
G01 X67.4930 Y63.2030 F350.00
G01 X67.5226 Y63.2205 F350.00
G01 X67.5390 Y63.2314 F350.00
G01 X67.5626 Y63.2490 F350.00
G01 X67.5739 Y63.2585 F350.00
G01 X67.5991 Y63.2817 F350.00
G01 X67.6288 Y63.3144 F350.00
G01 X67.6551 Y63.3499 F350.00
G01 X67.6730 Y63.3793 F350.00
G01 X67.6801 Y63.3922 F350.00
G01 X67.6927 Y63.4188 F350.00
G01 X67.7003 Y63.4369 F350.00
G01 X67.7116 Y63.4693 F350.00
G01 X67.7223 Y63.5122 F350.00
G01 X67.7288 Y63.5559 F350.00
G01 X67.7307 Y63.5902 F350.00
G01 X67.7309 Y67.7049 F350.00
G01 X67.7288 Y67.7441 F350.00
G01 X67.7223 Y67.7878 F350.00
G01 X67.7116 Y67.8307 F350.00
G01 X67.6967 Y67.8723 F350.00
G01 X67.6778 Y67.9122 F350.00
G01 X67.6551 Y67.9501 F350.00
G01 X67.6288 Y67.9856 F350.00
G01 X67.6026 Y68.0148 F350.00
G01 X67.5920 Y68.0251 F350.00
G01 X67.5664 Y68.0480 F350.00
G01 X67.5309 Y68.0743 F350.00
G01 X67.4930 Y68.0970 F350.00
G01 X67.4531 Y68.1159 F350.00
G01 X67.4115 Y68.1307 F350.00
G01 X67.3687 Y68.1415 F350.00
G01 X67.3250 Y68.1480 F350.00
G01 X67.2809 Y68.1501 F350.00
G01 X26.1309 Y68.1501 F350.00
G01 X26.0867 Y68.1480 F350.00
G01 X26.0430 Y68.1415 F350.00
G01 X26.0002 Y68.1307 F350.00
G01 X25.9586 Y68.1159 F350.00
G01 X25.9187 Y68.0970 F350.00
G01 X25.8808 Y68.0743 F350.00
G01 X25.8453 Y68.0480 F350.00
G01 X25.8161 Y68.0217 F350.00
G01 X20.9126 Y63.1183 F350.00
G01 X20.8829 Y63.0856 F350.00
G01 X20.8594 Y63.0541 F350.00
G01 X20.8513 Y63.0418 F350.00
G01 X20.8339 Y63.0122 F350.00
G01 X20.8190 Y62.9812 F350.00
G01 X20.8132 Y62.9677 F350.00
G01 X20.8016 Y62.9353 F350.00
G01 X20.7988 Y62.9259 F350.00
G01 X20.7915 Y62.8974 F350.00
G01 X20.7877 Y62.8781 F350.00
G01 X20.7829 Y62.8441 F350.00
G01 X20.7807 Y62.8000 F350.00
G01 X20.7807 Y52.5500 F350.00
G01 X20.7825 Y52.5108 F350.00
G01 X20.7841 Y52.4961 F350.00
G01 X20.7894 Y52.4622 F350.00
G01 X20.7988 Y52.4241 F350.00
G01 X20.8032 Y52.4100 F350.00
G01 X20.8150 Y52.3777 F350.00
G01 X20.8316 Y52.3422 F350.00
G01 X20.8387 Y52.3293 F350.00
G01 X20.8566 Y52.2999 F350.00
G01 X20.8769 Y52.2722 F350.00
G01 X20.8861 Y52.2607 F350.00
G01 X20.9126 Y52.2317 F350.00
G01 X23.9626 Y49.1817 F350.00
G01 X23.9915 Y49.1552 F350.00
G01 X24.0030 Y49.1460 F350.00
G01 X24.0308 Y49.1257 F350.00
G01 X24.0687 Y49.1030 F350.00
G01 X24.1041 Y49.0861 F350.00
G01 X24.1178 Y49.0806 F350.00
G01 X24.1502 Y49.0693 F350.00
G01 X24.1835 Y49.0607 F350.00
G01 X24.1979 Y49.0576 F350.00
G01 X24.2367 Y49.0520 F350.00
G01 X24.2809 Y49.0499 F350.00
G01 X34.3049 Y49.0499 F350.00
G01 X34.3049 Y36.8607 F350.00
G01 X18.9091 Y21.4648 F350.00
G01 X18.8829 Y21.4356 F350.00
G01 X18.8622 Y21.4081 F350.00
G01 X18.8539 Y21.3960 F350.00
G01 X18.8339 Y21.3622 F350.00
G01 X18.8169 Y21.3268 F350.00
G01 X18.8115 Y21.3131 F350.00
G01 X18.8001 Y21.2807 F350.00
G01 X18.7904 Y21.2426 F350.00
G01 X18.7877 Y21.2281 F350.00
G01 X18.7829 Y21.1941 F350.00
G01 X18.7808 Y21.1549 F350.00
G01 X18.7807 Y20.9122 F350.00
G00 Z0.5000
G00 X14.8959 Y17.6000
G01 F250.00
G01 Z-0.0500
G01 F350.00
G01 X14.9155 Y17.6010 F350.00
G01 X14.9349 Y17.6038 F350.00
G01 X14.9539 Y17.6086 F350.00
G01 X14.9724 Y17.6152 F350.00
G01 X14.9901 Y17.6236 F350.00
G01 X15.0070 Y17.6337 F350.00
G01 X15.0227 Y17.6454 F350.00
G01 X15.0338 Y17.6552 F350.00
G01 X15.0473 Y17.6694 F350.00
G01 X15.0594 Y17.6848 F350.00
G01 X15.0699 Y17.7014 F350.00
G01 X15.0787 Y17.7190 F350.00
G01 X15.0858 Y17.7373 F350.00
G01 X15.0910 Y17.7562 F350.00
G01 X15.0944 Y17.7755 F350.00
G01 X15.0956 Y17.7902 F350.00
G01 X15.0959 Y20.8000 F350.00
G01 X15.0953 Y20.8147 F350.00
G01 X15.0937 Y20.8293 F350.00
G01 X15.0920 Y20.8390 F350.00
G01 X15.0886 Y20.8533 F350.00
G01 X15.0842 Y20.8674 F350.00
G01 X15.0787 Y20.8810 F350.00
G01 X15.0722 Y20.8943 F350.00
G01 X15.0648 Y20.9070 F350.00
G01 X15.0565 Y20.9191 F350.00
G01 X15.0505 Y20.9269 F350.00
G01 X15.0407 Y20.9379 F350.00
G01 X15.0338 Y20.9448 F350.00
G01 X15.0227 Y20.9546 F350.00
G01 X15.0150 Y20.9606 F350.00
G01 X15.0070 Y20.9663 F350.00
G01 X14.9944 Y20.9740 F350.00
G01 X14.9858 Y20.9786 F350.00
G01 X14.9724 Y20.9848 F350.00
G01 X14.9632 Y20.9883 F350.00
G01 X14.9492 Y20.9928 F350.00
G01 X14.9397 Y20.9951 F350.00
G01 X14.9252 Y20.9978 F350.00
G01 X14.9106 Y20.9995 F350.00
G01 X14.9008 Y20.9999 F350.00
G01 X12.8910 Y20.9999 F350.00
G01 X12.8763 Y20.9990 F350.00
G01 X12.8617 Y20.9971 F350.00
G01 X12.8520 Y20.9951 F350.00
G01 X12.8378 Y20.9914 F350.00
G01 X12.8239 Y20.9866 F350.00
G01 X12.8104 Y20.9808 F350.00
G01 X12.7973 Y20.9740 F350.00
G01 X12.7889 Y20.9690 F350.00
G01 X12.7767 Y20.9606 F350.00
G01 X12.7690 Y20.9546 F350.00
G01 X12.7580 Y20.9448 F350.00
G01 X12.7510 Y20.9379 F350.00
G01 X12.7413 Y20.9269 F350.00
G01 X12.7352 Y20.9191 F350.00
G01 X12.7269 Y20.9070 F350.00
G01 X12.7218 Y20.8986 F350.00
G01 X12.7172 Y20.8899 F350.00
G01 X12.7111 Y20.8765 F350.00
G01 X12.7060 Y20.8627 F350.00
G01 X12.7031 Y20.8533 F350.00
G01 X12.6997 Y20.8390 F350.00
G01 X12.6980 Y20.8293 F350.00
G01 X12.6968 Y20.8196 F350.00
G01 X12.6959 Y20.8049 F350.00
G01 X12.6959 Y17.8000 F350.00
G01 X12.6964 Y17.7853 F350.00
G01 X12.6980 Y17.7707 F350.00
G01 X12.7007 Y17.7562 F350.00
G01 X12.7031 Y17.7467 F350.00
G01 X12.7076 Y17.7326 F350.00
G01 X12.7130 Y17.7190 F350.00
G01 X12.7195 Y17.7057 F350.00
G01 X12.7269 Y17.6930 F350.00
G01 X12.7323 Y17.6848 F350.00
G01 X12.7413 Y17.6731 F350.00
G01 X12.7477 Y17.6657 F350.00
G01 X12.7580 Y17.6552 F350.00
G01 X12.7728 Y17.6423 F350.00
G01 X12.7807 Y17.6365 F350.00
G01 X12.7930 Y17.6285 F350.00
G01 X12.8016 Y17.6236 F350.00
G01 X12.8148 Y17.6172 F350.00
G01 X12.8285 Y17.6117 F350.00
G01 X12.8378 Y17.6086 F350.00
G01 X12.8473 Y17.6060 F350.00
G01 X12.8617 Y17.6029 F350.00
G01 X12.8763 Y17.6010 F350.00
G01 X12.8860 Y17.6002 F350.00
G01 X14.8959 Y17.6000 F350.00
G00 Z0.5000
G00 X22.7709 Y17.6000
G01 F250.00
G01 Z-0.0500
G01 F350.00
G01 X22.7905 Y17.6010 F350.00
G01 X22.8099 Y17.6038 F350.00
G01 X22.8289 Y17.6086 F350.00
G01 X22.8474 Y17.6152 F350.00
G01 X22.8651 Y17.6236 F350.00
G01 X22.8820 Y17.6337 F350.00
G01 X22.8977 Y17.6454 F350.00
G01 X22.9088 Y17.6552 F350.00
G01 X22.9223 Y17.6694 F350.00
G01 X22.9344 Y17.6848 F350.00
G01 X22.9449 Y17.7014 F350.00
G01 X22.9537 Y17.7190 F350.00
G01 X22.9608 Y17.7373 F350.00
G01 X22.9649 Y17.7514 F350.00
G01 X22.9687 Y17.7707 F350.00
G01 X22.9706 Y17.7902 F350.00
G01 X22.9709 Y20.8000 F350.00
G01 X22.9703 Y20.8147 F350.00
G01 X22.9687 Y20.8293 F350.00
G01 X22.9660 Y20.8438 F350.00
G01 X22.9622 Y20.8581 F350.00
G01 X22.9592 Y20.8674 F350.00
G01 X22.9537 Y20.8810 F350.00
G01 X22.9472 Y20.8943 F350.00
G01 X22.9398 Y20.9070 F350.00
G01 X22.9344 Y20.9152 F350.00
G01 X22.9255 Y20.9269 F350.00
G01 X22.9157 Y20.9379 F350.00
G01 X22.9088 Y20.9448 F350.00
G01 X22.9015 Y20.9514 F350.00
G01 X22.8900 Y20.9606 F350.00
G01 X22.8820 Y20.9663 F350.00
G01 X22.8694 Y20.9740 F350.00
G01 X22.8564 Y20.9808 F350.00
G01 X22.8474 Y20.9848 F350.00
G01 X22.8336 Y20.9899 F350.00
G01 X22.8242 Y20.9928 F350.00
G01 X22.8147 Y20.9951 F350.00
G01 X22.8002 Y20.9978 F350.00
G01 X22.7856 Y20.9995 F350.00
G01 X22.7758 Y20.9999 F350.00
G01 X20.7660 Y20.9999 F350.00
G01 X20.7513 Y20.9990 F350.00
G01 X20.7367 Y20.9971 F350.00
G01 X20.7270 Y20.9951 F350.00
G01 X20.7128 Y20.9914 F350.00
G01 X20.6989 Y20.9866 F350.00
G01 X20.6854 Y20.9808 F350.00
G01 X20.6723 Y20.9740 F350.00
G01 X20.6639 Y20.9690 F350.00
G01 X20.6517 Y20.9606 F350.00
G01 X20.6440 Y20.9546 F350.00
G01 X20.6330 Y20.9448 F350.00
G01 X20.6260 Y20.9379 F350.00
G01 X20.6163 Y20.9269 F350.00
G01 X20.6102 Y20.9191 F350.00
G01 X20.6019 Y20.9070 F350.00
G01 X20.5968 Y20.8986 F350.00
G01 X20.5901 Y20.8855 F350.00
G01 X20.5861 Y20.8765 F350.00
G01 X20.5810 Y20.8627 F350.00
G01 X20.5781 Y20.8533 F350.00
G01 X20.5747 Y20.8390 F350.00
G01 X20.5730 Y20.8293 F350.00
G01 X20.5718 Y20.8196 F350.00
G01 X20.5709 Y20.8049 F350.00
G01 X20.5709 Y17.8000 F350.00
G01 X20.5714 Y17.7853 F350.00
G01 X20.5730 Y17.7707 F350.00
G01 X20.5747 Y17.7610 F350.00
G01 X20.5781 Y17.7467 F350.00
G01 X20.5826 Y17.7326 F350.00
G01 X20.5880 Y17.7190 F350.00
G01 X20.5945 Y17.7057 F350.00
G01 X20.6019 Y17.6930 F350.00
G01 X20.6073 Y17.6848 F350.00
G01 X20.6163 Y17.6731 F350.00
G01 X20.6227 Y17.6657 F350.00
G01 X20.6330 Y17.6552 F350.00
G01 X20.6402 Y17.6486 F350.00
G01 X20.6517 Y17.6394 F350.00
G01 X20.6597 Y17.6337 F350.00
G01 X20.6723 Y17.6260 F350.00
G01 X20.6898 Y17.6172 F350.00
G01 X20.7035 Y17.6117 F350.00
G01 X20.7128 Y17.6086 F350.00
G01 X20.7223 Y17.6060 F350.00
G01 X20.7367 Y17.6029 F350.00
G01 X20.7513 Y17.6010 F350.00
G01 X20.7610 Y17.6002 F350.00
G01 X22.7709 Y17.6000 F350.00
G00 Z0.5000
G00 X27.5810 Y16.2502
G01 F250.00
G01 Z-0.0500
G01 F350.00
G01 X27.6007 Y16.2502 F350.00
G01 X27.7085 Y16.2558 F350.00
G01 X27.8250 Y16.2731 F350.00
G01 X27.9392 Y16.3017 F350.00
G01 X28.0501 Y16.3413 F350.00
G01 X28.1565 Y16.3917 F350.00
G01 X28.2575 Y16.4522 F350.00
G01 X28.3521 Y16.5224 F350.00
G01 X28.4394 Y16.6015 F350.00
G01 X28.5185 Y16.6887 F350.00
G01 X28.5886 Y16.7833 F350.00
G01 X28.6492 Y16.8843 F350.00
G01 X28.6995 Y16.9908 F350.00
G01 X28.7392 Y17.1017 F350.00
G01 X28.7678 Y17.2159 F350.00
G01 X28.7851 Y17.3324 F350.00
G01 X28.7909 Y17.4500 F350.00
G01 X28.7908 Y19.4549 F350.00
G01 X28.7851 Y19.5676 F350.00
G01 X28.7678 Y19.6841 F350.00
G01 X28.7392 Y19.7983 F350.00
G01 X28.7013 Y19.9047 F350.00
G01 X28.6955 Y19.9182 F350.00
G01 X28.6536 Y20.0069 F350.00
G01 X28.6443 Y20.0242 F350.00
G01 X28.5886 Y20.1167 F350.00
G01 X28.5185 Y20.2113 F350.00
G01 X28.4394 Y20.2985 F350.00
G01 X28.3596 Y20.3712 F350.00
G01 X28.3444 Y20.3837 F350.00
G01 X28.2575 Y20.4478 F350.00
G01 X28.1651 Y20.5035 F350.00
G01 X28.1478 Y20.5127 F350.00
G01 X28.0501 Y20.5587 F350.00
G01 X27.9392 Y20.5983 F350.00
G01 X27.8250 Y20.6269 F350.00
G01 X27.7182 Y20.6430 F350.00
G01 X27.6987 Y20.6449 F350.00
G01 X27.5909 Y20.6500 F350.00
G01 X27.4732 Y20.6442 F350.00
G01 X27.3568 Y20.6269 F350.00
G01 X27.2425 Y20.5983 F350.00
G01 X27.1316 Y20.5587 F350.00
G01 X27.0252 Y20.5083 F350.00
G01 X26.9242 Y20.4478 F350.00
G01 X26.8296 Y20.3776 F350.00
G01 X26.7423 Y20.2985 F350.00
G01 X26.6632 Y20.2113 F350.00
G01 X26.5931 Y20.1167 F350.00
G01 X26.5326 Y20.0157 F350.00
G01 X26.4822 Y19.9092 F350.00
G01 X26.4425 Y19.7983 F350.00
G01 X26.4139 Y19.6841 F350.00
G01 X26.3966 Y19.5676 F350.00
G01 X26.3909 Y19.4500 F350.00
G01 X26.3909 Y17.4451 F350.00
G01 X26.3966 Y17.3324 F350.00
G01 X26.4139 Y17.2159 F350.00
G01 X26.4425 Y17.1017 F350.00
G01 X26.4804 Y16.9953 F350.00
G01 X26.4862 Y16.9818 F350.00
G01 X26.5281 Y16.8931 F350.00
G01 X26.5374 Y16.8758 F350.00
G01 X26.5931 Y16.7833 F350.00
G01 X26.6632 Y16.6887 F350.00
G01 X26.7423 Y16.6015 F350.00
G01 X26.8222 Y16.5288 F350.00
G01 X26.8373 Y16.5163 F350.00
G01 X26.9242 Y16.4522 F350.00
G01 X27.0166 Y16.3965 F350.00
G01 X27.0340 Y16.3873 F350.00
G01 X27.1316 Y16.3413 F350.00
G01 X27.2425 Y16.3017 F350.00
G01 X27.3472 Y16.2752 F350.00
G01 X27.3664 Y16.2714 F350.00
G01 X27.4732 Y16.2558 F350.00
G01 X27.5810 Y16.2502 F350.00
G00 Z0.5000
G00 X30.1210 Y16.2502
G01 F250.00
G01 Z-0.0500
G01 F350.00
G01 X30.1407 Y16.2502 F350.00
G01 X30.2485 Y16.2558 F350.00
G01 X30.3650 Y16.2731 F350.00
G01 X30.4792 Y16.3017 F350.00
G01 X30.5901 Y16.3413 F350.00
G01 X30.6965 Y16.3917 F350.00
G01 X30.7975 Y16.4522 F350.00
G01 X30.8921 Y16.5224 F350.00
G01 X30.9794 Y16.6015 F350.00
G01 X31.0585 Y16.6887 F350.00
G01 X31.1286 Y16.7833 F350.00
G01 X31.1892 Y16.8843 F350.00
G01 X31.2395 Y16.9908 F350.00
G01 X31.2792 Y17.1017 F350.00
G01 X31.3078 Y17.2159 F350.00
G01 X31.3251 Y17.3324 F350.00
G01 X31.3309 Y17.4500 F350.00
G01 X31.3308 Y19.4549 F350.00
G01 X31.3251 Y19.5676 F350.00
G01 X31.3078 Y19.6841 F350.00
G01 X31.2792 Y19.7983 F350.00
G01 X31.2413 Y19.9047 F350.00
G01 X31.2355 Y19.9182 F350.00
G01 X31.1936 Y20.0069 F350.00
G01 X31.1843 Y20.0242 F350.00
G01 X31.1286 Y20.1167 F350.00
G01 X31.0585 Y20.2113 F350.00
G01 X30.9794 Y20.2985 F350.00
G01 X30.8996 Y20.3712 F350.00
G01 X30.8844 Y20.3837 F350.00
G01 X30.7975 Y20.4478 F350.00
G01 X30.7051 Y20.5035 F350.00
G01 X30.6878 Y20.5127 F350.00
G01 X30.5901 Y20.5587 F350.00
G01 X30.4792 Y20.5983 F350.00
G01 X30.3650 Y20.6269 F350.00
G01 X30.2582 Y20.6430 F350.00
G01 X30.2387 Y20.6449 F350.00
G01 X30.1309 Y20.6500 F350.00
G01 X30.0132 Y20.6442 F350.00
G01 X29.8968 Y20.6269 F350.00
G01 X29.7825 Y20.5983 F350.00
G01 X29.6716 Y20.5587 F350.00
G01 X29.5652 Y20.5083 F350.00
G01 X29.4642 Y20.4478 F350.00
G01 X29.3696 Y20.3776 F350.00
G01 X29.2823 Y20.2985 F350.00
G01 X29.2032 Y20.2113 F350.00
G01 X29.1331 Y20.1167 F350.00
G01 X29.0726 Y20.0157 F350.00
G01 X29.0222 Y19.9092 F350.00
G01 X28.9825 Y19.7983 F350.00
G01 X28.9539 Y19.6841 F350.00
G01 X28.9366 Y19.5676 F350.00
G01 X28.9309 Y19.4500 F350.00
G01 X28.9309 Y17.4451 F350.00
G01 X28.9366 Y17.3324 F350.00
G01 X28.9539 Y17.2159 F350.00
G01 X28.9825 Y17.1017 F350.00
G01 X29.0204 Y16.9953 F350.00
G01 X29.0262 Y16.9818 F350.00
G01 X29.0681 Y16.8931 F350.00
G01 X29.0774 Y16.8758 F350.00
G01 X29.1331 Y16.7833 F350.00
G01 X29.2032 Y16.6887 F350.00
G01 X29.2823 Y16.6015 F350.00
G01 X29.3622 Y16.5288 F350.00
G01 X29.3773 Y16.5163 F350.00
G01 X29.4642 Y16.4522 F350.00
G01 X29.5566 Y16.3965 F350.00
G01 X29.5740 Y16.3873 F350.00
G01 X29.6716 Y16.3413 F350.00
G01 X29.7825 Y16.3017 F350.00
G01 X29.8872 Y16.2752 F350.00
G01 X29.9064 Y16.2714 F350.00
G01 X30.0132 Y16.2558 F350.00
G01 X30.1210 Y16.2502 F350.00
G00 Z0.5000
G00 X35.2010 Y16.2502
G01 F250.00
G01 Z-0.0500
G01 F350.00
G01 X35.2207 Y16.2502 F350.00
G01 X35.3285 Y16.2558 F350.00
G01 X35.4450 Y16.2731 F350.00
G01 X35.5592 Y16.3017 F350.00
G01 X35.6701 Y16.3413 F350.00
G01 X35.7765 Y16.3917 F350.00
G01 X35.8775 Y16.4522 F350.00
G01 X35.9721 Y16.5224 F350.00
G01 X36.0594 Y16.6015 F350.00
G01 X36.1385 Y16.6887 F350.00
G01 X36.2086 Y16.7833 F350.00
G01 X36.2692 Y16.8843 F350.00
G01 X36.3195 Y16.9908 F350.00
G01 X36.3592 Y17.1017 F350.00
G01 X36.3878 Y17.2159 F350.00
G01 X36.4051 Y17.3324 F350.00
G01 X36.4109 Y17.4500 F350.00
G01 X36.4108 Y19.4549 F350.00
G01 X36.4051 Y19.5676 F350.00
G01 X36.3878 Y19.6841 F350.00
G01 X36.3592 Y19.7983 F350.00
G01 X36.3213 Y19.9047 F350.00
G01 X36.3155 Y19.9182 F350.00
G01 X36.2736 Y20.0069 F350.00
G01 X36.2643 Y20.0242 F350.00
G01 X36.2086 Y20.1167 F350.00
G01 X36.1385 Y20.2113 F350.00
G01 X36.0594 Y20.2985 F350.00
G01 X35.9796 Y20.3712 F350.00
G01 X35.9644 Y20.3837 F350.00
G01 X35.8775 Y20.4478 F350.00
G01 X35.7851 Y20.5035 F350.00
G01 X35.7678 Y20.5127 F350.00
G01 X35.6701 Y20.5587 F350.00
G01 X35.5592 Y20.5983 F350.00
G01 X35.4450 Y20.6269 F350.00
G01 X35.3382 Y20.6430 F350.00
G01 X35.3187 Y20.6449 F350.00
G01 X35.2109 Y20.6500 F350.00
G01 X35.0932 Y20.6442 F350.00
G01 X34.9768 Y20.6269 F350.00
G01 X34.8625 Y20.5983 F350.00
G01 X34.7516 Y20.5587 F350.00
G01 X34.6452 Y20.5083 F350.00
G01 X34.5442 Y20.4478 F350.00
G01 X34.4496 Y20.3776 F350.00
G01 X34.3623 Y20.2985 F350.00
G01 X34.2832 Y20.2113 F350.00
G01 X34.2131 Y20.1167 F350.00
G01 X34.1526 Y20.0157 F350.00
G01 X34.1022 Y19.9092 F350.00
G01 X34.0625 Y19.7983 F350.00
G01 X34.0339 Y19.6841 F350.00
G01 X34.0166 Y19.5676 F350.00
G01 X34.0109 Y19.4500 F350.00
G01 X34.0109 Y17.4451 F350.00
G01 X34.0166 Y17.3324 F350.00
G01 X34.0339 Y17.2159 F350.00
G01 X34.0625 Y17.1017 F350.00
G01 X34.1004 Y16.9953 F350.00
G01 X34.1062 Y16.9818 F350.00
G01 X34.1481 Y16.8931 F350.00
G01 X34.1574 Y16.8758 F350.00
G01 X34.2131 Y16.7833 F350.00
G01 X34.2832 Y16.6887 F350.00
G01 X34.3623 Y16.6015 F350.00
G01 X34.4422 Y16.5288 F350.00
G01 X34.4573 Y16.5163 F350.00
G01 X34.5442 Y16.4522 F350.00
G01 X34.6366 Y16.3965 F350.00
G01 X34.6540 Y16.3873 F350.00
G01 X34.7516 Y16.3413 F350.00
G01 X34.8625 Y16.3017 F350.00
G01 X34.9672 Y16.2752 F350.00
G01 X34.9864 Y16.2714 F350.00
G01 X35.0932 Y16.2558 F350.00
G01 X35.2010 Y16.2502 F350.00
G00 Z0.5000
G00 X40.2810 Y16.2502
G01 F250.00
G01 Z-0.0500
G01 F350.00
G01 X40.3007 Y16.2502 F350.00
G01 X40.4085 Y16.2558 F350.00
G01 X40.5250 Y16.2731 F350.00
G01 X40.6392 Y16.3017 F350.00
G01 X40.7501 Y16.3413 F350.00
G01 X40.8565 Y16.3917 F350.00
G01 X40.9575 Y16.4522 F350.00
G01 X41.0521 Y16.5224 F350.00
G01 X41.1394 Y16.6015 F350.00
G01 X41.2185 Y16.6887 F350.00
G01 X41.2886 Y16.7833 F350.00
G01 X41.3492 Y16.8843 F350.00
G01 X41.3995 Y16.9908 F350.00
G01 X41.4392 Y17.1017 F350.00
G01 X41.4678 Y17.2159 F350.00
G01 X41.4851 Y17.3324 F350.00
G01 X41.4909 Y17.4500 F350.00
G01 X41.4908 Y19.4549 F350.00
G01 X41.4851 Y19.5676 F350.00
G01 X41.4678 Y19.6841 F350.00
G01 X41.4392 Y19.7983 F350.00
G01 X41.4013 Y19.9047 F350.00
G01 X41.3955 Y19.9182 F350.00
G01 X41.3536 Y20.0069 F350.00
G01 X41.3443 Y20.0242 F350.00
G01 X41.2886 Y20.1167 F350.00
G01 X41.2185 Y20.2113 F350.00
G01 X41.1394 Y20.2985 F350.00
G01 X41.0596 Y20.3712 F350.00
G01 X41.0444 Y20.3837 F350.00
G01 X40.9575 Y20.4478 F350.00
G01 X40.8651 Y20.5035 F350.00
G01 X40.8478 Y20.5127 F350.00
G01 X40.7501 Y20.5587 F350.00
G01 X40.6392 Y20.5983 F350.00
G01 X40.5250 Y20.6269 F350.00
G01 X40.4182 Y20.6430 F350.00
G01 X40.3987 Y20.6449 F350.00
G01 X40.2909 Y20.6500 F350.00
G01 X40.1732 Y20.6442 F350.00
G01 X40.0568 Y20.6269 F350.00
G01 X39.9425 Y20.5983 F350.00
G01 X39.8316 Y20.5587 F350.00
G01 X39.7252 Y20.5083 F350.00
G01 X39.6242 Y20.4478 F350.00
G01 X39.5296 Y20.3776 F350.00
G01 X39.4423 Y20.2985 F350.00
G01 X39.3632 Y20.2113 F350.00
G01 X39.2931 Y20.1167 F350.00
G01 X39.2326 Y20.0157 F350.00
G01 X39.1822 Y19.9092 F350.00
G01 X39.1425 Y19.7983 F350.00
G01 X39.1139 Y19.6841 F350.00
G01 X39.0966 Y19.5676 F350.00
G01 X39.0909 Y19.4500 F350.00
G01 X39.0909 Y17.4451 F350.00
G01 X39.0966 Y17.3324 F350.00
G01 X39.1139 Y17.2159 F350.00
G01 X39.1425 Y17.1017 F350.00
G01 X39.1804 Y16.9953 F350.00
G01 X39.1862 Y16.9818 F350.00
G01 X39.2281 Y16.8931 F350.00
G01 X39.2374 Y16.8758 F350.00
G01 X39.2931 Y16.7833 F350.00
G01 X39.3632 Y16.6887 F350.00
G01 X39.4423 Y16.6015 F350.00
G01 X39.5222 Y16.5288 F350.00
G01 X39.5373 Y16.5163 F350.00
G01 X39.6242 Y16.4522 F350.00
G01 X39.7166 Y16.3965 F350.00
G01 X39.7340 Y16.3873 F350.00
G01 X39.8316 Y16.3413 F350.00
G01 X39.9425 Y16.3017 F350.00
G01 X40.0472 Y16.2752 F350.00
G01 X40.0664 Y16.2714 F350.00
G01 X40.1732 Y16.2558 F350.00
G01 X40.2810 Y16.2502 F350.00
G00 Z0.5000
G00 X42.8210 Y16.2502
G01 F250.00
G01 Z-0.0500
G01 F350.00
G01 X42.8407 Y16.2502 F350.00
G01 X42.9485 Y16.2558 F350.00
G01 X43.0650 Y16.2731 F350.00
G01 X43.1792 Y16.3017 F350.00
G01 X43.2901 Y16.3413 F350.00
G01 X43.3965 Y16.3917 F350.00
G01 X43.4975 Y16.4522 F350.00
G01 X43.5921 Y16.5224 F350.00
G01 X43.6794 Y16.6015 F350.00
G01 X43.7585 Y16.6887 F350.00
G01 X43.8286 Y16.7833 F350.00
G01 X43.8892 Y16.8843 F350.00
G01 X43.9395 Y16.9908 F350.00
G01 X43.9792 Y17.1017 F350.00
G01 X44.0078 Y17.2159 F350.00
G01 X44.0251 Y17.3324 F350.00
G01 X44.0309 Y17.4500 F350.00
G01 X44.0308 Y19.4549 F350.00
G01 X44.0251 Y19.5676 F350.00
G01 X44.0078 Y19.6841 F350.00
G01 X43.9792 Y19.7983 F350.00
G01 X43.9413 Y19.9047 F350.00
G01 X43.9355 Y19.9182 F350.00
G01 X43.8936 Y20.0069 F350.00
G01 X43.8843 Y20.0242 F350.00
G01 X43.8286 Y20.1167 F350.00
G01 X43.7585 Y20.2113 F350.00
G01 X43.6794 Y20.2985 F350.00
G01 X43.5996 Y20.3712 F350.00
G01 X43.5844 Y20.3837 F350.00
G01 X43.4975 Y20.4478 F350.00
G01 X43.4051 Y20.5035 F350.00
G01 X43.3878 Y20.5127 F350.00
G01 X43.2901 Y20.5587 F350.00
G01 X43.1792 Y20.5983 F350.00
G01 X43.0650 Y20.6269 F350.00
G01 X42.9582 Y20.6430 F350.00
G01 X42.9387 Y20.6449 F350.00
G01 X42.8309 Y20.6500 F350.00
G01 X42.7132 Y20.6442 F350.00
G01 X42.5968 Y20.6269 F350.00
G01 X42.4825 Y20.5983 F350.00
G01 X42.3716 Y20.5587 F350.00
G01 X42.2652 Y20.5083 F350.00
G01 X42.1642 Y20.4478 F350.00
G01 X42.0696 Y20.3776 F350.00
G01 X41.9823 Y20.2985 F350.00
G01 X41.9032 Y20.2113 F350.00
G01 X41.8331 Y20.1167 F350.00
G01 X41.7726 Y20.0157 F350.00
G01 X41.7222 Y19.9092 F350.00
G01 X41.6825 Y19.7983 F350.00
G01 X41.6539 Y19.6841 F350.00
G01 X41.6366 Y19.5676 F350.00
G01 X41.6309 Y19.4500 F350.00
G01 X41.6309 Y17.4451 F350.00
G01 X41.6366 Y17.3324 F350.00
G01 X41.6539 Y17.2159 F350.00
G01 X41.6825 Y17.1017 F350.00
G01 X41.7204 Y16.9953 F350.00
G01 X41.7262 Y16.9818 F350.00
G01 X41.7681 Y16.8931 F350.00
G01 X41.7774 Y16.8758 F350.00
G01 X41.8331 Y16.7833 F350.00
G01 X41.9032 Y16.6887 F350.00
G01 X41.9823 Y16.6015 F350.00
G01 X42.0622 Y16.5288 F350.00
G01 X42.0773 Y16.5163 F350.00
G01 X42.1642 Y16.4522 F350.00
G01 X42.2566 Y16.3965 F350.00
G01 X42.2740 Y16.3873 F350.00
G01 X42.3716 Y16.3413 F350.00
G01 X42.4825 Y16.3017 F350.00
G01 X42.5872 Y16.2752 F350.00
G01 X42.6064 Y16.2714 F350.00
G01 X42.7132 Y16.2558 F350.00
G01 X42.8210 Y16.2502 F350.00
G00 Z0.5000
G00 X45.3610 Y16.2502
G01 F250.00
G01 Z-0.0500
G01 F350.00
G01 X45.3807 Y16.2502 F350.00
G01 X45.4885 Y16.2558 F350.00
G01 X45.6050 Y16.2731 F350.00
G01 X45.7192 Y16.3017 F350.00
G01 X45.8301 Y16.3413 F350.00
G01 X45.9365 Y16.3917 F350.00
G01 X46.0375 Y16.4522 F350.00
G01 X46.1321 Y16.5224 F350.00
G01 X46.2194 Y16.6015 F350.00
G01 X46.2985 Y16.6887 F350.00
G01 X46.3686 Y16.7833 F350.00
G01 X46.4292 Y16.8843 F350.00
G01 X46.4795 Y16.9908 F350.00
G01 X46.5192 Y17.1017 F350.00
G01 X46.5478 Y17.2159 F350.00
G01 X46.5651 Y17.3324 F350.00
G01 X46.5709 Y17.4500 F350.00
G01 X46.5708 Y19.4549 F350.00
G01 X46.5651 Y19.5676 F350.00
G01 X46.5478 Y19.6841 F350.00
G01 X46.5192 Y19.7983 F350.00
G01 X46.4813 Y19.9047 F350.00
G01 X46.4755 Y19.9182 F350.00
G01 X46.4336 Y20.0069 F350.00
G01 X46.4243 Y20.0242 F350.00
G01 X46.3686 Y20.1167 F350.00
G01 X46.2985 Y20.2113 F350.00
G01 X46.2194 Y20.2985 F350.00
G01 X46.1396 Y20.3712 F350.00
G01 X46.1244 Y20.3837 F350.00
G01 X46.0375 Y20.4478 F350.00
G01 X45.9451 Y20.5035 F350.00
G01 X45.9278 Y20.5127 F350.00
G01 X45.8301 Y20.5587 F350.00
G01 X45.7192 Y20.5983 F350.00
G01 X45.6050 Y20.6269 F350.00
G01 X45.4982 Y20.6430 F350.00
G01 X45.4787 Y20.6449 F350.00
G01 X45.3709 Y20.6500 F350.00
G01 X45.2532 Y20.6442 F350.00
G01 X45.1368 Y20.6269 F350.00
G01 X45.0225 Y20.5983 F350.00
G01 X44.9116 Y20.5587 F350.00
G01 X44.8052 Y20.5083 F350.00
G01 X44.7042 Y20.4478 F350.00
G01 X44.6096 Y20.3776 F350.00
G01 X44.5223 Y20.2985 F350.00
G01 X44.4432 Y20.2113 F350.00
G01 X44.3731 Y20.1167 F350.00
G01 X44.3126 Y20.0157 F350.00
G01 X44.2622 Y19.9092 F350.00
G01 X44.2225 Y19.7983 F350.00
G01 X44.1939 Y19.6841 F350.00
G01 X44.1766 Y19.5676 F350.00
G01 X44.1709 Y19.4500 F350.00
G01 X44.1709 Y17.4451 F350.00
G01 X44.1766 Y17.3324 F350.00
G01 X44.1939 Y17.2159 F350.00
G01 X44.2225 Y17.1017 F350.00
G01 X44.2604 Y16.9953 F350.00
G01 X44.2662 Y16.9818 F350.00
G01 X44.3081 Y16.8931 F350.00
G01 X44.3174 Y16.8758 F350.00
G01 X44.3731 Y16.7833 F350.00
G01 X44.4432 Y16.6887 F350.00
G01 X44.5223 Y16.6015 F350.00
G01 X44.6022 Y16.5288 F350.00
G01 X44.6173 Y16.5163 F350.00
G01 X44.7042 Y16.4522 F350.00
G01 X44.7966 Y16.3965 F350.00
G01 X44.8140 Y16.3873 F350.00
G01 X44.9116 Y16.3413 F350.00
G01 X45.0225 Y16.3017 F350.00
G01 X45.1272 Y16.2752 F350.00
G01 X45.1464 Y16.2714 F350.00
G01 X45.2532 Y16.2558 F350.00
G01 X45.3610 Y16.2502 F350.00
G00 Z0.5000
G00 X42.7609 Y-0.0471
G01 F250.00
G01 Z-0.0500
G01 F350.00
G01 X42.7752 Y-0.0304 F350.00
G01 X42.8103 Y0.0169 F350.00
G01 X42.8183 Y0.0293 F350.00
G01 X42.8484 Y0.0799 F350.00
G01 X42.8778 Y0.1420 F350.00
G01 X42.8979 Y0.1974 F350.00
G01 X42.9036 Y0.2162 F350.00
G01 X42.9177 Y0.2734 F350.00
G01 X42.9265 Y0.3316 F350.00
G01 X42.9285 Y0.3512 F350.00
G01 X42.9311 Y0.4051 F350.00
G01 X42.9309 Y0.4198 F350.00
G01 X42.9277 Y0.4786 F350.00
G01 X42.9193 Y0.5369 F350.00
G01 X42.9155 Y0.5562 F350.00
G01 X42.9010 Y0.6133 F350.00
G01 X42.8813 Y0.6688 F350.00
G01 X42.8738 Y0.6869 F350.00
G01 X42.8507 Y0.7357 F350.00
G01 X42.8436 Y0.7486 F350.00
G01 X42.8183 Y0.7907 F350.00
G01 X42.8103 Y0.8031 F350.00
G01 X42.7752 Y0.8504 F350.00
G01 X42.7690 Y0.8580 F350.00
G01 X42.7571 Y0.8712 F350.00
G01 X42.7555 Y0.9027 F350.00
G01 X42.7545 Y0.9125 F350.00
G01 X42.7387 Y1.0193 F350.00
G01 X42.7357 Y1.0337 F350.00
G01 X42.7106 Y1.1336 F350.00
G01 X42.7061 Y1.1477 F350.00
G01 X42.6695 Y1.2492 F350.00
G01 X42.6214 Y1.3513 F350.00
G01 X42.6143 Y1.3642 F350.00
G01 X42.5586 Y1.4567 F350.00
G01 X42.4885 Y1.5513 F350.00
G01 X42.4094 Y1.6385 F350.00
G01 X42.3221 Y1.7176 F350.00
G01 X42.2275 Y1.7878 F350.00
G01 X42.1265 Y1.8483 F350.00
G01 X42.0201 Y1.8987 F350.00
G01 X41.9092 Y1.9383 F350.00
G01 X41.7950 Y1.9669 F350.00
G01 X41.6785 Y1.9842 F350.00
G01 X41.5609 Y1.9900 F350.00
G01 X41.4530 Y1.9849 F350.00
G01 X41.4335 Y1.9830 F350.00
G01 X41.3268 Y1.9669 F350.00
G01 X41.2220 Y1.9409 F350.00
G01 X41.2032 Y1.9352 F350.00
G01 X41.1108 Y1.9022 F350.00
G01 X41.0927 Y1.8947 F350.00
G01 X40.9952 Y1.8483 F350.00
G01 X40.8942 Y1.7878 F350.00
G01 X40.7996 Y1.7176 F350.00
G01 X40.7123 Y1.6385 F350.00
G01 X40.6332 Y1.5513 F350.00
G01 X40.5631 Y1.4567 F350.00
G01 X40.5026 Y1.3557 F350.00
G01 X40.4522 Y1.2492 F350.00
G01 X40.4125 Y1.1383 F350.00
G01 X40.3839 Y1.0241 F350.00
G01 X40.3666 Y0.9076 F350.00
G01 X40.3609 Y0.7900 F350.00
G01 X40.3609 Y-1.2100 F350.00
G01 X40.3659 Y-1.3178 F350.00
G01 X40.3672 Y-1.3325 F350.00
G01 X40.3839 Y-1.4441 F350.00
G01 X40.4125 Y-1.5583 F350.00
G01 X40.4522 Y-1.6692 F350.00
G01 X40.4981 Y-1.7669 F350.00
G01 X40.5074 Y-1.7842 F350.00
G01 X40.5578 Y-1.8684 F350.00
G01 X40.5687 Y-1.8847 F350.00
G01 X40.6332 Y-1.9713 F350.00
G01 X40.7123 Y-2.0585 F350.00
G01 X40.7996 Y-2.1376 F350.00
G01 X40.8942 Y-2.2078 F350.00
G01 X40.9952 Y-2.2683 F350.00
G01 X41.1016 Y-2.3187 F350.00
G01 X41.2125 Y-2.3583 F350.00
G01 X41.3268 Y-2.3869 F350.00
G01 X41.4432 Y-2.4042 F350.00
G01 X41.5609 Y-2.4100 F350.00
G01 X41.6785 Y-2.4042 F350.00
G01 X41.7950 Y-2.3869 F350.00
G01 X41.9092 Y-2.3583 F350.00
G01 X42.0201 Y-2.3187 F350.00
G01 X42.1265 Y-2.2683 F350.00
G01 X42.2275 Y-2.2078 F350.00
G01 X42.3221 Y-2.1376 F350.00
G01 X42.4094 Y-2.0585 F350.00
G01 X42.4885 Y-1.9713 F350.00
G01 X42.5530 Y-1.8847 F350.00
G01 X42.5639 Y-1.8684 F350.00
G01 X42.6192 Y-1.7757 F350.00
G01 X42.6695 Y-1.6692 F350.00
G01 X42.7061 Y-1.5677 F350.00
G01 X42.7118 Y-1.5489 F350.00
G01 X42.7357 Y-1.4537 F350.00
G01 X42.7387 Y-1.4393 F350.00
G01 X42.7551 Y-1.3276 F350.00
G01 X42.7608 Y-1.2149 F350.00
G01 X42.7609 Y-0.0471 F350.00
G00 Z0.5000
G00 X39.0110 Y-2.4098
G01 F250.00
G01 Z-0.0500
G01 F350.00
G01 X39.0307 Y-2.4098 F350.00
G01 X39.1385 Y-2.4042 F350.00
G01 X39.2550 Y-2.3869 F350.00
G01 X39.3692 Y-2.3583 F350.00
G01 X39.4801 Y-2.3187 F350.00
G01 X39.5865 Y-2.2683 F350.00
G01 X39.6875 Y-2.2078 F350.00
G01 X39.7821 Y-2.1376 F350.00
G01 X39.8694 Y-2.0585 F350.00
G01 X39.9485 Y-1.9713 F350.00
G01 X40.0186 Y-1.8767 F350.00
G01 X40.0792 Y-1.7757 F350.00
G01 X40.1295 Y-1.6692 F350.00
G01 X40.1692 Y-1.5583 F350.00
G01 X40.1978 Y-1.4441 F350.00
G01 X40.2151 Y-1.3276 F350.00
G01 X40.2209 Y-1.2100 F350.00
G01 X40.2208 Y0.7949 F350.00
G01 X40.2151 Y0.9076 F350.00
G01 X40.1978 Y1.0241 F350.00
G01 X40.1692 Y1.1383 F350.00
G01 X40.1313 Y1.2447 F350.00
G01 X40.1255 Y1.2582 F350.00
G01 X40.0836 Y1.3469 F350.00
G01 X40.0743 Y1.3642 F350.00
G01 X40.0186 Y1.4567 F350.00
G01 X39.9485 Y1.5513 F350.00
G01 X39.8762 Y1.6314 F350.00
G01 X39.8623 Y1.6453 F350.00
G01 X39.7821 Y1.7176 F350.00
G01 X39.6875 Y1.7878 F350.00
G01 X39.5951 Y1.8435 F350.00
G01 X39.5778 Y1.8527 F350.00
G01 X39.4801 Y1.8987 F350.00
G01 X39.3692 Y1.9383 F350.00
G01 X39.2550 Y1.9669 F350.00
G01 X39.1482 Y1.9830 F350.00
G01 X39.1287 Y1.9849 F350.00
G01 X39.0209 Y1.9900 F350.00
G01 X38.9032 Y1.9842 F350.00
G01 X38.7868 Y1.9669 F350.00
G01 X38.6725 Y1.9383 F350.00
G01 X38.5616 Y1.8987 F350.00
G01 X38.4552 Y1.8483 F350.00
G01 X38.3542 Y1.7878 F350.00
G01 X38.2596 Y1.7176 F350.00
G01 X38.1723 Y1.6385 F350.00
G01 X38.0932 Y1.5513 F350.00
G01 X38.0231 Y1.4567 F350.00
G01 X37.9626 Y1.3557 F350.00
G01 X37.9122 Y1.2492 F350.00
G01 X37.8725 Y1.1383 F350.00
G01 X37.8439 Y1.0241 F350.00
G01 X37.8266 Y0.9076 F350.00
G01 X37.8209 Y0.7900 F350.00
G01 X37.8209 Y-1.2149 F350.00
G01 X37.8266 Y-1.3276 F350.00
G01 X37.8439 Y-1.4441 F350.00
G01 X37.8725 Y-1.5583 F350.00
G01 X37.9104 Y-1.6647 F350.00
G01 X37.9162 Y-1.6782 F350.00
G01 X37.9581 Y-1.7669 F350.00
G01 X37.9674 Y-1.7842 F350.00
G01 X38.0231 Y-1.8767 F350.00
G01 X38.0932 Y-1.9713 F350.00
G01 X38.1656 Y-2.0514 F350.00
G01 X38.1794 Y-2.0653 F350.00
G01 X38.2596 Y-2.1376 F350.00
G01 X38.3542 Y-2.2078 F350.00
G01 X38.4466 Y-2.2635 F350.00
G01 X38.4640 Y-2.2727 F350.00
G01 X38.5616 Y-2.3187 F350.00
G01 X38.6725 Y-2.3583 F350.00
G01 X38.7772 Y-2.3848 F350.00
G01 X38.7964 Y-2.3886 F350.00
G01 X38.9032 Y-2.4042 F350.00
G01 X39.0110 Y-2.4098 F350.00
G00 Z0.5000
G00 X36.4710 Y-2.4098
G01 F250.00
G01 Z-0.0500
G01 F350.00
G01 X36.4907 Y-2.4098 F350.00
G01 X36.5985 Y-2.4042 F350.00
G01 X36.7150 Y-2.3869 F350.00
G01 X36.8292 Y-2.3583 F350.00
G01 X36.9401 Y-2.3187 F350.00
G01 X37.0465 Y-2.2683 F350.00
G01 X37.1475 Y-2.2078 F350.00
G01 X37.2421 Y-2.1376 F350.00
G01 X37.3294 Y-2.0585 F350.00
G01 X37.4085 Y-1.9713 F350.00
G01 X37.4786 Y-1.8767 F350.00
G01 X37.5392 Y-1.7757 F350.00
G01 X37.5895 Y-1.6692 F350.00
G01 X37.6292 Y-1.5583 F350.00
G01 X37.6578 Y-1.4441 F350.00
G01 X37.6751 Y-1.3276 F350.00
G01 X37.6809 Y-1.2100 F350.00
G01 X37.6808 Y0.7949 F350.00
G01 X37.6751 Y0.9076 F350.00
G01 X37.6578 Y1.0241 F350.00
G01 X37.6292 Y1.1383 F350.00
G01 X37.5913 Y1.2447 F350.00
G01 X37.5855 Y1.2582 F350.00
G01 X37.5436 Y1.3469 F350.00
G01 X37.5343 Y1.3642 F350.00
G01 X37.4786 Y1.4567 F350.00
G01 X37.4085 Y1.5513 F350.00
G01 X37.3362 Y1.6314 F350.00
G01 X37.3223 Y1.6453 F350.00
G01 X37.2421 Y1.7176 F350.00
G01 X37.1475 Y1.7878 F350.00
G01 X37.0551 Y1.8435 F350.00
G01 X37.0378 Y1.8527 F350.00
G01 X36.9401 Y1.8987 F350.00
G01 X36.8292 Y1.9383 F350.00
G01 X36.7150 Y1.9669 F350.00
G01 X36.6082 Y1.9830 F350.00
G01 X36.5887 Y1.9849 F350.00
G01 X36.4809 Y1.9900 F350.00
G01 X36.3632 Y1.9842 F350.00
G01 X36.2468 Y1.9669 F350.00
G01 X36.1325 Y1.9383 F350.00
G01 X36.0216 Y1.8987 F350.00
G01 X35.9152 Y1.8483 F350.00
G01 X35.8142 Y1.7878 F350.00
G01 X35.7196 Y1.7176 F350.00
G01 X35.6323 Y1.6385 F350.00
G01 X35.5532 Y1.5513 F350.00
G01 X35.4831 Y1.4567 F350.00
G01 X35.4226 Y1.3557 F350.00
G01 X35.3722 Y1.2492 F350.00
G01 X35.3325 Y1.1383 F350.00
G01 X35.3039 Y1.0241 F350.00
G01 X35.2866 Y0.9076 F350.00
G01 X35.2809 Y0.7900 F350.00
G01 X35.2809 Y-1.2149 F350.00
G01 X35.2866 Y-1.3276 F350.00
G01 X35.3039 Y-1.4441 F350.00
G01 X35.3325 Y-1.5583 F350.00
G01 X35.3704 Y-1.6647 F350.00
G01 X35.3762 Y-1.6782 F350.00
G01 X35.4181 Y-1.7669 F350.00
G01 X35.4274 Y-1.7842 F350.00
G01 X35.4831 Y-1.8767 F350.00
G01 X35.5532 Y-1.9713 F350.00
G01 X35.6256 Y-2.0514 F350.00
G01 X35.6394 Y-2.0653 F350.00
G01 X35.7196 Y-2.1376 F350.00
G01 X35.8142 Y-2.2078 F350.00
G01 X35.9066 Y-2.2635 F350.00
G01 X35.9240 Y-2.2727 F350.00
G01 X36.0216 Y-2.3187 F350.00
G01 X36.1325 Y-2.3583 F350.00
G01 X36.2372 Y-2.3848 F350.00
G01 X36.2564 Y-2.3886 F350.00
G01 X36.3632 Y-2.4042 F350.00
G01 X36.4710 Y-2.4098 F350.00
G00 Z0.5000
G00 X32.8182 Y-1.6309
G01 F250.00
G01 Z-0.0500
G01 F350.00
G01 X31.9393 Y-2.5099 F350.00
G01 X30.5273 Y-2.5099 F350.00
G01 X29.7310 Y-1.7136 F350.00
G01 X29.7310 Y14.8000 F350.00
G01 X29.7295 Y14.8343 F350.00
G01 X29.7283 Y14.8490 F350.00
G01 X29.7223 Y14.8878 F350.00
G01 X29.7116 Y14.9307 F350.00
G01 X29.6967 Y14.9723 F350.00
G01 X29.6822 Y15.0034 F350.00
G01 X29.6755 Y15.0165 F350.00
G01 X29.6604 Y15.0418 F350.00
G01 X29.6495 Y15.0581 F350.00
G01 X29.6288 Y15.0856 F350.00
G01 X29.5991 Y15.1183 F350.00
G01 X29.5664 Y15.1480 F350.00
G01 X29.5390 Y15.1686 F350.00
G01 X29.5268 Y15.1769 F350.00
G01 X29.5016 Y15.1921 F350.00
G01 X29.4843 Y15.2014 F350.00
G01 X29.4531 Y15.2159 F350.00
G01 X29.4115 Y15.2307 F350.00
G01 X29.3687 Y15.2415 F350.00
G01 X29.3250 Y15.2480 F350.00
G01 X29.2809 Y15.2501 F350.00
G01 X26.0310 Y15.2501 F350.00
G01 X26.0310 Y20.5136 F350.00
G01 X26.9673 Y21.4499 F350.00
G01 X37.3007 Y21.4499 F350.00
G01 X37.3007 Y20.5622 F350.00
G01 X37.2827 Y20.5547 F350.00
G01 X37.1852 Y20.5083 F350.00
G01 X37.0925 Y20.4530 F350.00
G01 X37.0762 Y20.4421 F350.00
G01 X36.9896 Y20.3776 F350.00
G01 X36.9094 Y20.3053 F350.00
G01 X36.8956 Y20.2914 F350.00
G01 X36.8232 Y20.2113 F350.00
G01 X36.7587 Y20.1247 F350.00
G01 X36.7478 Y20.1084 F350.00
G01 X36.6926 Y20.0157 F350.00
G01 X36.6462 Y19.9182 F350.00
G01 X36.6387 Y19.9001 F350.00
G01 X36.6025 Y19.7983 F350.00
G01 X36.5761 Y19.6937 F350.00
G01 X36.5730 Y19.6793 F350.00
G01 X36.5566 Y19.5676 F350.00
G01 X36.5509 Y19.4500 F350.00
G01 X36.5509 Y17.4500 F350.00
G01 X36.5566 Y17.3324 F350.00
G01 X36.5739 Y17.2159 F350.00
G01 X36.6025 Y17.1017 F350.00
G01 X36.6422 Y16.9908 F350.00
G01 X36.6926 Y16.8843 F350.00
G01 X36.7531 Y16.7833 F350.00
G01 X36.8232 Y16.6887 F350.00
G01 X36.9023 Y16.6015 F350.00
G01 X36.9822 Y16.5288 F350.00
G01 X36.9973 Y16.5163 F350.00
G01 X37.0842 Y16.4522 F350.00
G01 X37.1766 Y16.3965 F350.00
G01 X37.1940 Y16.3873 F350.00
G01 X37.2827 Y16.3453 F350.00
G01 X37.3008 Y16.3378 F350.00
G01 X37.4025 Y16.3017 F350.00
G01 X37.5168 Y16.2731 F350.00
G01 X37.6332 Y16.2558 F350.00
G01 X37.7509 Y16.2500 F350.00
G01 X37.8685 Y16.2558 F350.00
G01 X37.9753 Y16.2714 F350.00
G01 X37.9945 Y16.2752 F350.00
G01 X38.0897 Y16.2991 F350.00
G01 X38.1085 Y16.3048 F350.00
G01 X38.2101 Y16.3413 F350.00
G01 X38.3165 Y16.3917 F350.00
G01 X38.4175 Y16.4522 F350.00
G01 X38.5044 Y16.5163 F350.00
G01 X38.5196 Y16.5288 F350.00
G01 X38.5923 Y16.5947 F350.00
G01 X38.6062 Y16.6086 F350.00
G01 X38.6785 Y16.6887 F350.00
G01 X38.7486 Y16.7833 F350.00
G01 X38.8092 Y16.8843 F350.00
G01 X38.8555 Y16.9818 F350.00
G01 X38.8630 Y16.9999 F350.00
G01 X38.8961 Y17.0923 F350.00
G01 X38.9006 Y17.1064 F350.00
G01 X38.9278 Y17.2159 F350.00
G01 X38.9439 Y17.3226 F350.00
G01 X38.9458 Y17.3422 F350.00
G01 X38.9508 Y17.4451 F350.00
G01 X38.9508 Y19.4549 F350.00
G01 X38.9458 Y19.5578 F350.00
G01 X38.9439 Y19.5774 F350.00
G01 X38.9278 Y19.6841 F350.00
G01 X38.9018 Y19.7889 F350.00
G01 X38.8961 Y19.8077 F350.00
G01 X38.8595 Y19.9092 F350.00
G01 X38.8136 Y20.0069 F350.00
G01 X38.8092 Y20.0157 F350.00
G01 X38.8010 Y20.0298 F350.00
G01 X44.6209 Y25.8497 F350.00
G01 X77.4408 Y25.8497 F350.00
G01 X80.9892 Y22.3014 F350.00
G01 X81.0366 Y22.2587 F350.00
G01 X81.0838 Y22.2234 F350.00
G01 X81.1001 Y22.2125 F350.00
G01 X81.1508 Y22.1824 F350.00
G01 X81.2039 Y22.1570 F350.00
G01 X81.2220 Y22.1495 F350.00
G01 X81.2776 Y22.1299 F350.00
G01 X81.3394 Y22.1142 F350.00
G01 X81.3539 Y22.1115 F350.00
G01 X81.4122 Y22.1031 F350.00
G01 X81.4809 Y22.0997 F350.00
G01 X94.9809 Y22.0997 F350.00
G01 X95.0397 Y22.1024 F350.00
G01 X95.0592 Y22.1043 F350.00
G01 X95.1175 Y22.1132 F350.00
G01 X95.1841 Y22.1299 F350.00
G01 X95.2488 Y22.1531 F350.00
G01 X95.3022 Y22.1780 F350.00
G01 X95.3195 Y22.1873 F350.00
G01 X95.3658 Y22.2151 F350.00
G01 X95.3779 Y22.2234 F350.00
G01 X95.4251 Y22.2587 F350.00
G01 X95.4725 Y22.3014 F350.00
G01 X98.7660 Y25.5948 F350.00
G01 X98.8122 Y25.6458 F350.00
G01 X98.8531 Y25.7010 F350.00
G01 X98.8884 Y25.7599 F350.00
G01 X98.9159 Y25.8175 F350.00
G01 X98.9213 Y25.8312 F350.00
G01 X98.9410 Y25.8867 F350.00
G01 X98.9577 Y25.9534 F350.00
G01 X98.9677 Y26.0214 F350.00
G01 X98.9711 Y26.0851 F350.00
G01 X98.9711 Y29.0768 F350.00
G01 X99.0321 Y29.1224 F350.00
G01 X99.1123 Y29.1947 F350.00
G01 X99.1262 Y29.2086 F350.00
G01 X99.1953 Y29.2850 F350.00
G01 X99.2045 Y29.2965 F350.00
G01 X99.2686 Y29.3833 F350.00
G01 X99.3268 Y29.4800 F350.00
G01 X99.3336 Y29.4931 F350.00
G01 X99.3795 Y29.5908 F350.00
G01 X99.4192 Y29.7017 F350.00
G01 X99.4478 Y29.8159 F350.00
G01 X99.4639 Y29.9226 F350.00
G01 X99.4655 Y29.9373 F350.00
G01 X99.4709 Y30.0500 F350.00
G01 X99.4709 Y31.0500 F350.00
G01 X99.4655 Y31.1627 F350.00
G01 X99.4639 Y31.1774 F350.00
G01 X99.4478 Y31.2841 F350.00
G01 X99.4192 Y31.3983 F350.00
G01 X99.3795 Y31.5092 F350.00
G01 X99.3314 Y31.6113 F350.00
G01 X99.3243 Y31.6242 F350.00
G01 X99.2739 Y31.7084 F350.00
G01 X99.2630 Y31.7247 F350.00
G01 X99.1985 Y31.8113 F350.00
G01 X99.1262 Y31.8914 F350.00
G01 X99.1123 Y31.9053 F350.00
G01 X99.0321 Y31.9776 F350.00
G01 X98.9456 Y32.0421 F350.00
G01 X98.9293 Y32.0530 F350.00
G01 X98.8365 Y32.1083 F350.00
G01 X98.7391 Y32.1547 F350.00
G01 X98.7209 Y32.1622 F350.00
G01 X98.6192 Y32.1983 F350.00
G01 X98.5145 Y32.2248 F350.00
G01 X98.4953 Y32.2286 F350.00
G01 X98.3885 Y32.2442 F350.00
G01 X98.2709 Y32.2500 F350.00
G01 X98.1630 Y32.2449 F350.00
G01 X98.1435 Y32.2430 F350.00
G01 X98.0368 Y32.2269 F350.00
G01 X97.9320 Y32.2009 F350.00
G01 X97.9132 Y32.1952 F350.00
G01 X97.8116 Y32.1587 F350.00
G01 X97.7140 Y32.1127 F350.00
G01 X97.6966 Y32.1035 F350.00
G01 X97.6042 Y32.0478 F350.00
G01 X97.5173 Y31.9837 F350.00
G01 X97.5022 Y31.9712 F350.00
G01 X97.4223 Y31.8985 F350.00
G01 X97.3497 Y31.8187 F350.00
G01 X97.3372 Y31.8035 F350.00
G01 X97.2731 Y31.7167 F350.00
G01 X97.2149 Y31.6200 F350.00
G01 X97.2081 Y31.6069 F350.00
G01 X97.1622 Y31.5092 F350.00
G01 X97.1225 Y31.3983 F350.00
G01 X97.0939 Y31.2841 F350.00
G01 X97.0778 Y31.1774 F350.00
G01 X97.0762 Y31.1627 F350.00
G01 X97.0709 Y31.0500 F350.00
G01 X97.0709 Y30.0500 F350.00
G01 X97.0762 Y29.9373 F350.00
G01 X97.0778 Y29.9226 F350.00
G01 X97.0939 Y29.8159 F350.00
G01 X97.1225 Y29.7017 F350.00
G01 X97.1622 Y29.5908 F350.00
G01 X97.2081 Y29.4931 F350.00
G01 X97.2149 Y29.4800 F350.00
G01 X97.2731 Y29.3833 F350.00
G01 X97.3372 Y29.2965 F350.00
G01 X97.3464 Y29.2850 F350.00
G01 X97.4156 Y29.2086 F350.00
G01 X97.4294 Y29.1947 F350.00
G01 X97.5096 Y29.1224 F350.00
G01 X97.5706 Y29.0768 F350.00
G01 X97.5706 Y26.3801 F350.00
G01 X94.6908 Y23.5003 F350.00
G01 X81.7709 Y23.5003 F350.00
G01 X69.1811 Y36.0901 F350.00
G01 X69.1811 Y41.7599 F350.00
G01 X72.5209 Y45.0997 F350.00
G01 X82.7809 Y45.0997 F350.00
G01 X82.8397 Y45.1024 F350.00
G01 X82.8592 Y45.1043 F350.00
G01 X82.9175 Y45.1132 F350.00
G01 X82.9841 Y45.1299 F350.00
G01 X83.0488 Y45.1531 F350.00
G01 X83.1022 Y45.1780 F350.00
G01 X83.1195 Y45.1873 F350.00
G01 X83.1616 Y45.2125 F350.00
G01 X83.1739 Y45.2205 F350.00
G01 X83.2174 Y45.2527 F350.00
G01 X83.2325 Y45.2651 F350.00
G01 X83.2760 Y45.3048 F350.00
G01 X83.3157 Y45.3483 F350.00
G01 X83.3282 Y45.3635 F350.00
G01 X83.3631 Y45.4110 F350.00
G01 X83.3984 Y45.4699 F350.00
G01 X83.4278 Y45.5320 F350.00
G01 X83.4479 Y45.5874 F350.00
G01 X83.4536 Y45.6062 F350.00
G01 X83.4677 Y45.6634 F350.00
G01 X83.4765 Y45.7216 F350.00
G01 X83.4782 Y45.7363 F350.00
G01 X83.4809 Y45.7902 F350.00
G01 X83.4811 Y51.5000 F350.00
G01 X83.4777 Y51.5686 F350.00
G01 X83.4677 Y51.6366 F350.00
G01 X83.4510 Y51.7033 F350.00
G01 X83.4296 Y51.7634 F350.00
G01 X83.4238 Y51.7769 F350.00
G01 X83.4028 Y51.8213 F350.00
G01 X83.3936 Y51.8386 F350.00
G01 X83.3631 Y51.8890 F350.00
G01 X83.3222 Y51.9442 F350.00
G01 X83.2828 Y51.9880 F350.00
G01 X83.2689 Y52.0019 F350.00
G01 X83.2251 Y52.0413 F350.00
G01 X83.1779 Y52.0766 F350.00
G01 X83.1616 Y52.0875 F350.00
G01 X83.1195 Y52.1127 F350.00
G01 X83.1066 Y52.1198 F350.00
G01 X83.0488 Y52.1469 F350.00
G01 X82.9935 Y52.1670 F350.00
G01 X82.9747 Y52.1727 F350.00
G01 X82.9175 Y52.1868 F350.00
G01 X82.8592 Y52.1957 F350.00
G01 X82.8397 Y52.1976 F350.00
G01 X82.7809 Y52.2003 F350.00
G01 X76.0811 Y52.2003 F350.00
G01 X76.0811 Y55.6000 F350.00
G01 X76.0777 Y55.6686 F350.00
G01 X76.0686 Y55.7318 F350.00
G01 X76.0655 Y55.7462 F350.00
G01 X76.0536 Y55.7938 F350.00
G01 X76.0479 Y55.8126 F350.00
G01 X76.0278 Y55.8680 F350.00
G01 X75.9984 Y55.9301 F350.00
G01 X75.9683 Y55.9807 F350.00
G01 X75.9574 Y55.9971 F350.00
G01 X75.9222 Y56.0442 F350.00
G01 X75.8794 Y56.0916 F350.00
G01 X75.5760 Y56.3952 F350.00
G01 X75.5251 Y56.4413 F350.00
G01 X75.4699 Y56.4822 F350.00
G01 X75.4110 Y56.5176 F350.00
G01 X75.3488 Y56.5469 F350.00
G01 X75.2888 Y56.5686 F350.00
G01 X75.2747 Y56.5727 F350.00
G01 X75.2271 Y56.5846 F350.00
G01 X75.2078 Y56.5885 F350.00
G01 X75.1495 Y56.5969 F350.00
G01 X75.0809 Y56.6003 F350.00
G01 X68.3709 Y56.6003 F350.00
G01 X68.1644 Y56.8068 F350.00
G01 X68.2173 Y56.8547 F350.00
G01 X68.2278 Y56.8650 F350.00
G01 X68.2971 Y56.9413 F350.00
G01 X68.3065 Y56.9526 F350.00
G01 X68.3736 Y57.0433 F350.00
G01 X68.4293 Y57.1358 F350.00
G01 X68.4364 Y57.1487 F350.00
G01 X68.4845 Y57.2508 F350.00
G01 X68.5242 Y57.3617 F350.00
G01 X68.5528 Y57.4759 F350.00
G01 X68.5701 Y57.5924 F350.00
G01 X68.5759 Y57.7100 F350.00
G01 X68.5758 Y60.2149 F350.00
G01 X68.5701 Y60.3276 F350.00
G01 X68.5545 Y60.4344 F350.00
G01 X68.5507 Y60.4537 F350.00
G01 X68.5268 Y60.5489 F350.00
G01 X68.5227 Y60.5630 F350.00
G01 X68.4845 Y60.6692 F350.00
G01 X68.4386 Y60.7669 F350.00
G01 X68.4293 Y60.7842 F350.00
G01 X68.3789 Y60.8684 F350.00
G01 X68.3680 Y60.8847 F350.00
G01 X68.3035 Y60.9713 F350.00
G01 X68.2312 Y61.0514 F350.00
G01 X68.2173 Y61.0653 F350.00
G01 X68.1371 Y61.1376 F350.00
G01 X68.0425 Y61.2078 F350.00
G01 X67.9415 Y61.2683 F350.00
G01 X67.8351 Y61.3187 F350.00
G01 X67.7242 Y61.3583 F350.00
G01 X67.6100 Y61.3869 F350.00
G01 X67.4935 Y61.4042 F350.00
G01 X67.3857 Y61.4098 F350.00
G01 X67.3660 Y61.4098 F350.00
G01 X67.2680 Y61.4049 F350.00
G01 X67.2485 Y61.4030 F350.00
G01 X67.1418 Y61.3869 F350.00
G01 X67.0370 Y61.3609 F350.00
G01 X67.0182 Y61.3552 F350.00
G01 X66.9166 Y61.3187 F350.00
G01 X66.8145 Y61.2706 F350.00
G01 X66.8016 Y61.2635 F350.00
G01 X66.7092 Y61.2078 F350.00
G01 X66.6223 Y61.1437 F350.00
G01 X66.6072 Y61.1312 F350.00
G01 X66.5344 Y61.0653 F350.00
G01 X66.5206 Y61.0514 F350.00
G01 X66.4482 Y60.9713 F350.00
G01 X66.3837 Y60.8847 F350.00
G01 X66.3728 Y60.8684 F350.00
G01 X66.3176 Y60.7757 F350.00
G01 X66.2672 Y60.6692 F350.00
G01 X66.2275 Y60.5583 F350.00
G01 X66.2011 Y60.4537 F350.00
G01 X66.1980 Y60.4393 F350.00
G01 X66.1816 Y60.3276 F350.00
G01 X66.1759 Y60.2100 F350.00
G01 X66.1759 Y57.7100 F350.00
G01 X66.1809 Y57.6022 F350.00
G01 X66.1828 Y57.5826 F350.00
G01 X66.1989 Y57.4759 F350.00
G01 X66.2275 Y57.3617 F350.00
G01 X66.2672 Y57.2508 F350.00
G01 X66.3131 Y57.1531 F350.00
G01 X66.3199 Y57.1400 F350.00
G01 X66.3781 Y57.0433 F350.00
G01 X66.4422 Y56.9565 F350.00
G01 X66.4514 Y56.9450 F350.00
G01 X66.5206 Y56.8686 F350.00
G01 X66.5344 Y56.8547 F350.00
G01 X66.6146 Y56.7824 F350.00
G01 X66.6756 Y56.7368 F350.00
G01 X66.6757 Y56.6001 F350.00
G01 X66.6783 Y56.5462 F350.00
G01 X66.6802 Y56.5266 F350.00
G01 X66.6874 Y56.4781 F350.00
G01 X66.6901 Y56.4636 F350.00
G01 X66.7058 Y56.4017 F350.00
G01 X66.7289 Y56.3370 F350.00
G01 X66.7583 Y56.2749 F350.00
G01 X66.7936 Y56.2160 F350.00
G01 X66.8346 Y56.1608 F350.00
G01 X66.8807 Y56.1098 F350.00
G01 X67.5857 Y55.4048 F350.00
G01 X67.6366 Y55.3587 F350.00
G01 X67.6918 Y55.3178 F350.00
G01 X67.7422 Y55.2873 F350.00
G01 X67.7595 Y55.2780 F350.00
G01 X67.8129 Y55.2531 F350.00
G01 X67.8776 Y55.2299 F350.00
G01 X67.9347 Y55.2154 F350.00
G01 X67.9539 Y55.2115 F350.00
G01 X68.0122 Y55.2031 F350.00
G01 X68.0760 Y55.1998 F350.00
G01 X74.6806 Y55.1997 F350.00
G01 X74.6806 Y51.5000 F350.00
G01 X74.6833 Y51.4412 F350.00
G01 X74.6845 Y51.4265 F350.00
G01 X74.6941 Y51.3634 F350.00
G01 X74.7081 Y51.3062 F350.00
G01 X74.7138 Y51.2874 F350.00
G01 X74.7339 Y51.2320 F350.00
G01 X74.7633 Y51.1699 F350.00
G01 X74.7934 Y51.1193 F350.00
G01 X74.8043 Y51.1029 F350.00
G01 X74.8396 Y51.0558 F350.00
G01 X74.8857 Y51.0048 F350.00
G01 X74.9292 Y50.9651 F350.00
G01 X74.9444 Y50.9527 F350.00
G01 X74.9918 Y50.9178 F350.00
G01 X75.0422 Y50.8873 F350.00
G01 X75.0595 Y50.8780 F350.00
G01 X75.1129 Y50.8531 F350.00
G01 X75.1776 Y50.8299 F350.00
G01 X75.2442 Y50.8132 F350.00
G01 X75.3025 Y50.8043 F350.00
G01 X75.3220 Y50.8024 F350.00
G01 X75.3809 Y50.7997 F350.00
G01 X82.0806 Y50.7997 F350.00
G01 X82.0806 Y46.5003 F350.00
G01 X72.2309 Y46.5003 F350.00
G01 X72.1622 Y46.4969 F350.00
G01 X72.1039 Y46.4885 F350.00
G01 X72.0847 Y46.4846 F350.00
G01 X72.0276 Y46.4701 F350.00
G01 X71.9629 Y46.4469 F350.00
G01 X71.9095 Y46.4220 F350.00
G01 X71.8922 Y46.4127 F350.00
G01 X71.8418 Y46.3822 F350.00
G01 X71.7944 Y46.3473 F350.00
G01 X71.7792 Y46.3349 F350.00
G01 X71.7392 Y46.2986 F350.00
G01 X67.9857 Y42.5452 F350.00
G01 X67.9460 Y42.5017 F350.00
G01 X67.9335 Y42.4865 F350.00
G01 X67.8986 Y42.4390 F350.00
G01 X67.8681 Y42.3886 F350.00
G01 X67.8589 Y42.3713 F350.00
G01 X67.8339 Y42.3180 F350.00
G01 X67.8138 Y42.2626 F350.00
G01 X67.8081 Y42.2438 F350.00
G01 X67.7941 Y42.1866 F350.00
G01 X67.7852 Y42.1284 F350.00
G01 X67.7833 Y42.1088 F350.00
G01 X67.7806 Y42.0500 F350.00
G01 X67.7806 Y35.8000 F350.00
G01 X67.7840 Y35.7314 F350.00
G01 X67.7924 Y35.6731 F350.00
G01 X67.7962 Y35.6538 F350.00
G01 X67.8108 Y35.5967 F350.00
G01 X67.8304 Y35.5412 F350.00
G01 X67.8379 Y35.5231 F350.00
G01 X67.8633 Y35.4699 F350.00
G01 X67.8986 Y35.4110 F350.00
G01 X67.9335 Y35.3635 F350.00
G01 X67.9460 Y35.3483 F350.00
G01 X67.9857 Y35.3048 F350.00
G01 X76.0403 Y27.2503 F350.00
G01 X44.3309 Y27.2503 F350.00
G01 X44.2622 Y27.2469 F350.00
G01 X44.1942 Y27.2368 F350.00
G01 X44.1371 Y27.2227 F350.00
G01 X44.1229 Y27.2186 F350.00
G01 X44.0720 Y27.2005 F350.00
G01 X44.0539 Y27.1930 F350.00
G01 X44.0008 Y27.1676 F350.00
G01 X43.9418 Y27.1322 F350.00
G01 X43.8866 Y27.0913 F350.00
G01 X43.8392 Y27.0486 F350.00
G01 X38.2010 Y21.4104 F350.00
G01 X38.2010 Y21.9000 F350.00
G01 X38.1995 Y21.9343 F350.00
G01 X38.1983 Y21.9490 F350.00
G01 X38.1940 Y21.9781 F350.00
G01 X38.1902 Y21.9974 F350.00
G01 X38.1830 Y22.0259 F350.00
G01 X38.1801 Y22.0353 F350.00
G01 X38.1703 Y22.0631 F350.00
G01 X38.1648 Y22.0768 F350.00
