(G-CODE GENERATED BY FLATCAM v8.994 - www.flatcam.org - Version Date: 2020/11/7)

(Name: BACK_2mm_MILL_HOLES_mill_cnc)
(Type: G-code from Geometry)
(Units: MM)

(Created on Friday, 26 June 2026 at 05:00)

(This preprocessor is used with a motion controller loaded with GRBL firmware.)
(It is configured to be compatible with almost any version of GRBL firmware.)

(TOOL DIAMETER: 2.0 mm)
(Feedrate_XY: 350.0 mm/min)
(Feedrate_Z: 250.0 mm/min)
(Feedrate rapids 1500.0 mm/min)

(Z_Cut: -1.7 mm)
(Z_Move: 2.0 mm)
(Z Start: None mm)
(Z End: 40.0 mm)
(X,Y End: None mm)
(Steps per circle: 64)
(Steps per circle: 64)
(Preprocessor Geometry: grbl_11)

(X range:   26.0709 ...   46.8909  mm)
(Y range:   -0.4600 ...   31.4000  mm)

(Spindle Speed: 0.0 RPM)
G21
G90
G17
G94


G01 F350.00

M5             
G00 Z40.0000
G00 X0.0000 Y0.0000                
T1
M6
(MSG, Change to Tool Dia = 2.0000)
M0
G00 Z40.0000

M03
G01 F350.00
G00 X26.5709 Y-0.2100
G01 F250.00
G01 Z-1.7000
G01 F350.00
G01 X26.5697 Y-0.2345 F350.00
G01 X26.5661 Y-0.2588 F350.00
G01 X26.5601 Y-0.2826 F350.00
G01 X26.5518 Y-0.3057 F350.00
G01 X26.5413 Y-0.3278 F350.00
G01 X26.5287 Y-0.3489 F350.00
G01 X26.5141 Y-0.3686 F350.00
G01 X26.4976 Y-0.3868 F350.00
G01 X26.4795 Y-0.4033 F350.00
G01 X26.4598 Y-0.4179 F350.00
G01 X26.4387 Y-0.4305 F350.00
G01 X26.4165 Y-0.4410 F350.00
G01 X26.3934 Y-0.4492 F350.00
G01 X26.3696 Y-0.4552 F350.00
G01 X26.3454 Y-0.4588 F350.00
G01 X26.3209 Y-0.4600 F350.00
G01 X26.2964 Y-0.4588 F350.00
G01 X26.2721 Y-0.4552 F350.00
G01 X26.2483 Y-0.4492 F350.00
G01 X26.2252 Y-0.4410 F350.00
G01 X26.2030 Y-0.4305 F350.00
G01 X26.1820 Y-0.4179 F350.00
G01 X26.1623 Y-0.4033 F350.00
G01 X26.1441 Y-0.3868 F350.00
G01 X26.1276 Y-0.3686 F350.00
G01 X26.1130 Y-0.3489 F350.00
G01 X26.1004 Y-0.3278 F350.00
G01 X26.0899 Y-0.3057 F350.00
G01 X26.0816 Y-0.2826 F350.00
G01 X26.0757 Y-0.2588 F350.00
G01 X26.0721 Y-0.2345 F350.00
G01 X26.0709 Y-0.2100 F350.00
G01 X26.0721 Y-0.1855 F350.00
G01 X26.0757 Y-0.1612 F350.00
G01 X26.0816 Y-0.1374 F350.00
G01 X26.0899 Y-0.1143 F350.00
G01 X26.1004 Y-0.0922 F350.00
G01 X26.1130 Y-0.0711 F350.00
G01 X26.1276 Y-0.0514 F350.00
G01 X26.1441 Y-0.0332 F350.00
G01 X26.1623 Y-0.0167 F350.00
G01 X26.1820 Y-0.0021 F350.00
G01 X26.2030 Y0.0105 F350.00
G01 X26.2252 Y0.0210 F350.00
G01 X26.2483 Y0.0292 F350.00
G01 X26.2721 Y0.0352 F350.00
G01 X26.2964 Y0.0388 F350.00
G01 X26.3209 Y0.0400 F350.00
G01 X26.3454 Y0.0388 F350.00
G01 X26.3696 Y0.0352 F350.00
G01 X26.3934 Y0.0292 F350.00
G01 X26.4165 Y0.0210 F350.00
G01 X26.4387 Y0.0105 F350.00
G01 X26.4598 Y-0.0021 F350.00
G01 X26.4795 Y-0.0167 F350.00
G01 X26.4976 Y-0.0332 F350.00
G01 X26.5141 Y-0.0514 F350.00
G01 X26.5287 Y-0.0711 F350.00
G01 X26.5413 Y-0.0922 F350.00
G01 X26.5518 Y-0.1143 F350.00
G01 X26.5601 Y-0.1374 F350.00
G01 X26.5661 Y-0.1612 F350.00
G01 X26.5697 Y-0.1855 F350.00
G01 X26.5709 Y-0.2100 F350.00
G00 Z2.0000
G00 X26.5709 Y12.4900
G01 F250.00
G01 Z-1.7000
G01 F350.00
G01 X26.5697 Y12.4655 F350.00
G01 X26.5661 Y12.4412 F350.00
G01 X26.5601 Y12.4174 F350.00
G01 X26.5518 Y12.3943 F350.00
G01 X26.5413 Y12.3722 F350.00
G01 X26.5287 Y12.3511 F350.00
G01 X26.5141 Y12.3314 F350.00
G01 X26.4976 Y12.3132 F350.00
G01 X26.4795 Y12.2967 F350.00
G01 X26.4598 Y12.2821 F350.00
G01 X26.4387 Y12.2695 F350.00
G01 X26.4165 Y12.2590 F350.00
G01 X26.3934 Y12.2508 F350.00
G01 X26.3696 Y12.2448 F350.00
G01 X26.3454 Y12.2412 F350.00
G01 X26.3209 Y12.2400 F350.00
G01 X26.2964 Y12.2412 F350.00
G01 X26.2721 Y12.2448 F350.00
G01 X26.2483 Y12.2508 F350.00
G01 X26.2252 Y12.2590 F350.00
G01 X26.2030 Y12.2695 F350.00
G01 X26.1820 Y12.2821 F350.00
G01 X26.1623 Y12.2967 F350.00
G01 X26.1441 Y12.3132 F350.00
G01 X26.1276 Y12.3314 F350.00
G01 X26.1130 Y12.3511 F350.00
G01 X26.1004 Y12.3722 F350.00
G01 X26.0899 Y12.3943 F350.00
G01 X26.0816 Y12.4174 F350.00
G01 X26.0757 Y12.4412 F350.00
G01 X26.0721 Y12.4655 F350.00
G01 X26.0709 Y12.4900 F350.00
G01 X26.0721 Y12.5145 F350.00
G01 X26.0757 Y12.5388 F350.00
G01 X26.0816 Y12.5626 F350.00
G01 X26.0899 Y12.5857 F350.00
G01 X26.1004 Y12.6078 F350.00
G01 X26.1130 Y12.6289 F350.00
G01 X26.1276 Y12.6486 F350.00
G01 X26.1441 Y12.6668 F350.00
G01 X26.1623 Y12.6833 F350.00
G01 X26.1820 Y12.6979 F350.00
G01 X26.2030 Y12.7105 F350.00
G01 X26.2252 Y12.7210 F350.00
G01 X26.2483 Y12.7292 F350.00
G01 X26.2721 Y12.7352 F350.00
G01 X26.2964 Y12.7388 F350.00
G01 X26.3209 Y12.7400 F350.00
G01 X26.3454 Y12.7388 F350.00
G01 X26.3696 Y12.7352 F350.00
G01 X26.3934 Y12.7292 F350.00
G01 X26.4165 Y12.7210 F350.00
G01 X26.4387 Y12.7105 F350.00
G01 X26.4598 Y12.6979 F350.00
G01 X26.4795 Y12.6833 F350.00
G01 X26.4976 Y12.6668 F350.00
G01 X26.5141 Y12.6486 F350.00
G01 X26.5287 Y12.6289 F350.00
G01 X26.5413 Y12.6078 F350.00
G01 X26.5518 Y12.5857 F350.00
G01 X26.5601 Y12.5626 F350.00
G01 X26.5661 Y12.5388 F350.00
G01 X26.5697 Y12.5145 F350.00
G01 X26.5709 Y12.4900 F350.00
G00 Z2.0000
G00 X26.5709 Y31.1500
G01 F250.00
G01 Z-1.7000
G01 F350.00
G01 X26.5697 Y31.1255 F350.00
G01 X26.5661 Y31.1012 F350.00
G01 X26.5601 Y31.0774 F350.00
G01 X26.5518 Y31.0543 F350.00
G01 X26.5413 Y31.0322 F350.00
G01 X26.5287 Y31.0111 F350.00
G01 X26.5141 Y30.9914 F350.00
G01 X26.4976 Y30.9732 F350.00
G01 X26.4795 Y30.9567 F350.00
G01 X26.4598 Y30.9421 F350.00
G01 X26.4387 Y30.9295 F350.00
G01 X26.4165 Y30.9190 F350.00
G01 X26.3934 Y30.9108 F350.00
G01 X26.3696 Y30.9048 F350.00
G01 X26.3454 Y30.9012 F350.00
G01 X26.3209 Y30.9000 F350.00
G01 X26.2964 Y30.9012 F350.00
G01 X26.2721 Y30.9048 F350.00
G01 X26.2483 Y30.9108 F350.00
G01 X26.2252 Y30.9190 F350.00
G01 X26.2030 Y30.9295 F350.00
G01 X26.1820 Y30.9421 F350.00
G01 X26.1623 Y30.9567 F350.00
G01 X26.1441 Y30.9732 F350.00
G01 X26.1276 Y30.9914 F350.00
G01 X26.1130 Y31.0111 F350.00
G01 X26.1004 Y31.0322 F350.00
G01 X26.0899 Y31.0543 F350.00
G01 X26.0816 Y31.0774 F350.00
G01 X26.0757 Y31.1012 F350.00
G01 X26.0721 Y31.1255 F350.00
G01 X26.0709 Y31.1500 F350.00
G01 X26.0721 Y31.1745 F350.00
G01 X26.0757 Y31.1988 F350.00
G01 X26.0816 Y31.2226 F350.00
G01 X26.0899 Y31.2457 F350.00
G01 X26.1004 Y31.2678 F350.00
G01 X26.1130 Y31.2889 F350.00
G01 X26.1276 Y31.3086 F350.00
G01 X26.1441 Y31.3268 F350.00
G01 X26.1623 Y31.3433 F350.00
G01 X26.1820 Y31.3579 F350.00
G01 X26.2030 Y31.3705 F350.00
G01 X26.2252 Y31.3810 F350.00
G01 X26.2483 Y31.3892 F350.00
G01 X26.2721 Y31.3952 F350.00
G01 X26.2964 Y31.3988 F350.00
G01 X26.3209 Y31.4000 F350.00
G01 X26.3454 Y31.3988 F350.00
G01 X26.3696 Y31.3952 F350.00
G01 X26.3934 Y31.3892 F350.00
G01 X26.4165 Y31.3810 F350.00
G01 X26.4387 Y31.3705 F350.00
G01 X26.4598 Y31.3579 F350.00
G01 X26.4795 Y31.3433 F350.00
G01 X26.4976 Y31.3268 F350.00
G01 X26.5141 Y31.3086 F350.00
G01 X26.5287 Y31.2889 F350.00
G01 X26.5413 Y31.2678 F350.00
G01 X26.5518 Y31.2457 F350.00
G01 X26.5601 Y31.2226 F350.00
G01 X26.5661 Y31.1988 F350.00
G01 X26.5697 Y31.1745 F350.00
G01 X26.5709 Y31.1500 F350.00
G00 Z2.0000
G00 X46.8909 Y31.1500
G01 F250.00
G01 Z-1.7000
G01 F350.00
G01 X46.8897 Y31.1255 F350.00
G01 X46.8861 Y31.1012 F350.00
G01 X46.8801 Y31.0774 F350.00
G01 X46.8718 Y31.0543 F350.00
G01 X46.8613 Y31.0322 F350.00
G01 X46.8487 Y31.0111 F350.00
G01 X46.8341 Y30.9914 F350.00
G01 X46.8176 Y30.9732 F350.00
G01 X46.7995 Y30.9567 F350.00
G01 X46.7798 Y30.9421 F350.00
G01 X46.7587 Y30.9295 F350.00
G01 X46.7365 Y30.9190 F350.00
G01 X46.7134 Y30.9108 F350.00
G01 X46.6896 Y30.9048 F350.00
G01 X46.6654 Y30.9012 F350.00
G01 X46.6409 Y30.9000 F350.00
G01 X46.6164 Y30.9012 F350.00
G01 X46.5921 Y30.9048 F350.00
G01 X46.5683 Y30.9108 F350.00
G01 X46.5452 Y30.9190 F350.00
G01 X46.5230 Y30.9295 F350.00
G01 X46.5020 Y30.9421 F350.00
G01 X46.4823 Y30.9567 F350.00
G01 X46.4641 Y30.9732 F350.00
G01 X46.4476 Y30.9914 F350.00
G01 X46.4330 Y31.0111 F350.00
G01 X46.4204 Y31.0322 F350.00
G01 X46.4099 Y31.0543 F350.00
G01 X46.4016 Y31.0774 F350.00
G01 X46.3957 Y31.1012 F350.00
G01 X46.3921 Y31.1255 F350.00
G01 X46.3909 Y31.1500 F350.00
G01 X46.3921 Y31.1745 F350.00
G01 X46.3957 Y31.1988 F350.00
G01 X46.4016 Y31.2226 F350.00
G01 X46.4099 Y31.2457 F350.00
G01 X46.4204 Y31.2678 F350.00
G01 X46.4330 Y31.2889 F350.00
G01 X46.4476 Y31.3086 F350.00
G01 X46.4641 Y31.3268 F350.00
G01 X46.4823 Y31.3433 F350.00
G01 X46.5020 Y31.3579 F350.00
G01 X46.5230 Y31.3705 F350.00
G01 X46.5452 Y31.3810 F350.00
G01 X46.5683 Y31.3892 F350.00
G01 X46.5921 Y31.3952 F350.00
G01 X46.6164 Y31.3988 F350.00
G01 X46.6409 Y31.4000 F350.00
G01 X46.6654 Y31.3988 F350.00
G01 X46.6896 Y31.3952 F350.00
G01 X46.7134 Y31.3892 F350.00
G01 X46.7365 Y31.3810 F350.00
G01 X46.7587 Y31.3705 F350.00
G01 X46.7798 Y31.3579 F350.00
G01 X46.7995 Y31.3433 F350.00
G01 X46.8176 Y31.3268 F350.00
G01 X46.8341 Y31.3086 F350.00
G01 X46.8487 Y31.2889 F350.00
G01 X46.8613 Y31.2678 F350.00
G01 X46.8718 Y31.2457 F350.00
G01 X46.8801 Y31.2226 F350.00
G01 X46.8861 Y31.1988 F350.00
G01 X46.8897 Y31.1745 F350.00
G01 X46.8909 Y31.1500 F350.00
G00 Z2.0000
G00 X46.8909 Y12.4900
G01 F250.00
G01 Z-1.7000
G01 F350.00
G01 X46.8897 Y12.4655 F350.00
G01 X46.8861 Y12.4412 F350.00
G01 X46.8801 Y12.4174 F350.00
G01 X46.8718 Y12.3943 F350.00
G01 X46.8613 Y12.3722 F350.00
G01 X46.8487 Y12.3511 F350.00
G01 X46.8341 Y12.3314 F350.00
G01 X46.8176 Y12.3132 F350.00
G01 X46.7995 Y12.2967 F350.00
G01 X46.7798 Y12.2821 F350.00
G01 X46.7587 Y12.2695 F350.00
G01 X46.7365 Y12.2590 F350.00
G01 X46.7134 Y12.2508 F350.00
G01 X46.6896 Y12.2448 F350.00
G01 X46.6654 Y12.2412 F350.00
G01 X46.6409 Y12.2400 F350.00
G01 X46.6164 Y12.2412 F350.00
G01 X46.5921 Y12.2448 F350.00
G01 X46.5683 Y12.2508 F350.00
G01 X46.5452 Y12.2590 F350.00
G01 X46.5230 Y12.2695 F350.00
G01 X46.5020 Y12.2821 F350.00
G01 X46.4823 Y12.2967 F350.00
G01 X46.4641 Y12.3132 F350.00
G01 X46.4476 Y12.3314 F350.00
G01 X46.4330 Y12.3511 F350.00
G01 X46.4204 Y12.3722 F350.00
G01 X46.4099 Y12.3943 F350.00
G01 X46.4016 Y12.4174 F350.00
G01 X46.3957 Y12.4412 F350.00
G01 X46.3921 Y12.4655 F350.00
G01 X46.3909 Y12.4900 F350.00
G01 X46.3921 Y12.5145 F350.00
G01 X46.3957 Y12.5388 F350.00
G01 X46.4016 Y12.5626 F350.00
G01 X46.4099 Y12.5857 F350.00
G01 X46.4204 Y12.6078 F350.00
G01 X46.4330 Y12.6289 F350.00
G01 X46.4476 Y12.6486 F350.00
G01 X46.4641 Y12.6668 F350.00
G01 X46.4823 Y12.6833 F350.00
G01 X46.5020 Y12.6979 F350.00
G01 X46.5230 Y12.7105 F350.00
G01 X46.5452 Y12.7210 F350.00
G01 X46.5683 Y12.7292 F350.00
G01 X46.5921 Y12.7352 F350.00
G01 X46.6164 Y12.7388 F350.00
G01 X46.6409 Y12.7400 F350.00
G01 X46.6654 Y12.7388 F350.00
G01 X46.6896 Y12.7352 F350.00
G01 X46.7134 Y12.7292 F350.00
G01 X46.7365 Y12.7210 F350.00
G01 X46.7587 Y12.7105 F350.00
G01 X46.7798 Y12.6979 F350.00
G01 X46.7995 Y12.6833 F350.00
G01 X46.8176 Y12.6668 F350.00
G01 X46.8341 Y12.6486 F350.00
G01 X46.8487 Y12.6289 F350.00
G01 X46.8613 Y12.6078 F350.00
G01 X46.8718 Y12.5857 F350.00
G01 X46.8801 Y12.5626 F350.00
G01 X46.8861 Y12.5388 F350.00
G01 X46.8897 Y12.5145 F350.00
G01 X46.8909 Y12.4900 F350.00
G00 Z2.0000
G00 X46.8909 Y-0.2100
G01 F250.00
G01 Z-1.7000
G01 F350.00
G01 X46.8897 Y-0.2345 F350.00
G01 X46.8861 Y-0.2588 F350.00
G01 X46.8801 Y-0.2826 F350.00
G01 X46.8718 Y-0.3057 F350.00
G01 X46.8613 Y-0.3278 F350.00
G01 X46.8487 Y-0.3489 F350.00
G01 X46.8341 Y-0.3686 F350.00
G01 X46.8176 Y-0.3868 F350.00
G01 X46.7995 Y-0.4033 F350.00
G01 X46.7798 Y-0.4179 F350.00
G01 X46.7587 Y-0.4305 F350.00
G01 X46.7365 Y-0.4410 F350.00
G01 X46.7134 Y-0.4492 F350.00
G01 X46.6896 Y-0.4552 F350.00
G01 X46.6654 Y-0.4588 F350.00
G01 X46.6409 Y-0.4600 F350.00
G01 X46.6164 Y-0.4588 F350.00
G01 X46.5921 Y-0.4552 F350.00
G01 X46.5683 Y-0.4492 F350.00
G01 X46.5452 Y-0.4410 F350.00
G01 X46.5230 Y-0.4305 F350.00
G01 X46.5020 Y-0.4179 F350.00
G01 X46.4823 Y-0.4033 F350.00
G01 X46.4641 Y-0.3868 F350.00
G01 X46.4476 Y-0.3686 F350.00
G01 X46.4330 Y-0.3489 F350.00
G01 X46.4204 Y-0.3278 F350.00
G01 X46.4099 Y-0.3057 F350.00
G01 X46.4016 Y-0.2826 F350.00
G01 X46.3957 Y-0.2588 F350.00
G01 X46.3921 Y-0.2345 F350.00
G01 X46.3909 Y-0.2100 F350.00
G01 X46.3921 Y-0.1855 F350.00
G01 X46.3957 Y-0.1612 F350.00
G01 X46.4016 Y-0.1374 F350.00
G01 X46.4099 Y-0.1143 F350.00
G01 X46.4204 Y-0.0922 F350.00
G01 X46.4330 Y-0.0711 F350.00
G01 X46.4476 Y-0.0514 F350.00
G01 X46.4641 Y-0.0332 F350.00
G01 X46.4823 Y-0.0167 F350.00
G01 X46.5020 Y-0.0021 F350.00
G01 X46.5230 Y0.0105 F350.00
G01 X46.5452 Y0.0210 F350.00
G01 X46.5683 Y0.0292 F350.00
G01 X46.5921 Y0.0352 F350.00
G01 X46.6164 Y0.0388 F350.00
G01 X46.6409 Y0.0400 F350.00
G01 X46.6654 Y0.0388 F350.00
G01 X46.6896 Y0.0352 F350.00
G01 X46.7134 Y0.0292 F350.00
G01 X46.7365 Y0.0210 F350.00
G01 X46.7587 Y0.0105 F350.00
G01 X46.7798 Y-0.0021 F350.00
G01 X46.7995 Y-0.0167 F350.00
G01 X46.8176 Y-0.0332 F350.00
G01 X46.8341 Y-0.0514 F350.00
G01 X46.8487 Y-0.0711 F350.00
G01 X46.8613 Y-0.0922 F350.00
G01 X46.8718 Y-0.1143 F350.00
G01 X46.8801 Y-0.1374 F350.00
G01 X46.8861 Y-0.1612 F350.00
G01 X46.8897 Y-0.1855 F350.00
G01 X46.8909 Y-0.2100 F350.00
G00 Z2.0000
M05
G00 Z2.0000
G00 Z40.00


