(G-CODE GENERATED BY FLATCAM v8.994 - www.flatcam.org - Version Date: 2020/11/7)

(Name: Buzzer PCB-B_Cu.gbr_ncc_cnc)
(Type: G-code from Geometry)
(Units: MM)

(Created on Friday, 26 June 2026 at 06:10)

(This preprocessor is used with a motion controller loaded with GRBL firmware.)
(It is configured to be compatible with almost any version of GRBL firmware.)

(TOOL DIAMETER: 1.0 mm)
(Feedrate_XY: 350.0 mm/min)
(Feedrate_Z: 250.0 mm/min)
(Feedrate rapids 1500.0 mm/min)

(Z_Cut: -0.05 mm)
(Z_Move: 0.5 mm)
(Z Start: None mm)
(Z End: 40.0 mm)
(X,Y End: None mm)
(Steps per circle: 64)
(Steps per circle: 64)
(Preprocessor Geometry: grbl_11)

(X range:   -2.5593 ...  129.6309  mm)
(Y range:   -3.7100 ...   70.9503  mm)

(Spindle Speed: 0.0 RPM)
G21
G90
G17
G94


G01 F350.00

M5             
G00 Z40.0000
G00 X0.0000 Y0.0000                
T1
M6
(MSG, Change to Tool Dia = 1.0000)
M0
G00 Z40.0000

M03
G01 F350.00
G00 X5.1862 Y9.3503
G01 F250.00
G01 Z-0.0500
G01 F350.00
G01 X28.1806 Y9.3503 F350.00
G01 X28.1806 Y10.0503 F350.00
G01 X3.8133 Y10.0503 F350.00
G01 X2.4404 Y10.7503 F350.00
G01 X28.1806 Y10.7503 F350.00
G01 X28.1806 Y11.4503 F350.00
G01 X1.0676 Y11.4503 F350.00
G01 X1.8609 Y12.1503 F350.00
G01 X0.2556 Y12.1503 F350.00
G01 X0.8284 Y12.8503 F350.00
G01 X-0.4444 Y12.8503 F350.00
G01 X0.1284 Y13.5503 F350.00
G01 X-1.1444 Y13.5503 F350.00
G01 X-0.5716 Y14.2503 F350.00
G01 X-1.8444 Y14.2503 F350.00
G01 X-2.3949 Y14.9503 F350.00
G01 X-1.2716 Y14.9503 F350.00
G00 Z0.5000
G00 X-1.6580 Y15.6503
G01 F250.00
G01 Z-0.0500
G01 F350.00
G01 X-2.5591 Y15.6503 F350.00
G01 X-2.5593 Y16.3503 F350.00
G01 X-1.6593 Y16.3503 F350.00
G01 X-1.6593 Y17.0503 F350.00
G01 X-2.5593 Y17.0503 F350.00
G01 X-2.5593 Y17.7503 F350.00
G01 X-1.6593 Y17.7503 F350.00
G01 X-1.6593 Y18.4503 F350.00
G01 X-2.5593 Y18.4503 F350.00
G01 X-2.5593 Y19.1503 F350.00
G01 X-1.6593 Y19.1503 F350.00
G01 X-1.6593 Y19.8503 F350.00
G01 X-2.5593 Y19.8503 F350.00
G01 X-2.5593 Y20.5503 F350.00
G01 X-1.6593 Y20.5503 F350.00
G01 X-1.6593 Y21.2503 F350.00
G01 X-2.5593 Y21.2503 F350.00
G01 X-2.5593 Y21.9503 F350.00
G01 X-1.6593 Y21.9503 F350.00
G01 X-1.6593 Y22.6503 F350.00
G01 X-2.5593 Y22.6503 F350.00
G01 X-2.5593 Y23.3503 F350.00
G01 X-1.6593 Y23.3503 F350.00
G01 X-1.6593 Y24.0503 F350.00
G01 X-2.5593 Y24.0503 F350.00
G01 X-2.5593 Y24.7503 F350.00
G01 X-1.6593 Y24.7503 F350.00
G01 X-1.6593 Y25.4503 F350.00
G01 X-2.5593 Y25.4503 F350.00
G01 X-2.5593 Y26.1503 F350.00
G01 X-1.6593 Y26.1503 F350.00
G01 X-1.6593 Y26.8503 F350.00
G01 X-2.5593 Y26.8503 F350.00
G01 X-2.5593 Y27.5503 F350.00
G01 X-1.6593 Y27.5503 F350.00
G01 X-1.6593 Y28.2503 F350.00
G01 X-2.5593 Y28.2503 F350.00
G01 X-2.5593 Y28.9503 F350.00
G01 X-1.6593 Y28.9503 F350.00
G01 X-1.6593 Y29.6503 F350.00
G01 X-2.5593 Y29.6503 F350.00
G01 X-2.5593 Y30.3503 F350.00
G01 X-1.6593 Y30.3503 F350.00
G01 X-1.6593 Y31.0503 F350.00
G01 X-2.5593 Y31.0503 F350.00
G01 X-2.5593 Y31.7503 F350.00
G01 X-1.6593 Y31.7503 F350.00
G01 X-1.6593 Y32.4503 F350.00
G01 X-2.5593 Y32.4503 F350.00
G01 X-2.5593 Y33.1503 F350.00
G01 X-1.6593 Y33.1503 F350.00
G01 X-1.6593 Y33.8503 F350.00
G01 X-2.5593 Y33.8503 F350.00
G01 X-2.5593 Y34.5503 F350.00
G01 X-1.6593 Y34.5503 F350.00
G01 X-1.6593 Y35.2503 F350.00
G01 X-2.5593 Y35.2503 F350.00
G01 X-2.5593 Y35.9503 F350.00
G01 X-1.6593 Y35.9503 F350.00
G01 X-1.6593 Y36.6503 F350.00
G01 X-2.5593 Y36.6503 F350.00
G01 X-2.5593 Y37.3503 F350.00
G01 X-1.6593 Y37.3503 F350.00
G01 X-1.6593 Y38.0503 F350.00
G01 X-2.5593 Y38.0503 F350.00
G01 X-2.5593 Y38.7503 F350.00
G01 X-1.6593 Y38.7503 F350.00
G01 X-1.6593 Y39.4503 F350.00
G01 X-2.5593 Y39.4503 F350.00
G01 X-2.5593 Y40.1503 F350.00
G01 X-1.6593 Y40.1503 F350.00
G01 X-1.6593 Y40.8503 F350.00
G01 X-2.5593 Y40.8503 F350.00
G01 X-2.5593 Y41.5503 F350.00
G01 X-1.6593 Y41.5503 F350.00
G01 X-1.6593 Y42.2503 F350.00
G01 X-2.5593 Y42.2503 F350.00
G01 X-2.5593 Y42.9503 F350.00
G01 X-1.6593 Y42.9503 F350.00
G00 Z0.5000
G00 X-1.4570 Y43.6503
G01 F250.00
G01 Z-0.0500
G01 F350.00
G01 X-2.4707 Y43.6503 F350.00
G01 X-2.1844 Y44.3503 F350.00
G01 X33.9049 Y44.3503 F350.00
G01 X33.9049 Y43.6503 F350.00
G01 X17.2537 Y43.6503 F350.00
G00 Z0.5000
G00 X17.4560 Y42.9503
G01 F250.00
G01 Z-0.0500
G01 F350.00
G01 X33.9049 Y42.9503 F350.00
G01 X33.9049 Y42.2503 F350.00
G01 X17.4560 Y42.2503 F350.00
G01 X17.4560 Y41.5503 F350.00
G01 X26.0931 Y41.5503 F350.00
G00 Z0.5000
G00 X25.0829 Y40.8503
G01 F250.00
G01 Z-0.0500
G01 F350.00
G01 X17.4560 Y40.8503 F350.00
G01 X17.4560 Y40.1503 F350.00
G01 X24.7186 Y40.1503 F350.00
G00 Z0.5000
G00 X24.6350 Y39.4503
G01 F250.00
G01 Z-0.0500
G01 F350.00
G01 X17.4560 Y39.4503 F350.00
G01 X17.4560 Y38.7503 F350.00
G01 X24.7892 Y38.7503 F350.00
G00 Z0.5000
G00 X25.2614 Y38.0503
G01 F250.00
G01 Z-0.0500
G01 F350.00
G01 X17.4560 Y38.0503 F350.00
G01 X17.4560 Y37.3503 F350.00
G01 X25.5751 Y37.3503 F350.00
G01 X24.8751 Y36.6503 F350.00
G01 X20.4739 Y36.6503 F350.00
G00 Z0.5000
G00 X21.2375 Y35.9503
G01 F250.00
G01 Z-0.0500
G01 F350.00
G01 X24.1751 Y35.9503 F350.00
G01 X23.4751 Y35.2503 F350.00
G01 X21.5311 Y35.2503 F350.00
G00 Z0.5000
G00 X21.5650 Y34.5503
G01 F250.00
G01 Z-0.0500
G01 F350.00
G01 X22.7751 Y34.5503 F350.00
G00 Z0.5000
G00 X22.3915 Y33.8503
G01 F250.00
G01 Z-0.0500
G01 F350.00
G01 X21.3527 Y33.8503 F350.00
G00 Z0.5000
G00 X20.7787 Y33.1503
G01 F250.00
G01 Z-0.0500
G01 F350.00
G01 X22.3806 Y33.1503 F350.00
G01 X22.3806 Y32.4503 F350.00
G01 X17.4560 Y32.4503 F350.00
G01 X17.4560 Y31.7503 F350.00
G01 X22.3751 Y31.7503 F350.00
G01 X21.6751 Y31.0503 F350.00
G01 X17.4560 Y31.0503 F350.00
G01 X17.4560 Y30.3503 F350.00
G01 X20.9751 Y30.3503 F350.00
G01 X20.2751 Y29.6503 F350.00
G01 X17.4560 Y29.6503 F350.00
G01 X17.4560 Y28.9503 F350.00
G01 X19.5751 Y28.9503 F350.00
G00 Z0.5000
G00 X18.1951 Y28.2503
G01 F250.00
G01 Z-0.0500
G01 F350.00
G01 X17.4560 Y28.2503 F350.00
G01 X17.4560 Y27.5503 F350.00
G01 X17.9017 Y27.5503 F350.00
G01 X17.4751 Y26.8503 F350.00
G01 X17.3687 Y26.8503 F350.00
G00 Z0.5000
G00 X16.7751 Y26.1503
G01 F250.00
G01 Z-0.0500
G01 F350.00
G01 X16.7334 Y26.1503 F350.00
G01 X16.0751 Y25.4503 F350.00
G01 X16.0334 Y25.4503 F350.00
G00 Z0.5000
G00 X15.6175 Y24.7503
G01 F250.00
G01 Z-0.0500
G01 F350.00
G01 X15.3334 Y24.7503 F350.00
G01 X15.5906 Y24.0503 F350.00
G01 X14.6334 Y24.0503 F350.00
G01 X13.9334 Y23.3503 F350.00
G01 X15.5906 Y23.3503 F350.00
G01 X15.5906 Y22.6503 F350.00
G01 X13.2334 Y22.6503 F350.00
G01 X12.5334 Y21.9503 F350.00
G01 X15.5906 Y21.9503 F350.00
G01 X15.5906 Y21.2503 F350.00
G01 X15.2923 Y21.2503 F350.00
G00 Z0.5000
G00 X17.7911 Y21.2503
G01 F250.00
G01 Z-0.0500
G01 F350.00
G01 X18.3868 Y21.2503 F350.00
G00 Z0.5000
G00 X18.8289 Y21.9503
G01 F250.00
G01 Z-0.0500
G01 F350.00
G01 X17.7911 Y21.9503 F350.00
G01 X17.7911 Y22.6503 F350.00
G01 X19.5289 Y22.6503 F350.00
G01 X20.2289 Y23.3503 F350.00
G01 X17.7911 Y23.3503 F350.00
G01 X17.7911 Y24.0503 F350.00
G01 X20.9289 Y24.0503 F350.00
G01 X21.6289 Y24.7503 F350.00
G01 X19.8739 Y24.7503 F350.00
G00 Z0.5000
G00 X19.0879 Y24.7503
G01 F250.00
G01 Z-0.0500
G01 F350.00
G01 X18.4871 Y24.7503 F350.00
G00 Z0.5000
G00 X20.8355 Y25.4503
G01 F250.00
G01 Z-0.0500
G01 F350.00
G01 X22.3289 Y25.4503 F350.00
G01 X23.0289 Y26.1503 F350.00
G01 X21.0737 Y26.1503 F350.00
G00 Z0.5000
G00 X21.0809 Y26.8503
G01 F250.00
G01 Z-0.0500
G01 F350.00
G01 X23.7289 Y26.8503 F350.00
G01 X24.4289 Y27.5503 F350.00
G01 X21.2871 Y27.5503 F350.00
G01 X21.9871 Y28.2503 F350.00
G01 X25.1289 Y28.2503 F350.00
G01 X25.8289 Y28.9503 F350.00
G01 X22.6871 Y28.9503 F350.00
G01 X23.3871 Y29.6503 F350.00
G01 X26.5289 Y29.6503 F350.00
G01 X27.2289 Y30.3503 F350.00
G01 X24.0871 Y30.3503 F350.00
G00 Z0.5000
G00 X24.5519 Y31.0503
G01 F250.00
G01 Z-0.0500
G01 F350.00
G01 X27.9289 Y31.0503 F350.00
G01 X28.6289 Y31.7503 F350.00
G01 X24.5811 Y31.7503 F350.00
G01 X24.5811 Y32.4503 F350.00
G01 X29.3289 Y32.4503 F350.00
G01 X30.0289 Y33.1503 F350.00
G01 X24.5811 Y33.1503 F350.00
G01 X25.1871 Y33.8503 F350.00
G01 X30.7289 Y33.8503 F350.00
G01 X31.4289 Y34.5503 F350.00
G01 X25.8871 Y34.5503 F350.00
G01 X26.5871 Y35.2503 F350.00
G01 X32.1289 Y35.2503 F350.00
G01 X32.8289 Y35.9503 F350.00
G01 X27.2871 Y35.9503 F350.00
G00 Z0.5000
G00 X27.7893 Y36.6503
G01 F250.00
G01 Z-0.0500
G01 F350.00
G01 X33.5289 Y36.6503 F350.00
G01 X33.9049 Y37.3503 F350.00
G01 X27.8311 Y37.3503 F350.00
G01 X28.2004 Y38.0503 F350.00
G01 X33.9049 Y38.0503 F350.00
G01 X33.9049 Y38.7503 F350.00
G01 X28.6725 Y38.7503 F350.00
G00 Z0.5000
G00 X28.8267 Y39.4503
G01 F250.00
G01 Z-0.0500
G01 F350.00
G01 X33.9049 Y39.4503 F350.00
G01 X33.9049 Y40.1503 F350.00
G01 X28.7431 Y40.1503 F350.00
G00 Z0.5000
G00 X28.3788 Y40.8503
G01 F250.00
G01 Z-0.0500
G01 F350.00
G01 X33.9049 Y40.8503 F350.00
G01 X33.9049 Y41.5503 F350.00
G01 X27.3687 Y41.5503 F350.00
G00 Z0.5000
G00 X28.2004 Y45.0503
G01 F250.00
G01 Z-0.0500
G01 F350.00
G01 X33.9049 Y45.0503 F350.00
G01 X33.9049 Y45.7503 F350.00
G01 X28.6725 Y45.7503 F350.00
G00 Z0.5000
G00 X28.8267 Y46.4503
G01 F250.00
G01 Z-0.0500
G01 F350.00
G01 X33.9049 Y46.4503 F350.00
G01 X33.9049 Y47.1503 F350.00
G01 X28.7431 Y47.1503 F350.00
G00 Z0.5000
G00 X28.3788 Y47.8503
G01 F250.00
G01 Z-0.0500
G01 F350.00
G01 X33.9049 Y47.8503 F350.00
G01 X33.9049 Y48.5503 F350.00
G01 X27.3687 Y48.5503 F350.00
G00 Z0.5000
G00 X26.0931 Y48.5503
G01 F250.00
G01 Z-0.0500
G01 F350.00
G01 X20.0892 Y48.5503 F350.00
G00 Z0.5000
G00 X20.4768 Y49.2503
G01 F250.00
G01 Z-0.0500
G01 F350.00
G01 X23.3284 Y49.2503 F350.00
G01 X22.6284 Y49.9503 F350.00
G01 X20.5791 Y49.9503 F350.00
G00 Z0.5000
G00 X20.4409 Y50.6503
G01 F250.00
G01 Z-0.0500
G01 F350.00
G01 X21.9284 Y50.6503 F350.00
G01 X21.2284 Y51.3503 F350.00
G01 X19.9982 Y51.3503 F350.00
G01 X19.5811 Y52.0503 F350.00
G01 X20.5435 Y52.0503 F350.00
G00 Z0.5000
G00 X20.3807 Y52.7503
G01 F250.00
G01 Z-0.0500
G01 F350.00
G01 X19.5811 Y52.7503 F350.00
G01 X19.5811 Y53.4503 F350.00
G01 X20.3807 Y53.4503 F350.00
G01 X20.3807 Y54.1503 F350.00
G01 X19.5811 Y54.1503 F350.00
G01 X19.5811 Y54.8503 F350.00
G01 X20.3807 Y54.8503 F350.00
G01 X20.3807 Y55.5503 F350.00
G01 X19.5811 Y55.5503 F350.00
G01 X19.5811 Y56.2503 F350.00
G01 X20.3807 Y56.2503 F350.00
G01 X20.3807 Y56.9503 F350.00
G01 X19.5811 Y56.9503 F350.00
G01 X19.5811 Y57.6503 F350.00
G01 X20.3807 Y57.6503 F350.00
G01 X20.3807 Y58.3503 F350.00
G01 X19.5811 Y58.3503 F350.00
G01 X19.5811 Y59.0503 F350.00
G01 X20.3807 Y59.0503 F350.00
G01 X20.3807 Y59.7503 F350.00
G01 X19.5811 Y59.7503 F350.00
G01 X19.5811 Y60.4503 F350.00
G01 X20.3807 Y60.4503 F350.00
G01 X20.3807 Y61.1503 F350.00
G01 X19.5811 Y61.1503 F350.00
G01 X19.5811 Y61.8503 F350.00
G01 X20.3807 Y61.8503 F350.00
G01 X20.3807 Y62.5503 F350.00
G01 X19.5811 Y62.5503 F350.00
G01 X19.5811 Y63.2503 F350.00
G01 X20.5100 Y63.2503 F350.00
G00 Z0.5000
G00 X21.1789 Y63.9503
G01 F250.00
G01 Z-0.0500
G01 F350.00
G01 X19.5811 Y63.9503 F350.00
G01 X19.5811 Y64.6503 F350.00
G01 X21.8789 Y64.6503 F350.00
G01 X22.5789 Y65.3503 F350.00
G01 X19.5811 Y65.3503 F350.00
G01 X19.5811 Y66.0503 F350.00
G01 X23.2789 Y66.0503 F350.00
G01 X23.9789 Y66.7503 F350.00
G01 X19.5811 Y66.7503 F350.00
G01 X19.5811 Y67.4503 F350.00
G01 X24.6789 Y67.4503 F350.00
G00 Z0.5000
G00 X25.6834 Y66.0503
G01 F250.00
G01 Z-0.0500
G01 F350.00
G01 X26.0289 Y66.0503 F350.00
G01 X26.3834 Y66.7503 F350.00
G01 X26.7289 Y66.7503 F350.00
G00 Z0.5000
G00 X27.7334 Y65.3503
G01 F250.00
G01 Z-0.0500
G01 F350.00
G01 X35.0507 Y65.3503 F350.00
G01 X35.0507 Y64.6503 F350.00
G01 X27.0334 Y64.6503 F350.00
G01 X26.3334 Y63.9503 F350.00
G01 X35.0507 Y63.9503 F350.00
G01 X35.0507 Y63.2503 F350.00
G01 X25.6334 Y63.2503 F350.00
G01 X24.9334 Y62.5503 F350.00
G01 X35.0507 Y62.5503 F350.00
G01 X35.0507 Y61.8503 F350.00
G01 X24.2334 Y61.8503 F350.00
G01 X24.0803 Y61.1503 F350.00
G01 X23.5334 Y61.1503 F350.00
G01 X23.6929 Y60.4503 F350.00
G01 X23.3310 Y60.4503 F350.00
G01 X23.3310 Y59.7503 F350.00
G01 X23.6694 Y59.7503 F350.00
G00 Z0.5000
G00 X23.9920 Y59.0503
G01 F250.00
G01 Z-0.0500
G01 F350.00
G01 X23.3310 Y59.0503 F350.00
G01 X23.3310 Y58.3503 F350.00
G01 X24.3805 Y58.3503 F350.00
G01 X24.3805 Y57.6503 F350.00
G01 X23.3310 Y57.6503 F350.00
G01 X23.3310 Y56.9503 F350.00
G01 X23.7798 Y56.9503 F350.00
G00 Z0.5000
G00 X23.6426 Y56.2503
G01 F250.00
G01 Z-0.0500
G01 F350.00
G01 X23.3310 Y56.2503 F350.00
G01 X23.3310 Y55.5503 F350.00
G01 X23.8275 Y55.5503 F350.00
G01 X23.3310 Y54.8503 F350.00
G01 X24.3805 Y54.8503 F350.00
G01 X24.3805 Y54.1503 F350.00
G01 X23.3310 Y54.1503 F350.00
G01 X23.3310 Y53.4503 F350.00
G01 X23.9084 Y53.4503 F350.00
G00 Z0.5000
G00 X27.0812 Y54.1503
G01 F250.00
G01 Z-0.0500
G01 F350.00
G01 X38.6784 Y54.1503 F350.00
G01 X39.3784 Y53.4503 F350.00
G01 X37.7134 Y53.4503 F350.00
G00 Z0.5000
G00 X37.9774 Y52.7503
G01 F250.00
G01 Z-0.0500
G01 F350.00
G01 X40.0784 Y52.7503 F350.00
G01 X40.7784 Y52.0503 F350.00
G01 X37.9101 Y52.0503 F350.00
G00 Z0.5000
G00 X37.4479 Y51.3503
G01 F250.00
G01 Z-0.0500
G01 F350.00
G01 X41.4784 Y51.3503 F350.00
G01 X42.1784 Y50.6503 F350.00
G01 X37.3329 Y50.6503 F350.00
G01 X38.0329 Y49.9503 F350.00
G01 X42.8784 Y49.9503 F350.00
G01 X43.5784 Y49.2503 F350.00
G01 X38.7329 Y49.2503 F350.00
G01 X39.4329 Y48.5503 F350.00
G01 X43.7557 Y48.5503 F350.00
G01 X43.7557 Y47.8503 F350.00
G01 X40.1329 Y47.8503 F350.00
G00 Z0.5000
G00 X40.8328 Y47.1503
G01 F250.00
G01 Z-0.0500
G01 F350.00
G01 X43.7557 Y47.1503 F350.00
G01 X43.7557 Y46.4503 F350.00
G01 X41.0810 Y46.4503 F350.00
G01 X41.0810 Y45.7503 F350.00
G01 X43.7557 Y45.7503 F350.00
G01 X43.7557 Y45.0503 F350.00
G01 X41.0810 Y45.0503 F350.00
G01 X41.0810 Y44.3503 F350.00
G01 X43.7557 Y44.3503 F350.00
G01 X43.7557 Y43.6503 F350.00
G01 X41.0810 Y43.6503 F350.00
G01 X41.0810 Y42.9503 F350.00
G01 X43.7557 Y42.9503 F350.00
G01 X43.7557 Y42.2503 F350.00
G01 X41.0810 Y42.2503 F350.00
G01 X41.0810 Y41.5503 F350.00
G01 X43.7557 Y41.5503 F350.00
G01 X43.7557 Y40.8503 F350.00
G01 X41.0810 Y40.8503 F350.00
G01 X41.0810 Y40.1503 F350.00
G01 X43.5431 Y40.1503 F350.00
G01 X42.8431 Y39.4503 F350.00
G01 X41.0810 Y39.4503 F350.00
G01 X41.0810 Y38.7503 F350.00
G01 X42.1431 Y38.7503 F350.00
G01 X41.4431 Y38.0503 F350.00
G01 X40.9520 Y38.0503 F350.00
G01 X40.7431 Y37.3503 F350.00
G01 X40.2834 Y37.3503 F350.00
G01 X40.0431 Y36.6503 F350.00
G01 X39.5834 Y36.6503 F350.00
G01 X39.3431 Y35.9503 F350.00
G01 X38.8834 Y35.9503 F350.00
G01 X38.6431 Y35.2503 F350.00
G01 X38.1834 Y35.2503 F350.00
G01 X37.9431 Y34.5503 F350.00
G01 X37.4834 Y34.5503 F350.00
G01 X37.2431 Y33.8503 F350.00
G01 X36.7834 Y33.8503 F350.00
G01 X36.5431 Y33.1503 F350.00
G01 X36.0834 Y33.1503 F350.00
G01 X35.8431 Y32.4503 F350.00
G01 X35.3834 Y32.4503 F350.00
G01 X35.1431 Y31.7503 F350.00
G01 X34.6834 Y31.7503 F350.00
G01 X34.4431 Y31.0503 F350.00
G01 X33.9834 Y31.0503 F350.00
G01 X33.7431 Y30.3503 F350.00
G01 X33.2834 Y30.3503 F350.00
G01 X33.0431 Y29.6503 F350.00
G01 X32.5834 Y29.6503 F350.00
G01 X32.3431 Y28.9503 F350.00
G01 X31.8834 Y28.9503 F350.00
G01 X31.6431 Y28.2503 F350.00
G01 X31.1834 Y28.2503 F350.00
G01 X30.9431 Y27.5503 F350.00
G01 X30.4834 Y27.5503 F350.00
G01 X30.2431 Y26.8503 F350.00
G01 X29.7834 Y26.8503 F350.00
G01 X29.5431 Y26.1503 F350.00
G01 X29.0834 Y26.1503 F350.00
G01 X28.8431 Y25.4503 F350.00
G01 X28.3834 Y25.4503 F350.00
G01 X28.1431 Y24.7503 F350.00
G01 X27.6834 Y24.7503 F350.00
G01 X27.4431 Y24.0503 F350.00
G01 X26.9834 Y24.0503 F350.00
G01 X26.7431 Y23.3503 F350.00
G01 X26.2834 Y23.3503 F350.00
G01 X26.0431 Y22.6503 F350.00
G01 X25.5834 Y22.6503 F350.00
G01 X25.3431 Y21.9503 F350.00
G01 X24.8834 Y21.9503 F350.00
G01 X24.7132 Y21.2503 F350.00
G01 X24.6310 Y21.2503 F350.00
G01 X24.6310 Y20.9021 F350.00
G01 X24.6310 Y21.6979 F350.00
G01 X40.8320 Y37.8989 F350.00
G01 X40.8523 Y37.9202 F350.00
G01 X40.8688 Y37.9384 F350.00
G01 X40.8848 Y37.9570 F350.00
G01 X40.8987 Y37.9741 F350.00
G01 X40.9279 Y38.0136 F350.00
G01 X40.9470 Y38.0421 F350.00
G01 X40.9723 Y38.0842 F350.00
G01 X40.9885 Y38.1145 F350.00
G01 X41.0043 Y38.1477 F350.00
G01 X41.0180 Y38.1793 F350.00
G01 X41.0269 Y38.2021 F350.00
G01 X41.0391 Y38.2369 F350.00
G01 X41.0457 Y38.2580 F350.00
G01 X41.0522 Y38.2816 F350.00
G01 X41.0610 Y38.3174 F350.00
G01 X41.0677 Y38.3510 F350.00
G01 X41.0749 Y38.3996 F350.00
G01 X41.0783 Y38.4338 F350.00
G01 X41.0803 Y38.4706 F350.00
G01 X41.0810 Y38.5000 F350.00
G01 X41.0810 Y46.5500 F350.00
G01 X41.0807 Y46.5672 F350.00
G01 X41.0791 Y46.6040 F350.00
G01 X41.0773 Y46.6284 F350.00
G01 X41.0749 Y46.6504 F350.00
G01 X41.0677 Y46.6990 F350.00
G01 X41.0636 Y46.7206 F350.00
G01 X41.0582 Y46.7446 F350.00
G01 X41.0491 Y46.7803 F350.00
G01 X41.0428 Y46.8014 F350.00
G01 X41.0351 Y46.8247 F350.00
G01 X41.0226 Y46.8594 F350.00
G01 X41.0143 Y46.8798 F350.00
G01 X41.0043 Y46.9023 F350.00
G01 X40.9885 Y46.9355 F350.00
G01 X40.9782 Y46.9550 F350.00
G01 X40.9661 Y46.9764 F350.00
G01 X40.9470 Y47.0079 F350.00
G01 X40.9349 Y47.0263 F350.00
G01 X40.9208 Y47.0464 F350.00
G01 X40.8987 Y47.0759 F350.00
G01 X40.8848 Y47.0930 F350.00
G01 X40.8688 Y47.1116 F350.00
G01 X40.8406 Y47.1423 F350.00
G01 X36.9911 Y50.9920 F350.00
G01 X36.9911 Y51.0670 F350.00
G01 X37.0076 Y51.0738 F350.00
G01 X37.0301 Y51.0837 F350.00
G01 X37.1188 Y51.1257 F350.00
G01 X37.1407 Y51.1367 F350.00
G01 X37.1601 Y51.1473 F350.00
G01 X37.2549 Y51.2039 F350.00
G01 X37.2756 Y51.2170 F350.00
G01 X37.3039 Y51.2366 F350.00
G01 X37.3827 Y51.2951 F350.00
G01 X37.4020 Y51.3102 F350.00
G01 X37.4190 Y51.3243 F350.00
G01 X37.5009 Y51.3983 F350.00
G01 X37.5187 Y51.4152 F350.00
G01 X37.5425 Y51.4400 F350.00
G01 X37.6084 Y51.5127 F350.00
G01 X37.6245 Y51.5313 F350.00
G01 X37.6384 Y51.5484 F350.00
G01 X37.7114 Y51.6470 F350.00
G01 X37.7238 Y51.6652 F350.00
G01 X37.7370 Y51.6860 F350.00
G01 X37.7874 Y51.7701 F350.00
G01 X37.8041 Y51.8001 F350.00
G01 X37.8152 Y51.8221 F350.00
G01 X37.8622 Y51.9219 F350.00
G01 X37.8708 Y51.9423 F350.00
G01 X37.8797 Y51.9652 F350.00
G01 X37.9127 Y52.0576 F350.00
G01 X37.9233 Y52.0903 F350.00
G01 X37.9298 Y52.1139 F350.00
G01 X37.9565 Y52.2211 F350.00
G01 X37.9610 Y52.2427 F350.00
G01 X37.9652 Y52.2669 F350.00
G01 X37.9796 Y52.3639 F350.00
G01 X37.9826 Y52.3883 F350.00
G01 X37.9853 Y52.4225 F350.00
G01 X37.9901 Y52.5206 F350.00
G01 X37.9907 Y52.5451 F350.00
G01 X37.9906 Y52.5672 F350.00
G01 X37.9853 Y52.6775 F350.00
G01 X37.9835 Y52.7019 F350.00
G01 X37.9796 Y52.7361 F350.00
G01 X37.9652 Y52.8331 F350.00
G01 X37.9610 Y52.8573 F350.00
G01 X37.9537 Y52.8909 F350.00
G01 X37.9298 Y52.9861 F350.00
G01 X37.9204 Y53.0191 F350.00
G01 X37.9127 Y53.0424 F350.00
G01 X37.8797 Y53.1348 F350.00
G01 X37.8708 Y53.1577 F350.00
G01 X37.8622 Y53.1781 F350.00
G01 X37.8152 Y53.2779 F350.00
G01 X37.8041 Y53.2999 F350.00
G01 X37.7874 Y53.3299 F350.00
G01 X37.7370 Y53.4140 F350.00
G01 X37.7238 Y53.4348 F350.00
G01 X37.7043 Y53.4630 F350.00
G01 X37.6458 Y53.5418 F350.00
G01 X37.6307 Y53.5612 F350.00
G01 X37.6084 Y53.5873 F350.00
G01 X37.5425 Y53.6600 F350.00
G01 X37.5256 Y53.6778 F350.00
G01 X37.5099 Y53.6933 F350.00
G01 X37.4282 Y53.7676 F350.00
G01 X37.4096 Y53.7836 F350.00
G01 X37.3827 Y53.8049 F350.00
G01 X37.3039 Y53.8634 F350.00
G01 X37.2838 Y53.8775 F350.00
G01 X37.2549 Y53.8961 F350.00
G01 X37.1707 Y53.9466 F350.00
G01 X37.1494 Y53.9587 F350.00
G01 X37.1298 Y53.9689 F350.00
G01 X37.0301 Y54.0163 F350.00
G01 X37.0076 Y54.0262 F350.00
G01 X36.9757 Y54.0388 F350.00
G01 X36.8833 Y54.0719 F350.00
G01 X36.8506 Y54.0824 F350.00
G01 X36.8269 Y54.0890 F350.00
G01 X36.7317 Y54.1128 F350.00
G01 X36.6982 Y54.1201 F350.00
G01 X36.6740 Y54.1243 F350.00
G01 X36.5769 Y54.1387 F350.00
G01 X36.5526 Y54.1417 F350.00
G01 X36.5183 Y54.1445 F350.00
G01 X36.4080 Y54.1497 F350.00
G01 X36.3909 Y54.1500 F350.00
G01 X35.3786 Y54.1498 F350.00
G01 X35.2634 Y54.1445 F350.00
G01 X35.2389 Y54.1427 F350.00
G01 X35.2048 Y54.1387 F350.00
G01 X35.1077 Y54.1243 F350.00
G01 X35.0836 Y54.1201 F350.00
G01 X35.0619 Y54.1156 F350.00
G01 X34.9548 Y54.0890 F350.00
G01 X34.9311 Y54.0824 F350.00
G01 X34.8984 Y54.0719 F350.00
G01 X34.8060 Y54.0388 F350.00
G01 X34.7831 Y54.0300 F350.00
G01 X34.7516 Y54.0163 F350.00
G01 X34.6629 Y53.9743 F350.00
G01 X34.6324 Y53.9587 F350.00
G01 X34.6110 Y53.9466 F350.00
G01 X34.5164 Y53.8897 F350.00
G01 X34.4979 Y53.8775 F350.00
G01 X34.4779 Y53.8634 F350.00
G01 X34.3893 Y53.7975 F350.00
G01 X34.3627 Y53.7757 F350.00
G01 X34.2718 Y53.6933 F350.00
G01 X34.2561 Y53.6778 F350.00
G01 X34.2392 Y53.6600 F350.00
G01 X34.1733 Y53.5873 F350.00
G01 X34.1510 Y53.5612 F350.00
G01 X34.1359 Y53.5418 F350.00
G01 X34.0775 Y53.4630 F350.00
G01 X34.0633 Y53.4429 F350.00
G01 X34.0512 Y53.4245 F350.00
G01 X33.9943 Y53.3299 F350.00
G01 X33.9822 Y53.3085 F350.00
G01 X33.9719 Y53.2890 F350.00
G01 X33.9246 Y53.1892 F350.00
G01 X33.9146 Y53.1668 F350.00
G01 X33.9021 Y53.1348 F350.00
G01 X33.8690 Y53.0424 F350.00
G01 X33.8613 Y53.0191 F350.00
G01 X33.8519 Y52.9861 F350.00
G01 X33.8281 Y52.8909 F350.00
G01 X33.8227 Y52.8669 F350.00
G01 X33.8166 Y52.8331 F350.00
G01 X33.8022 Y52.7361 F350.00
G01 X33.7992 Y52.7117 F350.00
G01 X33.7964 Y52.6775 F350.00
G01 X33.7916 Y52.5794 F350.00
G01 X33.7910 Y52.5549 F350.00
G01 X33.7916 Y52.5206 F350.00
G01 X33.7964 Y52.4225 F350.00
G01 X33.7992 Y52.3883 F350.00
G01 X33.8022 Y52.3639 F350.00
G01 X33.8166 Y52.2669 F350.00
G01 X33.8227 Y52.2331 F350.00
G01 X33.8281 Y52.2091 F350.00
G01 X33.8519 Y52.1139 F350.00
G01 X33.8584 Y52.0903 F350.00
G01 X33.8650 Y52.0692 F350.00
G01 X33.9021 Y51.9652 F350.00
G01 X33.9109 Y51.9423 F350.00
G01 X33.9195 Y51.9219 F350.00
G01 X33.9719 Y51.8110 F350.00
G01 X33.9822 Y51.7915 F350.00
G01 X33.9943 Y51.7701 F350.00
G01 X34.0512 Y51.6755 F350.00
G01 X34.0633 Y51.6571 F350.00
G01 X34.0775 Y51.6370 F350.00
G01 X34.1359 Y51.5582 F350.00
G01 X34.1510 Y51.5388 F350.00
G01 X34.1733 Y51.5127 F350.00
G01 X34.2300 Y51.4501 F350.00
G01 X27.3918 Y51.4501 F350.00
G01 X27.4484 Y51.5127 F350.00
G01 X27.4707 Y51.5388 F350.00
G01 X27.4858 Y51.5582 F350.00
G01 X27.5443 Y51.6370 F350.00
G01 X27.5584 Y51.6571 F350.00
G01 X27.5705 Y51.6755 F350.00
G01 X27.6274 Y51.7701 F350.00
G01 X27.6395 Y51.7915 F350.00
G01 X27.6498 Y51.8110 F350.00
G01 X27.7022 Y51.9219 F350.00
G01 X27.7154 Y51.9537 F350.00
G01 X27.7527 Y52.0576 F350.00
G01 X27.7604 Y52.0809 F350.00
G01 X27.7667 Y52.1021 F350.00
G01 X27.7937 Y52.2091 F350.00
G01 X27.7990 Y52.2331 F350.00
G01 X27.8052 Y52.2669 F350.00
G01 X27.8196 Y52.3639 F350.00
G01 X27.8226 Y52.3883 F350.00
G01 X27.8253 Y52.4225 F350.00
G01 X27.8301 Y52.5206 F350.00
G01 X27.8307 Y52.5451 F350.00
G01 X27.8301 Y52.5794 F350.00
G01 X27.8253 Y52.6775 F350.00
G01 X27.8235 Y52.7019 F350.00
G01 X27.8196 Y52.7361 F350.00
G01 X27.8052 Y52.8331 F350.00
G01 X27.7990 Y52.8669 F350.00
G01 X27.7937 Y52.8909 F350.00
G01 X27.7667 Y52.9979 F350.00
G01 X27.7604 Y53.0191 F350.00
G01 X27.7527 Y53.0424 F350.00
G01 X27.7197 Y53.1348 F350.00
G01 X27.7108 Y53.1577 F350.00
G01 X27.6971 Y53.1892 F350.00
G01 X27.6552 Y53.2779 F350.00
G01 X27.6441 Y53.2999 F350.00
G01 X27.6336 Y53.3193 F350.00
G01 X27.5705 Y53.4245 F350.00
G01 X27.5584 Y53.4429 F350.00
G01 X27.5443 Y53.4630 F350.00
G01 X27.4858 Y53.5418 F350.00
G01 X27.4707 Y53.5612 F350.00
G01 X27.4484 Y53.5873 F350.00
G01 X27.3825 Y53.6600 F350.00
G01 X27.3587 Y53.6848 F350.00
G01 X27.3409 Y53.7017 F350.00
G01 X27.2682 Y53.7676 F350.00
G01 X27.2496 Y53.7836 F350.00
G01 X27.2324 Y53.7975 F350.00
G01 X27.1339 Y53.8706 F350.00
G01 X27.1053 Y53.8897 F350.00
G01 X27.0812 Y53.9043 F350.00
G01 X27.0812 Y54.9397 F350.00
G01 X27.1153 Y54.9603 F350.00
G01 X27.1439 Y54.9794 F350.00
G01 X27.2424 Y55.0525 F350.00
G01 X27.2690 Y55.0743 F350.00
G01 X27.3509 Y55.1483 F350.00
G01 X27.3687 Y55.1652 F350.00
G01 X27.3842 Y55.1810 F350.00
G01 X27.4584 Y55.2627 F350.00
G01 X27.4745 Y55.2813 F350.00
G01 X27.4958 Y55.3082 F350.00
G01 X27.5543 Y55.3870 F350.00
G01 X27.5684 Y55.4071 F350.00
G01 X27.5805 Y55.4255 F350.00
G01 X27.6374 Y55.5201 F350.00
G01 X27.6495 Y55.5415 F350.00
G01 X27.6652 Y55.5721 F350.00
G01 X27.7071 Y55.6608 F350.00
G01 X27.7208 Y55.6923 F350.00
G01 X27.7297 Y55.7152 F350.00
G01 X27.7627 Y55.8076 F350.00
G01 X27.7704 Y55.8309 F350.00
G01 X27.7798 Y55.8639 F350.00
G01 X27.8037 Y55.9591 F350.00
G01 X27.8090 Y55.9831 F350.00
G01 X27.8132 Y56.0048 F350.00
G01 X27.8296 Y56.1139 F350.00
G01 X27.8326 Y56.1383 F350.00
G01 X27.8353 Y56.1725 F350.00
G01 X27.8401 Y56.2706 F350.00
G01 X27.8407 Y56.2951 F350.00
G01 X27.8401 Y56.3294 F350.00
G01 X27.8353 Y56.4275 F350.00
G01 X27.8326 Y56.4617 F350.00
G01 X27.8296 Y56.4861 F350.00
G01 X27.8152 Y56.5831 F350.00
G01 X27.8110 Y56.6073 F350.00
G01 X27.8065 Y56.6289 F350.00
G01 X27.7767 Y56.7479 F350.00
G01 X27.7704 Y56.7691 F350.00
G01 X27.7627 Y56.7924 F350.00
G01 X27.7297 Y56.8848 F350.00
G01 X27.7208 Y56.9077 F350.00
G01 X27.7071 Y56.9392 F350.00
G01 X27.6652 Y57.0279 F350.00
G01 X27.6541 Y57.0499 F350.00
G01 X27.6436 Y57.0693 F350.00
G01 X27.5870 Y57.1640 F350.00
G01 X27.5738 Y57.1848 F350.00
G01 X27.5543 Y57.2130 F350.00
G01 X27.4958 Y57.2918 F350.00
G01 X27.4807 Y57.3112 F350.00
G01 X27.4666 Y57.3281 F350.00
G01 X27.3842 Y57.4190 F350.00
G01 X27.3687 Y57.4348 F350.00
G01 X27.3509 Y57.4517 F350.00
G01 X27.2690 Y57.5257 F350.00
G01 X27.2424 Y57.5475 F350.00
G01 X27.1439 Y57.6206 F350.00
G01 X27.1153 Y57.6397 F350.00
G01 X27.0812 Y57.6603 F350.00
G01 X27.0812 Y58.6897 F350.00
G01 X27.1153 Y58.7103 F350.00
G01 X27.1439 Y58.7294 F350.00
G01 X27.2327 Y58.7951 F350.00
G01 X27.2520 Y58.8102 F350.00
G01 X27.2690 Y58.8243 F350.00
G01 X27.3509 Y58.8983 F350.00
G01 X27.3687 Y58.9152 F350.00
G01 X27.3925 Y58.9400 F350.00
G01 X27.4666 Y59.0219 F350.00
G01 X27.4884 Y59.0484 F350.00
G01 X27.5543 Y59.1370 F350.00
G01 X27.5684 Y59.1571 F350.00
G01 X27.5870 Y59.1860 F350.00
G01 X27.6374 Y59.2701 F350.00
G01 X27.6541 Y59.3001 F350.00
G01 X27.6652 Y59.3221 F350.00
G01 X27.7122 Y59.4219 F350.00
G01 X27.7254 Y59.4537 F350.00
G01 X27.7627 Y59.5576 F350.00
G01 X27.7704 Y59.5809 F350.00
G01 X27.7798 Y59.6139 F350.00
G01 X27.8037 Y59.7091 F350.00
G01 X27.8110 Y59.7427 F350.00
G01 X27.8152 Y59.7669 F350.00
G01 X27.8296 Y59.8639 F350.00
G01 X27.8326 Y59.8883 F350.00
G01 X27.8353 Y59.9225 F350.00
G01 X27.8401 Y60.0206 F350.00
G01 X27.8407 Y60.0451 F350.00
G01 X27.8401 Y60.0794 F350.00
G01 X27.8353 Y60.1775 F350.00
G01 X27.8326 Y60.2117 F350.00
G01 X27.8296 Y60.2361 F350.00
G01 X27.8132 Y60.3452 F350.00
G01 X27.8065 Y60.3789 F350.00
G01 X27.7767 Y60.4979 F350.00
G01 X27.7704 Y60.5191 F350.00
G01 X27.7627 Y60.5424 F350.00
G01 X27.7297 Y60.6348 F350.00
G01 X27.7208 Y60.6577 F350.00
G01 X27.7071 Y60.6892 F350.00
G01 X27.6652 Y60.7779 F350.00
G01 X27.6541 Y60.7999 F350.00
G01 X27.6436 Y60.8193 F350.00
G01 X27.5870 Y60.9140 F350.00
G01 X27.5738 Y60.9348 F350.00
G01 X27.5543 Y60.9630 F350.00
G01 X27.4958 Y61.0418 F350.00
G01 X27.4807 Y61.0612 F350.00
G01 X27.4584 Y61.0873 F350.00
G01 X27.3925 Y61.1600 F350.00
G01 X27.3687 Y61.1848 F350.00
G01 X27.3509 Y61.2017 F350.00
G01 X27.2690 Y61.2757 F350.00
G01 X27.2520 Y61.2898 F350.00
G01 X27.2327 Y61.3049 F350.00
G01 X27.1439 Y61.3706 F350.00
G01 X27.1256 Y61.3830 F350.00
G01 X27.1049 Y61.3961 F350.00
G01 X27.0207 Y61.4466 F350.00
G01 X26.9907 Y61.4633 F350.00
G01 X26.9688 Y61.4743 F350.00
G01 X26.8801 Y61.5163 F350.00
G01 X26.8576 Y61.5262 F350.00
G01 X26.8257 Y61.5388 F350.00
G01 X26.7217 Y61.5759 F350.00
G01 X26.7006 Y61.5824 F350.00
G01 X26.6769 Y61.5890 F350.00
G01 X26.5698 Y61.6156 F350.00
G01 X26.5361 Y61.6223 F350.00
G01 X26.4269 Y61.6387 F350.00
G01 X26.4026 Y61.6417 F350.00
G01 X26.3806 Y61.6437 F350.00
G01 X26.2703 Y61.6493 F350.00
G01 X26.2409 Y61.6500 F350.00
G01 X25.2409 Y61.6500 F350.00
G01 X25.2114 Y61.6493 F350.00
G01 X25.1134 Y61.6445 F350.00
G01 X25.0792 Y61.6417 F350.00
G01 X25.0548 Y61.6387 F350.00
G01 X24.9456 Y61.6223 F350.00
G01 X24.9239 Y61.6182 F350.00
G01 X24.9000 Y61.6128 F350.00
G01 X24.8048 Y61.5890 F350.00
G01 X24.7717 Y61.5796 F350.00
G01 X24.7484 Y61.5719 F350.00
G01 X24.6560 Y61.5388 F350.00
G01 X24.6331 Y61.5300 F350.00
G01 X24.6016 Y61.5163 F350.00
G01 X24.5129 Y61.4743 F350.00
G01 X24.4910 Y61.4633 F350.00
G01 X24.4610 Y61.4466 F350.00
G01 X24.3768 Y61.3961 F350.00
G01 X24.3561 Y61.3830 F350.00
G01 X24.3279 Y61.3634 F350.00
G01 X24.2393 Y61.2975 F350.00
G01 X24.2221 Y61.2836 F350.00
G01 X24.2035 Y61.2676 F350.00
G01 X24.1308 Y61.2017 F350.00
G01 X24.1061 Y61.1778 F350.00
G01 X24.0892 Y61.1600 F350.00
G01 X24.0233 Y61.0873 F350.00
G01 X24.0073 Y61.0687 F350.00
G01 X23.9859 Y61.0418 F350.00
G01 X23.9275 Y60.9630 F350.00
G01 X23.9133 Y60.9429 F350.00
G01 X23.8948 Y60.9140 F350.00
G01 X23.8443 Y60.8299 F350.00
G01 X23.8322 Y60.8085 F350.00
G01 X23.8219 Y60.7890 F350.00
G01 X23.7746 Y60.6892 F350.00
G01 X23.7646 Y60.6668 F350.00
G01 X23.7521 Y60.6348 F350.00
G01 X23.7190 Y60.5424 F350.00
G01 X23.7084 Y60.5097 F350.00
G01 X23.7019 Y60.4861 F350.00
G01 X23.6781 Y60.3909 F350.00
G01 X23.6727 Y60.3669 F350.00
G01 X23.6666 Y60.3331 F350.00
G01 X23.6522 Y60.2361 F350.00
G01 X23.6492 Y60.2117 F350.00
G01 X23.6464 Y60.1775 F350.00
G01 X23.6416 Y60.0794 F350.00
G01 X23.6410 Y60.0451 F350.00
G01 X23.6416 Y60.0206 F350.00
G01 X23.6464 Y59.9225 F350.00
G01 X23.6482 Y59.8981 F350.00
G01 X23.6522 Y59.8639 F350.00
G01 X23.6666 Y59.7669 F350.00
G01 X23.6708 Y59.7427 F350.00
G01 X23.6781 Y59.7091 F350.00
G01 X23.7019 Y59.6139 F350.00
G01 X23.7084 Y59.5903 F350.00
G01 X23.7190 Y59.5576 F350.00
G01 X23.7521 Y59.4652 F350.00
G01 X23.7646 Y59.4332 F350.00
G01 X23.7746 Y59.4108 F350.00
G01 X23.8165 Y59.3221 F350.00
G01 X23.8276 Y59.3001 F350.00
G01 X23.8443 Y59.2701 F350.00
G01 X23.8948 Y59.1860 F350.00
G01 X23.9079 Y59.1652 F350.00
G01 X23.9275 Y59.1370 F350.00
G01 X23.9934 Y59.0484 F350.00
G01 X24.0152 Y59.0219 F350.00
G01 X24.0892 Y58.9400 F350.00
G01 X24.1061 Y58.9222 F350.00
G01 X24.1308 Y58.8983 F350.00
G01 X24.2127 Y58.8243 F350.00
G01 X24.2393 Y58.8025 F350.00
G01 X24.3279 Y58.7366 F350.00
G01 X24.3561 Y58.7170 F350.00
G01 X24.3805 Y58.7017 F350.00
G01 X24.3805 Y57.6483 F350.00
G01 X24.3664 Y57.6397 F350.00
G01 X24.3378 Y57.6206 F350.00
G01 X24.2490 Y57.5549 F350.00
G01 X24.2297 Y57.5398 F350.00
G01 X24.2035 Y57.5176 F350.00
G01 X24.1308 Y57.4517 F350.00
G01 X24.1130 Y57.4348 F350.00
G01 X24.0975 Y57.4190 F350.00
G01 X24.0233 Y57.3373 F350.00
G01 X24.0073 Y57.3187 F350.00
G01 X23.9859 Y57.2918 F350.00
G01 X23.9275 Y57.2130 F350.00
G01 X23.9133 Y57.1929 F350.00
G01 X23.9012 Y57.1745 F350.00
G01 X23.8443 Y57.0799 F350.00
G01 X23.8322 Y57.0585 F350.00
G01 X23.8165 Y57.0279 F350.00
G01 X23.7746 Y56.9392 F350.00
G01 X23.7609 Y56.9077 F350.00
G01 X23.7521 Y56.8848 F350.00
G01 X23.7150 Y56.7808 F350.00
G01 X23.7084 Y56.7597 F350.00
G01 X23.7019 Y56.7361 F350.00
G01 X23.6781 Y56.6409 F350.00
G01 X23.6708 Y56.6073 F350.00
G01 X23.6666 Y56.5831 F350.00
G01 X23.6522 Y56.4861 F350.00
G01 X23.6492 Y56.4617 F350.00
G01 X23.6464 Y56.4275 F350.00
G01 X23.6416 Y56.3294 F350.00
G01 X23.6410 Y56.2951 F350.00
G01 X23.6416 Y56.2706 F350.00
G01 X23.6472 Y56.1603 F350.00
G01 X23.6492 Y56.1383 F350.00
G01 X23.6522 Y56.1139 F350.00
G01 X23.6666 Y56.0169 F350.00
G01 X23.6708 Y55.9927 F350.00
G01 X23.6781 Y55.9591 F350.00
G01 X23.7019 Y55.8639 F350.00
G01 X23.7084 Y55.8403 F350.00
G01 X23.7150 Y55.8192 F350.00
G01 X23.7521 Y55.7152 F350.00
G01 X23.7609 Y55.6923 F350.00
G01 X23.7746 Y55.6608 F350.00
G01 X23.8165 Y55.5721 F350.00
G01 X23.8276 Y55.5501 F350.00
G01 X23.8381 Y55.5307 F350.00
G01 X23.8948 Y55.4360 F350.00
G01 X23.9079 Y55.4152 F350.00
G01 X23.9275 Y55.3870 F350.00
G01 X23.9859 Y55.3082 F350.00
G01 X24.0010 Y55.2888 F350.00
G01 X24.0152 Y55.2719 F350.00
G01 X24.0975 Y55.1810 F350.00
G01 X24.1130 Y55.1652 F350.00
G01 X24.1308 Y55.1483 F350.00
G01 X24.2035 Y55.0824 F350.00
G01 X24.2297 Y55.0602 F350.00
G01 X24.2490 Y55.0451 F350.00
G01 X24.3378 Y54.9794 F350.00
G01 X24.3664 Y54.9603 F350.00
G01 X24.3805 Y54.9517 F350.00
G01 X24.3805 Y53.9043 F350.00
G01 X24.3564 Y53.8897 F350.00
G01 X24.3278 Y53.8706 F350.00
G01 X24.2293 Y53.7975 F350.00
G01 X24.2121 Y53.7836 F350.00
G01 X24.1935 Y53.7676 F350.00
G01 X24.1208 Y53.7017 F350.00
G01 X24.1030 Y53.6848 F350.00
G01 X24.0792 Y53.6600 F350.00
G01 X24.0133 Y53.5873 F350.00
G01 X23.9910 Y53.5612 F350.00
G01 X23.9759 Y53.5418 F350.00
G01 X23.9175 Y53.4630 F350.00
G01 X23.9033 Y53.4429 F350.00
G01 X23.8912 Y53.4245 F350.00
G01 X23.8343 Y53.3299 F350.00
G01 X23.8222 Y53.3085 F350.00
G01 X23.8119 Y53.2890 F350.00
G01 X23.7595 Y53.1781 F350.00
G01 X23.7509 Y53.1577 F350.00
G01 X23.7421 Y53.1348 F350.00
G01 X23.7050 Y53.0308 F350.00
G01 X23.6984 Y53.0097 F350.00
G01 X23.6919 Y52.9861 F350.00
G01 X23.6681 Y52.8909 F350.00
G01 X23.6627 Y52.8669 F350.00
G01 X23.6566 Y52.8331 F350.00
G01 X23.6446 Y52.7527 F350.00
G01 X23.3310 Y53.0663 F350.00
G01 X23.3310 Y60.9479 F350.00
G01 X28.2330 Y65.8499 F350.00
G01 X35.0642 Y65.8499 F350.00
G01 X35.0568 Y65.8004 F350.00
G01 X35.0545 Y65.7784 F350.00
G01 X35.0527 Y65.7540 F350.00
G01 X35.0515 Y65.7294 F350.00
G01 X35.0507 Y65.7000 F350.00
G01 X35.0507 Y61.6105 F350.00
G01 X34.9529 Y61.5858 F350.00
G01 X34.9200 Y61.5759 F350.00
G01 X34.8160 Y61.5388 F350.00
G01 X34.7931 Y61.5300 F350.00
G01 X34.7728 Y61.5214 F350.00
G01 X34.6729 Y61.4743 F350.00
G01 X34.6424 Y61.4587 F350.00
G01 X34.6210 Y61.4466 F350.00
G01 X34.5368 Y61.3961 F350.00
G01 X34.5161 Y61.3830 F350.00
G01 X34.4978 Y61.3706 F350.00
G01 X34.4090 Y61.3049 F350.00
G01 X34.3821 Y61.2836 F350.00
G01 X34.3635 Y61.2676 F350.00
G01 X34.2908 Y61.2017 F350.00
G01 X34.2661 Y61.1778 F350.00
G01 X34.2492 Y61.1600 F350.00
G01 X34.1833 Y61.0873 F350.00
G01 X34.1610 Y61.0612 F350.00
G01 X34.1459 Y61.0418 F350.00
G01 X34.0875 Y60.9630 F350.00
G01 X34.0733 Y60.9429 F350.00
G01 X34.0612 Y60.9245 F350.00
G01 X34.0043 Y60.8299 F350.00
G01 X33.9876 Y60.7999 F350.00
G01 X33.9765 Y60.7779 F350.00
G01 X33.9346 Y60.6892 F350.00
G01 X33.9209 Y60.6577 F350.00
G01 X33.9121 Y60.6348 F350.00
G01 X33.8790 Y60.5424 F350.00
G01 X33.8684 Y60.5097 F350.00
G01 X33.8619 Y60.4861 F350.00
G01 X33.8381 Y60.3909 F350.00
G01 X33.8308 Y60.3573 F350.00
G01 X33.8266 Y60.3331 F350.00
G01 X33.8122 Y60.2361 F350.00
G01 X33.8082 Y60.2019 F350.00
G01 X33.8064 Y60.1775 F350.00
G01 X33.8016 Y60.0794 F350.00
G01 X33.8010 Y60.0451 F350.00
G01 X33.8016 Y60.0206 F350.00
G01 X33.8064 Y59.9225 F350.00
G01 X33.8092 Y59.8883 F350.00
G01 X33.8122 Y59.8639 F350.00
G01 X33.8266 Y59.7669 F350.00
G01 X33.8308 Y59.7427 F350.00
G01 X33.8352 Y59.7211 F350.00
G01 X33.8619 Y59.6139 F350.00
G01 X33.8713 Y59.5809 F350.00
G01 X33.8790 Y59.5576 F350.00
G01 X33.9121 Y59.4652 F350.00
G01 X33.9246 Y59.4332 F350.00
G01 X33.9346 Y59.4108 F350.00
G01 X33.9765 Y59.3221 F350.00
G01 X33.9922 Y59.2915 F350.00
G01 X34.0043 Y59.2701 F350.00
G01 X34.0548 Y59.1860 F350.00
G01 X34.0733 Y59.1571 F350.00
G01 X34.0875 Y59.1370 F350.00
G01 X34.1459 Y59.0582 F350.00
G01 X34.1673 Y59.0313 F350.00
G01 X34.1833 Y59.0127 F350.00
G01 X34.2492 Y58.9400 F350.00
G01 X34.2730 Y58.9152 F350.00
G01 X34.2908 Y58.8983 F350.00
G01 X34.3635 Y58.8324 F350.00
G01 X34.3897 Y58.8102 F350.00
G01 X34.4090 Y58.7951 F350.00
G01 X34.4879 Y58.7366 F350.00
G01 X34.5079 Y58.7225 F350.00
G01 X34.5264 Y58.7103 F350.00
G01 X34.6210 Y58.6534 F350.00
G01 X34.6424 Y58.6413 F350.00
G01 X34.6619 Y58.6311 F350.00
G01 X34.7728 Y58.5786 F350.00
G01 X34.7931 Y58.5700 F350.00
G01 X34.8160 Y58.5612 F350.00
G01 X34.9200 Y58.5241 F350.00
G01 X34.9411 Y58.5176 F350.00
G01 X34.9648 Y58.5110 F350.00
G01 X35.0600 Y58.4872 F350.00
G01 X35.0936 Y58.4799 F350.00
G01 X35.1177 Y58.4757 F350.00
G01 X35.2148 Y58.4613 F350.00
G01 X35.2392 Y58.4583 F350.00
G01 X35.2734 Y58.4555 F350.00
G01 X35.3714 Y58.4507 F350.00
G01 X35.4009 Y58.4500 F350.00
G01 X36.2986 Y58.4500 F350.00
G01 X36.9454 Y57.8032 F350.00
G01 X36.8817 Y57.8259 F350.00
G01 X36.8488 Y57.8358 F350.00
G01 X36.7298 Y57.8656 F350.00
G01 X36.6961 Y57.8723 F350.00
G01 X36.5869 Y57.8887 F350.00
G01 X36.5528 Y57.8927 F350.00
G01 X36.5283 Y57.8945 F350.00
G01 X36.4303 Y57.8993 F350.00
G01 X36.4009 Y57.9000 F350.00
G01 X35.4009 Y57.9000 F350.00
G01 X35.3714 Y57.8993 F350.00
G01 X35.2612 Y57.8937 F350.00
G01 X35.2392 Y57.8917 F350.00
G01 X35.2148 Y57.8887 F350.00
G01 X35.1177 Y57.8743 F350.00
G01 X35.0839 Y57.8682 F350.00
G01 X35.0600 Y57.8628 F350.00
G01 X34.9529 Y57.8358 F350.00
G01 X34.9317 Y57.8296 F350.00
G01 X34.9084 Y57.8219 F350.00
G01 X34.8160 Y57.7888 F350.00
G01 X34.7931 Y57.7800 F350.00
G01 X34.7616 Y57.7663 F350.00
G01 X34.6729 Y57.7243 F350.00
G01 X34.6510 Y57.7133 F350.00
G01 X34.6316 Y57.7027 F350.00
G01 X34.5264 Y57.6397 F350.00
G01 X34.4978 Y57.6206 F350.00
G01 X34.4090 Y57.5549 F350.00
G01 X34.3897 Y57.5398 F350.00
G01 X34.3635 Y57.5176 F350.00
G01 X34.2908 Y57.4517 F350.00
G01 X34.2661 Y57.4278 F350.00
G01 X34.2492 Y57.4100 F350.00
G01 X34.1833 Y57.3373 F350.00
G01 X34.1610 Y57.3112 F350.00
G01 X34.1459 Y57.2918 F350.00
G01 X34.0875 Y57.2130 F350.00
G01 X34.0733 Y57.1929 F350.00
G01 X34.0548 Y57.1640 F350.00
G01 X34.0043 Y57.0799 F350.00
G01 X33.9922 Y57.0585 F350.00
G01 X33.9819 Y57.0390 F350.00
G01 X33.9346 Y56.9392 F350.00
G01 X33.9209 Y56.9077 F350.00
G01 X33.9121 Y56.8848 F350.00
G01 X33.8790 Y56.7924 F350.00
G01 X33.8684 Y56.7597 F350.00
G01 X33.8619 Y56.7361 F350.00
G01 X33.8381 Y56.6409 F350.00
G01 X33.8308 Y56.6073 F350.00
G01 X33.8266 Y56.5831 F350.00
G01 X33.8122 Y56.4861 F350.00
G01 X33.8092 Y56.4617 F350.00
G01 X33.8064 Y56.4275 F350.00
G01 X33.8011 Y56.3172 F350.00
G01 X33.8011 Y56.2828 F350.00
G01 X33.8064 Y56.1725 F350.00
G01 X33.8092 Y56.1383 F350.00
G01 X33.8122 Y56.1139 F350.00
G01 X33.8285 Y56.0048 F350.00
G01 X33.8352 Y55.9711 F350.00
G01 X33.8619 Y55.8639 F350.00
G01 X33.8684 Y55.8403 F350.00
G01 X33.8750 Y55.8192 F350.00
G01 X33.9121 Y55.7152 F350.00
G01 X33.9209 Y55.6923 F350.00
G01 X33.9346 Y55.6608 F350.00
G01 X33.9765 Y55.5721 F350.00
G01 X33.9876 Y55.5501 F350.00
G01 X33.9981 Y55.5307 F350.00
G01 X34.0548 Y55.4360 F350.00
G01 X34.0679 Y55.4152 F350.00
G01 X34.0875 Y55.3870 F350.00
G01 X34.1459 Y55.3082 F350.00
G01 X34.1673 Y55.2813 F350.00
G01 X34.1833 Y55.2627 F350.00
G01 X34.2492 Y55.1900 F350.00
G01 X34.2730 Y55.1652 F350.00
G01 X34.2908 Y55.1483 F350.00
G01 X34.3727 Y55.0743 F350.00
G01 X34.3993 Y55.0525 F350.00
G01 X34.4879 Y54.9866 F350.00
G01 X34.5079 Y54.9725 F350.00
G01 X34.5264 Y54.9603 F350.00
G01 X34.6210 Y54.9034 F350.00
G01 X34.6424 Y54.8913 F350.00
G01 X34.6729 Y54.8757 F350.00
G01 X34.7616 Y54.8337 F350.00
G01 X34.7841 Y54.8238 F350.00
G01 X34.8045 Y54.8155 F350.00
G01 X34.9084 Y54.7781 F350.00
G01 X34.9317 Y54.7704 F350.00
G01 X34.9648 Y54.7610 F350.00
G01 X35.0600 Y54.7372 F350.00
G01 X35.0936 Y54.7299 F350.00
G01 X35.1177 Y54.7257 F350.00
G01 X35.2148 Y54.7113 F350.00
G01 X35.2489 Y54.7073 F350.00
G01 X35.2734 Y54.7055 F350.00
G01 X35.3886 Y54.7002 F350.00
G01 X36.4009 Y54.7000 F350.00
G01 X36.4303 Y54.7007 F350.00
G01 X36.5283 Y54.7055 F350.00
G01 X36.5626 Y54.7083 F350.00
G01 X36.5869 Y54.7113 F350.00
G01 X36.6840 Y54.7257 F350.00
G01 X36.7178 Y54.7318 F350.00
G01 X36.7417 Y54.7372 F350.00
G01 X36.8369 Y54.7610 F350.00
G01 X36.8606 Y54.7676 F350.00
G01 X36.8933 Y54.7781 F350.00
G01 X36.9857 Y54.8112 F350.00
G01 X37.0176 Y54.8238 F350.00
G01 X37.0401 Y54.8337 F350.00
G01 X37.1398 Y54.8811 F350.00
G01 X37.1701 Y54.8973 F350.00
G01 X37.2649 Y54.9539 F350.00
G01 X37.2938 Y54.9725 F350.00
G01 X37.3139 Y54.9866 F350.00
G01 X37.4024 Y55.0525 F350.00
G01 X37.4196 Y55.0664 F350.00
G01 X37.4382 Y55.0824 F350.00
G01 X37.5199 Y55.1567 F350.00
G01 X37.5442 Y55.1810 F350.00
G01 X37.5935 Y55.2351 F350.00
G01 X43.7557 Y49.0729 F350.00
G01 X43.7557 Y40.3629 F350.00
G01 X24.8797 Y21.4869 F350.00
G01 X24.8594 Y21.4656 F350.00
G01 X24.8429 Y21.4474 F350.00
G01 X24.8269 Y21.4288 F350.00
G01 X24.8056 Y21.4019 F350.00
G01 X24.7910 Y21.3822 F350.00
G01 X24.7768 Y21.3621 F350.00
G01 X24.7583 Y21.3332 F350.00
G01 X24.7456 Y21.3122 F350.00
G01 X24.7335 Y21.2908 F350.00
G01 X24.7179 Y21.2602 F350.00
G01 X24.7074 Y21.2380 F350.00
G01 X24.6974 Y21.2156 F350.00
G01 X24.6891 Y21.1951 F350.00
G01 X24.6726 Y21.1489 F350.00
G01 X24.6626 Y21.1160 F350.00
G01 X24.6507 Y21.0684 F350.00
G01 X24.6440 Y21.0347 F350.00
G01 X24.6368 Y20.9862 F350.00
G01 X24.6334 Y20.9520 F350.00
G01 X24.6310 Y20.9021 F350.00
G00 Z0.5000
G00 X26.3476 Y20.5503
G01 F250.00
G01 Z-0.0500
G01 F350.00
G01 X26.4303 Y20.5503 F350.00
G01 X27.0476 Y21.2503 F350.00
G01 X34.1106 Y21.2503 F350.00
G01 X34.1106 Y21.9503 F350.00
G01 X27.7476 Y21.9503 F350.00
G01 X28.4476 Y22.6503 F350.00
G01 X34.1106 Y22.6503 F350.00
G00 Z0.5000
G00 X34.2586 Y23.3503
G01 F250.00
G01 Z-0.0500
G01 F350.00
G01 X29.1476 Y23.3503 F350.00
G01 X29.8476 Y24.0503 F350.00
G01 X78.6746 Y24.0503 F350.00
G01 X77.9746 Y24.7503 F350.00
G01 X30.5476 Y24.7503 F350.00
G01 X31.2476 Y25.4503 F350.00
G01 X77.2746 Y25.4503 F350.00
G01 X76.5746 Y26.1503 F350.00
G01 X31.9476 Y26.1503 F350.00
G01 X32.6476 Y26.8503 F350.00
G01 X75.8746 Y26.8503 F350.00
G01 X75.1746 Y27.5503 F350.00
G01 X33.3476 Y27.5503 F350.00
G01 X34.0476 Y28.2503 F350.00
G01 X74.4746 Y28.2503 F350.00
G01 X73.7746 Y28.9503 F350.00
G01 X34.7476 Y28.9503 F350.00
G01 X35.4476 Y29.6503 F350.00
G01 X73.0746 Y29.6503 F350.00
G01 X72.3746 Y30.3503 F350.00
G01 X36.1476 Y30.3503 F350.00
G01 X36.8476 Y31.0503 F350.00
G01 X71.6746 Y31.0503 F350.00
G01 X70.9746 Y31.7503 F350.00
G01 X37.5476 Y31.7503 F350.00
G01 X38.2476 Y32.4503 F350.00
G01 X70.2746 Y32.4503 F350.00
G01 X69.5746 Y33.1503 F350.00
G01 X38.9476 Y33.1503 F350.00
G01 X39.6476 Y33.8503 F350.00
G01 X68.8746 Y33.8503 F350.00
G01 X68.1746 Y34.5503 F350.00
G01 X61.0414 Y34.5503 F350.00
G00 Z0.5000
G00 X61.5661 Y35.2503
G01 F250.00
G01 Z-0.0500
G01 F350.00
G01 X67.5283 Y35.2503 F350.00
G00 Z0.5000
G00 X67.3806 Y35.9503
G01 F250.00
G01 Z-0.0500
G01 F350.00
G01 X61.5809 Y35.9503 F350.00
G01 X61.5809 Y36.6503 F350.00
G01 X67.3806 Y36.6503 F350.00
G01 X67.3806 Y37.3503 F350.00
G01 X61.5660 Y37.3503 F350.00
G00 Z0.5000
G00 X61.4215 Y38.0503
G01 F250.00
G01 Z-0.0500
G01 F350.00
G01 X61.0404 Y38.0503 F350.00
G00 Z0.5000
G00 X63.1702 Y38.0503
G01 F250.00
G01 Z-0.0500
G01 F350.00
G01 X63.9615 Y38.0503 F350.00
G00 Z0.5000
G00 X65.7102 Y38.0503
G01 F250.00
G01 Z-0.0500
G01 F350.00
G01 X67.3806 Y38.0503 F350.00
G01 X67.3806 Y38.7503 F350.00
G01 X66.3019 Y38.7503 F350.00
G00 Z0.5000
G00 X66.4359 Y39.4503
G01 F250.00
G01 Z-0.0500
G01 F350.00
G01 X67.3806 Y39.4503 F350.00
G01 X67.3806 Y40.1503 F350.00
G01 X66.4359 Y40.1503 F350.00
G00 Z0.5000
G00 X66.3681 Y40.8503
G01 F250.00
G01 Z-0.0500
G01 F350.00
G01 X67.3806 Y40.8503 F350.00
G01 X67.3806 Y41.5503 F350.00
G01 X65.9364 Y41.5503 F350.00
G01 X67.3991 Y42.2503 F350.00
G01 X48.2152 Y42.2503 F350.00
G00 Z0.5000
G00 X48.6558 Y42.9503
G01 F250.00
G01 Z-0.0500
G01 F350.00
G01 X67.8251 Y42.9503 F350.00
G01 X68.5251 Y43.6503 F350.00
G01 X48.7776 Y43.6503 F350.00
G00 Z0.5000
G00 X48.5772 Y44.3503
G01 F250.00
G01 Z-0.0500
G01 F350.00
G01 X69.2251 Y44.3503 F350.00
G01 X69.9251 Y45.0503 F350.00
G01 X48.3781 Y45.0503 F350.00
G00 Z0.5000
G00 X48.7389 Y45.7503
G01 F250.00
G01 Z-0.0500
G01 F350.00
G01 X70.6251 Y45.7503 F350.00
G01 X71.3251 Y46.4503 F350.00
G01 X48.7438 Y46.4503 F350.00
G00 Z0.5000
G00 X48.3958 Y47.1503
G01 F250.00
G01 Z-0.0500
G01 F350.00
G01 X81.6806 Y47.1503 F350.00
G01 X81.6806 Y47.8503 F350.00
G01 X79.2079 Y47.8503 F350.00
G00 Z0.5000
G00 X79.6701 Y48.5503
G01 F250.00
G01 Z-0.0500
G01 F350.00
G01 X81.6806 Y48.5503 F350.00
G01 X81.6806 Y49.2503 F350.00
G01 X79.7374 Y49.2503 F350.00
G00 Z0.5000
G00 X79.4734 Y49.9503
G01 F250.00
G01 Z-0.0500
G01 F350.00
G01 X81.6806 Y49.9503 F350.00
G00 Z0.5000
G00 X83.8811 Y49.9503
G01 F250.00
G01 Z-0.0500
G01 F350.00
G01 X86.9884 Y49.9503 F350.00
G00 Z0.5000
G00 X86.7243 Y49.2503
G01 F250.00
G01 Z-0.0500
G01 F350.00
G01 X83.8811 Y49.2503 F350.00
G01 X83.8811 Y48.5503 F350.00
G01 X86.7916 Y48.5503 F350.00
G00 Z0.5000
G00 X87.2106 Y47.8503
G01 F250.00
G01 Z-0.0500
G01 F350.00
G01 X83.8811 Y47.8503 F350.00
G01 X83.8811 Y47.1503 F350.00
G01 X87.2106 Y47.1503 F350.00
G01 X87.2106 Y46.4503 F350.00
G01 X83.8811 Y46.4503 F350.00
G00 Z0.5000
G00 X83.8794 Y45.7503
G01 F250.00
G01 Z-0.0500
G01 F350.00
G01 X87.1751 Y45.7503 F350.00
G00 Z0.5000
G00 X86.6481 Y45.0503
G01 F250.00
G01 Z-0.0500
G01 F350.00
G01 X83.5854 Y45.0503 F350.00
G01 X86.5956 Y44.3503 F350.00
G01 X78.6329 Y44.3503 F350.00
G01 X79.3329 Y43.6503 F350.00
G01 X86.5956 Y43.6503 F350.00
G01 X86.5956 Y42.9503 F350.00
G01 X80.0329 Y42.9503 F350.00
G00 Z0.5000
G00 X80.7279 Y42.2503
G01 F250.00
G01 Z-0.0500
G01 F350.00
G01 X86.5956 Y42.2503 F350.00
G01 X86.5953 Y41.5503 F350.00
G01 X86.2564 Y41.5503 F350.00
G00 Z0.5000
G00 X84.0553 Y41.5503
G01 F250.00
G01 Z-0.0500
G01 F350.00
G01 X83.7164 Y41.5503 F350.00
G00 Z0.5000
G00 X81.5153 Y41.5503
G01 F250.00
G01 Z-0.0500
G01 F350.00
G01 X81.1764 Y41.5503 F350.00
G00 Z0.5000
G00 X78.9753 Y41.5503
G01 F250.00
G01 Z-0.0500
G01 F350.00
G01 X78.6364 Y41.5503 F350.00
G01 X78.3284 Y42.2503 F350.00
G01 X72.3834 Y42.2503 F350.00
G00 Z0.5000
G00 X73.5564 Y41.5503
G01 F250.00
G01 Z-0.0500
G01 F350.00
G01 X73.8953 Y41.5503 F350.00
G00 Z0.5000
G00 X76.0964 Y41.5503
G01 F250.00
G01 Z-0.0500
G01 F350.00
G01 X76.4353 Y41.5503 F350.00
G00 Z0.5000
G00 X76.2659 Y41.3615
G01 F250.00
G01 Z-0.0500
G01 F350.00
G01 X76.2434 Y41.3916 F350.00
G01 X76.2216 Y41.4181 F350.00
G01 X76.1392 Y41.5090 F350.00
G01 X76.1237 Y41.5248 F350.00
G01 X76.1059 Y41.5417 F350.00
G01 X76.0240 Y41.6157 F350.00
G01 X76.0070 Y41.6298 F350.00
G01 X75.9877 Y41.6449 F350.00
G01 X75.9089 Y41.7034 F350.00
G01 X75.8888 Y41.7175 F350.00
G01 X75.8599 Y41.7361 F350.00
G01 X75.7651 Y41.7927 F350.00
G01 X75.7457 Y41.8033 F350.00
G01 X75.7238 Y41.8143 F350.00
G01 X75.6351 Y41.8563 F350.00
G01 X75.6126 Y41.8662 F350.00
G01 X75.5807 Y41.8788 F350.00
G01 X75.4767 Y41.9159 F350.00
G01 X75.4556 Y41.9224 F350.00
G01 X75.4319 Y41.9290 F350.00
G01 X75.3248 Y41.9556 F350.00
G01 X75.2911 Y41.9623 F350.00
G01 X75.1819 Y41.9787 F350.00
G01 X75.1576 Y41.9817 F350.00
G01 X75.1356 Y41.9837 F350.00
G01 X75.0253 Y41.9893 F350.00
G01 X75.0008 Y41.9899 F350.00
G01 X74.9664 Y41.9893 F350.00
G01 X74.8684 Y41.9845 F350.00
G01 X74.8342 Y41.9817 F350.00
G01 X74.8098 Y41.9787 F350.00
G01 X74.7127 Y41.9643 F350.00
G01 X74.6886 Y41.9601 F350.00
G01 X74.6550 Y41.9528 F350.00
G01 X74.5598 Y41.9290 F350.00
G01 X74.5267 Y41.9196 F350.00
G01 X74.5034 Y41.9119 F350.00
G01 X74.4110 Y41.8788 F350.00
G01 X74.3791 Y41.8662 F350.00
G01 X74.3566 Y41.8563 F350.00
G01 X74.2569 Y41.8089 F350.00
G01 X74.2374 Y41.7987 F350.00
G01 X74.2160 Y41.7866 F350.00
G01 X74.1318 Y41.7361 F350.00
G01 X74.1029 Y41.7175 F350.00
G01 X74.0829 Y41.7034 F350.00
G01 X73.9943 Y41.6375 F350.00
G01 X73.9677 Y41.6157 F350.00
G01 X73.8858 Y41.5417 F350.00
G01 X73.8680 Y41.5248 F350.00
G01 X73.8525 Y41.5090 F350.00
G01 X73.7702 Y41.4181 F350.00
G01 X73.7484 Y41.3916 F350.00
G01 X73.7259 Y41.3615 F350.00
G01 X73.7034 Y41.3916 F350.00
G01 X73.6816 Y41.4181 F350.00
G01 X73.6075 Y41.5000 F350.00
G01 X73.5906 Y41.5178 F350.00
G01 X73.5749 Y41.5333 F350.00
G01 X73.4932 Y41.6076 F350.00
G01 X73.4670 Y41.6298 F350.00
G01 X73.4477 Y41.6449 F350.00
G01 X73.3589 Y41.7106 F350.00
G01 X73.3406 Y41.7230 F350.00
G01 X73.3199 Y41.7361 F350.00
G01 X73.2251 Y41.7927 F350.00
G01 X73.1948 Y41.8089 F350.00
G01 X73.0951 Y41.8563 F350.00
G01 X73.0726 Y41.8662 F350.00
G01 X73.0407 Y41.8788 F350.00
G01 X72.9483 Y41.9119 F350.00
G01 X72.9250 Y41.9196 F350.00
G01 X72.8919 Y41.9290 F350.00
G01 X72.7848 Y41.9556 F350.00
G01 X72.7511 Y41.9623 F350.00
G01 X72.6419 Y41.9787 F350.00
G01 X72.6176 Y41.9817 F350.00
G01 X72.5833 Y41.9845 F350.00
G01 X72.4730 Y41.9897 F350.00
G01 X72.4387 Y41.9897 F350.00
G01 X72.3284 Y41.9845 F350.00
G01 X72.3039 Y41.9827 F350.00
G01 X72.2820 Y41.9803 F350.00
G01 X72.1606 Y41.9623 F350.00
G01 X72.1269 Y41.9556 F350.00
G01 X72.0762 Y41.9431 F350.00
G01 X73.0830 Y42.9499 F350.00
G01 X77.6287 Y42.9499 F350.00
G01 X79.0031 Y41.5755 F350.00
G01 X78.9568 Y41.5333 F350.00
G01 X78.9411 Y41.5178 F350.00
G01 X78.9242 Y41.5000 F350.00
G01 X78.8502 Y41.4181 F350.00
G01 X78.8284 Y41.3916 F350.00
G01 X78.8059 Y41.3615 F350.00
G01 X78.7834 Y41.3916 F350.00
G01 X78.7616 Y41.4181 F350.00
G01 X78.6792 Y41.5090 F350.00
G01 X78.6637 Y41.5248 F350.00
G01 X78.6459 Y41.5417 F350.00
G01 X78.5640 Y41.6157 F350.00
G01 X78.5374 Y41.6375 F350.00
G01 X78.4489 Y41.7034 F350.00
G01 X78.4288 Y41.7175 F350.00
G01 X78.3999 Y41.7361 F350.00
G01 X78.3157 Y41.7866 F350.00
G01 X78.2944 Y41.7987 F350.00
G01 X78.2748 Y41.8089 F350.00
G01 X78.1639 Y41.8614 F350.00
G01 X78.1436 Y41.8700 F350.00
G01 X78.1207 Y41.8788 F350.00
G01 X78.0283 Y41.9119 F350.00
G01 X77.9956 Y41.9224 F350.00
G01 X77.9719 Y41.9290 F350.00
G01 X77.8648 Y41.9556 F350.00
G01 X77.8432 Y41.9601 F350.00
G01 X77.8190 Y41.9643 F350.00
G01 X77.7219 Y41.9787 F350.00
G01 X77.6976 Y41.9817 F350.00
G01 X77.6633 Y41.9845 F350.00
G01 X77.5653 Y41.9893 F350.00
G01 X77.5408 Y41.9899 F350.00
G01 X77.5187 Y41.9897 F350.00
G01 X77.3962 Y41.9837 F350.00
G01 X77.3742 Y41.9817 F350.00
G01 X77.3498 Y41.9787 F350.00
G01 X77.2527 Y41.9643 F350.00
G01 X77.2286 Y41.9601 F350.00
G01 X77.1950 Y41.9528 F350.00
G01 X77.0998 Y41.9290 F350.00
G01 X77.0667 Y41.9196 F350.00
G01 X77.0434 Y41.9119 F350.00
G01 X76.9510 Y41.8788 F350.00
G01 X76.9191 Y41.8662 F350.00
G01 X76.8966 Y41.8563 F350.00
G01 X76.8079 Y41.8143 F350.00
G01 X76.7860 Y41.8033 F350.00
G01 X76.7666 Y41.7927 F350.00
G01 X76.6718 Y41.7361 F350.00
G01 X76.6429 Y41.7175 F350.00
G01 X76.6229 Y41.7034 F350.00
G01 X76.5440 Y41.6449 F350.00
G01 X76.5247 Y41.6298 F350.00
G01 X76.5077 Y41.6157 F350.00
G01 X76.4258 Y41.5417 F350.00
G01 X76.4080 Y41.5248 F350.00
G01 X76.3925 Y41.5090 F350.00
G01 X76.3102 Y41.4181 F350.00
G01 X76.2884 Y41.3916 F350.00
G01 X76.2659 Y41.3615 F350.00
G00 Z0.5000
G00 X76.5329 Y38.0503
G01 F250.00
G01 Z-0.0500
G01 F350.00
G01 X76.6615 Y38.0503 F350.00
G01 X77.2329 Y37.3503 F350.00
G01 X78.4385 Y37.3503 F350.00
G01 X77.9329 Y36.6503 F350.00
G01 X79.1385 Y36.6503 F350.00
G01 X78.6329 Y35.9503 F350.00
G01 X79.8385 Y35.9503 F350.00
G01 X79.3329 Y35.2503 F350.00
G01 X80.5385 Y35.2503 F350.00
G01 X80.0329 Y34.5503 F350.00
G01 X81.2385 Y34.5503 F350.00
G01 X81.6386 Y34.1501 F350.00
G01 X80.4330 Y34.1501 F350.00
G01 X76.2214 Y38.3617 F350.00
G01 X76.2434 Y38.3884 F350.00
G01 X76.2659 Y38.4185 F350.00
G01 X76.2884 Y38.3884 F350.00
G01 X76.3102 Y38.3619 F350.00
G01 X76.3842 Y38.2800 F350.00
G01 X76.4011 Y38.2622 F350.00
G01 X76.4168 Y38.2467 F350.00
G01 X76.4985 Y38.1724 F350.00
G01 X76.5247 Y38.1502 F350.00
G01 X76.5440 Y38.1351 F350.00
G01 X76.6328 Y38.0694 F350.00
G01 X76.6614 Y38.0503 F350.00
G01 X76.7560 Y37.9934 F350.00
G01 X76.7860 Y37.9767 F350.00
G01 X76.8079 Y37.9657 F350.00
G01 X76.8966 Y37.9237 F350.00
G01 X76.9281 Y37.9100 F350.00
G01 X76.9510 Y37.9012 F350.00
G01 X77.0550 Y37.8641 F350.00
G01 X77.0879 Y37.8542 F350.00
G01 X77.1950 Y37.8272 F350.00
G01 X77.2189 Y37.8218 F350.00
G01 X77.2527 Y37.8157 F350.00
G01 X77.3498 Y37.8013 F350.00
G01 X77.3839 Y37.7973 F350.00
G01 X77.4084 Y37.7955 F350.00
G01 X77.5187 Y37.7903 F350.00
G01 X77.5530 Y37.7903 F350.00
G01 X77.6633 Y37.7955 F350.00
G01 X77.6878 Y37.7973 F350.00
G01 X77.7098 Y37.7997 F350.00
G01 X77.8190 Y37.8157 F350.00
G01 X77.8432 Y37.8199 F350.00
G01 X77.8767 Y37.8272 F350.00
G01 X77.9445 Y37.8442 F350.00
G01 X81.6386 Y34.1501 F350.00
G00 Z0.5000
G00 X82.2430 Y35.9503
G01 F250.00
G01 Z-0.0500
G01 F350.00
G01 X83.7284 Y35.9503 F350.00
G01 X83.0284 Y36.6503 F350.00
G01 X81.5430 Y36.6503 F350.00
G01 X80.8430 Y37.3503 F350.00
G01 X82.3284 Y37.3503 F350.00
G00 Z0.5000
G00 X81.7415 Y38.0503
G01 F250.00
G01 Z-0.0500
G01 F350.00
G01 X80.9502 Y38.0503 F350.00
G00 Z0.5000
G00 X80.3749 Y37.8184
G01 F250.00
G01 Z-0.0500
G01 F350.00
G01 X80.3928 Y37.8218 F350.00
G01 X80.4167 Y37.8272 F350.00
G01 X80.5119 Y37.8510 F350.00
G01 X80.5356 Y37.8576 F350.00
G01 X80.5683 Y37.8681 F350.00
G01 X80.6607 Y37.9012 F350.00
G01 X80.6836 Y37.9100 F350.00
G01 X80.7151 Y37.9237 F350.00
G01 X80.8038 Y37.9657 F350.00
G01 X80.8257 Y37.9767 F350.00
G01 X80.8557 Y37.9934 F350.00
G01 X80.9503 Y38.0503 F350.00
G01 X80.9688 Y38.0625 F350.00
G01 X80.9889 Y38.0766 F350.00
G01 X81.0677 Y38.1351 F350.00
G01 X81.0870 Y38.1502 F350.00
G01 X81.1132 Y38.1724 F350.00
G01 X81.1949 Y38.2467 F350.00
G01 X81.2106 Y38.2622 F350.00
G01 X81.2275 Y38.2800 F350.00
G01 X81.3016 Y38.3619 F350.00
G01 X81.3234 Y38.3884 F350.00
G01 X81.3459 Y38.4185 F350.00
G01 X81.3684 Y38.3884 F350.00
G01 X81.3902 Y38.3619 F350.00
G01 X81.4725 Y38.2710 F350.00
G01 X81.4968 Y38.2467 F350.00
G01 X81.5785 Y38.1724 F350.00
G01 X81.5971 Y38.1564 F350.00
G01 X81.6143 Y38.1425 F350.00
G01 X81.7128 Y38.0694 F350.00
G01 X81.7414 Y38.0503 F350.00
G01 X81.8042 Y38.0125 F350.00
G01 X81.8116 Y37.9903 F350.00
G01 X81.8241 Y37.9556 F350.00
G01 X81.8373 Y37.9239 F350.00
G01 X81.8583 Y37.8795 F350.00
G01 X81.8685 Y37.8600 F350.00
G01 X81.8806 Y37.8386 F350.00
G01 X81.8997 Y37.8071 F350.00
G01 X81.9118 Y37.7887 F350.00
G01 X81.9260 Y37.7686 F350.00
G01 X81.9406 Y37.7489 F350.00
G01 X81.9557 Y37.7296 F350.00
G01 X81.9698 Y37.7126 F350.00
G01 X82.0028 Y37.6762 F350.00
G01 X82.0147 Y37.6639 F350.00
G01 X84.2285 Y35.4501 F350.00
G01 X82.7431 Y35.4501 F350.00
G01 X80.3749 Y37.8184 F350.00
G00 Z0.5000
G00 X84.0329 Y38.0503
G01 F250.00
G01 Z-0.0500
G01 F350.00
G01 X84.2815 Y38.0503 F350.00
G01 X84.7329 Y37.3503 F350.00
G01 X105.3806 Y37.3503 F350.00
G01 X105.3806 Y36.6503 F350.00
G01 X91.9329 Y36.6503 F350.00
G01 X92.6329 Y35.9503 F350.00
G01 X105.3806 Y35.9503 F350.00
G01 X105.3806 Y35.2503 F350.00
G01 X105.0267 Y35.2503 F350.00
G00 Z0.5000
G00 X105.0809 Y34.5503
G01 F250.00
G01 Z-0.0500
G01 F350.00
G01 X105.3806 Y34.5503 F350.00
G01 X105.3806 Y33.8503 F350.00
G01 X105.0809 Y33.8503 F350.00
G00 Z0.5000
G00 X105.0806 Y33.1503
G01 F250.00
G01 Z-0.0500
G01 F350.00
G01 X105.3806 Y33.1503 F350.00
G01 X105.3806 Y32.4503 F350.00
G01 X104.7619 Y32.4503 F350.00
G01 X104.7883 Y31.7503 F350.00
G01 X105.3806 Y31.7503 F350.00
G01 X105.3806 Y31.0503 F350.00
G01 X104.9509 Y31.0503 F350.00
G00 Z0.5000
G00 X104.9509 Y30.3503
G01 F250.00
G01 Z-0.0500
G01 F350.00
G01 X105.3806 Y30.3503 F350.00
G01 X105.3806 Y29.6503 F350.00
G01 X104.8989 Y29.6503 F350.00
G00 Z0.5000
G00 X104.5119 Y28.9503
G01 F250.00
G01 Z-0.0500
G01 F350.00
G01 X105.3806 Y28.9503 F350.00
G01 X105.3806 Y28.2503 F350.00
G01 X102.0811 Y28.2503 F350.00
G01 X102.0811 Y27.5503 F350.00
G01 X105.3806 Y27.5503 F350.00
G01 X105.2251 Y26.8503 F350.00
G01 X102.0811 Y26.8503 F350.00
G01 X102.0811 Y26.1503 F350.00
G01 X104.5251 Y26.1503 F350.00
G01 X103.8251 Y25.4503 F350.00
G01 X102.0811 Y25.4503 F350.00
G00 Z0.5000
G00 X99.8806 Y25.4503
G01 F250.00
G01 Z-0.0500
G01 F350.00
G01 X99.1655 Y25.4503 F350.00
G00 Z0.5000
G00 X99.3711 Y26.1503
G01 F250.00
G01 Z-0.0500
G01 F350.00
G01 X99.8806 Y26.1503 F350.00
G01 X99.8806 Y26.8503 F350.00
G01 X99.3711 Y26.8503 F350.00
G01 X99.3711 Y27.5503 F350.00
G01 X99.8806 Y27.5503 F350.00
G01 X99.8806 Y28.2503 F350.00
G01 X99.3711 Y28.2503 F350.00
G01 X99.4319 Y28.9503 F350.00
G01 X99.6499 Y28.9503 F350.00
G00 Z0.5000
G00 X99.5409 Y29.0785
G01 F250.00
G01 Z-0.0500
G01 F350.00
G01 X99.5634 Y29.0484 F350.00
G01 X99.5852 Y29.0219 F350.00
G01 X99.6592 Y28.9400 F350.00
G01 X99.6761 Y28.9222 F350.00
G01 X99.6918 Y28.9067 F350.00
G01 X99.7735 Y28.8324 F350.00
G01 X99.7921 Y28.8164 F350.00
G01 X99.8190 Y28.7951 F350.00
G01 X99.8806 Y28.7494 F350.00
G01 X99.8806 Y24.7557 F350.00
G01 X84.6251 Y9.5003 F350.00
G01 X43.3311 Y9.5003 F350.00
G01 X43.3311 Y12.7500 F350.00
G01 X43.3304 Y12.7794 F350.00
G01 X43.3272 Y12.8407 F350.00
G01 X43.3252 Y12.8627 F350.00
G01 X43.3222 Y12.8871 F350.00
G01 X43.3131 Y12.9477 F350.00
G01 X43.3089 Y12.9694 F350.00
G01 X43.3035 Y12.9934 F350.00
G01 X43.2885 Y13.0529 F350.00
G01 X43.2822 Y13.0740 F350.00
G01 X43.2745 Y13.0973 F350.00
G01 X43.2580 Y13.1436 F350.00
G01 X43.2491 Y13.1665 F350.00
G01 X43.2405 Y13.1868 F350.00
G01 X43.2144 Y13.2423 F350.00
G01 X43.2034 Y13.2643 F350.00
G01 X43.1929 Y13.2837 F350.00
G01 X43.1550 Y13.3468 F350.00
G01 X43.1429 Y13.3653 F350.00
G01 X43.1287 Y13.3853 F350.00
G01 X43.0921 Y13.4345 F350.00
G01 X43.0782 Y13.4517 F350.00
G01 X43.0621 Y13.4703 F350.00
G01 X43.0292 Y13.5067 F350.00
G01 X43.0089 Y13.5280 F350.00
G01 X41.3911 Y15.1457 F350.00
G01 X41.3911 Y16.2894 F350.00
G01 X41.4099 Y16.3067 F350.00
G01 X41.4342 Y16.3310 F350.00
G01 X41.5084 Y16.4127 F350.00
G01 X41.5245 Y16.4313 F350.00
G01 X41.5384 Y16.4484 F350.00
G01 X41.5609 Y16.4785 F350.00
G01 X41.5834 Y16.4484 F350.00
G01 X41.6052 Y16.4219 F350.00
G01 X41.6875 Y16.3310 F350.00
G01 X41.7030 Y16.3152 F350.00
G01 X41.7208 Y16.2983 F350.00
G01 X41.8027 Y16.2243 F350.00
G01 X41.8197 Y16.2102 F350.00
G01 X41.8390 Y16.1951 F350.00
G01 X41.9179 Y16.1366 F350.00
G01 X41.9379 Y16.1225 F350.00
G01 X41.9668 Y16.1039 F350.00
G01 X42.0510 Y16.0534 F350.00
G01 X42.0724 Y16.0413 F350.00
G01 X42.0919 Y16.0311 F350.00
G01 X42.1916 Y15.9837 F350.00
G01 X42.2141 Y15.9738 F350.00
G01 X42.2345 Y15.9655 F350.00
G01 X42.3500 Y15.9241 F350.00
G01 X42.3711 Y15.9176 F350.00
G01 X42.3948 Y15.9110 F350.00
G01 X42.4900 Y15.8872 F350.00
G01 X42.5236 Y15.8799 F350.00
G01 X42.5477 Y15.8757 F350.00
G01 X42.6448 Y15.8613 F350.00
G01 X42.6692 Y15.8583 F350.00
G01 X42.6912 Y15.8563 F350.00
G01 X42.8137 Y15.8503 F350.00
G01 X42.8358 Y15.8501 F350.00
G01 X42.8603 Y15.8507 F350.00
G01 X42.9583 Y15.8555 F350.00
G01 X42.9828 Y15.8573 F350.00
G01 X43.0169 Y15.8613 F350.00
G01 X43.1140 Y15.8757 F350.00
G01 X43.1382 Y15.8799 F350.00
G01 X43.1598 Y15.8844 F350.00
G01 X43.2788 Y15.9142 F350.00
G01 X43.3000 Y15.9204 F350.00
G01 X43.3233 Y15.9281 F350.00
G01 X43.4157 Y15.9612 F350.00
G01 X43.4386 Y15.9700 F350.00
G01 X43.4701 Y15.9837 F350.00
G01 X43.5588 Y16.0257 F350.00
G01 X43.5807 Y16.0367 F350.00
G01 X43.6001 Y16.0473 F350.00
G01 X43.6949 Y16.1039 F350.00
G01 X43.7156 Y16.1170 F350.00
G01 X43.7439 Y16.1366 F350.00
G01 X43.8227 Y16.1951 F350.00
G01 X43.8496 Y16.2164 F350.00
G01 X43.8682 Y16.2324 F350.00
G01 X43.9409 Y16.2983 F350.00
G01 X43.9587 Y16.3152 F350.00
G01 X43.9742 Y16.3310 F350.00
G01 X44.0566 Y16.4219 F350.00
G01 X44.0784 Y16.4484 F350.00
G01 X44.1009 Y16.4785 F350.00
G01 X44.1234 Y16.4484 F350.00
G01 X44.1452 Y16.4219 F350.00
G01 X44.2275 Y16.3310 F350.00
G01 X44.2430 Y16.3152 F350.00
G01 X44.2608 Y16.2983 F350.00
G01 X44.3427 Y16.2243 F350.00
G01 X44.3597 Y16.2102 F350.00
G01 X44.3790 Y16.1951 F350.00
G01 X44.4579 Y16.1366 F350.00
G01 X44.4779 Y16.1225 F350.00
G01 X44.5068 Y16.1039 F350.00
G01 X44.6016 Y16.0473 F350.00
G01 X44.6210 Y16.0367 F350.00
G01 X44.6429 Y16.0257 F350.00
G01 X44.7316 Y15.9837 F350.00
G01 X44.7541 Y15.9738 F350.00
G01 X44.7860 Y15.9612 F350.00
G01 X44.8784 Y15.9281 F350.00
G01 X44.9017 Y15.9204 F350.00
G01 X44.9348 Y15.9110 F350.00
G01 X45.0300 Y15.8872 F350.00
G01 X45.0539 Y15.8818 F350.00
G01 X45.0877 Y15.8757 F350.00
G01 X45.1970 Y15.8597 F350.00
G01 X45.2189 Y15.8573 F350.00
G01 X45.2434 Y15.8555 F350.00
G01 X45.3414 Y15.8507 F350.00
G01 X45.3660 Y15.8501 F350.00
G01 X45.4003 Y15.8507 F350.00
G01 X45.4983 Y15.8555 F350.00
G01 X45.5228 Y15.8573 F350.00
G01 X45.5569 Y15.8613 F350.00
G01 X45.6540 Y15.8757 F350.00
G01 X45.6782 Y15.8799 F350.00
G01 X45.7117 Y15.8872 F350.00
G01 X45.8188 Y15.9142 F350.00
G01 X45.8400 Y15.9204 F350.00
G01 X45.8633 Y15.9281 F350.00
G01 X45.9557 Y15.9612 F350.00
G01 X45.9786 Y15.9700 F350.00
G01 X46.0101 Y15.9837 F350.00
G01 X46.1098 Y16.0311 F350.00
G01 X46.1294 Y16.0413 F350.00
G01 X46.1507 Y16.0534 F350.00
G01 X46.2453 Y16.1103 F350.00
G01 X46.2739 Y16.1294 F350.00
G01 X46.3627 Y16.1951 F350.00
G01 X46.3820 Y16.2102 F350.00
G01 X46.3990 Y16.2243 F350.00
G01 X46.4809 Y16.2983 F350.00
G01 X46.4987 Y16.3152 F350.00
G01 X46.5225 Y16.3400 F350.00
G01 X46.5884 Y16.4127 F350.00
G01 X46.6045 Y16.4313 F350.00
G01 X46.6258 Y16.4582 F350.00
G01 X46.6843 Y16.5370 F350.00
G01 X46.6984 Y16.5571 F350.00
G01 X46.7170 Y16.5860 F350.00
G01 X46.7674 Y16.6701 F350.00
G01 X46.7795 Y16.6915 F350.00
G01 X46.7952 Y16.7221 F350.00
G01 X46.8371 Y16.8108 F350.00
G01 X46.8508 Y16.8423 F350.00
G01 X46.8597 Y16.8652 F350.00
G01 X46.8927 Y16.9576 F350.00
G01 X46.9033 Y16.9903 F350.00
G01 X46.9098 Y17.0139 F350.00
G01 X46.9337 Y17.1091 F350.00
G01 X46.9410 Y17.1427 F350.00
G01 X46.9452 Y17.1669 F350.00
G01 X46.9596 Y17.2639 F350.00
G01 X46.9626 Y17.2883 F350.00
G01 X46.9646 Y17.3103 F350.00
G01 X46.9701 Y17.4206 F350.00
G01 X46.9709 Y17.4500 F350.00
G01 X46.9709 Y19.4500 F350.00
G01 X46.9701 Y19.4794 F350.00
G01 X46.9646 Y19.5897 F350.00
G01 X46.9626 Y19.6117 F350.00
G01 X46.9596 Y19.6361 F350.00
G01 X46.9452 Y19.7331 F350.00
G01 X46.9390 Y19.7669 F350.00
G01 X46.9337 Y19.7909 F350.00
G01 X46.9067 Y19.8979 F350.00
G01 X46.9004 Y19.9191 F350.00
G01 X46.8927 Y19.9424 F350.00
G01 X46.8597 Y20.0348 F350.00
G01 X46.8508 Y20.0577 F350.00
G01 X46.8371 Y20.0892 F350.00
G01 X46.7952 Y20.1779 F350.00
G01 X46.7841 Y20.1999 F350.00
G01 X46.7736 Y20.2193 F350.00
G01 X46.7105 Y20.3245 F350.00
G01 X46.6984 Y20.3429 F350.00
G01 X46.6843 Y20.3630 F350.00
G01 X46.6258 Y20.4418 F350.00
G01 X46.6045 Y20.4687 F350.00
G01 X46.5884 Y20.4873 F350.00
G01 X46.5142 Y20.5690 F350.00
G01 X46.4987 Y20.5848 F350.00
G01 X46.4809 Y20.6017 F350.00
G01 X46.4082 Y20.6676 F350.00
G01 X46.3820 Y20.6898 F350.00
G01 X46.3627 Y20.7049 F350.00
G01 X46.2839 Y20.7634 F350.00
G01 X46.2638 Y20.7775 F350.00
G01 X46.2453 Y20.7897 F350.00
G01 X46.1507 Y20.8466 F350.00
G01 X46.1294 Y20.8587 F350.00
G01 X46.0988 Y20.8743 F350.00
G01 X46.0101 Y20.9163 F350.00
G01 X45.9786 Y20.9300 F350.00
G01 X45.9557 Y20.9388 F350.00
G01 X45.8517 Y20.9759 F350.00
G01 X45.8306 Y20.9824 F350.00
G01 X45.8069 Y20.9890 F350.00
G01 X45.7117 Y21.0128 F350.00
G01 X45.6782 Y21.0201 F350.00
G01 X45.6540 Y21.0243 F350.00
G01 X45.5569 Y21.0387 F350.00
G01 X45.5326 Y21.0417 F350.00
G01 X45.5106 Y21.0437 F350.00
G01 X45.3880 Y21.0497 F350.00
G01 X45.3660 Y21.0499 F350.00
G01 X45.3414 Y21.0493 F350.00
G01 X45.2434 Y21.0445 F350.00
G01 X45.2189 Y21.0427 F350.00
G01 X45.1848 Y21.0387 F350.00
G01 X45.0877 Y21.0243 F350.00
G01 X45.0636 Y21.0201 F350.00
G01 X45.0419 Y21.0156 F350.00
G01 X44.9229 Y20.9858 F350.00
G01 X44.9017 Y20.9796 F350.00
G01 X44.8784 Y20.9719 F350.00
G01 X44.7860 Y20.9388 F350.00
G01 X44.7631 Y20.9300 F350.00
G01 X44.7316 Y20.9163 F350.00
G01 X44.6429 Y20.8743 F350.00
G01 X44.6210 Y20.8633 F350.00
G01 X44.6016 Y20.8527 F350.00
G01 X44.5068 Y20.7961 F350.00
G01 X44.4861 Y20.7830 F350.00
G01 X44.4579 Y20.7634 F350.00
G01 X44.3790 Y20.7049 F350.00
G01 X44.3521 Y20.6836 F350.00
G01 X44.3335 Y20.6676 F350.00
G01 X44.2608 Y20.6017 F350.00
G01 X44.2430 Y20.5848 F350.00
G01 X44.2275 Y20.5690 F350.00
G01 X44.1452 Y20.4781 F350.00
G01 X44.1234 Y20.4516 F350.00
G01 X44.1009 Y20.4215 F350.00
G01 X44.0784 Y20.4516 F350.00
G01 X44.0566 Y20.4781 F350.00
G01 X43.9742 Y20.5690 F350.00
G01 X43.9587 Y20.5848 F350.00
G01 X43.9409 Y20.6017 F350.00
G01 X43.8590 Y20.6757 F350.00
G01 X43.8420 Y20.6898 F350.00
G01 X43.8227 Y20.7049 F350.00
G01 X43.7439 Y20.7634 F350.00
G01 X43.7238 Y20.7775 F350.00
G01 X43.6949 Y20.7961 F350.00
G01 X43.6107 Y20.8466 F350.00
G01 X43.5894 Y20.8587 F350.00
G01 X43.5698 Y20.8689 F350.00
G01 X43.4701 Y20.9163 F350.00
G01 X43.4476 Y20.9262 F350.00
G01 X43.4272 Y20.9345 F350.00
G01 X43.3117 Y20.9759 F350.00
G01 X43.2906 Y20.9824 F350.00
G01 X43.2669 Y20.9890 F350.00
G01 X43.1717 Y21.0128 F350.00
G01 X43.1382 Y21.0201 F350.00
G01 X43.1140 Y21.0243 F350.00
G01 X43.0169 Y21.0387 F350.00
G01 X42.9926 Y21.0417 F350.00
G01 X42.9706 Y21.0437 F350.00
G01 X42.8480 Y21.0497 F350.00
G01 X42.8260 Y21.0499 F350.00
G01 X42.8014 Y21.0493 F350.00
G01 X42.7034 Y21.0445 F350.00
G01 X42.6789 Y21.0427 F350.00
G01 X42.6448 Y21.0387 F350.00
G01 X42.5477 Y21.0243 F350.00
G01 X42.5236 Y21.0201 F350.00
G01 X42.5019 Y21.0156 F350.00
G01 X42.3829 Y20.9858 F350.00
G01 X42.3617 Y20.9796 F350.00
G01 X42.3384 Y20.9719 F350.00
G01 X42.2460 Y20.9388 F350.00
G01 X42.2231 Y20.9300 F350.00
G01 X42.1916 Y20.9163 F350.00
G01 X42.1029 Y20.8743 F350.00
G01 X42.0810 Y20.8633 F350.00
G01 X42.0616 Y20.8527 F350.00
G01 X41.9668 Y20.7961 F350.00
G01 X41.9461 Y20.7830 F350.00
G01 X41.9179 Y20.7634 F350.00
G01 X41.8390 Y20.7049 F350.00
G01 X41.8121 Y20.6836 F350.00
G01 X41.7935 Y20.6676 F350.00
G01 X41.7208 Y20.6017 F350.00
G01 X41.7030 Y20.5848 F350.00
G01 X41.6875 Y20.5690 F350.00
G01 X41.6052 Y20.4781 F350.00
G01 X41.5834 Y20.4516 F350.00
G01 X41.5609 Y20.4215 F350.00
G01 X41.5384 Y20.4516 F350.00
G01 X41.5166 Y20.4781 F350.00
G01 X41.4342 Y20.5690 F350.00
G01 X41.4187 Y20.5848 F350.00
G01 X41.4009 Y20.6017 F350.00
G01 X41.3190 Y20.6757 F350.00
G01 X41.3020 Y20.6898 F350.00
G01 X41.2827 Y20.7049 F350.00
G01 X41.2039 Y20.7634 F350.00
G01 X41.1838 Y20.7775 F350.00
G01 X41.1549 Y20.7961 F350.00
G01 X41.0707 Y20.8466 F350.00
G01 X41.0494 Y20.8587 F350.00
G01 X41.0298 Y20.8689 F350.00
G01 X40.9301 Y20.9163 F350.00
G01 X40.9076 Y20.9262 F350.00
G01 X40.8872 Y20.9345 F350.00
G01 X40.7717 Y20.9759 F350.00
G01 X40.7506 Y20.9824 F350.00
G01 X40.7269 Y20.9890 F350.00
G01 X40.6317 Y21.0128 F350.00
G01 X40.5982 Y21.0201 F350.00
G01 X40.5740 Y21.0243 F350.00
G01 X40.4769 Y21.0387 F350.00
G01 X40.4526 Y21.0417 F350.00
G01 X40.4306 Y21.0437 F350.00
G01 X40.3080 Y21.0497 F350.00
G01 X40.2860 Y21.0499 F350.00
G01 X40.2614 Y21.0493 F350.00
G01 X40.1634 Y21.0445 F350.00
G01 X40.1389 Y21.0427 F350.00
G01 X40.1048 Y21.0387 F350.00
G01 X40.0077 Y21.0243 F350.00
G01 X39.9836 Y21.0201 F350.00
G01 X39.9619 Y21.0156 F350.00
G01 X39.8429 Y20.9858 F350.00
G01 X39.8217 Y20.9796 F350.00
G01 X39.7984 Y20.9719 F350.00
G01 X39.7060 Y20.9388 F350.00
G01 X39.6831 Y20.9300 F350.00
G01 X39.6516 Y20.9163 F350.00
G01 X39.5629 Y20.8743 F350.00
G01 X39.5410 Y20.8633 F350.00
G01 X39.5216 Y20.8527 F350.00
G01 X39.4268 Y20.7961 F350.00
G01 X39.4061 Y20.7830 F350.00
G01 X39.3779 Y20.7634 F350.00
G01 X39.2990 Y20.7049 F350.00
G01 X39.2721 Y20.6836 F350.00
G01 X39.2535 Y20.6676 F350.00
G01 X39.1808 Y20.6017 F350.00
G01 X39.1630 Y20.5848 F350.00
G01 X39.1475 Y20.5690 F350.00
G01 X39.0652 Y20.4781 F350.00
G01 X39.0434 Y20.4516 F350.00
G01 X39.0209 Y20.4215 F350.00
G01 X38.9984 Y20.4516 F350.00
G01 X38.9766 Y20.4781 F350.00
G01 X38.8942 Y20.5690 F350.00
G01 X38.8787 Y20.5848 F350.00
G01 X38.8609 Y20.6017 F350.00
G01 X38.7790 Y20.6757 F350.00
G01 X38.7620 Y20.6898 F350.00
G01 X38.7427 Y20.7049 F350.00
G01 X38.6639 Y20.7634 F350.00
G01 X38.6438 Y20.7775 F350.00
G01 X38.6149 Y20.7961 F350.00
G01 X38.5201 Y20.8527 F350.00
G01 X38.5007 Y20.8633 F350.00
G01 X38.4788 Y20.8743 F350.00
G01 X38.3901 Y20.9163 F350.00
G01 X38.3676 Y20.9262 F350.00
G01 X38.3357 Y20.9388 F350.00
G01 X38.2433 Y20.9719 F350.00
G01 X38.2200 Y20.9796 F350.00
G01 X38.1869 Y20.9890 F350.00
G01 X38.0917 Y21.0128 F350.00
G01 X38.0582 Y21.0201 F350.00
G01 X38.0340 Y21.0243 F350.00
G01 X37.9369 Y21.0387 F350.00
G01 X37.9126 Y21.0417 F350.00
G01 X37.8906 Y21.0437 F350.00
G01 X37.7680 Y21.0497 F350.00
G01 X37.7460 Y21.0499 F350.00
G01 X37.7214 Y21.0493 F350.00
G01 X37.6234 Y21.0445 F350.00
G01 X37.5892 Y21.0417 F350.00
G01 X37.5648 Y21.0387 F350.00
G01 X37.4677 Y21.0243 F350.00
G01 X37.4436 Y21.0201 F350.00
G01 X37.4219 Y21.0156 F350.00
G01 X37.3148 Y20.9890 F350.00
G01 X37.2911 Y20.9824 F350.00
G01 X37.2584 Y20.9719 F350.00
G01 X37.1660 Y20.9388 F350.00
G01 X37.1431 Y20.9300 F350.00
G01 X37.1228 Y20.9214 F350.00
G01 X37.0229 Y20.8743 F350.00
G01 X37.0010 Y20.8633 F350.00
G01 X36.9710 Y20.8466 F350.00
G01 X36.8868 Y20.7961 F350.00
G01 X36.8661 Y20.7830 F350.00
G01 X36.8478 Y20.7706 F350.00
G01 X36.7493 Y20.6975 F350.00
G01 X36.7227 Y20.6757 F350.00
G01 X36.6408 Y20.6017 F350.00
G01 X36.6230 Y20.5848 F350.00
G01 X36.6075 Y20.5690 F350.00
G01 X36.5252 Y20.4781 F350.00
G01 X36.5034 Y20.4516 F350.00
G01 X36.4809 Y20.4215 F350.00
G01 X36.4584 Y20.4516 F350.00
G01 X36.4445 Y20.4687 F350.00
G01 X36.4284 Y20.4873 F350.00
G01 X36.3542 Y20.5690 F350.00
G01 X36.3299 Y20.5933 F350.00
G01 X36.3111 Y20.6106 F350.00
G01 X36.3111 Y21.6997 F350.00
G01 X94.9809 Y21.6997 F350.00
G01 X95.0103 Y21.7005 F350.00
G01 X95.0593 Y21.7029 F350.00
G01 X95.0838 Y21.7047 F350.00
G01 X95.1058 Y21.7070 F350.00
G01 X95.1665 Y21.7159 F350.00
G01 X95.1907 Y21.7201 F350.00
G01 X95.2242 Y21.7273 F350.00
G01 X95.2837 Y21.7424 F350.00
G01 X95.3166 Y21.7524 F350.00
G01 X95.3744 Y21.7729 F350.00
G01 X95.3973 Y21.7817 F350.00
G01 X95.4288 Y21.7954 F350.00
G01 X95.4842 Y21.8218 F350.00
G01 X95.5038 Y21.8321 F350.00
G01 X95.5251 Y21.8442 F350.00
G01 X95.5672 Y21.8694 F350.00
G01 X95.5880 Y21.8825 F350.00
G01 X95.6162 Y21.9021 F350.00
G01 X95.6654 Y21.9388 F350.00
G01 X95.6920 Y21.9606 F350.00
G01 X95.7375 Y22.0017 F350.00
G01 X95.7589 Y22.0220 F350.00
G01 X99.0489 Y25.3120 F350.00
G01 X99.0692 Y25.3333 F350.00
G01 X99.1021 Y25.3697 F350.00
G01 X99.1182 Y25.3883 F350.00
G01 X99.1321 Y25.4055 F350.00
G01 X99.1759 Y25.4646 F350.00
G01 X99.1883 Y25.4829 F350.00
G01 X99.2014 Y25.5036 F350.00
G01 X99.2329 Y25.5563 F350.00
G01 X99.2434 Y25.5757 F350.00
G01 X99.2544 Y25.5977 F350.00
G01 X99.2754 Y25.6420 F350.00
G01 X99.2854 Y25.6645 F350.00
G01 X99.2937 Y25.6849 F350.00
G01 X99.3185 Y25.7543 F350.00
G01 X99.3250 Y25.7753 F350.00
G01 X99.3316 Y25.7990 F350.00
G01 X99.3464 Y25.8586 F350.00
G01 X99.3508 Y25.8802 F350.00
G01 X99.3550 Y25.9044 F350.00
G01 X99.3639 Y25.9651 F350.00
G01 X99.3662 Y25.9871 F350.00
G01 X99.3680 Y26.0115 F350.00
G01 X99.3704 Y26.0606 F350.00
G01 X99.3711 Y26.0900 F350.00
G01 X99.3711 Y28.8894 F350.00
G01 X99.3899 Y28.9067 F350.00
G01 X99.4142 Y28.9310 F350.00
G01 X99.4884 Y29.0127 F350.00
G01 X99.5045 Y29.0313 F350.00
G01 X99.5184 Y29.0484 F350.00
G01 X99.5409 Y29.0785 F350.00
G00 Z0.5000
G00 X97.1099 Y28.9503
G01 F250.00
G01 Z-0.0500
G01 F350.00
G01 X96.8919 Y28.9503 F350.00
G00 Z0.5000
G00 X97.0009 Y29.0785
G01 F250.00
G01 Z-0.0500
G01 F350.00
G01 X97.0234 Y29.0484 F350.00
G01 X97.0373 Y29.0313 F350.00
G01 X97.0533 Y29.0127 F350.00
G01 X97.1275 Y28.9310 F350.00
G01 X97.1518 Y28.9067 F350.00
G01 X97.1706 Y28.8894 F350.00
G01 X97.1706 Y26.5457 F350.00
G01 X94.5251 Y23.9003 F350.00
G01 X81.9366 Y23.9003 F350.00
G01 X69.5811 Y36.2557 F350.00
G01 X69.5811 Y37.2475 F350.00
G01 X82.5297 Y24.2989 F350.00
G01 X82.5511 Y24.2786 F350.00
G01 X82.5692 Y24.2621 F350.00
G01 X82.5878 Y24.2461 F350.00
G01 X82.6148 Y24.2247 F350.00
G01 X82.6345 Y24.2101 F350.00
G01 X82.6545 Y24.1960 F350.00
G01 X82.6834 Y24.1774 F350.00
G01 X82.7045 Y24.1648 F350.00
G01 X82.7258 Y24.1527 F350.00
G01 X82.7564 Y24.1370 F350.00
G01 X82.7786 Y24.1265 F350.00
G01 X82.8010 Y24.1166 F350.00
G01 X82.8330 Y24.1040 F350.00
G01 X82.8561 Y24.0957 F350.00
G01 X82.8794 Y24.0880 F350.00
G01 X82.9125 Y24.0786 F350.00
G01 X82.9363 Y24.0727 F350.00
G01 X82.9602 Y24.0673 F350.00
G01 X82.9940 Y24.0612 F350.00
G01 X83.0183 Y24.0576 F350.00
G01 X83.0427 Y24.0546 F350.00
G01 X83.0769 Y24.0518 F350.00
G01 X83.1137 Y24.0501 F350.00
G01 X83.1309 Y24.0499 F350.00
G01 X90.9809 Y24.0499 F350.00
G01 X91.0103 Y24.0506 F350.00
G01 X91.0348 Y24.0518 F350.00
G01 X91.0593 Y24.0536 F350.00
G01 X91.0813 Y24.0559 F350.00
G01 X91.1298 Y24.0631 F350.00
G01 X91.1635 Y24.0698 F350.00
G01 X91.1993 Y24.0786 F350.00
G01 X91.2323 Y24.0880 F350.00
G01 X91.2556 Y24.0957 F350.00
G01 X91.2902 Y24.1083 F350.00
G01 X91.3107 Y24.1166 F350.00
G01 X91.3331 Y24.1265 F350.00
G01 X91.3553 Y24.1370 F350.00
G01 X91.3772 Y24.1480 F350.00
G01 X91.3966 Y24.1586 F350.00
G01 X91.4283 Y24.1774 F350.00
G01 X91.4490 Y24.1905 F350.00
G01 X91.4673 Y24.2029 F350.00
G01 X91.5067 Y24.2322 F350.00
G01 X91.5333 Y24.2540 F350.00
G01 X91.5732 Y24.2903 F350.00
G01 X93.7920 Y26.5089 F350.00
G01 X93.8039 Y26.5212 F350.00
G01 X93.8288 Y26.5484 F350.00
G01 X93.8510 Y26.5746 F350.00
G01 X93.8661 Y26.5939 F350.00
G01 X93.8879 Y26.6236 F350.00
G01 X93.9070 Y26.6521 F350.00
G01 X93.9261 Y26.6836 F350.00
G01 X93.9382 Y26.7050 F350.00
G01 X93.9485 Y26.7245 F350.00
G01 X93.9643 Y26.7577 F350.00
G01 X93.9743 Y26.7802 F350.00
G01 X93.9826 Y26.8006 F350.00
G01 X93.9991 Y26.8469 F350.00
G01 X94.0057 Y26.8680 F350.00
G01 X94.0122 Y26.8916 F350.00
G01 X94.0210 Y26.9274 F350.00
G01 X94.0255 Y26.9490 F350.00
G01 X94.0297 Y26.9732 F350.00
G01 X94.0349 Y27.0096 F350.00
G01 X94.0383 Y27.0438 F350.00
G01 X94.0403 Y27.0806 F350.00
G01 X94.0410 Y27.1100 F350.00
G01 X94.0410 Y28.6956 F350.00
G01 X94.0653 Y28.7103 F350.00
G01 X94.0939 Y28.7294 F350.00
G01 X94.1924 Y28.8025 F350.00
G01 X94.2190 Y28.8243 F350.00
G01 X94.3009 Y28.8983 F350.00
G01 X94.3187 Y28.9152 F350.00
G01 X94.3342 Y28.9310 F350.00
G01 X94.4084 Y29.0127 F350.00
G01 X94.4245 Y29.0313 F350.00
G01 X94.4384 Y29.0484 F350.00
G01 X94.4609 Y29.0785 F350.00
G01 X94.4834 Y29.0484 F350.00
G01 X94.5052 Y29.0219 F350.00
G01 X94.5875 Y28.9310 F350.00
G01 X94.6030 Y28.9152 F350.00
G01 X94.6208 Y28.8983 F350.00
G01 X94.7027 Y28.8243 F350.00
G01 X94.7197 Y28.8102 F350.00
G01 X94.7390 Y28.7951 F350.00
G01 X94.8179 Y28.7366 F350.00
G01 X94.8379 Y28.7225 F350.00
G01 X94.8668 Y28.7039 F350.00
G01 X94.9510 Y28.6534 F350.00
G01 X94.9724 Y28.6413 F350.00
G01 X94.9919 Y28.6311 F350.00
G01 X95.1028 Y28.5786 F350.00
G01 X95.1231 Y28.5700 F350.00
G01 X95.1460 Y28.5612 F350.00
G01 X95.2384 Y28.5281 F350.00
G01 X95.2617 Y28.5204 F350.00
G01 X95.2948 Y28.5110 F350.00
G01 X95.3900 Y28.4872 F350.00
G01 X95.4139 Y28.4818 F350.00
G01 X95.4356 Y28.4777 F350.00
G01 X95.5448 Y28.4613 F350.00
G01 X95.5692 Y28.4583 F350.00
G01 X95.6034 Y28.4555 F350.00
G01 X95.7014 Y28.4507 F350.00
G01 X95.7260 Y28.4501 F350.00
G01 X95.7603 Y28.4507 F350.00
G01 X95.8583 Y28.4555 F350.00
G01 X95.8926 Y28.4583 F350.00
G01 X95.9169 Y28.4613 F350.00
G01 X96.0261 Y28.4777 F350.00
G01 X96.0478 Y28.4818 F350.00
G01 X96.0717 Y28.4872 F350.00
G01 X96.1669 Y28.5110 F350.00
G01 X96.2000 Y28.5204 F350.00
G01 X96.2233 Y28.5281 F350.00
G01 X96.3157 Y28.5612 F350.00
G01 X96.3386 Y28.5700 F350.00
G01 X96.3589 Y28.5786 F350.00
G01 X96.4698 Y28.6311 F350.00
G01 X96.4894 Y28.6413 F350.00
G01 X96.5107 Y28.6534 F350.00
G01 X96.5949 Y28.7039 F350.00
G01 X96.6238 Y28.7225 F350.00
G01 X96.6439 Y28.7366 F350.00
G01 X96.7227 Y28.7951 F350.00
G01 X96.7420 Y28.8102 F350.00
G01 X96.7590 Y28.8243 F350.00
G01 X96.8409 Y28.8983 F350.00
G01 X96.8587 Y28.9152 F350.00
G01 X96.8742 Y28.9310 F350.00
G01 X96.9566 Y29.0219 F350.00
G01 X96.9784 Y29.0484 F350.00
G01 X97.0009 Y29.0785 F350.00
G01 X97.1706 Y28.2503 F350.00
G01 X94.0410 Y28.2503 F350.00
G01 X94.0410 Y27.5503 F350.00
G01 X97.1706 Y27.5503 F350.00
G01 X97.1706 Y26.8503 F350.00
G01 X94.0002 Y26.8503 F350.00
G00 Z0.5000
G00 X93.4334 Y26.1503
G01 F250.00
G01 Z-0.0500
G01 F350.00
G01 X96.7751 Y26.1503 F350.00
G01 X96.0751 Y25.4503 F350.00
G01 X92.7334 Y25.4503 F350.00
G01 X92.0334 Y24.7503 F350.00
G01 X95.3751 Y24.7503 F350.00
G01 X94.6751 Y24.0503 F350.00
G01 X91.0009 Y24.0503 F350.00
G00 Z0.5000
G00 X91.0289 Y26.1503
G01 F250.00
G01 Z-0.0500
G01 F350.00
G01 X83.0829 Y26.1503 F350.00
G01 X82.3829 Y26.8503 F350.00
G01 X91.7289 Y26.8503 F350.00
G01 X92.3407 Y27.5503 F350.00
G01 X81.6829 Y27.5503 F350.00
G01 X80.9829 Y28.2503 F350.00
G01 X82.6379 Y28.2503 F350.00
G00 Z0.5000
G00 X83.4239 Y28.2503
G01 F250.00
G01 Z-0.0500
G01 F350.00
G01 X92.3407 Y28.2503 F350.00
G01 X92.0299 Y28.9503 F350.00
G01 X91.8119 Y28.9503 F350.00
G00 Z0.5000
G00 X91.9209 Y29.0785
G01 F250.00
G01 Z-0.0500
G01 F350.00
G01 X91.9434 Y29.0484 F350.00
G01 X91.9573 Y29.0313 F350.00
G01 X91.9733 Y29.0127 F350.00
G01 X92.0475 Y28.9310 F350.00
G01 X92.0630 Y28.9152 F350.00
G01 X92.0808 Y28.8983 F350.00
G01 X92.1627 Y28.8243 F350.00
G01 X92.1893 Y28.8025 F350.00
G01 X92.2878 Y28.7294 F350.00
G01 X92.3164 Y28.7103 F350.00
G01 X92.3407 Y28.6956 F350.00
G01 X92.3407 Y27.4621 F350.00
G01 X90.6287 Y25.7501 F350.00
G01 X83.4830 Y25.7501 F350.00
G01 X70.8310 Y38.4021 F350.00
G01 X70.8310 Y40.6979 F350.00
G01 X70.9028 Y40.7696 F350.00
G01 X70.8902 Y40.7189 F350.00
G01 X70.8835 Y40.6852 F350.00
G01 X70.8655 Y40.5639 F350.00
G01 X70.8632 Y40.5419 F350.00
G01 X70.8614 Y40.5175 F350.00
G01 X70.8566 Y40.4194 F350.00
G01 X70.8559 Y40.3900 F350.00
G01 X70.8559 Y39.3900 F350.00
G01 X70.8561 Y39.3728 F350.00
G01 X70.8614 Y39.2625 F350.00
G01 X70.8632 Y39.2381 F350.00
G01 X70.8655 Y39.2161 F350.00
G01 X70.8835 Y39.0948 F350.00
G01 X70.8877 Y39.0731 F350.00
G01 X70.8931 Y39.0491 F350.00
G01 X70.9169 Y38.9539 F350.00
G01 X70.9263 Y38.9209 F350.00
G01 X70.9340 Y38.8976 F350.00
G01 X70.9671 Y38.8052 F350.00
G01 X70.9796 Y38.7732 F350.00
G01 X70.9896 Y38.7508 F350.00
G01 X71.0315 Y38.6621 F350.00
G01 X71.0426 Y38.6401 F350.00
G01 X71.0593 Y38.6101 F350.00
G01 X71.1162 Y38.5155 F350.00
G01 X71.1283 Y38.4971 F350.00
G01 X71.1425 Y38.4770 F350.00
G01 X71.2084 Y38.3884 F350.00
G01 X71.2302 Y38.3619 F350.00
G01 X71.3042 Y38.2800 F350.00
G01 X71.3280 Y38.2552 F350.00
G01 X71.3458 Y38.2383 F350.00
G01 X71.4277 Y38.1643 F350.00
G01 X71.4447 Y38.1502 F350.00
G01 X71.4640 Y38.1351 F350.00
G01 X71.5528 Y38.0694 F350.00
G01 X71.5814 Y38.0503 F350.00
G01 X71.6760 Y37.9934 F350.00
G01 X71.6974 Y37.9813 F350.00
G01 X71.7169 Y37.9711 F350.00
G01 X71.8166 Y37.9237 F350.00
G01 X71.8481 Y37.9100 F350.00
G01 X71.8710 Y37.9012 F350.00
G01 X71.9634 Y37.8681 F350.00
G01 X71.9867 Y37.8604 F350.00
G01 X72.0079 Y37.8542 F350.00
G01 X72.1150 Y37.8272 F350.00
G01 X72.1486 Y37.8199 F350.00
G01 X72.1727 Y37.8157 F350.00
G01 X72.2698 Y37.8013 F350.00
G01 X72.3039 Y37.7973 F350.00
G01 X72.3284 Y37.7955 F350.00
G01 X72.4264 Y37.7907 F350.00
G01 X72.4608 Y37.7901 F350.00
G01 X72.4853 Y37.7907 F350.00
G01 X72.5833 Y37.7955 F350.00
G01 X72.6078 Y37.7973 F350.00
G01 X72.6298 Y37.7997 F350.00
G01 X72.7390 Y37.8157 F350.00
G01 X72.7728 Y37.8218 F350.00
G01 X72.7967 Y37.8272 F350.00
G01 X72.8919 Y37.8510 F350.00
G01 X72.9250 Y37.8604 F350.00
G01 X72.9483 Y37.8681 F350.00
G01 X73.0407 Y37.9012 F350.00
G01 X73.0726 Y37.9138 F350.00
G01 X73.0951 Y37.9237 F350.00
G01 X73.1838 Y37.9657 F350.00
G01 X73.2057 Y37.9767 F350.00
G01 X73.2251 Y37.9873 F350.00
G01 X73.3199 Y38.0439 F350.00
G01 X73.3488 Y38.0625 F350.00
G01 X73.3689 Y38.0766 F350.00
G01 X73.4477 Y38.1351 F350.00
G01 X73.4670 Y38.1502 F350.00
G01 X73.4840 Y38.1643 F350.00
G01 X73.5659 Y38.2383 F350.00
G01 X73.5837 Y38.2552 F350.00
G01 X73.5992 Y38.2710 F350.00
G01 X73.6816 Y38.3619 F350.00
G01 X73.7034 Y38.3884 F350.00
G01 X73.7259 Y38.4185 F350.00
G01 X73.7484 Y38.3884 F350.00
G01 X73.7702 Y38.3619 F350.00
G01 X73.8525 Y38.2710 F350.00
G01 X73.8680 Y38.2552 F350.00
G01 X73.8858 Y38.2383 F350.00
G01 X73.9677 Y38.1643 F350.00
G01 X73.9847 Y38.1502 F350.00
G01 X74.0040 Y38.1351 F350.00
G01 X74.0829 Y38.0766 F350.00
G01 X74.1029 Y38.0625 F350.00
G01 X74.1318 Y38.0439 F350.00
G01 X74.2160 Y37.9934 F350.00
G01 X74.2266 Y37.9873 F350.00
G01 X74.2521 Y37.9736 F350.00
G01 X74.2733 Y37.9376 F350.00
G01 X74.2864 Y37.9168 F350.00
G01 X74.2988 Y37.8986 F350.00
G01 X74.3206 Y37.8689 F350.00
G01 X74.3357 Y37.8496 F350.00
G01 X74.3498 Y37.8326 F350.00
G01 X74.3744 Y37.8052 F350.00
G01 X74.3947 Y37.7839 F350.00
G01 X79.4797 Y32.6989 F350.00
G01 X79.5011 Y32.6786 F350.00
G01 X79.5284 Y32.6540 F350.00
G01 X79.5550 Y32.6322 F350.00
G01 X79.5845 Y32.6101 F350.00
G01 X79.6045 Y32.5960 F350.00
G01 X79.6230 Y32.5838 F350.00
G01 X79.6651 Y32.5586 F350.00
G01 X79.6845 Y32.5480 F350.00
G01 X79.7064 Y32.5370 F350.00
G01 X79.7398 Y32.5214 F350.00
G01 X79.7601 Y32.5128 F350.00
G01 X79.7830 Y32.5040 F350.00
G01 X79.8177 Y32.4917 F350.00
G01 X79.8388 Y32.4852 F350.00
G01 X79.8625 Y32.4786 F350.00
G01 X79.8982 Y32.4698 F350.00
G01 X79.9198 Y32.4654 F350.00
G01 X79.9440 Y32.4612 F350.00
G01 X79.9805 Y32.4559 F350.00
G01 X80.0147 Y32.4526 F350.00
G01 X80.0514 Y32.4506 F350.00
G01 X80.0809 Y32.4499 F350.00
G01 X81.9189 Y32.4499 F350.00
G01 X81.9030 Y32.4348 F350.00
G01 X81.8875 Y32.4190 F350.00
G01 X81.8133 Y32.3373 F350.00
G01 X81.7973 Y32.3187 F350.00
G01 X81.7759 Y32.2918 F350.00
G01 X81.7175 Y32.2130 F350.00
G01 X81.6979 Y32.1848 F350.00
G01 X81.6848 Y32.1640 F350.00
G01 X81.6343 Y32.0799 F350.00
G01 X81.6222 Y32.0585 F350.00
G01 X81.6065 Y32.0279 F350.00
G01 X81.5646 Y31.9392 F350.00
G01 X81.5546 Y31.9168 F350.00
G01 X81.5421 Y31.8848 F350.00
G01 X81.5090 Y31.7924 F350.00
G01 X81.4984 Y31.7597 F350.00
G01 X81.4919 Y31.7361 F350.00
G01 X81.4652 Y31.6289 F350.00
G01 X81.4585 Y31.5952 F350.00
G01 X81.4422 Y31.4861 F350.00
G01 X81.4382 Y31.4519 F350.00
G01 X81.4364 Y31.4275 F350.00
G01 X81.4316 Y31.3294 F350.00
G01 X81.4309 Y31.3000 F350.00
G01 X81.4309 Y29.8000 F350.00
G01 X81.4316 Y29.7706 F350.00
G01 X81.4372 Y29.6603 F350.00
G01 X81.4392 Y29.6383 F350.00
G01 X81.4422 Y29.6139 F350.00
G01 X81.4566 Y29.5169 F350.00
G01 X81.4627 Y29.4831 F350.00
G01 X81.4681 Y29.4591 F350.00
G01 X81.4950 Y29.3521 F350.00
G01 X81.5013 Y29.3309 F350.00
G01 X81.5090 Y29.3076 F350.00
G01 X81.5421 Y29.2152 F350.00
G01 X81.5509 Y29.1923 F350.00
G01 X81.5646 Y29.1608 F350.00
G01 X81.6065 Y29.0721 F350.00
G01 X81.6176 Y29.0501 F350.00
G01 X81.6281 Y29.0307 F350.00
G01 X81.6848 Y28.9360 F350.00
G01 X81.6979 Y28.9152 F350.00
G01 X81.7175 Y28.8870 F350.00
G01 X81.7759 Y28.8082 F350.00
G01 X81.7973 Y28.7813 F350.00
G01 X81.8133 Y28.7627 F350.00
G01 X81.8875 Y28.6810 F350.00
G01 X81.9030 Y28.6652 F350.00
G01 X81.9208 Y28.6483 F350.00
G01 X81.9935 Y28.5824 F350.00
G01 X82.0197 Y28.5602 F350.00
G01 X82.0390 Y28.5451 F350.00
G01 X82.1179 Y28.4866 F350.00
G01 X82.1379 Y28.4725 F350.00
G01 X82.1564 Y28.4603 F350.00
G01 X82.2616 Y28.3973 F350.00
G01 X82.2810 Y28.3867 F350.00
G01 X82.3029 Y28.3757 F350.00
G01 X82.3916 Y28.3337 F350.00
G01 X82.4141 Y28.3238 F350.00
G01 X82.4460 Y28.3112 F350.00
G01 X82.5384 Y28.2781 F350.00
G01 X82.5617 Y28.2704 F350.00
G01 X82.5948 Y28.2610 F350.00
G01 X82.6900 Y28.2372 F350.00
G01 X82.7139 Y28.2318 F350.00
G01 X82.7477 Y28.2257 F350.00
G01 X82.8448 Y28.2113 F350.00
G01 X82.8692 Y28.2083 F350.00
G01 X82.9034 Y28.2055 F350.00
G01 X83.0014 Y28.2007 F350.00
G01 X83.0260 Y28.2001 F350.00
G01 X83.0603 Y28.2007 F350.00
G01 X83.1583 Y28.2055 F350.00
G01 X83.1828 Y28.2073 F350.00
G01 X83.2169 Y28.2113 F350.00
G01 X83.3140 Y28.2257 F350.00
G01 X83.3382 Y28.2299 F350.00
G01 X83.3717 Y28.2372 F350.00
G01 X83.4788 Y28.2642 F350.00
G01 X83.5000 Y28.2704 F350.00
G01 X83.5233 Y28.2781 F350.00
G01 X83.6157 Y28.3112 F350.00
G01 X83.6386 Y28.3200 F350.00
G01 X83.6701 Y28.3337 F350.00
G01 X83.7588 Y28.3757 F350.00
G01 X83.7807 Y28.3867 F350.00
G01 X83.8107 Y28.4034 F350.00
G01 X83.8949 Y28.4539 F350.00
G01 X83.9156 Y28.4670 F350.00
G01 X83.9439 Y28.4866 F350.00
G01 X84.0324 Y28.5525 F350.00
G01 X84.0496 Y28.5664 F350.00
G01 X84.0682 Y28.5824 F350.00
G01 X84.1409 Y28.6483 F350.00
G01 X84.1587 Y28.6652 F350.00
G01 X84.1825 Y28.6900 F350.00
G01 X84.2566 Y28.7719 F350.00
G01 X84.2707 Y28.7888 F350.00
G01 X84.2858 Y28.8082 F350.00
G01 X84.3514 Y28.8970 F350.00
G01 X84.3705 Y28.9255 F350.00
G01 X84.3952 Y28.9664 F350.00
G01 X84.4275 Y28.9310 F350.00
G01 X84.4518 Y28.9067 F350.00
G01 X84.5427 Y28.8243 F350.00
G01 X84.5693 Y28.8025 F350.00
G01 X84.6579 Y28.7366 F350.00
G01 X84.6779 Y28.7225 F350.00
G01 X84.6964 Y28.7103 F350.00
G01 X84.7910 Y28.6534 F350.00
G01 X84.8124 Y28.6413 F350.00
G01 X84.8429 Y28.6257 F350.00
G01 X84.9316 Y28.5837 F350.00
G01 X84.9541 Y28.5738 F350.00
G01 X84.9745 Y28.5655 F350.00
G01 X85.0900 Y28.5241 F350.00
G01 X85.1111 Y28.5176 F350.00
G01 X85.1348 Y28.5110 F350.00
G01 X85.2300 Y28.4872 F350.00
G01 X85.2636 Y28.4799 F350.00
G01 X85.2877 Y28.4757 F350.00
G01 X85.3848 Y28.4613 F350.00
G01 X85.4092 Y28.4583 F350.00
G01 X85.4312 Y28.4563 F350.00
G01 X85.5537 Y28.4503 F350.00
G01 X85.5758 Y28.4501 F350.00
G01 X85.6003 Y28.4507 F350.00
G01 X85.6983 Y28.4555 F350.00
G01 X85.7326 Y28.4583 F350.00
G01 X85.7569 Y28.4613 F350.00
G01 X85.8540 Y28.4757 F350.00
G01 X85.8782 Y28.4799 F350.00
G01 X85.8998 Y28.4844 F350.00
G01 X86.0188 Y28.5142 F350.00
G01 X86.0400 Y28.5204 F350.00
G01 X86.0633 Y28.5281 F350.00
G01 X86.1672 Y28.5655 F350.00
G01 X86.1876 Y28.5738 F350.00
G01 X86.2101 Y28.5837 F350.00
G01 X86.3098 Y28.6311 F350.00
G01 X86.3401 Y28.6473 F350.00
G01 X86.4349 Y28.7039 F350.00
G01 X86.4556 Y28.7170 F350.00
G01 X86.4739 Y28.7294 F350.00
G01 X86.5724 Y28.8025 F350.00
G01 X86.5990 Y28.8243 F350.00
G01 X86.6809 Y28.8983 F350.00
G01 X86.6987 Y28.9152 F350.00
G01 X86.7142 Y28.9310 F350.00
G01 X86.7884 Y29.0127 F350.00
G01 X86.8045 Y29.0313 F350.00
G01 X86.8184 Y29.0484 F350.00
G01 X86.8409 Y29.0785 F350.00
G01 X86.8634 Y29.0484 F350.00
G01 X86.8773 Y29.0313 F350.00
G01 X86.8933 Y29.0127 F350.00
G01 X86.9675 Y28.9310 F350.00
G01 X86.9830 Y28.9152 F350.00
G01 X87.0008 Y28.8983 F350.00
G01 X87.0827 Y28.8243 F350.00
G01 X87.1093 Y28.8025 F350.00
G01 X87.2078 Y28.7294 F350.00
G01 X87.2261 Y28.7170 F350.00
G01 X87.2468 Y28.7039 F350.00
G01 X87.3416 Y28.6473 F350.00
G01 X87.3719 Y28.6311 F350.00
G01 X87.4716 Y28.5837 F350.00
G01 X87.4941 Y28.5738 F350.00
G01 X87.5145 Y28.5655 F350.00
G01 X87.6184 Y28.5281 F350.00
G01 X87.6417 Y28.5204 F350.00
G01 X87.6629 Y28.5142 F350.00
G01 X87.7819 Y28.4844 F350.00
G01 X87.8036 Y28.4799 F350.00
G01 X87.8277 Y28.4757 F350.00
G01 X87.9248 Y28.4613 F350.00
G01 X87.9492 Y28.4583 F350.00
G01 X87.9834 Y28.4555 F350.00
G01 X88.0814 Y28.4507 F350.00
G01 X88.1060 Y28.4501 F350.00
G01 X88.1403 Y28.4507 F350.00
G01 X88.2383 Y28.4555 F350.00
G01 X88.2726 Y28.4583 F350.00
G01 X88.2969 Y28.4613 F350.00
G01 X88.4061 Y28.4777 F350.00
G01 X88.4278 Y28.4818 F350.00
G01 X88.4517 Y28.4872 F350.00
G01 X88.5469 Y28.5110 F350.00
G01 X88.5800 Y28.5204 F350.00
G01 X88.6033 Y28.5281 F350.00
G01 X88.7072 Y28.5655 F350.00
G01 X88.7389 Y28.5786 F350.00
G01 X88.8388 Y28.6257 F350.00
G01 X88.8694 Y28.6413 F350.00
G01 X88.8907 Y28.6534 F350.00
G01 X88.9749 Y28.7039 F350.00
G01 X89.0038 Y28.7225 F350.00
G01 X89.0239 Y28.7366 F350.00
G01 X89.1124 Y28.8025 F350.00
G01 X89.1390 Y28.8243 F350.00
G01 X89.2209 Y28.8983 F350.00
G01 X89.2387 Y28.9152 F350.00
G01 X89.2542 Y28.9310 F350.00
G01 X89.3366 Y29.0219 F350.00
G01 X89.3584 Y29.0484 F350.00
G01 X89.3809 Y29.0785 F350.00
G01 X89.4034 Y29.0484 F350.00
G01 X89.4252 Y29.0219 F350.00
G01 X89.5075 Y28.9310 F350.00
G01 X89.5230 Y28.9152 F350.00
G01 X89.5408 Y28.8983 F350.00
G01 X89.6227 Y28.8243 F350.00
G01 X89.6493 Y28.8025 F350.00
G01 X89.7478 Y28.7294 F350.00
G01 X89.7661 Y28.7170 F350.00
G01 X89.7868 Y28.7039 F350.00
G01 X89.8710 Y28.6534 F350.00
G01 X89.9010 Y28.6367 F350.00
G01 X89.9229 Y28.6257 F350.00
G01 X90.0228 Y28.5786 F350.00
G01 X90.0431 Y28.5700 F350.00
G01 X90.0660 Y28.5612 F350.00
G01 X90.1584 Y28.5281 F350.00
G01 X90.1911 Y28.5176 F350.00
G01 X90.2148 Y28.5110 F350.00
G01 X90.3219 Y28.4844 F350.00
G01 X90.3436 Y28.4799 F350.00
G01 X90.3677 Y28.4757 F350.00
G01 X90.4648 Y28.4613 F350.00
G01 X90.4892 Y28.4583 F350.00
G01 X90.5234 Y28.4555 F350.00
G01 X90.6214 Y28.4507 F350.00
G01 X90.6460 Y28.4501 F350.00
G01 X90.6680 Y28.4503 F350.00
G01 X90.7906 Y28.4563 F350.00
G01 X90.8126 Y28.4583 F350.00
G01 X90.8369 Y28.4613 F350.00
G01 X90.9340 Y28.4757 F350.00
G01 X90.9582 Y28.4799 F350.00
G01 X90.9917 Y28.4872 F350.00
G01 X91.0869 Y28.5110 F350.00
G01 X91.1200 Y28.5204 F350.00
G01 X91.1433 Y28.5281 F350.00
G01 X91.2357 Y28.5612 F350.00
G01 X91.2676 Y28.5738 F350.00
G01 X91.2901 Y28.5837 F350.00
G01 X91.3788 Y28.6257 F350.00
G01 X91.4007 Y28.6367 F350.00
G01 X91.4201 Y28.6473 F350.00
G01 X91.5149 Y28.7039 F350.00
G01 X91.5438 Y28.7225 F350.00
G01 X91.5639 Y28.7366 F350.00
G01 X91.6427 Y28.7951 F350.00
G01 X91.6620 Y28.8102 F350.00
G01 X91.6790 Y28.8243 F350.00
G01 X91.7609 Y28.8983 F350.00
G01 X91.7787 Y28.9152 F350.00
G01 X91.7942 Y28.9310 F350.00
G01 X91.8766 Y29.0219 F350.00
G01 X91.8984 Y29.0484 F350.00
G01 X91.9209 Y29.0785 F350.00
G00 Z0.5000
G00 X89.4899 Y28.9503
G01 F250.00
G01 Z-0.0500
G01 F350.00
G01 X89.2719 Y28.9503 F350.00
G00 Z0.5000
G00 X86.9499 Y28.9503
G01 F250.00
G01 Z-0.0500
G01 F350.00
G01 X86.7319 Y28.9503 F350.00
G00 Z0.5000
G00 X84.4099 Y28.9503
G01 F250.00
G01 Z-0.0500
G01 F350.00
G01 X84.3855 Y28.9503 F350.00
G00 Z0.5000
G00 X81.6762 Y28.9503
G01 F250.00
G01 Z-0.0500
G01 F350.00
G01 X80.2829 Y28.9503 F350.00
G01 X79.5829 Y29.6503 F350.00
G01 X81.4380 Y29.6503 F350.00
G00 Z0.5000
G00 X81.4309 Y30.3503
G01 F250.00
G01 Z-0.0500
G01 F350.00
G01 X78.8829 Y30.3503 F350.00
G01 X78.1829 Y31.0503 F350.00
G01 X81.4309 Y31.0503 F350.00
G00 Z0.5000
G00 X81.4957 Y31.7503
G01 F250.00
G01 Z-0.0500
G01 F350.00
G01 X77.4829 Y31.7503 F350.00
G01 X76.7829 Y32.4503 F350.00
G01 X80.0609 Y32.4503 F350.00
G00 Z0.5000
G00 X79.0284 Y33.1503
G01 F250.00
G01 Z-0.0500
G01 F350.00
G01 X76.0829 Y33.1503 F350.00
G01 X75.3829 Y33.8503 F350.00
G01 X78.3284 Y33.8503 F350.00
G01 X77.6284 Y34.5503 F350.00
G01 X74.6829 Y34.5503 F350.00
G01 X73.9829 Y35.2503 F350.00
G01 X76.9284 Y35.2503 F350.00
G01 X76.2284 Y35.9503 F350.00
G01 X73.2829 Y35.9503 F350.00
G01 X72.5829 Y36.6503 F350.00
G01 X75.5284 Y36.6503 F350.00
G01 X74.8284 Y37.3503 F350.00
G01 X71.8829 Y37.3503 F350.00
G01 X71.5815 Y38.0503 F350.00
G01 X71.1829 Y38.0503 F350.00
G01 X70.9898 Y38.7503 F350.00
G01 X70.8310 Y38.7503 F350.00
G01 X70.8310 Y39.4503 F350.00
G01 X70.8559 Y39.4503 F350.00
G01 X70.8559 Y40.1503 F350.00
G01 X70.8310 Y40.1503 F350.00
G00 Z0.5000
G00 X73.3302 Y38.0503
G01 F250.00
G01 Z-0.0500
G01 F350.00
G01 X74.1215 Y38.0503 F350.00
G00 Z0.5000
G00 X71.5784 Y35.2503
G01 F250.00
G01 Z-0.0500
G01 F350.00
G01 X70.5866 Y35.2503 F350.00
G01 X70.8784 Y35.9503 F350.00
G01 X69.8866 Y35.9503 F350.00
G01 X70.1784 Y36.6503 F350.00
G01 X69.5811 Y36.6503 F350.00
G01 X71.2866 Y34.5503 F350.00
G01 X72.2784 Y34.5503 F350.00
G01 X71.9866 Y33.8503 F350.00
G01 X72.9784 Y33.8503 F350.00
G01 X72.6866 Y33.1503 F350.00
G01 X73.6784 Y33.1503 F350.00
G01 X73.3866 Y32.4503 F350.00
G01 X74.3784 Y32.4503 F350.00
G01 X74.0866 Y31.7503 F350.00
G01 X75.0784 Y31.7503 F350.00
G01 X74.7866 Y31.0503 F350.00
G01 X75.7784 Y31.0503 F350.00
G01 X75.4866 Y30.3503 F350.00
G01 X76.4784 Y30.3503 F350.00
G01 X76.1866 Y29.6503 F350.00
G01 X77.1784 Y29.6503 F350.00
G01 X76.8866 Y28.9503 F350.00
G01 X77.8784 Y28.9503 F350.00
G01 X77.5866 Y28.2503 F350.00
G01 X78.5784 Y28.2503 F350.00
G01 X78.2866 Y27.5503 F350.00
G01 X79.2784 Y27.5503 F350.00
G01 X78.9866 Y26.8503 F350.00
G01 X79.9784 Y26.8503 F350.00
G01 X79.6866 Y26.1503 F350.00
G01 X80.6784 Y26.1503 F350.00
G01 X80.3866 Y25.4503 F350.00
G01 X81.3784 Y25.4503 F350.00
G01 X81.0866 Y24.7503 F350.00
G01 X82.0784 Y24.7503 F350.00
G01 X81.7866 Y24.0503 F350.00
G01 X83.1109 Y24.0503 F350.00
G00 Z0.5000
G00 X84.7967 Y32.4499
G01 F250.00
G01 Z-0.0500
G01 F350.00
G01 X84.7068 Y32.3961 F350.00
G01 X84.6779 Y32.3775 F350.00
G01 X84.6579 Y32.3634 F350.00
G01 X84.5693 Y32.2975 F350.00
G01 X84.5521 Y32.2836 F350.00
G01 X84.5335 Y32.2676 F350.00
G01 X84.4518 Y32.1933 F350.00
G01 X84.4275 Y32.1690 F350.00
G01 X84.3952 Y32.1336 F350.00
G01 X84.3705 Y32.1745 F350.00
G01 X84.3514 Y32.2030 F350.00
G01 X84.2784 Y32.3016 F350.00
G01 X84.2566 Y32.3281 F350.00
G01 X84.1825 Y32.4100 F350.00
G01 X84.1656 Y32.4278 F350.00
G01 X84.1428 Y32.4499 F350.00
G01 X84.7967 Y32.4499 F350.00
G00 Z0.5000
G00 X86.8409 Y32.0215
G01 F250.00
G01 Z-0.0500
G01 F350.00
G01 X86.8184 Y32.0516 F350.00
G01 X86.7966 Y32.0781 F350.00
G01 X86.7142 Y32.1690 F350.00
G01 X86.6987 Y32.1848 F350.00
G01 X86.6809 Y32.2017 F350.00
G01 X86.5990 Y32.2757 F350.00
G01 X86.5820 Y32.2898 F350.00
G01 X86.5627 Y32.3049 F350.00
G01 X86.4839 Y32.3634 F350.00
G01 X86.4638 Y32.3775 F350.00
G01 X86.4349 Y32.3961 F350.00
G01 X86.3450 Y32.4499 F350.00
G01 X87.2607 Y32.4499 F350.00
G01 X87.2607 Y32.4044 F350.00
G01 X87.2364 Y32.3897 F350.00
G01 X87.2078 Y32.3706 F350.00
G01 X87.1093 Y32.2975 F350.00
G01 X87.0827 Y32.2757 F350.00
G01 X87.0008 Y32.2017 F350.00
G01 X86.9830 Y32.1848 F350.00
G01 X86.9675 Y32.1690 F350.00
G01 X86.8933 Y32.0873 F350.00
G01 X86.8773 Y32.0687 F350.00
G01 X86.8634 Y32.0516 F350.00
G01 X86.8409 Y32.0215 F350.00
G00 Z0.5000
G00 X88.9610 Y32.4503
G01 F250.00
G01 Z-0.0500
G01 F350.00
G01 X89.7284 Y32.4503 F350.00
G00 Z0.5000
G00 X89.3809 Y32.0215
G01 F250.00
G01 Z-0.0500
G01 F350.00
G01 X89.3584 Y32.0516 F350.00
G01 X89.3445 Y32.0687 F350.00
G01 X89.3284 Y32.0873 F350.00
G01 X89.2542 Y32.1690 F350.00
G01 X89.2387 Y32.1848 F350.00
G01 X89.2209 Y32.2017 F350.00
G01 X89.1390 Y32.2757 F350.00
G01 X89.1124 Y32.2975 F350.00
G01 X89.0139 Y32.3706 F350.00
G01 X88.9853 Y32.3897 F350.00
G01 X88.9610 Y32.4044 F350.00
G01 X88.9610 Y33.2176 F350.00
G01 X89.7841 Y32.3945 F350.00
G01 X89.7661 Y32.3830 F350.00
G01 X89.7478 Y32.3706 F350.00
G01 X89.6493 Y32.2975 F350.00
G01 X89.6227 Y32.2757 F350.00
G01 X89.5408 Y32.2017 F350.00
G01 X89.5230 Y32.1848 F350.00
G01 X89.5075 Y32.1690 F350.00
G01 X89.4333 Y32.0873 F350.00
G01 X89.4173 Y32.0687 F350.00
G01 X89.4034 Y32.0516 F350.00
G01 X89.3809 Y32.0215 F350.00
G01 X89.0284 Y33.1503 F350.00
G01 X88.9610 Y33.1503 F350.00
G00 Z0.5000
G00 X90.0329 Y34.5503
G01 F250.00
G01 Z-0.0500
G01 F350.00
G01 X91.6284 Y34.5503 F350.00
G01 X92.3284 Y33.8503 F350.00
G01 X90.7329 Y33.8503 F350.00
G00 Z0.5000
G00 X91.3897 Y33.1503
G01 F250.00
G01 Z-0.0500
G01 F350.00
G01 X93.0284 Y33.1503 F350.00
G01 X93.5772 Y32.6014 F350.00
G01 X93.5198 Y32.6156 F350.00
G01 X93.4861 Y32.6223 F350.00
G01 X93.3648 Y32.6403 F350.00
G01 X93.3428 Y32.6427 F350.00
G01 X93.3183 Y32.6445 F350.00
G01 X93.2080 Y32.6497 F350.00
G01 X93.1737 Y32.6497 F350.00
G01 X93.0634 Y32.6445 F350.00
G01 X93.0389 Y32.6427 F350.00
G01 X93.0048 Y32.6387 F350.00
G01 X92.8956 Y32.6223 F350.00
G01 X92.8619 Y32.6156 F350.00
G01 X92.7548 Y32.5890 F350.00
G01 X92.7311 Y32.5824 F350.00
G01 X92.6984 Y32.5719 F350.00
G01 X92.6060 Y32.5388 F350.00
G01 X92.5741 Y32.5262 F350.00
G01 X92.5516 Y32.5163 F350.00
G01 X92.4519 Y32.4689 F350.00
G01 X92.4216 Y32.4527 F350.00
G01 X92.3268 Y32.3961 F350.00
G01 X92.3061 Y32.3830 F350.00
G01 X92.2878 Y32.3706 F350.00
G01 X92.1990 Y32.3049 F350.00
G01 X92.1797 Y32.2898 F350.00
G01 X92.1535 Y32.2676 F350.00
G01 X92.0718 Y32.1933 F350.00
G01 X92.0561 Y32.1778 F350.00
G01 X92.0392 Y32.1600 F350.00
G01 X91.9652 Y32.0781 F350.00
G01 X91.9434 Y32.0516 F350.00
G01 X91.9209 Y32.0215 F350.00
G01 X91.8984 Y32.0516 F350.00
G01 X91.8845 Y32.0687 F350.00
G01 X91.8684 Y32.0873 F350.00
G01 X91.7942 Y32.1690 F350.00
G01 X91.7787 Y32.1848 F350.00
G01 X91.7609 Y32.2017 F350.00
G01 X91.6790 Y32.2757 F350.00
G01 X91.6524 Y32.2975 F350.00
G01 X91.5539 Y32.3706 F350.00
G01 X91.5253 Y32.3897 F350.00
G01 X91.5010 Y32.4044 F350.00
G01 X91.5010 Y32.7300 F350.00
G01 X91.5003 Y32.7594 F350.00
G01 X91.4983 Y32.7962 F350.00
G01 X91.4949 Y32.8304 F350.00
G01 X91.4877 Y32.8790 F350.00
G01 X91.4810 Y32.9126 F350.00
G01 X91.4691 Y32.9603 F350.00
G01 X91.4591 Y32.9931 F350.00
G01 X91.4426 Y33.0394 F350.00
G01 X91.4343 Y33.0598 F350.00
G01 X91.4243 Y33.0823 F350.00
G01 X91.4138 Y33.1044 F350.00
G01 X91.4028 Y33.1264 F350.00
G01 X91.3923 Y33.1458 F350.00
G01 X91.3735 Y33.1774 F350.00
G01 X91.3603 Y33.1982 F350.00
G01 X91.3479 Y33.2164 F350.00
G01 X91.3187 Y33.2559 F350.00
G01 X91.3048 Y33.2730 F350.00
G01 X91.2888 Y33.2916 F350.00
G01 X91.2639 Y33.3188 F350.00
G01 X91.2520 Y33.3311 F350.00
G01 X89.3832 Y35.1999 F350.00
G01 X90.9787 Y35.1999 F350.00
G01 X93.5772 Y32.6014 F350.00
G00 Z0.5000
G00 X92.4173 Y32.4503
G01 F250.00
G01 Z-0.0500
G01 F350.00
G01 X91.5010 Y32.4503 F350.00
G00 Z0.5000
G00 X94.0329 Y34.5503
G01 F250.00
G01 Z-0.0500
G01 F350.00
G01 X101.3809 Y34.5503 F350.00
G01 X101.3809 Y33.8503 F350.00
G01 X94.7329 Y33.8503 F350.00
G01 X95.4329 Y33.1503 F350.00
G01 X101.3811 Y33.1503 F350.00
G00 Z0.5000
G00 X101.5844 Y32.4503
G01 F250.00
G01 Z-0.0500
G01 F350.00
G01 X101.6998 Y32.4503 F350.00
G00 Z0.5000
G00 X100.0373 Y32.4503
G01 F250.00
G01 Z-0.0500
G01 F350.00
G01 X99.0444 Y32.4503 F350.00
G00 Z0.5000
G00 X97.4973 Y32.4503
G01 F250.00
G01 Z-0.0500
G01 F350.00
G01 X96.5044 Y32.4503 F350.00
G00 Z0.5000
G00 X94.5699 Y28.9503
G01 F250.00
G01 Z-0.0500
G01 F350.00
G01 X94.3519 Y28.9503 F350.00
G00 Z0.5000
G00 X98.4871 Y24.7503
G01 F250.00
G01 Z-0.0500
G01 F350.00
G01 X99.8751 Y24.7503 F350.00
G01 X99.1751 Y24.0503 F350.00
G01 X97.7871 Y24.0503 F350.00
G01 X98.4751 Y23.3503 F350.00
G01 X97.0871 Y23.3503 F350.00
G01 X97.7751 Y22.6503 F350.00
G01 X96.3871 Y22.6503 F350.00
G01 X97.0751 Y21.9503 F350.00
G01 X95.6796 Y21.9503 F350.00
G01 X96.3751 Y21.2503 F350.00
G01 X36.3111 Y21.2503 F350.00
G01 X36.3714 Y20.5503 F350.00
G01 X36.5903 Y20.5503 F350.00
G00 Z0.5000
G00 X38.9114 Y20.5503
G01 F250.00
G01 Z-0.0500
G01 F350.00
G01 X39.1303 Y20.5503 F350.00
G00 Z0.5000
G00 X41.4514 Y20.5503
G01 F250.00
G01 Z-0.0500
G01 F350.00
G01 X41.6703 Y20.5503 F350.00
G00 Z0.5000
G00 X43.9914 Y20.5503
G01 F250.00
G01 Z-0.0500
G01 F350.00
G01 X44.2103 Y20.5503 F350.00
G00 Z0.5000
G00 X46.5314 Y20.5503
G01 F250.00
G01 Z-0.0500
G01 F350.00
G01 X95.6751 Y20.5503 F350.00
G01 X94.9751 Y19.8503 F350.00
G01 X46.9188 Y19.8503 F350.00
G00 Z0.5000
G00 X46.9709 Y19.1503
G01 F250.00
G01 Z-0.0500
G01 F350.00
G01 X94.2751 Y19.1503 F350.00
G01 X93.5751 Y18.4503 F350.00
G01 X46.9709 Y18.4503 F350.00
G01 X46.9709 Y17.7503 F350.00
G01 X92.8751 Y17.7503 F350.00
G01 X92.1751 Y17.0503 F350.00
G01 X46.9189 Y17.0503 F350.00
G00 Z0.5000
G00 X46.5319 Y16.3503
G01 F250.00
G01 Z-0.0500
G01 F350.00
G01 X91.4751 Y16.3503 F350.00
G01 X90.7751 Y15.6503 F350.00
G01 X41.3911 Y15.6503 F350.00
G01 X41.4519 Y16.3503 F350.00
G01 X41.6699 Y16.3503 F350.00
G01 X41.5866 Y14.9503 F350.00
G01 X90.0751 Y14.9503 F350.00
G01 X89.3751 Y14.2503 F350.00
G01 X42.2866 Y14.2503 F350.00
G01 X42.9866 Y13.5503 F350.00
G01 X88.6751 Y13.5503 F350.00
G01 X87.9751 Y12.8503 F350.00
G01 X43.3264 Y12.8503 F350.00
G00 Z0.5000
G00 X43.3311 Y12.1503
G01 F250.00
G01 Z-0.0500
G01 F350.00
G01 X87.2751 Y12.1503 F350.00
G01 X86.5751 Y11.4503 F350.00
G01 X43.3311 Y11.4503 F350.00
G01 X43.3311 Y10.7503 F350.00
G01 X85.8751 Y10.7503 F350.00
G01 X85.1751 Y10.0503 F350.00
G01 X43.3311 Y10.0503 F350.00
G00 Z0.5000
G00 X41.1306 Y10.0503
G01 F250.00
G01 Z-0.0500
G01 F350.00
G01 X38.9866 Y10.0503 F350.00
G01 X39.6866 Y9.3503 F350.00
G01 X41.1306 Y9.3503 F350.00
G01 X41.1306 Y8.6503 F350.00
G01 X40.1892 Y8.6503 F350.00
G00 Z0.5000
G00 X40.2311 Y7.9503
G01 F250.00
G01 Z-0.0500
G01 F350.00
G01 X41.1306 Y7.9503 F350.00
G01 X41.1306 Y7.2503 F350.00
G01 X40.2311 Y7.2503 F350.00
G01 X40.2311 Y6.5503 F350.00
G01 X41.1306 Y6.5503 F350.00
G01 X41.1306 Y5.8503 F350.00
G01 X40.2311 Y5.8503 F350.00
G01 X40.2311 Y5.1503 F350.00
G01 X41.1306 Y5.1503 F350.00
G01 X41.1306 Y4.4503 F350.00
G01 X40.2311 Y4.4503 F350.00
G01 X40.2311 Y3.7503 F350.00
G01 X41.1306 Y3.7503 F350.00
G01 X41.1306 Y3.0503 F350.00
G01 X40.2311 Y3.0503 F350.00
G01 X40.2311 Y2.3503 F350.00
G01 X41.1306 Y2.3503 F350.00
G00 Z0.5000
G00 X43.3311 Y2.3503
G01 F250.00
G01 Z-0.0500
G01 F350.00
G01 X114.6569 Y2.3503 F350.00
G01 X114.6569 Y3.0503 F350.00
G01 X43.3311 Y3.0503 F350.00
G01 X43.3311 Y3.7503 F350.00
G01 X114.7467 Y3.7503 F350.00
G00 Z0.5000
G00 X115.2282 Y4.4503
G01 F250.00
G01 Z-0.0500
G01 F350.00
G01 X43.3311 Y4.4503 F350.00
G01 X43.3311 Y5.1503 F350.00
G01 X129.2462 Y5.1503 F350.00
G01 X129.2371 Y4.4503 F350.00
G01 X127.7335 Y4.4503 F350.00
G00 Z0.5000
G00 X128.2150 Y3.7503
G01 F250.00
G01 Z-0.0500
G01 F350.00
G01 X129.2280 Y3.7503 F350.00
G01 X129.2189 Y3.0503 F350.00
G01 X128.3049 Y3.0503 F350.00
G01 X128.3049 Y2.3503 F350.00
G01 X129.2099 Y2.3503 F350.00
G01 X129.1828 Y1.6503 F350.00
G01 X128.2714 Y1.6503 F350.00
G00 Z0.5000
G00 X128.2936 Y1.7889
G01 F250.00
G01 Z-0.0500
G01 F350.00
G01 X128.2966 Y1.8133 F350.00
G01 X128.2993 Y1.8475 F350.00
G01 X128.3041 Y1.9456 F350.00
G01 X128.3049 Y1.9750 F350.00
G01 X128.3049 Y3.2250 F350.00
G01 X128.3041 Y3.2544 F350.00
G01 X128.2993 Y3.3525 F350.00
G01 X128.2966 Y3.3867 F350.00
G01 X128.2936 Y3.4111 F350.00
G01 X128.2792 Y3.5081 F350.00
G01 X128.2730 Y3.5419 F350.00
G01 X128.2677 Y3.5659 F350.00
G01 X128.2438 Y3.6611 F350.00
G01 X128.2373 Y3.6847 F350.00
G01 X128.2267 Y3.7174 F350.00
G01 X128.1937 Y3.8098 F350.00
G01 X128.1811 Y3.8418 F350.00
G01 X128.1711 Y3.8642 F350.00
G01 X128.1238 Y3.9640 F350.00
G01 X128.1135 Y3.9835 F350.00
G01 X128.1014 Y4.0049 F350.00
G01 X128.0510 Y4.0890 F350.00
G01 X128.0324 Y4.1179 F350.00
G01 X128.0183 Y4.1380 F350.00
G01 X127.9598 Y4.2168 F350.00
G01 X127.9385 Y4.2437 F350.00
G01 X127.9224 Y4.2623 F350.00
G01 X127.8565 Y4.3350 F350.00
G01 X127.8396 Y4.3528 F350.00
G01 X127.8149 Y4.3767 F350.00
G01 X127.7330 Y4.4507 F350.00
G01 X127.7160 Y4.4648 F350.00
G01 X127.6967 Y4.4799 F350.00
G01 X127.6179 Y4.5384 F350.00
G01 X127.5978 Y4.5525 F350.00
G01 X127.5689 Y4.5711 F350.00
G01 X127.4847 Y4.6216 F350.00
G01 X127.4634 Y4.6337 F350.00
G01 X127.4328 Y4.6493 F350.00
G01 X127.3441 Y4.6913 F350.00
G01 X127.3216 Y4.7012 F350.00
