(G-CODE GENERATED BY FLATCAM v8.994 - www.flatcam.org - Version Date: 2020/11/7)

(Name: BACK_NCC_3mm_0.4mm_cnc)
(Type: G-code from Geometry)
(Units: MM)

(Created on Friday, 26 June 2026 at 05:06)

(This preprocessor is used with a motion controller loaded with GRBL firmware.)
(It is configured to be compatible with almost any version of GRBL firmware.)

(TOOL DIAMETER: 3.0 mm)
(Feedrate_XY: 350.0 mm/min)
(Feedrate_Z: 250.0 mm/min)
(Feedrate rapids 1500.0 mm/min)

(Z_Cut: -0.05 mm)
(Z_Move: 0.5 mm)
(Z Start: None mm)
(Z End: 40.0 mm)
(X,Y End: None mm)
(Steps per circle: 64)
(Steps per circle: 64)
(Preprocessor Geometry: grbl_11)

(X range:   -1.8593 ...  128.9309  mm)
(Y range:   -3.0100 ...   70.2503  mm)

(Spindle Speed: 0.0 RPM)
G21
G90
G17
G94


G01 F350.00

M5             
G00 Z40.0000
G00 X0.0000 Y0.0000                
T1
M6
(MSG, Change to Tool Dia = 3.0000)
M0
G00 Z40.0000

M03
G01 F350.00
G00 X7.4318 Y10.4503
G01 F250.00
G01 Z-0.0500
G01 F350.00
G01 X27.2806 Y10.4503 F350.00
G01 X27.2806 Y12.4003 F350.00
G01 X25.2562 Y12.4003 F350.00
G01 X26.5540 Y13.6981 F350.00
G01 X27.2806 Y12.9715 F350.00
G01 X27.2806 Y8.3577 F350.00
G01 X22.3192 Y8.3577 F350.00
G01 X22.2903 Y8.3959 F350.00
G01 X22.2673 Y8.4247 F350.00
G01 X22.2436 Y8.4528 F350.00
G01 X22.1950 Y8.5071 F350.00
G01 X22.1699 Y8.5341 F350.00
G01 X22.1442 Y8.5605 F350.00
G01 X22.1178 Y8.5862 F350.00
G01 X22.0909 Y8.6112 F350.00
G01 X22.0366 Y8.6598 F350.00
G01 X22.0084 Y8.6835 F350.00
G01 X21.9796 Y8.7065 F350.00
G01 X21.9214 Y8.7503 F350.00
G01 X21.8915 Y8.7719 F350.00
G01 X21.8612 Y8.7927 F350.00
G01 X21.8303 Y8.8128 F350.00
G01 X21.7680 Y8.8507 F350.00
G01 X21.7362 Y8.8692 F350.00
G01 X21.7040 Y8.8869 F350.00
G01 X21.6713 Y8.9039 F350.00
G01 X21.6382 Y8.9201 F350.00
G01 X21.5721 Y8.9508 F350.00
G01 X21.5383 Y8.9653 F350.00
G01 X21.5041 Y8.9790 F350.00
G01 X21.4356 Y9.0040 F350.00
G01 X21.4008 Y9.0159 F350.00
G01 X21.3657 Y9.0271 F350.00
G01 X21.3304 Y9.0373 F350.00
G01 X21.2598 Y9.0555 F350.00
G01 X21.2239 Y9.0640 F350.00
G01 X21.1879 Y9.0716 F350.00
G01 X21.1517 Y9.0783 F350.00
G01 X21.0797 Y9.0895 F350.00
G01 X21.0432 Y9.0944 F350.00
G01 X21.0066 Y9.0985 F350.00
G01 X20.9699 Y9.1016 F350.00
G01 X20.9332 Y9.1039 F350.00
G01 X20.8604 Y9.1070 F350.00
G01 X20.8236 Y9.1075 F350.00
G01 X19.0589 Y9.1075 F350.00
G01 X19.0220 Y9.1070 F350.00
G01 X18.9492 Y9.1039 F350.00
G01 X18.9125 Y9.1016 F350.00
G01 X18.8758 Y9.0985 F350.00
G01 X18.8392 Y9.0944 F350.00
G01 X18.7670 Y9.0842 F350.00
G01 X18.7307 Y9.0783 F350.00
G01 X18.6945 Y9.0716 F350.00
G01 X18.6585 Y9.0640 F350.00
G01 X18.5877 Y9.0467 F350.00
G01 X18.5521 Y9.0373 F350.00
G01 X18.5167 Y9.0271 F350.00
G01 X18.4816 Y9.0159 F350.00
G01 X18.4468 Y9.0040 F350.00
G01 X18.3783 Y8.9790 F350.00
G01 X18.3441 Y8.9653 F350.00
G01 X18.3103 Y8.9508 F350.00
G01 X18.2442 Y8.9201 F350.00
G01 X18.2111 Y8.9039 F350.00
G01 X18.1785 Y8.8869 F350.00
G01 X18.1462 Y8.8692 F350.00
G01 X18.1144 Y8.8507 F350.00
G01 X18.0521 Y8.8128 F350.00
G01 X18.0212 Y8.7927 F350.00
G01 X17.9909 Y8.7719 F350.00
G01 X17.9611 Y8.7503 F350.00
G01 X17.9028 Y8.7065 F350.00
G01 X17.8740 Y8.6835 F350.00
G01 X17.8459 Y8.6598 F350.00
G01 X17.7916 Y8.6112 F350.00
G01 X17.7646 Y8.5862 F350.00
G01 X17.7382 Y8.5605 F350.00
G01 X17.7125 Y8.5341 F350.00
G01 X17.6875 Y8.5071 F350.00
G01 X17.6388 Y8.4528 F350.00
G01 X17.6151 Y8.4247 F350.00
G01 X17.5921 Y8.3959 F350.00
G01 X17.5698 Y8.3666 F350.00
G01 X17.5268 Y8.3078 F350.00
G01 X17.5060 Y8.2774 F350.00
G01 X17.4859 Y8.2466 F350.00
G01 X17.4480 Y8.1843 F350.00
G01 X17.4295 Y8.1525 F350.00
G01 X17.4117 Y8.1202 F350.00
G01 X17.3948 Y8.0876 F350.00
G01 X17.3632 Y8.0219 F350.00
G01 X17.3479 Y7.9884 F350.00
G01 X17.3334 Y7.9545 F350.00
G01 X17.3197 Y7.9204 F350.00
G01 X17.2947 Y7.8519 F350.00
G01 X17.2827 Y7.8171 F350.00
G01 X17.2716 Y7.7820 F350.00
G01 X17.2614 Y7.7466 F350.00
G01 X17.2520 Y7.7110 F350.00
G01 X17.2347 Y7.6402 F350.00
G01 X17.2271 Y7.6042 F350.00
G01 X17.2204 Y7.5680 F350.00
G01 X17.2092 Y7.4960 F350.00
G01 X17.2043 Y7.4595 F350.00
G01 X17.2002 Y7.4229 F350.00
G01 X17.1970 Y7.3862 F350.00
G01 X17.1948 Y7.3495 F350.00
G01 X17.1917 Y7.2766 F350.00
G01 X17.1912 Y7.2398 F350.00
G01 X17.1912 Y5.4741 F350.00
G01 X5.8635 Y11.2499 F350.00
G01 X23.3809 Y11.2499 F350.00
G01 X23.4177 Y11.2503 F350.00
G01 X23.4790 Y11.2529 F350.00
G01 X23.5157 Y11.2551 F350.00
G01 X23.5524 Y11.2583 F350.00
G01 X23.5890 Y11.2624 F350.00
G01 X23.6498 Y11.2709 F350.00
G01 X23.6861 Y11.2768 F350.00
G01 X23.7223 Y11.2835 F350.00
G01 X23.7583 Y11.2911 F350.00
G01 X23.8179 Y11.3056 F350.00
G01 X23.8535 Y11.3150 F350.00
G01 X23.8889 Y11.3252 F350.00
G01 X23.9240 Y11.3364 F350.00
G01 X23.9819 Y11.3566 F350.00
G01 X24.0164 Y11.3694 F350.00
G01 X24.0506 Y11.3831 F350.00
G01 X24.0844 Y11.3976 F350.00
G01 X24.1179 Y11.4129 F350.00
G01 X24.1732 Y11.4396 F350.00
G01 X24.2059 Y11.4565 F350.00
G01 X24.2381 Y11.4743 F350.00
G01 X24.2910 Y11.5054 F350.00
G01 X24.3223 Y11.5247 F350.00
G01 X24.3532 Y11.5448 F350.00
G01 X24.3835 Y11.5657 F350.00
G01 X24.4331 Y11.6018 F350.00
G01 X24.4624 Y11.6241 F350.00
G01 X24.4911 Y11.6471 F350.00
G01 X24.5193 Y11.6708 F350.00
G01 X24.5651 Y11.7117 F350.00
G01 X24.5920 Y11.7368 F350.00
G01 X24.6184 Y11.7625 F350.00
G01 X26.5540 Y13.6981 F350.00
G01 X27.2806 Y8.5003 F350.00
G01 X22.2012 Y8.5003 F350.00
G00 Z0.5000
G00 X17.6812 Y8.5003
G01 F250.00
G01 Z-0.0500
G01 F350.00
G01 X11.2562 Y8.5003 F350.00
G01 X15.0807 Y6.5503 F350.00
G01 X17.1912 Y6.5503 F350.00
G00 Z0.5000
G00 X20.8515 Y3.6078
G01 F250.00
G01 Z-0.0500
G01 F350.00
G01 X20.8972 Y3.6093 F350.00
G01 X20.9699 Y3.6133 F350.00
G01 X21.0066 Y3.6165 F350.00
G01 X21.0432 Y3.6205 F350.00
G01 X21.1154 Y3.6308 F350.00
G01 X21.1517 Y3.6366 F350.00
G01 X21.1879 Y3.6434 F350.00
G01 X21.2239 Y3.6510 F350.00
G01 X21.2598 Y3.6595 F350.00
G01 X21.3304 Y3.6776 F350.00
G01 X21.3657 Y3.6879 F350.00
G01 X21.4008 Y3.6990 F350.00
G01 X21.4696 Y3.7231 F350.00
G01 X21.5041 Y3.7360 F350.00
G01 X21.5383 Y3.7496 F350.00
G01 X21.5721 Y3.7641 F350.00
G01 X21.6382 Y3.7949 F350.00
G01 X21.6713 Y3.8111 F350.00
G01 X21.7040 Y3.8280 F350.00
G01 X21.7362 Y3.8458 F350.00
G01 X21.7680 Y3.8643 F350.00
G01 X21.8303 Y3.9022 F350.00
G01 X21.8612 Y3.9222 F350.00
G01 X21.8915 Y3.9431 F350.00
G01 X21.9503 Y3.9861 F350.00
G01 X21.9796 Y4.0084 F350.00
G01 X22.0084 Y4.0314 F350.00
G01 X22.0366 Y4.0551 F350.00
G01 X22.0909 Y4.1037 F350.00
G01 X22.1178 Y4.1288 F350.00
G01 X22.1442 Y4.1545 F350.00
G01 X22.1699 Y4.1808 F350.00
G01 X22.1950 Y4.2078 F350.00
G01 X22.2436 Y4.2621 F350.00
G01 X22.2673 Y4.2903 F350.00
G01 X22.2903 Y4.3190 F350.00
G01 X22.3192 Y4.3572 F350.00
G01 X27.2806 Y4.3572 F350.00
G01 X27.2806 Y1.9100 F350.00
G01 X27.2811 Y1.8732 F350.00
G01 X27.2824 Y1.8364 F350.00
G01 X27.2848 Y1.7874 F350.00
G01 X27.2871 Y1.7506 F350.00
G01 X27.2902 Y1.7139 F350.00
G01 X27.2943 Y1.6774 F350.00
G01 X27.2993 Y1.6409 F350.00
G01 X27.3065 Y1.5923 F350.00
G01 X27.3123 Y1.5560 F350.00
G01 X27.3190 Y1.5198 F350.00
G01 X27.3267 Y1.4838 F350.00
G01 X27.3352 Y1.4479 F350.00
G01 X27.3471 Y1.4003 F350.00
G01 X27.3565 Y1.3647 F350.00
G01 X27.3667 Y1.3294 F350.00
G01 X27.3779 Y1.2943 F350.00
G01 X27.3898 Y1.2595 F350.00
G01 X27.4064 Y1.2132 F350.00
G01 X27.4192 Y1.1787 F350.00
G01 X27.4329 Y1.1445 F350.00
G01 X27.4474 Y1.1107 F350.00
G01 X27.4627 Y1.0772 F350.00
G01 X27.4837 Y1.0329 F350.00
G01 X27.4998 Y0.9998 F350.00
G01 X27.5168 Y0.9671 F350.00
G01 X27.5345 Y0.9348 F350.00
G01 X27.5531 Y0.9030 F350.00
G01 X27.5783 Y0.8609 F350.00
G01 X27.5976 Y0.8296 F350.00
G01 X27.6177 Y0.7987 F350.00
G01 X27.6385 Y0.7684 F350.00
G01 X27.6601 Y0.7385 F350.00
G01 X27.6894 Y0.6991 F350.00
G01 X27.7116 Y0.6698 F350.00
G01 X27.7346 Y0.6411 F350.00
G01 X27.7583 Y0.6129 F350.00
G01 X27.7827 Y0.5853 F350.00
G01 X27.8157 Y0.5489 F350.00
G01 X27.8408 Y0.5220 F350.00
G01 X27.8665 Y0.4956 F350.00
G01 X28.8143 Y-0.4522 F350.00
G01 X20.8515 Y3.6078 F350.00
G00 Z0.5000
G00 X22.7296 Y2.6503
G01 F250.00
G01 Z-0.0500
G01 F350.00
G01 X27.2806 Y2.6503 F350.00
G00 Z0.5000
G00 X27.6885 Y0.7003
G01 F250.00
G01 Z-0.0500
G01 F350.00
G01 X26.5540 Y0.7003 F350.00
G00 Z0.5000
G00 X31.2811 Y4.6003
G01 F250.00
G01 Z-0.0500
G01 F350.00
G01 X34.3518 Y4.6003 F350.00
G01 X32.6709 Y2.9421 F350.00
G01 X32.6116 Y2.9771 F350.00
G01 X32.5794 Y2.9948 F350.00
G01 X32.5467 Y3.0118 F350.00
G01 X32.5136 Y3.0279 F350.00
G01 X32.4249 Y3.0699 F350.00
G01 X32.3914 Y3.0852 F350.00
G01 X32.3576 Y3.0997 F350.00
G01 X32.3234 Y3.1134 F350.00
G01 X32.2889 Y3.1262 F350.00
G01 X32.1965 Y3.1593 F350.00
G01 X32.1617 Y3.1712 F350.00
G01 X32.1266 Y3.1824 F350.00
G01 X32.0912 Y3.1926 F350.00
G01 X32.0556 Y3.2020 F350.00
G01 X31.9604 Y3.2258 F350.00
G01 X31.9246 Y3.2343 F350.00
G01 X31.8886 Y3.2420 F350.00
G01 X31.8524 Y3.2487 F350.00
G01 X31.8160 Y3.2545 F350.00
G01 X31.7190 Y3.2689 F350.00
G01 X31.6825 Y3.2739 F350.00
G01 X31.6459 Y3.2780 F350.00
G01 X31.6092 Y3.2811 F350.00
G01 X31.5725 Y3.2834 F350.00
G01 X31.4745 Y3.2882 F350.00
G01 X31.4377 Y3.2895 F350.00
G01 X31.4009 Y3.2900 F350.00
G01 X31.3640 Y3.2895 F350.00
G01 X31.3273 Y3.2882 F350.00
G01 X31.2811 Y3.2859 F350.00
G01 X31.2811 Y6.2516 F350.00
G01 X31.3231 Y6.2254 F350.00
G01 X31.3859 Y6.1883 F350.00
G01 X31.4181 Y6.1705 F350.00
G01 X31.4508 Y6.1536 F350.00
G01 X31.4839 Y6.1374 F350.00
G01 X31.5500 Y6.1067 F350.00
G01 X31.5838 Y6.0922 F350.00
G01 X31.6180 Y6.0785 F350.00
G01 X31.6865 Y6.0535 F350.00
G01 X31.7213 Y6.0415 F350.00
G01 X31.7564 Y6.0304 F350.00
G01 X31.7917 Y6.0202 F350.00
G01 X31.8623 Y6.0020 F350.00
G01 X31.8981 Y5.9935 F350.00
G01 X31.9341 Y5.9859 F350.00
G01 X31.9703 Y5.9791 F350.00
G01 X32.0424 Y5.9680 F350.00
G01 X32.0789 Y5.9631 F350.00
G01 X32.1154 Y5.9590 F350.00
G01 X32.1521 Y5.9558 F350.00
G01 X32.1889 Y5.9536 F350.00
G01 X32.2617 Y5.9505 F350.00
G01 X32.2985 Y5.9500 F350.00
G01 X33.0021 Y5.9500 F350.00
G01 X34.4806 Y4.4715 F350.00
G01 X34.4806 Y3.2305 F350.00
G01 X34.4646 Y3.2343 F350.00
G01 X34.4286 Y3.2420 F350.00
G01 X34.3924 Y3.2487 F350.00
G01 X34.3560 Y3.2545 F350.00
G01 X34.2590 Y3.2689 F350.00
G01 X34.2225 Y3.2739 F350.00
G01 X34.1859 Y3.2780 F350.00
G01 X34.1492 Y3.2811 F350.00
G01 X34.1125 Y3.2834 F350.00
G01 X34.0145 Y3.2882 F350.00
G01 X33.9777 Y3.2895 F350.00
G01 X33.9409 Y3.2900 F350.00
G01 X33.9040 Y3.2895 F350.00
G01 X33.8673 Y3.2882 F350.00
G01 X33.7692 Y3.2834 F350.00
G01 X33.7325 Y3.2811 F350.00
G01 X33.6958 Y3.2780 F350.00
G01 X33.6592 Y3.2739 F350.00
G01 X33.6227 Y3.2689 F350.00
G01 X33.5257 Y3.2545 F350.00
G01 X33.4893 Y3.2487 F350.00
G01 X33.4531 Y3.2420 F350.00
G01 X33.4171 Y3.2343 F350.00
G01 X33.3813 Y3.2258 F350.00
G01 X33.2861 Y3.2020 F350.00
G01 X33.2505 Y3.1926 F350.00
G01 X33.2151 Y3.1824 F350.00
G01 X33.1801 Y3.1712 F350.00
G01 X33.1452 Y3.1593 F350.00
G01 X33.0528 Y3.1262 F350.00
G01 X33.0183 Y3.1134 F350.00
G01 X32.9842 Y3.0997 F350.00
G01 X32.9503 Y3.0852 F350.00
G01 X32.9168 Y3.0699 F350.00
G01 X32.8281 Y3.0279 F350.00
G01 X32.7950 Y3.0118 F350.00
G01 X32.7624 Y2.9948 F350.00
G01 X32.7301 Y2.9771 F350.00
G01 X32.6709 Y2.9421 F350.00
G00 Z0.5000
G00 X36.1094 Y8.5003
G01 F250.00
G01 Z-0.0500
G01 F350.00
G01 X36.1518 Y8.5003 F350.00
G01 X35.9309 Y8.7212 F350.00
G01 X37.1306 Y7.5215 F350.00
G01 X37.1306 Y7.4790 F350.00
G01 X35.9309 Y8.6788 F350.00
G01 X35.9309 Y8.7212 F350.00
G00 Z0.5000
G00 X37.9094 Y12.4003
G01 F250.00
G01 Z-0.0500
G01 F350.00
G01 X39.7518 Y12.4003 F350.00
G01 X39.8594 Y10.4503 F350.00
G01 X40.2306 Y10.4503 F350.00
G00 Z0.5000
G00 X44.2311 Y10.4503
G01 F250.00
G01 Z-0.0500
G01 F350.00
G01 X84.3023 Y10.4503 F350.00
G01 X86.2523 Y12.4003 F350.00
G01 X44.2311 Y12.4003 F350.00
G00 Z0.5000
G00 X43.4594 Y14.3503
G01 F250.00
G01 Z-0.0500
G01 F350.00
G01 X88.2023 Y14.3503 F350.00
G01 X90.1523 Y16.3003 F350.00
G01 X47.5906 Y16.3003 F350.00
G00 Z0.5000
G00 X47.8709 Y18.2503
G01 F250.00
G01 Z-0.0500
G01 F350.00
G01 X92.1023 Y18.2503 F350.00
G01 X94.0523 Y20.2003 F350.00
G01 X47.7554 Y20.2003 F350.00
G00 Z0.5000
G00 X38.2906 Y15.0095
G01 F250.00
G01 Z-0.0500
G01 F350.00
G01 X38.2906 Y14.6900 F350.00
G01 X38.2911 Y14.6532 F350.00
G01 X38.2924 Y14.6164 F350.00
G01 X38.2948 Y14.5674 F350.00
G01 X38.2971 Y14.5306 F350.00
G01 X38.3002 Y14.4939 F350.00
G01 X38.3043 Y14.4574 F350.00
G01 X38.3093 Y14.4209 F350.00
G01 X38.3165 Y14.3723 F350.00
G01 X38.3223 Y14.3360 F350.00
G01 X38.3290 Y14.2998 F350.00
G01 X38.3367 Y14.2638 F350.00
G01 X38.3452 Y14.2279 F350.00
G01 X38.3571 Y14.1803 F350.00
G01 X38.3665 Y14.1447 F350.00
G01 X38.3767 Y14.1094 F350.00
G01 X38.3879 Y14.0743 F350.00
G01 X38.3998 Y14.0395 F350.00
G01 X38.4164 Y13.9932 F350.00
G01 X38.4292 Y13.9587 F350.00
G01 X38.4429 Y13.9245 F350.00
G01 X38.4574 Y13.8907 F350.00
G01 X38.4727 Y13.8572 F350.00
G01 X38.4937 Y13.8129 F350.00
G01 X38.5098 Y13.7798 F350.00
G01 X38.5268 Y13.7471 F350.00
G01 X38.5445 Y13.7148 F350.00
G01 X38.5631 Y13.6830 F350.00
G01 X38.5883 Y13.6409 F350.00
G01 X38.6076 Y13.6096 F350.00
G01 X38.6277 Y13.5787 F350.00
G01 X38.6485 Y13.5484 F350.00
G01 X38.6701 Y13.5185 F350.00
G01 X38.6994 Y13.4791 F350.00
G01 X38.7216 Y13.4498 F350.00
G01 X38.7446 Y13.4211 F350.00
G01 X38.7683 Y13.3929 F350.00
G01 X38.7927 Y13.3653 F350.00
G01 X38.8257 Y13.3289 F350.00
G01 X38.8508 Y13.3020 F350.00
G01 X38.8765 Y13.2756 F350.00
G01 X40.2306 Y11.9215 F350.00
G01 X40.2306 Y10.0790 F350.00
G01 X37.2111 Y13.0985 F350.00
G01 X37.2111 Y15.0095 F350.00
G01 X37.2271 Y15.0057 F350.00
G01 X37.2631 Y14.9980 F350.00
G01 X37.2993 Y14.9913 F350.00
G01 X37.3357 Y14.9855 F350.00
G01 X37.4327 Y14.9711 F350.00
G01 X37.4692 Y14.9661 F350.00
G01 X37.5058 Y14.9620 F350.00
G01 X37.5425 Y14.9589 F350.00
G01 X37.5792 Y14.9566 F350.00
G01 X37.6773 Y14.9518 F350.00
G01 X37.7140 Y14.9505 F350.00
G01 X37.7509 Y14.9500 F350.00
G01 X37.7877 Y14.9505 F350.00
G01 X37.8245 Y14.9518 F350.00
G01 X37.9225 Y14.9566 F350.00
G01 X37.9592 Y14.9589 F350.00
G01 X37.9959 Y14.9620 F350.00
G01 X38.0325 Y14.9661 F350.00
G01 X38.0690 Y14.9711 F350.00
G01 X38.1660 Y14.9855 F350.00
G01 X38.2024 Y14.9913 F350.00
G01 X38.2386 Y14.9980 F350.00
G01 X38.2746 Y15.0057 F350.00
G01 X38.2906 Y15.0095 F350.00
G00 Z0.5000
G00 X38.3200 Y14.3503
G01 F250.00
G01 Z-0.0500
G01 F350.00
G01 X37.2111 Y14.3503 F350.00
G00 Z0.5000
G00 X33.2106 Y22.1503
G01 F250.00
G01 Z-0.0500
G01 F350.00
G01 X29.2204 Y22.1503 F350.00
G01 X28.8609 Y21.6021 F350.00
G01 X28.8016 Y21.6371 F350.00
G01 X28.7694 Y21.6548 F350.00
G01 X28.7401 Y21.6700 F350.00
G01 X44.7996 Y37.7294 F350.00
G01 X44.8116 Y37.6944 F350.00
G01 X44.8447 Y37.6020 F350.00
G01 X44.8575 Y37.5675 F350.00
G01 X44.8712 Y37.5333 F350.00
G01 X44.8857 Y37.4995 F350.00
G01 X44.9010 Y37.4660 F350.00
G01 X44.9430 Y37.3773 F350.00
G01 X44.9591 Y37.3442 F350.00
G01 X44.9761 Y37.3115 F350.00
G01 X44.9938 Y37.2793 F350.00
G01 X45.0123 Y37.2474 F350.00
G01 X45.0628 Y37.1633 F350.00
G01 X45.0821 Y37.1319 F350.00
G01 X45.1022 Y37.1011 F350.00
G01 X45.1230 Y37.0707 F350.00
G01 X45.1446 Y37.0409 F350.00
G01 X45.2030 Y36.9621 F350.00
G01 X45.2253 Y36.9328 F350.00
G01 X45.2483 Y36.9040 F350.00
G01 X45.2720 Y36.8758 F350.00
G01 X45.2964 Y36.8483 F350.00
G01 X45.3623 Y36.7756 F350.00
G01 X45.3874 Y36.7486 F350.00
G01 X45.4131 Y36.7222 F350.00
G01 X45.4394 Y36.6965 F350.00
G01 X45.4664 Y36.6715 F350.00
G01 X45.5391 Y36.6056 F350.00
G01 X45.5667 Y36.5812 F350.00
G01 X45.5949 Y36.5575 F350.00
G01 X45.6236 Y36.5345 F350.00
G01 X45.6529 Y36.5122 F350.00
G01 X45.7317 Y36.4537 F350.00
G01 X45.7616 Y36.4322 F350.00
G01 X45.7919 Y36.4113 F350.00
G01 X45.8228 Y36.3913 F350.00
G01 X45.8541 Y36.3719 F350.00
G01 X45.9383 Y36.3215 F350.00
G01 X45.9701 Y36.3029 F350.00
G01 X46.0024 Y36.2852 F350.00
G01 X46.0350 Y36.2682 F350.00
G01 X46.0681 Y36.2521 F350.00
G01 X46.1568 Y36.2101 F350.00
G01 X46.1903 Y36.1948 F350.00
G01 X46.2242 Y36.1803 F350.00
G01 X46.2583 Y36.1666 F350.00
G01 X46.2928 Y36.1538 F350.00
G01 X46.3852 Y36.1207 F350.00
G01 X46.4201 Y36.1088 F350.00
G01 X46.4551 Y36.0976 F350.00
G01 X46.4905 Y36.0874 F350.00
G01 X46.5261 Y36.0780 F350.00
G01 X46.6213 Y36.0542 F350.00
G01 X46.6571 Y36.0457 F350.00
G01 X46.6931 Y36.0380 F350.00
G01 X46.7293 Y36.0313 F350.00
G01 X46.7657 Y36.0255 F350.00
G01 X46.8627 Y36.0111 F350.00
G01 X46.8992 Y36.0061 F350.00
G01 X46.9358 Y36.0020 F350.00
G01 X46.9725 Y35.9989 F350.00
G01 X47.0092 Y35.9966 F350.00
G01 X47.1073 Y35.9918 F350.00
G01 X47.1440 Y35.9905 F350.00
G01 X47.1809 Y35.9900 F350.00
G01 X47.2177 Y35.9905 F350.00
G01 X47.2545 Y35.9918 F350.00
G01 X47.3525 Y35.9966 F350.00
G01 X47.3892 Y35.9989 F350.00
G01 X47.4259 Y36.0020 F350.00
G01 X47.4625 Y36.0061 F350.00
G01 X47.4990 Y36.0111 F350.00
G01 X47.5960 Y36.0255 F350.00
G01 X47.6324 Y36.0313 F350.00
G01 X47.6686 Y36.0380 F350.00
G01 X47.7046 Y36.0457 F350.00
G01 X47.7404 Y36.0542 F350.00
G01 X47.8356 Y36.0780 F350.00
G01 X47.8712 Y36.0874 F350.00
G01 X47.9066 Y36.0976 F350.00
G01 X47.9417 Y36.1088 F350.00
G01 X47.9765 Y36.1207 F350.00
G01 X48.0689 Y36.1538 F350.00
G01 X48.1034 Y36.1666 F350.00
G01 X48.1376 Y36.1803 F350.00
G01 X48.1714 Y36.1948 F350.00
G01 X48.2049 Y36.2101 F350.00
G01 X48.2936 Y36.2521 F350.00
G01 X48.3267 Y36.2682 F350.00
G01 X48.3594 Y36.2852 F350.00
G01 X48.3916 Y36.3029 F350.00
G01 X48.4234 Y36.3215 F350.00
G01 X48.5076 Y36.3719 F350.00
G01 X48.5389 Y36.3913 F350.00
G01 X48.5698 Y36.4113 F350.00
G01 X48.6001 Y36.4322 F350.00
G01 X48.6300 Y36.4537 F350.00
G01 X48.7088 Y36.5122 F350.00
G01 X48.7381 Y36.5345 F350.00
G01 X48.7668 Y36.5575 F350.00
G01 X48.7950 Y36.5812 F350.00
G01 X48.8226 Y36.6056 F350.00
G01 X48.8953 Y36.6715 F350.00
G01 X48.9223 Y36.6965 F350.00
G01 X48.9486 Y36.7222 F350.00
G01 X48.9743 Y36.7486 F350.00
G01 X48.9994 Y36.7756 F350.00
G01 X49.0653 Y36.8483 F350.00
G01 X49.0897 Y36.8758 F350.00
G01 X49.1134 Y36.9040 F350.00
G01 X49.1364 Y36.9328 F350.00
G01 X49.1587 Y36.9621 F350.00
G01 X49.2171 Y37.0409 F350.00
G01 X49.2387 Y37.0707 F350.00
G01 X49.2595 Y37.1011 F350.00
G01 X49.2796 Y37.1319 F350.00
G01 X49.2989 Y37.1633 F350.00
G01 X49.3494 Y37.2474 F350.00
G01 X49.3679 Y37.2793 F350.00
G01 X49.3857 Y37.3115 F350.00
G01 X49.4026 Y37.3442 F350.00
G01 X49.4188 Y37.3773 F350.00
G01 X49.4607 Y37.4660 F350.00
G01 X49.4761 Y37.4995 F350.00
G01 X49.4906 Y37.5333 F350.00
G01 X49.5042 Y37.5675 F350.00
G01 X49.5171 Y37.6020 F350.00
G01 X49.5501 Y37.6944 F350.00
G01 X49.5621 Y37.7292 F350.00
G01 X49.5732 Y37.7643 F350.00
G01 X49.5835 Y37.7996 F350.00
G01 X49.5928 Y37.8352 F350.00
G01 X49.6167 Y37.9304 F350.00
G01 X49.6252 Y37.9663 F350.00
G01 X49.6328 Y38.0023 F350.00
G01 X49.6396 Y38.0385 F350.00
G01 X49.6454 Y38.0748 F350.00
G01 X49.6598 Y38.1719 F350.00
G01 X49.6648 Y38.2084 F350.00
G01 X49.6688 Y38.2450 F350.00
G01 X49.6720 Y38.2816 F350.00
G01 X49.6742 Y38.3184 F350.00
G01 X49.6791 Y38.4164 F350.00
G01 X49.6804 Y38.4532 F350.00
G01 X49.6809 Y38.4900 F350.00
G01 X49.6804 Y38.5268 F350.00
G01 X49.6791 Y38.5636 F350.00
G01 X49.6742 Y38.6616 F350.00
G01 X49.6720 Y38.6984 F350.00
G01 X49.6688 Y38.7350 F350.00
G01 X49.6648 Y38.7716 F350.00
G01 X49.6598 Y38.8081 F350.00
G01 X49.6454 Y38.9052 F350.00
G01 X49.6396 Y38.9415 F350.00
G01 X49.6328 Y38.9777 F350.00
G01 X49.6252 Y39.0137 F350.00
G01 X49.6167 Y39.0496 F350.00
G01 X49.5928 Y39.1448 F350.00
G01 X49.5835 Y39.1804 F350.00
G01 X49.5732 Y39.2157 F350.00
G01 X49.5621 Y39.2508 F350.00
G01 X49.5501 Y39.2856 F350.00
G01 X49.5171 Y39.3780 F350.00
G01 X49.5042 Y39.4125 F350.00
G01 X49.4906 Y39.4467 F350.00
G01 X49.4761 Y39.4805 F350.00
G01 X49.4607 Y39.5140 F350.00
G01 X49.4188 Y39.6027 F350.00
G01 X49.4026 Y39.6358 F350.00
G01 X49.3857 Y39.6685 F350.00
G01 X49.3679 Y39.7007 F350.00
G01 X49.3329 Y39.7600 F350.00
G01 X49.3679 Y39.8193 F350.00
G01 X49.3857 Y39.8515 F350.00
G01 X49.4026 Y39.8842 F350.00
G01 X49.4188 Y39.9173 F350.00
G01 X49.4607 Y40.0060 F350.00
G01 X49.4761 Y40.0395 F350.00
G01 X49.4906 Y40.0733 F350.00
G01 X49.5042 Y40.1075 F350.00
G01 X49.5171 Y40.1420 F350.00
G01 X49.5501 Y40.2344 F350.00
G01 X49.5621 Y40.2692 F350.00
G01 X49.5732 Y40.3043 F350.00
G01 X49.5835 Y40.3396 F350.00
G01 X49.5928 Y40.3752 F350.00
G01 X49.6167 Y40.4704 F350.00
G01 X49.6252 Y40.5063 F350.00
G01 X49.6328 Y40.5423 F350.00
G01 X49.6396 Y40.5785 F350.00
G01 X49.6454 Y40.6148 F350.00
G01 X49.6598 Y40.7119 F350.00
G01 X49.6648 Y40.7484 F350.00
G01 X49.6688 Y40.7850 F350.00
G01 X49.6720 Y40.8216 F350.00
G01 X49.6742 Y40.8584 F350.00
G01 X49.6791 Y40.9564 F350.00
G01 X49.6804 Y40.9932 F350.00
G01 X49.6809 Y41.0300 F350.00
G01 X49.6804 Y41.0668 F350.00
G01 X49.6791 Y41.1036 F350.00
G01 X49.6742 Y41.2016 F350.00
G01 X49.6720 Y41.2384 F350.00
G01 X49.6688 Y41.2750 F350.00
G01 X49.6648 Y41.3116 F350.00
G01 X49.6598 Y41.3481 F350.00
G01 X49.6454 Y41.4452 F350.00
G01 X49.6396 Y41.4815 F350.00
G01 X49.6328 Y41.5177 F350.00
G01 X49.6252 Y41.5537 F350.00
G01 X49.6167 Y41.5896 F350.00
G01 X49.5928 Y41.6848 F350.00
G01 X49.5835 Y41.7204 F350.00
G01 X49.5732 Y41.7557 F350.00
G01 X49.5621 Y41.7908 F350.00
G01 X49.5501 Y41.8256 F350.00
G01 X49.5171 Y41.9180 F350.00
G01 X49.5042 Y41.9525 F350.00
G01 X49.4906 Y41.9867 F350.00
G01 X49.4761 Y42.0205 F350.00
G01 X49.4607 Y42.0540 F350.00
G01 X49.4188 Y42.1427 F350.00
G01 X49.4026 Y42.1758 F350.00
G01 X49.3857 Y42.2085 F350.00
G01 X49.3679 Y42.2407 F350.00
G01 X49.3329 Y42.3000 F350.00
G01 X49.3679 Y42.3593 F350.00
G01 X49.3857 Y42.3915 F350.00
G01 X49.4026 Y42.4242 F350.00
G01 X49.4188 Y42.4573 F350.00
G01 X49.4607 Y42.5460 F350.00
G01 X49.4761 Y42.5795 F350.00
G01 X49.4906 Y42.6133 F350.00
G01 X49.5042 Y42.6475 F350.00
G01 X49.5171 Y42.6820 F350.00
G01 X49.5501 Y42.7744 F350.00
G01 X49.5621 Y42.8092 F350.00
G01 X49.5732 Y42.8443 F350.00
G01 X49.5835 Y42.8796 F350.00
G01 X49.5928 Y42.9152 F350.00
G01 X49.6167 Y43.0104 F350.00
G01 X49.6252 Y43.0463 F350.00
G01 X49.6328 Y43.0823 F350.00
G01 X49.6396 Y43.1185 F350.00
G01 X49.6454 Y43.1548 F350.00
G01 X49.6598 Y43.2519 F350.00
G01 X49.6648 Y43.2884 F350.00
G01 X49.6688 Y43.3250 F350.00
G01 X49.6720 Y43.3616 F350.00
G01 X49.6742 Y43.3984 F350.00
G01 X49.6791 Y43.4964 F350.00
G01 X49.6804 Y43.5332 F350.00
G01 X49.6809 Y43.5700 F350.00
G01 X49.6804 Y43.6068 F350.00
G01 X49.6791 Y43.6436 F350.00
G01 X49.6742 Y43.7416 F350.00
G01 X49.6720 Y43.7784 F350.00
G01 X49.6688 Y43.8150 F350.00
G01 X49.6648 Y43.8516 F350.00
G01 X49.6598 Y43.8881 F350.00
G01 X49.6454 Y43.9852 F350.00
G01 X49.6396 Y44.0215 F350.00
G01 X49.6328 Y44.0577 F350.00
G01 X49.6252 Y44.0937 F350.00
G01 X49.6167 Y44.1296 F350.00
G01 X49.5928 Y44.2248 F350.00
G01 X49.5835 Y44.2604 F350.00
G01 X49.5732 Y44.2957 F350.00
G01 X49.5621 Y44.3308 F350.00
G01 X49.5501 Y44.3656 F350.00
G01 X49.5171 Y44.4580 F350.00
G01 X49.5042 Y44.4925 F350.00
G01 X49.4906 Y44.5267 F350.00
G01 X49.4761 Y44.5605 F350.00
G01 X49.4607 Y44.5940 F350.00
G01 X49.4188 Y44.6827 F350.00
G01 X49.4026 Y44.7158 F350.00
G01 X49.3857 Y44.7485 F350.00
G01 X49.3679 Y44.7807 F350.00
G01 X49.3329 Y44.8400 F350.00
G01 X49.3679 Y44.8993 F350.00
G01 X49.3857 Y44.9315 F350.00
G01 X49.4026 Y44.9642 F350.00
G01 X49.4188 Y44.9973 F350.00
G01 X49.4607 Y45.0860 F350.00
G01 X49.4761 Y45.1195 F350.00
G01 X49.4906 Y45.1533 F350.00
G01 X49.5042 Y45.1875 F350.00
G01 X49.5171 Y45.2220 F350.00
G01 X49.5501 Y45.3144 F350.00
G01 X49.5621 Y45.3492 F350.00
G01 X49.5732 Y45.3843 F350.00
G01 X49.5835 Y45.4196 F350.00
G01 X49.5928 Y45.4552 F350.00
G01 X49.6167 Y45.5504 F350.00
G01 X49.6252 Y45.5863 F350.00
G01 X49.6328 Y45.6223 F350.00
G01 X49.6396 Y45.6585 F350.00
G01 X49.6454 Y45.6948 F350.00
G01 X49.6598 Y45.7919 F350.00
G01 X49.6648 Y45.8284 F350.00
G01 X49.6688 Y45.8650 F350.00
G01 X49.6720 Y45.9016 F350.00
G01 X49.6742 Y45.9384 F350.00
G01 X49.6791 Y46.0364 F350.00
G01 X49.6804 Y46.0732 F350.00
G01 X49.6809 Y46.1100 F350.00
G01 X49.6804 Y46.1468 F350.00
G01 X49.6791 Y46.1836 F350.00
G01 X49.6742 Y46.2816 F350.00
G01 X49.6720 Y46.3184 F350.00
G01 X49.6688 Y46.3550 F350.00
G01 X49.6648 Y46.3916 F350.00
G01 X49.6598 Y46.4281 F350.00
G01 X49.6454 Y46.5252 F350.00
G01 X49.6396 Y46.5615 F350.00
G01 X49.6328 Y46.5977 F350.00
G01 X49.6252 Y46.6337 F350.00
G01 X49.6167 Y46.6696 F350.00
G01 X49.5928 Y46.7648 F350.00
G01 X49.5835 Y46.8004 F350.00
G01 X49.5732 Y46.8357 F350.00
G01 X49.5621 Y46.8708 F350.00
G01 X49.5501 Y46.9056 F350.00
G01 X49.5171 Y46.9980 F350.00
G01 X49.5042 Y47.0325 F350.00
G01 X49.4906 Y47.0667 F350.00
G01 X49.4761 Y47.1005 F350.00
G01 X49.4607 Y47.1340 F350.00
G01 X49.4188 Y47.2227 F350.00
G01 X49.4026 Y47.2558 F350.00
G01 X49.3794 Y47.2999 F350.00
G01 X70.9081 Y47.2999 F350.00
G01 X70.8698 Y47.2652 F350.00
G01 X70.8428 Y47.2401 F350.00
G01 X70.8165 Y47.2144 F350.00
G01 X67.0665 Y43.4644 F350.00
G01 X67.0408 Y43.4380 F350.00
G01 X67.0157 Y43.4111 F350.00
G01 X66.9827 Y43.3747 F350.00
G01 X66.9583 Y43.3471 F350.00
G01 X66.9346 Y43.3189 F350.00
G01 X66.9116 Y43.2902 F350.00
G01 X66.8894 Y43.2609 F350.00
G01 X66.8601 Y43.2215 F350.00
G01 X66.8385 Y43.1916 F350.00
G01 X66.8177 Y43.1613 F350.00
G01 X66.7976 Y43.1304 F350.00
G01 X66.7783 Y43.0991 F350.00
G01 X66.7531 Y43.0570 F350.00
G01 X66.7345 Y43.0252 F350.00
G01 X66.7168 Y42.9929 F350.00
G01 X66.6998 Y42.9602 F350.00
G01 X66.6837 Y42.9271 F350.00
G01 X66.6627 Y42.8828 F350.00
G01 X66.6474 Y42.8493 F350.00
G01 X66.6329 Y42.8155 F350.00
G01 X66.6192 Y42.7813 F350.00
G01 X66.6064 Y42.7468 F350.00
G01 X66.5898 Y42.7005 F350.00
G01 X66.5779 Y42.6657 F350.00
G01 X66.5667 Y42.6306 F350.00
G01 X66.5565 Y42.5953 F350.00
G01 X66.5471 Y42.5597 F350.00
G01 X66.5352 Y42.5121 F350.00
G01 X66.5267 Y42.4762 F350.00
G01 X66.5190 Y42.4402 F350.00
G01 X66.5123 Y42.4040 F350.00
G01 X66.5065 Y42.3677 F350.00
G01 X66.4993 Y42.3191 F350.00
G01 X66.4943 Y42.2826 F350.00
G01 X66.4919 Y42.2614 F350.00
G01 X66.4500 Y42.2988 F350.00
G01 X66.4218 Y42.3225 F350.00
G01 X66.3931 Y42.3455 F350.00
G01 X66.3638 Y42.3678 F350.00
G01 X66.2850 Y42.4263 F350.00
G01 X66.2551 Y42.4478 F350.00
G01 X66.2248 Y42.4687 F350.00
G01 X66.1939 Y42.4887 F350.00
G01 X66.1626 Y42.5081 F350.00
G01 X66.0784 Y42.5585 F350.00
G01 X66.0466 Y42.5771 F350.00
G01 X66.0144 Y42.5948 F350.00
G01 X65.9817 Y42.6118 F350.00
G01 X65.9486 Y42.6279 F350.00
G01 X65.8599 Y42.6699 F350.00
G01 X65.8264 Y42.6852 F350.00
G01 X65.7926 Y42.6997 F350.00
G01 X65.7584 Y42.7134 F350.00
G01 X65.7239 Y42.7262 F350.00
G01 X65.6315 Y42.7593 F350.00
G01 X65.5967 Y42.7712 F350.00
G01 X65.5616 Y42.7824 F350.00
G01 X65.5262 Y42.7926 F350.00
G01 X65.4906 Y42.8020 F350.00
G01 X65.3954 Y42.8258 F350.00
G01 X65.3596 Y42.8343 F350.00
G01 X65.3236 Y42.8420 F350.00
G01 X65.2874 Y42.8487 F350.00
G01 X65.2510 Y42.8545 F350.00
G01 X65.1540 Y42.8689 F350.00
G01 X65.1175 Y42.8739 F350.00
G01 X65.0809 Y42.8780 F350.00
G01 X65.0442 Y42.8811 F350.00
G01 X65.0075 Y42.8834 F350.00
G01 X64.9095 Y42.8882 F350.00
G01 X64.8727 Y42.8895 F350.00
G01 X64.8359 Y42.8900 F350.00
G01 X64.7990 Y42.8895 F350.00
G01 X64.7623 Y42.8882 F350.00
G01 X64.6642 Y42.8834 F350.00
G01 X64.6275 Y42.8811 F350.00
G01 X64.5908 Y42.8780 F350.00
G01 X64.5542 Y42.8739 F350.00
G01 X64.5177 Y42.8689 F350.00
G01 X64.4207 Y42.8545 F350.00
G01 X64.3843 Y42.8487 F350.00
G01 X64.3481 Y42.8420 F350.00
G01 X64.3121 Y42.8343 F350.00
G01 X64.2763 Y42.8258 F350.00
G01 X64.1811 Y42.8020 F350.00
G01 X64.1455 Y42.7926 F350.00
G01 X64.1101 Y42.7824 F350.00
G01 X64.0751 Y42.7712 F350.00
G01 X64.0402 Y42.7593 F350.00
G01 X63.9478 Y42.7262 F350.00
G01 X63.9133 Y42.7134 F350.00
G01 X63.8792 Y42.6997 F350.00
G01 X63.8453 Y42.6852 F350.00
G01 X63.8118 Y42.6699 F350.00
G01 X63.7231 Y42.6279 F350.00
G01 X63.6900 Y42.6118 F350.00
G01 X63.6574 Y42.5948 F350.00
G01 X63.6251 Y42.5771 F350.00
G01 X63.5659 Y42.5421 F350.00
G01 X63.5066 Y42.5771 F350.00
G01 X63.4744 Y42.5948 F350.00
G01 X63.4417 Y42.6118 F350.00
G01 X63.4086 Y42.6279 F350.00
G01 X63.3199 Y42.6699 F350.00
G01 X63.2864 Y42.6852 F350.00
G01 X63.2526 Y42.6997 F350.00
G01 X63.2184 Y42.7134 F350.00
G01 X63.1839 Y42.7262 F350.00
G01 X63.0915 Y42.7593 F350.00
G01 X63.0567 Y42.7712 F350.00
G01 X63.0216 Y42.7824 F350.00
G01 X62.9862 Y42.7926 F350.00
G01 X62.9506 Y42.8020 F350.00
G01 X62.8554 Y42.8258 F350.00
G01 X62.8196 Y42.8343 F350.00
G01 X62.7836 Y42.8420 F350.00
G01 X62.7474 Y42.8487 F350.00
G01 X62.7110 Y42.8545 F350.00
G01 X62.6140 Y42.8689 F350.00
G01 X62.5775 Y42.8739 F350.00
G01 X62.5409 Y42.8780 F350.00
G01 X62.5042 Y42.8811 F350.00
G01 X62.4675 Y42.8834 F350.00
G01 X62.3695 Y42.8882 F350.00
G01 X62.3327 Y42.8895 F350.00
G01 X62.2959 Y42.8900 F350.00
G01 X62.2590 Y42.8895 F350.00
G01 X62.2223 Y42.8882 F350.00
G01 X62.1242 Y42.8834 F350.00
G01 X62.0875 Y42.8811 F350.00
G01 X62.0508 Y42.8780 F350.00
G01 X62.0142 Y42.8739 F350.00
G01 X61.9777 Y42.8689 F350.00
G01 X61.8807 Y42.8545 F350.00
G01 X61.8443 Y42.8487 F350.00
G01 X61.8081 Y42.8420 F350.00
G01 X61.7721 Y42.8343 F350.00
G01 X61.7363 Y42.8258 F350.00
G01 X61.6411 Y42.8020 F350.00
G01 X61.6055 Y42.7926 F350.00
G01 X61.5701 Y42.7824 F350.00
G01 X61.5351 Y42.7712 F350.00
G01 X61.5002 Y42.7593 F350.00
G01 X61.4078 Y42.7262 F350.00
G01 X61.3733 Y42.7134 F350.00
G01 X61.3392 Y42.6997 F350.00
G01 X61.3053 Y42.6852 F350.00
G01 X61.2718 Y42.6699 F350.00
G01 X61.1831 Y42.6279 F350.00
G01 X61.1500 Y42.6118 F350.00
G01 X61.1174 Y42.5948 F350.00
G01 X61.0851 Y42.5771 F350.00
G01 X61.0259 Y42.5421 F350.00
G01 X60.9666 Y42.5771 F350.00
G01 X60.9344 Y42.5948 F350.00
G01 X60.9017 Y42.6118 F350.00
G01 X60.8686 Y42.6279 F350.00
G01 X60.7799 Y42.6699 F350.00
G01 X60.7464 Y42.6852 F350.00
G01 X60.7126 Y42.6997 F350.00
G01 X60.6784 Y42.7134 F350.00
G01 X60.6439 Y42.7262 F350.00
G01 X60.5515 Y42.7593 F350.00
G01 X60.5167 Y42.7712 F350.00
G01 X60.4816 Y42.7824 F350.00
G01 X60.4462 Y42.7926 F350.00
G01 X60.4106 Y42.8020 F350.00
G01 X60.3154 Y42.8258 F350.00
G01 X60.2796 Y42.8343 F350.00
G01 X60.2436 Y42.8420 F350.00
G01 X60.2074 Y42.8487 F350.00
G01 X60.1710 Y42.8545 F350.00
G01 X60.0740 Y42.8689 F350.00
G01 X60.0375 Y42.8739 F350.00
G01 X60.0009 Y42.8780 F350.00
G01 X59.9642 Y42.8811 F350.00
G01 X59.9275 Y42.8834 F350.00
G01 X59.8295 Y42.8882 F350.00
G01 X59.7927 Y42.8895 F350.00
G01 X59.7559 Y42.8900 F350.00
G01 X59.7190 Y42.8895 F350.00
G01 X59.6823 Y42.8882 F350.00
G01 X59.5842 Y42.8834 F350.00
G01 X59.5475 Y42.8811 F350.00
G01 X59.5108 Y42.8780 F350.00
G01 X59.4742 Y42.8739 F350.00
G01 X59.4377 Y42.8689 F350.00
G01 X59.3407 Y42.8545 F350.00
G01 X59.3043 Y42.8487 F350.00
G01 X59.2681 Y42.8420 F350.00
G01 X59.2321 Y42.8343 F350.00
G01 X59.1963 Y42.8258 F350.00
G01 X59.1011 Y42.8020 F350.00
G01 X59.0655 Y42.7926 F350.00
G01 X59.0301 Y42.7824 F350.00
G01 X58.9951 Y42.7712 F350.00
G01 X58.9602 Y42.7593 F350.00
G01 X58.8678 Y42.7262 F350.00
G01 X58.8333 Y42.7134 F350.00
G01 X58.7992 Y42.6997 F350.00
G01 X58.7653 Y42.6852 F350.00
G01 X58.7318 Y42.6699 F350.00
G01 X58.6431 Y42.6279 F350.00
G01 X58.6100 Y42.6118 F350.00
G01 X58.5774 Y42.5948 F350.00
G01 X58.5451 Y42.5771 F350.00
G01 X58.5133 Y42.5585 F350.00
G01 X58.4291 Y42.5081 F350.00
G01 X58.3978 Y42.4887 F350.00
G01 X58.3669 Y42.4687 F350.00
G01 X58.3366 Y42.4478 F350.00
G01 X58.3067 Y42.4263 F350.00
G01 X58.2279 Y42.3678 F350.00
G01 X58.1986 Y42.3455 F350.00
G01 X58.1699 Y42.3225 F350.00
G01 X58.1417 Y42.2988 F350.00
G01 X58.1141 Y42.2744 F350.00
G01 X58.0414 Y42.2085 F350.00
G01 X58.0144 Y42.1835 F350.00
G01 X57.9881 Y42.1578 F350.00
G01 X57.9624 Y42.1314 F350.00
G01 X57.9373 Y42.1044 F350.00
G01 X57.8714 Y42.0317 F350.00
G01 X57.8470 Y42.0042 F350.00
G01 X57.8233 Y41.9760 F350.00
G01 X57.8003 Y41.9472 F350.00
G01 X57.7780 Y41.9179 F350.00
G01 X57.7196 Y41.8391 F350.00
G01 X57.6980 Y41.8093 F350.00
G01 X57.6772 Y41.7789 F350.00
G01 X57.6571 Y41.7481 F350.00
G01 X57.6378 Y41.7167 F350.00
G01 X57.5873 Y41.6326 F350.00
G01 X57.5688 Y41.6007 F350.00
G01 X57.5511 Y41.5685 F350.00
G01 X57.5341 Y41.5358 F350.00
G01 X57.5180 Y41.5027 F350.00
G01 X57.4760 Y41.4140 F350.00
G01 X57.4607 Y41.3805 F350.00
G01 X57.4462 Y41.3467 F350.00
G01 X57.4325 Y41.3125 F350.00
G01 X57.4197 Y41.2780 F350.00
G01 X57.3866 Y41.1856 F350.00
G01 X57.3746 Y41.1508 F350.00
G01 X57.3635 Y41.1157 F350.00
G01 X57.3533 Y41.0804 F350.00
G01 X57.3439 Y41.0448 F350.00
G01 X57.3200 Y40.9496 F350.00
G01 X57.3115 Y40.9137 F350.00
G01 X57.3039 Y40.8777 F350.00
G01 X57.2972 Y40.8415 F350.00
G01 X57.2913 Y40.8052 F350.00
G01 X57.2769 Y40.7081 F350.00
G01 X57.2720 Y40.6716 F350.00
G01 X57.2679 Y40.6350 F350.00
G01 X57.2647 Y40.5984 F350.00
G01 X57.2625 Y40.5616 F350.00
G01 X57.2577 Y40.4636 F350.00
G01 X57.2563 Y40.4268 F350.00
G01 X57.2559 Y40.3900 F350.00
G01 X57.2559 Y39.3900 F350.00
G01 X57.2563 Y39.3532 F350.00
G01 X57.2577 Y39.3164 F350.00
G01 X57.2625 Y39.2184 F350.00
G01 X57.2647 Y39.1816 F350.00
G01 X57.2679 Y39.1450 F350.00
G01 X57.2720 Y39.1084 F350.00
G01 X57.2769 Y39.0719 F350.00
G01 X57.2913 Y38.9748 F350.00
G01 X57.2972 Y38.9385 F350.00
G01 X57.3039 Y38.9023 F350.00
G01 X57.3115 Y38.8663 F350.00
G01 X57.3200 Y38.8304 F350.00
G01 X57.3439 Y38.7352 F350.00
G01 X57.3533 Y38.6996 F350.00
G01 X57.3635 Y38.6643 F350.00
G01 X57.3746 Y38.6292 F350.00
G01 X57.3866 Y38.5944 F350.00
G01 X57.4197 Y38.5020 F350.00
G01 X57.4325 Y38.4675 F350.00
G01 X57.4514 Y38.4212 F350.00
G01 X57.4285 Y38.3953 F350.00
G01 X57.4048 Y38.3672 F350.00
G01 X57.3818 Y38.3384 F350.00
G01 X57.3595 Y38.3091 F350.00
G01 X57.3164 Y38.2503 F350.00
G01 X57.2956 Y38.2200 F350.00
G01 X57.2755 Y38.1891 F350.00
G01 X57.2377 Y38.1268 F350.00
G01 X57.2191 Y38.0950 F350.00
G01 X57.2014 Y38.0628 F350.00
G01 X57.1844 Y38.0301 F350.00
G01 X57.1683 Y37.9970 F350.00
G01 X57.1375 Y37.9309 F350.00
G01 X57.1230 Y37.8971 F350.00
G01 X57.1094 Y37.8629 F350.00
G01 X57.0844 Y37.7944 F350.00
G01 X57.0724 Y37.7596 F350.00
G01 X57.0613 Y37.7245 F350.00
G01 X57.0510 Y37.6891 F350.00
G01 X57.0329 Y37.6185 F350.00
G01 X57.0244 Y37.5827 F350.00
G01 X57.0167 Y37.5467 F350.00
G01 X57.0100 Y37.5105 F350.00
G01 X57.0042 Y37.4742 F350.00
G01 X56.9939 Y37.4020 F350.00
G01 X56.9899 Y37.3654 F350.00
G01 X56.9867 Y37.3287 F350.00
G01 X56.9844 Y37.2920 F350.00
G01 X56.9813 Y37.2192 F350.00
G01 X56.9809 Y37.1824 F350.00
G01 X56.9809 Y35.4176 F350.00
G01 X56.9813 Y35.3808 F350.00
G01 X56.9827 Y35.3440 F350.00
G01 X56.9867 Y35.2713 F350.00
G01 X56.9899 Y35.2346 F350.00
G01 X56.9939 Y35.1980 F350.00
G01 X56.9989 Y35.1615 F350.00
G01 X57.0100 Y35.0895 F350.00
G01 X57.0167 Y35.0533 F350.00
G01 X57.0244 Y35.0173 F350.00
G01 X57.0416 Y34.9465 F350.00
G01 X57.0510 Y34.9109 F350.00
G01 X57.0613 Y34.8755 F350.00
G01 X57.0724 Y34.8404 F350.00
G01 X57.0965 Y34.7716 F350.00
G01 X57.1094 Y34.7371 F350.00
G01 X57.1230 Y34.7029 F350.00
G01 X57.1375 Y34.6691 F350.00
G01 X57.1683 Y34.6030 F350.00
G01 X57.1844 Y34.5699 F350.00
G01 X57.2014 Y34.5372 F350.00
G01 X57.2191 Y34.5050 F350.00
G01 X57.2377 Y34.4732 F350.00
G01 X57.2755 Y34.4109 F350.00
G01 X57.2956 Y34.3800 F350.00
G01 X57.3164 Y34.3497 F350.00
G01 X57.3380 Y34.3198 F350.00
G01 X57.3818 Y34.2616 F350.00
G01 X57.4048 Y34.2328 F350.00
G01 X57.4285 Y34.2047 F350.00
G01 X57.4529 Y34.1771 F350.00
G01 X57.5022 Y34.1234 F350.00
G01 X57.5279 Y34.0970 F350.00
G01 X57.5542 Y34.0713 F350.00
G01 X57.5812 Y34.0463 F350.00
G01 X57.6355 Y33.9976 F350.00
G01 X57.6637 Y33.9739 F350.00
G01 X57.6924 Y33.9509 F350.00
G01 X57.7507 Y33.9071 F350.00
G01 X57.7805 Y33.8856 F350.00
G01 X57.8109 Y33.8648 F350.00
G01 X57.8418 Y33.8447 F350.00
G01 X57.9040 Y33.8068 F350.00
G01 X57.9359 Y33.7883 F350.00
G01 X57.9681 Y33.7705 F350.00
G01 X58.0008 Y33.7536 F350.00
G01 X58.0339 Y33.7374 F350.00
G01 X58.1000 Y33.7067 F350.00
G01 X58.1338 Y33.6922 F350.00
G01 X58.1680 Y33.6785 F350.00
G01 X58.2025 Y33.6657 F350.00
G01 X58.2713 Y33.6415 F350.00
G01 X58.3064 Y33.6304 F350.00
G01 X58.3417 Y33.6202 F350.00
G01 X58.4123 Y33.6020 F350.00
G01 X58.4481 Y33.5935 F350.00
G01 X58.4841 Y33.5859 F350.00
G01 X58.5203 Y33.5791 F350.00
G01 X58.5567 Y33.5733 F350.00
G01 X58.6289 Y33.5631 F350.00
G01 X58.6654 Y33.5590 F350.00
G01 X58.7021 Y33.5558 F350.00
G01 X58.7749 Y33.5518 F350.00
G01 X58.8117 Y33.5505 F350.00
G01 X58.8485 Y33.5500 F350.00
G01 X60.6132 Y33.5500 F350.00
G01 X60.6500 Y33.5505 F350.00
G01 X60.7229 Y33.5536 F350.00
G01 X60.7596 Y33.5558 F350.00
G01 X60.7963 Y33.5590 F350.00
G01 X60.8329 Y33.5631 F350.00
G01 X60.9050 Y33.5733 F350.00
G01 X60.9414 Y33.5791 F350.00
G01 X60.9776 Y33.5859 F350.00
G01 X61.0136 Y33.5935 F350.00
G01 X61.0844 Y33.6108 F350.00
G01 X61.1200 Y33.6202 F350.00
G01 X61.1554 Y33.6304 F350.00
G01 X61.1905 Y33.6415 F350.00
G01 X61.2253 Y33.6535 F350.00
G01 X61.2937 Y33.6785 F350.00
G01 X61.3279 Y33.6922 F350.00
G01 X61.3618 Y33.7067 F350.00
G01 X61.4279 Y33.7374 F350.00
G01 X61.4609 Y33.7536 F350.00
G01 X61.4936 Y33.7705 F350.00
G01 X61.5259 Y33.7883 F350.00
G01 X61.5886 Y33.8254 F350.00
G01 X61.6200 Y33.8447 F350.00
G01 X61.6508 Y33.8648 F350.00
G01 X61.6812 Y33.8856 F350.00
G01 X61.7110 Y33.9071 F350.00
G01 X61.7693 Y33.9509 F350.00
G01 X61.7980 Y33.9739 F350.00
G01 X61.8262 Y33.9976 F350.00
G01 X61.8538 Y34.0220 F350.00
G01 X61.9075 Y34.0713 F350.00
G01 X61.9338 Y34.0970 F350.00
G01 X61.9595 Y34.1234 F350.00
G01 X62.0088 Y34.1771 F350.00
G01 X62.0332 Y34.2047 F350.00
G01 X62.0569 Y34.2328 F350.00
G01 X62.0799 Y34.2616 F350.00
G01 X62.1237 Y34.3198 F350.00
G01 X62.1453 Y34.3497 F350.00
G01 X62.1661 Y34.3800 F350.00
G01 X62.1862 Y34.4109 F350.00
G01 X62.2055 Y34.4422 F350.00
G01 X62.2426 Y34.5050 F350.00
G01 X62.2603 Y34.5372 F350.00
G01 X62.2773 Y34.5699 F350.00
G01 X62.2934 Y34.6030 F350.00
G01 X62.3242 Y34.6691 F350.00
G01 X62.3387 Y34.7029 F350.00
G01 X62.3524 Y34.7371 F350.00
G01 X62.3652 Y34.7716 F350.00
G01 X62.3893 Y34.8404 F350.00
G01 X62.4004 Y34.8755 F350.00
G01 X62.4107 Y34.9109 F350.00
G01 X62.4288 Y34.9815 F350.00
G01 X62.4373 Y35.0173 F350.00
G01 X62.4450 Y35.0533 F350.00
G01 X62.4517 Y35.0895 F350.00
G01 X62.4576 Y35.1258 F350.00
G01 X62.4678 Y35.1980 F350.00
G01 X62.4719 Y35.2346 F350.00
G01 X62.4750 Y35.2713 F350.00
G01 X62.4791 Y35.3440 F350.00
G01 X62.4804 Y35.3808 F350.00
G01 X62.4809 Y35.4176 F350.00
G01 X62.4809 Y36.8974 F350.00
G01 X62.5042 Y36.8989 F350.00
G01 X62.5409 Y36.9020 F350.00
G01 X62.5775 Y36.9061 F350.00
G01 X62.6140 Y36.9111 F350.00
G01 X62.7110 Y36.9255 F350.00
G01 X62.7474 Y36.9313 F350.00
G01 X62.7836 Y36.9380 F350.00
G01 X62.8196 Y36.9457 F350.00
G01 X62.8554 Y36.9542 F350.00
G01 X62.9506 Y36.9780 F350.00
G01 X62.9862 Y36.9874 F350.00
G01 X63.0216 Y36.9976 F350.00
G01 X63.0567 Y37.0088 F350.00
G01 X63.0915 Y37.0207 F350.00
G01 X63.1839 Y37.0538 F350.00
G01 X63.2184 Y37.0666 F350.00
G01 X63.2526 Y37.0803 F350.00
G01 X63.2864 Y37.0948 F350.00
G01 X63.3199 Y37.1101 F350.00
G01 X63.4086 Y37.1521 F350.00
G01 X63.4417 Y37.1682 F350.00
G01 X63.4744 Y37.1852 F350.00
G01 X63.5066 Y37.2029 F350.00
G01 X63.5659 Y37.2379 F350.00
G01 X63.6251 Y37.2029 F350.00
G01 X63.6574 Y37.1852 F350.00
G01 X63.6900 Y37.1682 F350.00
G01 X63.7231 Y37.1521 F350.00
G01 X63.8118 Y37.1101 F350.00
G01 X63.8453 Y37.0948 F350.00
G01 X63.8792 Y37.0803 F350.00
G01 X63.9133 Y37.0666 F350.00
G01 X63.9478 Y37.0538 F350.00
G01 X64.0402 Y37.0207 F350.00
G01 X64.0751 Y37.0088 F350.00
G01 X64.1101 Y36.9976 F350.00
G01 X64.1455 Y36.9874 F350.00
G01 X64.1811 Y36.9780 F350.00
G01 X64.2763 Y36.9542 F350.00
G01 X64.3121 Y36.9457 F350.00
G01 X64.3481 Y36.9380 F350.00
G01 X64.3843 Y36.9313 F350.00
G01 X64.4207 Y36.9255 F350.00
G01 X64.5177 Y36.9111 F350.00
G01 X64.5542 Y36.9061 F350.00
G01 X64.5908 Y36.9020 F350.00
G01 X64.6275 Y36.8989 F350.00
G01 X64.6642 Y36.8966 F350.00
G01 X64.7623 Y36.8918 F350.00
G01 X64.7990 Y36.8905 F350.00
G01 X64.8359 Y36.8900 F350.00
G01 X64.8727 Y36.8905 F350.00
G01 X64.9095 Y36.8918 F350.00
G01 X65.0075 Y36.8966 F350.00
G01 X65.0442 Y36.8989 F350.00
G01 X65.0809 Y36.9020 F350.00
G01 X65.1175 Y36.9061 F350.00
G01 X65.1540 Y36.9111 F350.00
G01 X65.2510 Y36.9255 F350.00
G01 X65.2874 Y36.9313 F350.00
G01 X65.3236 Y36.9380 F350.00
G01 X65.3596 Y36.9457 F350.00
G01 X65.3954 Y36.9542 F350.00
G01 X65.4906 Y36.9780 F350.00
G01 X65.5262 Y36.9874 F350.00
G01 X65.5616 Y36.9976 F350.00
G01 X65.5967 Y37.0088 F350.00
G01 X65.6315 Y37.0207 F350.00
G01 X65.7239 Y37.0538 F350.00
G01 X65.7584 Y37.0666 F350.00
G01 X65.7926 Y37.0803 F350.00
G01 X65.8264 Y37.0948 F350.00
G01 X65.8599 Y37.1101 F350.00
G01 X65.9486 Y37.1521 F350.00
G01 X65.9817 Y37.1682 F350.00
G01 X66.0144 Y37.1852 F350.00
G01 X66.0466 Y37.2029 F350.00
G01 X66.0784 Y37.2215 F350.00
G01 X66.1626 Y37.2719 F350.00
G01 X66.1939 Y37.2913 F350.00
G01 X66.2248 Y37.3113 F350.00
G01 X66.2551 Y37.3322 F350.00
G01 X66.2850 Y37.3537 F350.00
G01 X66.3638 Y37.4122 F350.00
G01 X66.3931 Y37.4345 F350.00
G01 X66.4218 Y37.4575 F350.00
G01 X66.4500 Y37.4812 F350.00
G01 X66.4806 Y37.5083 F350.00
G01 X66.4806 Y35.8000 F350.00
G01 X66.4811 Y35.7632 F350.00
G01 X66.4824 Y35.7264 F350.00
G01 X66.4848 Y35.6774 F350.00
G01 X66.4871 Y35.6406 F350.00
G01 X66.4902 Y35.6039 F350.00
G01 X66.4943 Y35.5674 F350.00
G01 X66.4993 Y35.5309 F350.00
G01 X66.5065 Y35.4823 F350.00
G01 X66.5123 Y35.4460 F350.00
G01 X66.5190 Y35.4098 F350.00
G01 X66.5267 Y35.3738 F350.00
G01 X66.5352 Y35.3379 F350.00
G01 X66.5471 Y35.2903 F350.00
G01 X66.5565 Y35.2547 F350.00
G01 X66.5667 Y35.2194 F350.00
G01 X66.5779 Y35.1843 F350.00
G01 X66.5898 Y35.1495 F350.00
G01 X66.6064 Y35.1032 F350.00
G01 X66.6192 Y35.0687 F350.00
G01 X66.6329 Y35.0345 F350.00
G01 X66.6474 Y35.0007 F350.00
G01 X66.6627 Y34.9672 F350.00
G01 X66.6837 Y34.9229 F350.00
G01 X66.6998 Y34.8898 F350.00
G01 X66.7168 Y34.8571 F350.00
G01 X66.7345 Y34.8248 F350.00
G01 X66.7531 Y34.7930 F350.00
G01 X66.7783 Y34.7509 F350.00
G01 X66.7976 Y34.7196 F350.00
G01 X66.8177 Y34.6887 F350.00
G01 X66.8385 Y34.6584 F350.00
G01 X66.8601 Y34.6285 F350.00
G01 X66.8894 Y34.5891 F350.00
G01 X66.9116 Y34.5598 F350.00
G01 X66.9346 Y34.5311 F350.00
G01 X66.9583 Y34.5029 F350.00
G01 X66.9827 Y34.4753 F350.00
G01 X67.0157 Y34.4389 F350.00
G01 X67.0408 Y34.4120 F350.00
G01 X67.0665 Y34.3856 F350.00
G01 X76.6518 Y24.8003 F350.00
G01 X35.2109 Y24.8003 F350.00
G01 X35.1740 Y24.7998 F350.00
G01 X35.1373 Y24.7984 F350.00
G01 X35.0882 Y24.7960 F350.00
G01 X35.0515 Y24.7938 F350.00
G01 X35.0148 Y24.7906 F350.00
G01 X34.9782 Y24.7866 F350.00
G01 X34.9417 Y24.7816 F350.00
G01 X34.8932 Y24.7744 F350.00
G01 X34.8568 Y24.7686 F350.00
G01 X34.8206 Y24.7618 F350.00
G01 X34.7846 Y24.7542 F350.00
G01 X34.7488 Y24.7457 F350.00
G01 X34.7012 Y24.7338 F350.00
G01 X34.6656 Y24.7244 F350.00
G01 X34.6302 Y24.7141 F350.00
G01 X34.5951 Y24.7030 F350.00
G01 X34.5603 Y24.6910 F350.00
G01 X34.5141 Y24.6745 F350.00
G01 X34.4796 Y24.6617 F350.00
G01 X34.4454 Y24.6480 F350.00
G01 X34.4116 Y24.6335 F350.00
G01 X34.3781 Y24.6182 F350.00
G01 X34.3337 Y24.5972 F350.00
G01 X34.3006 Y24.5810 F350.00
G01 X34.2679 Y24.5641 F350.00
G01 X34.2357 Y24.5463 F350.00
G01 X34.2039 Y24.5278 F350.00
G01 X34.1618 Y24.5025 F350.00
G01 X34.1304 Y24.4832 F350.00
G01 X34.0996 Y24.4631 F350.00
G01 X34.0692 Y24.4423 F350.00
G01 X34.0394 Y24.4208 F350.00
G01 X34.0000 Y24.3915 F350.00
G01 X33.9707 Y24.3692 F350.00
G01 X33.9419 Y24.3462 F350.00
G01 X33.9137 Y24.3225 F350.00
G01 X33.8862 Y24.2981 F350.00
G01 X33.8498 Y24.2652 F350.00
G01 X33.8228 Y24.2401 F350.00
G01 X33.7965 Y24.2144 F350.00
G01 X33.7708 Y24.1880 F350.00
G01 X33.7457 Y24.1611 F350.00
G01 X33.7127 Y24.1247 F350.00
G01 X33.6883 Y24.0971 F350.00
G01 X33.6646 Y24.0689 F350.00
G01 X33.6416 Y24.0402 F350.00
G01 X33.6194 Y24.0109 F350.00
G01 X33.5901 Y23.9715 F350.00
G01 X33.5685 Y23.9416 F350.00
G01 X33.5477 Y23.9113 F350.00
G01 X33.5276 Y23.8804 F350.00
G01 X33.5083 Y23.8491 F350.00
G01 X33.4831 Y23.8070 F350.00
G01 X33.4645 Y23.7752 F350.00
G01 X33.4468 Y23.7429 F350.00
G01 X33.4298 Y23.7102 F350.00
G01 X33.4137 Y23.6771 F350.00
G01 X33.3927 Y23.6328 F350.00
G01 X33.3774 Y23.5993 F350.00
G01 X33.3629 Y23.5655 F350.00
G01 X33.3492 Y23.5313 F350.00
G01 X33.3364 Y23.4968 F350.00
G01 X33.3198 Y23.4505 F350.00
G01 X33.3079 Y23.4157 F350.00
G01 X33.2967 Y23.3806 F350.00
G01 X33.2865 Y23.3453 F350.00
G01 X33.2771 Y23.3097 F350.00
G01 X33.2652 Y23.2621 F350.00
G01 X33.2567 Y23.2262 F350.00
G01 X33.2490 Y23.1902 F350.00
G01 X33.2423 Y23.1540 F350.00
G01 X33.2365 Y23.1177 F350.00
G01 X33.2293 Y23.0691 F350.00
G01 X33.2243 Y23.0326 F350.00
G01 X33.2202 Y22.9961 F350.00
G01 X33.2171 Y22.9594 F350.00
G01 X33.2148 Y22.9226 F350.00
G01 X33.2124 Y22.8736 F350.00
G01 X33.2111 Y22.8368 F350.00
G01 X33.2106 Y22.8000 F350.00
G01 X33.2106 Y21.8905 F350.00
G01 X33.1946 Y21.8943 F350.00
G01 X33.1586 Y21.9020 F350.00
G01 X33.1224 Y21.9087 F350.00
G01 X33.0860 Y21.9145 F350.00
G01 X32.9890 Y21.9289 F350.00
G01 X32.9525 Y21.9339 F350.00
G01 X32.9159 Y21.9380 F350.00
G01 X32.8792 Y21.9411 F350.00
G01 X32.8425 Y21.9434 F350.00
G01 X32.7445 Y21.9482 F350.00
G01 X32.7077 Y21.9495 F350.00
G01 X32.6709 Y21.9500 F350.00
G01 X32.6340 Y21.9495 F350.00
G01 X32.5973 Y21.9482 F350.00
G01 X32.4992 Y21.9434 F350.00
G01 X32.4625 Y21.9411 F350.00
G01 X32.4258 Y21.9380 F350.00
G01 X32.3892 Y21.9339 F350.00
G01 X32.3527 Y21.9289 F350.00
G01 X32.2557 Y21.9145 F350.00
G01 X32.2193 Y21.9087 F350.00
G01 X32.1831 Y21.9020 F350.00
G01 X32.1471 Y21.8943 F350.00
G01 X32.1113 Y21.8858 F350.00
G01 X32.0161 Y21.8620 F350.00
G01 X31.9805 Y21.8526 F350.00
G01 X31.9451 Y21.8424 F350.00
G01 X31.9101 Y21.8312 F350.00
G01 X31.8752 Y21.8193 F350.00
G01 X31.7828 Y21.7862 F350.00
G01 X31.7483 Y21.7734 F350.00
G01 X31.7142 Y21.7597 F350.00
G01 X31.6803 Y21.7452 F350.00
G01 X31.6468 Y21.7299 F350.00
G01 X31.5581 Y21.6879 F350.00
G01 X31.5250 Y21.6718 F350.00
G01 X31.4924 Y21.6548 F350.00
G01 X31.4601 Y21.6371 F350.00
G01 X31.4009 Y21.6021 F350.00
G01 X31.3416 Y21.6371 F350.00
G01 X31.3094 Y21.6548 F350.00
G01 X31.2767 Y21.6718 F350.00
G01 X31.2436 Y21.6879 F350.00
G01 X31.1549 Y21.7299 F350.00
G01 X31.1214 Y21.7452 F350.00
G01 X31.0876 Y21.7597 F350.00
G01 X31.0534 Y21.7734 F350.00
G01 X31.0189 Y21.7862 F350.00
G01 X30.9265 Y21.8193 F350.00
G01 X30.8917 Y21.8312 F350.00
G01 X30.8566 Y21.8424 F350.00
G01 X30.8212 Y21.8526 F350.00
G01 X30.7856 Y21.8620 F350.00
G01 X30.6904 Y21.8858 F350.00
G01 X30.6546 Y21.8943 F350.00
G01 X30.6186 Y21.9020 F350.00
G01 X30.5824 Y21.9087 F350.00
G01 X30.5460 Y21.9145 F350.00
G01 X30.4490 Y21.9289 F350.00
G01 X30.4125 Y21.9339 F350.00
G01 X30.3759 Y21.9380 F350.00
G01 X30.3392 Y21.9411 F350.00
G01 X30.3025 Y21.9434 F350.00
G01 X30.2045 Y21.9482 F350.00
G01 X30.1677 Y21.9495 F350.00
G01 X30.1309 Y21.9500 F350.00
G01 X30.0940 Y21.9495 F350.00
G01 X30.0573 Y21.9482 F350.00
G01 X29.9592 Y21.9434 F350.00
G01 X29.9225 Y21.9411 F350.00
G01 X29.8858 Y21.9380 F350.00
G01 X29.8492 Y21.9339 F350.00
G01 X29.8127 Y21.9289 F350.00
G01 X29.7157 Y21.9145 F350.00
G01 X29.6793 Y21.9087 F350.00
G01 X29.6431 Y21.9020 F350.00
G01 X29.6071 Y21.8943 F350.00
G01 X29.5713 Y21.8858 F350.00
G01 X29.4761 Y21.8620 F350.00
G01 X29.4405 Y21.8526 F350.00
G01 X29.4051 Y21.8424 F350.00
G01 X29.3701 Y21.8312 F350.00
G01 X29.3352 Y21.8193 F350.00
G01 X29.2428 Y21.7862 F350.00
G01 X29.2083 Y21.7734 F350.00
G01 X29.1742 Y21.7597 F350.00
G01 X29.1403 Y21.7452 F350.00
G01 X29.1068 Y21.7299 F350.00
G01 X29.0181 Y21.6879 F350.00
G01 X28.9850 Y21.6718 F350.00
G01 X28.9524 Y21.6548 F350.00
G01 X28.9201 Y21.6371 F350.00
G01 X28.8609 Y21.6021 F350.00
G01 X31.1704 Y24.1003 F350.00
G01 X33.6911 Y24.1003 F350.00
G01 X33.1204 Y26.0503 F350.00
G01 X75.4018 Y26.0503 F350.00
G01 X73.4518 Y28.0003 F350.00
G01 X35.0704 Y28.0003 F350.00
G01 X37.0204 Y29.9503 F350.00
G01 X71.5018 Y29.9503 F350.00
G01 X69.5518 Y31.9003 F350.00
G01 X38.9704 Y31.9003 F350.00
G01 X40.9204 Y33.8503 F350.00
G01 X57.8332 Y33.8503 F350.00
G00 Z0.5000
G00 X56.9809 Y35.8003
G01 F250.00
G01 Z-0.0500
G01 F350.00
G01 X42.8704 Y35.8003 F350.00
G00 Z0.5000
G00 X41.9810 Y39.8610
G01 F250.00
G01 Z-0.0500
G01 F350.00
G01 X41.9810 Y46.5500 F350.00
G01 X41.9805 Y46.5868 F350.00
G01 X41.9780 Y46.6481 F350.00
G01 X41.9757 Y46.6849 F350.00
G01 X41.9726 Y46.7215 F350.00
G01 X41.9685 Y46.7581 F350.00
G01 X41.9599 Y46.8189 F350.00
G01 X41.9541 Y46.8552 F350.00
G01 X41.9474 Y46.8914 F350.00
G01 X41.9397 Y46.9274 F350.00
G01 X41.9312 Y46.9633 F350.00
G01 X41.9159 Y47.0227 F350.00
G01 X41.9056 Y47.0580 F350.00
G01 X41.8945 Y47.0931 F350.00
G01 X41.8825 Y47.1279 F350.00
G01 X41.8614 Y47.1856 F350.00
G01 X41.8478 Y47.2197 F350.00
G01 X41.8333 Y47.2536 F350.00
G01 X41.8179 Y47.2871 F350.00
G01 X41.7913 Y47.3423 F350.00
G01 X41.7743 Y47.3750 F350.00
G01 X41.7566 Y47.4073 F350.00
G01 X41.7254 Y47.4601 F350.00
G01 X41.7061 Y47.4915 F350.00
G01 X41.6860 Y47.5223 F350.00
G01 X41.6652 Y47.5527 F350.00
G01 X41.6290 Y47.6022 F350.00
G01 X41.6067 Y47.6315 F350.00
G01 X41.5837 Y47.6603 F350.00
G01 X41.5600 Y47.6884 F350.00
G01 X41.5192 Y47.7342 F350.00
G01 X41.4941 Y47.7612 F350.00
G01 X41.4684 Y47.7875 F350.00
G01 X38.3090 Y50.9469 F350.00
G01 X38.3234 Y50.9640 F350.00
G01 X38.3464 Y50.9928 F350.00
G01 X38.3687 Y51.0221 F350.00
G01 X38.4271 Y51.1009 F350.00
G01 X38.4487 Y51.1307 F350.00
G01 X38.4695 Y51.1611 F350.00
G01 X38.4896 Y51.1919 F350.00
G01 X38.5089 Y51.2233 F350.00
G01 X38.5594 Y51.3074 F350.00
G01 X38.5779 Y51.3393 F350.00
G01 X38.5957 Y51.3715 F350.00
G01 X38.6126 Y51.4042 F350.00
G01 X38.6288 Y51.4373 F350.00
G01 X38.6707 Y51.5260 F350.00
G01 X38.6861 Y51.5595 F350.00
G01 X38.7006 Y51.5933 F350.00
G01 X38.7142 Y51.6275 F350.00
G01 X38.7271 Y51.6620 F350.00
G01 X38.7601 Y51.7544 F350.00
G01 X38.7721 Y51.7892 F350.00
G01 X38.7832 Y51.8243 F350.00
G01 X38.7935 Y51.8596 F350.00
G01 X38.8028 Y51.8952 F350.00
G01 X38.8267 Y51.9904 F350.00
G01 X38.8352 Y52.0263 F350.00
G01 X38.8428 Y52.0623 F350.00
G01 X38.8496 Y52.0985 F350.00
G01 X38.8554 Y52.1348 F350.00
G01 X38.8698 Y52.2319 F350.00
G01 X38.8748 Y52.2684 F350.00
G01 X38.8788 Y52.3050 F350.00
G01 X38.8820 Y52.3416 F350.00
G01 X38.8842 Y52.3784 F350.00
G01 X38.8891 Y52.4764 F350.00
G01 X38.8904 Y52.5132 F350.00
G01 X38.8909 Y52.5500 F350.00
G01 X38.8904 Y52.5868 F350.00
G01 X38.8868 Y52.6690 F350.00
G01 X42.8557 Y48.7001 F350.00
G01 X42.8557 Y40.7357 F350.00
G01 X41.9810 Y39.8610 F350.00
G01 X41.9810 Y41.6503 F350.00
G01 X42.8557 Y41.6503 F350.00
G01 X42.8557 Y43.6003 F350.00
G01 X41.9810 Y43.6003 F350.00
G01 X41.9810 Y45.5503 F350.00
G01 X42.8557 Y45.5503 F350.00
G01 X42.8557 Y47.5003 F350.00
G01 X41.7004 Y47.5003 F350.00
G01 X42.1056 Y49.4503 F350.00
G01 X39.8057 Y49.4503 F350.00
G01 X40.1556 Y51.4003 F350.00
G01 X38.6106 Y51.4003 F350.00
G00 Z0.5000
G00 X36.5052 Y47.7974
G01 F250.00
G01 Z-0.0500
G01 F350.00
G01 X38.4807 Y45.8245 F350.00
G01 X38.4807 Y39.2249 F350.00
G01 X36.5052 Y37.2494 F350.00
G01 X36.5052 Y47.7974 F350.00
G01 X36.5052 Y47.5003 F350.00
G01 X36.8027 Y47.5003 F350.00
G01 X36.5052 Y45.5503 F350.00
G01 X38.4807 Y45.5503 F350.00
G01 X38.4807 Y43.6003 F350.00
G01 X36.5052 Y43.6003 F350.00
G01 X36.5052 Y41.6503 F350.00
G01 X38.4807 Y41.6503 F350.00
G01 X38.4807 Y39.7003 F350.00
G01 X36.5052 Y39.7003 F350.00
G01 X36.5052 Y37.7503 F350.00
G01 X37.0061 Y37.7503 F350.00
G00 Z0.5000
G00 X33.0049 Y37.7503
G01 F250.00
G01 Z-0.0500
G01 F350.00
G01 X29.1289 Y37.7503 F350.00
G00 Z0.5000
G00 X29.7253 Y39.7003
G01 F250.00
G01 Z-0.0500
G01 F350.00
G01 X33.0049 Y39.7003 F350.00
G01 X33.0049 Y41.6503 F350.00
G01 X28.8727 Y41.6503 F350.00
G00 Z0.5000
G00 X27.2759 Y43.6003
G01 F250.00
G01 Z-0.0500
G01 F350.00
G01 X33.0049 Y43.6003 F350.00
G01 X33.0049 Y45.5503 F350.00
G01 X29.5575 Y45.5503 F350.00
G00 Z0.5000
G00 X29.5752 Y47.5003
G01 F250.00
G01 Z-0.0500
G01 F350.00
G01 X33.0049 Y47.5003 F350.00
G00 Z0.5000
G00 X29.4798 Y47.7499
G01 F250.00
G01 Z-0.0500
G01 F350.00
G01 X33.0049 Y47.7499 F350.00
G01 X33.0049 Y37.3991 F350.00
G01 X21.9809 Y26.3751 F350.00
G01 X21.9809 Y26.9712 F350.00
G01 X24.8953 Y29.8856 F350.00
G01 X24.9210 Y29.9120 F350.00
G01 X24.9460 Y29.9389 F350.00
G01 X24.9790 Y29.9753 F350.00
G01 X25.0034 Y30.0029 F350.00
G01 X25.0271 Y30.0311 F350.00
G01 X25.0501 Y30.0598 F350.00
G01 X25.0724 Y30.0891 F350.00
G01 X25.1016 Y30.1285 F350.00
G01 X25.1232 Y30.1584 F350.00
G01 X25.1440 Y30.1887 F350.00
G01 X25.1641 Y30.2196 F350.00
G01 X25.1834 Y30.2509 F350.00
G01 X25.2086 Y30.2930 F350.00
G01 X25.2272 Y30.3248 F350.00
G01 X25.2449 Y30.3571 F350.00
G01 X25.2619 Y30.3898 F350.00
G01 X25.2780 Y30.4229 F350.00
G01 X25.2990 Y30.4672 F350.00
G01 X25.3143 Y30.5007 F350.00
G01 X25.3289 Y30.5345 F350.00
G01 X25.3425 Y30.5687 F350.00
G01 X25.3553 Y30.6032 F350.00
G01 X25.3719 Y30.6495 F350.00
G01 X25.3839 Y30.6843 F350.00
G01 X25.3950 Y30.7194 F350.00
G01 X25.4052 Y30.7547 F350.00
G01 X25.4146 Y30.7903 F350.00
G01 X25.4265 Y30.8379 F350.00
G01 X25.4351 Y30.8738 F350.00
G01 X25.4427 Y30.9098 F350.00
G01 X25.4494 Y30.9460 F350.00
G01 X25.4553 Y30.9823 F350.00
G01 X25.4625 Y31.0309 F350.00
G01 X25.4674 Y31.0674 F350.00
G01 X25.4715 Y31.1039 F350.00
G01 X25.4746 Y31.1406 F350.00
G01 X25.4769 Y31.1774 F350.00
G01 X25.4793 Y31.2264 F350.00
G01 X25.4807 Y31.2632 F350.00
G01 X25.4811 Y31.3000 F350.00
G01 X25.4811 Y32.8715 F350.00
G01 X28.1453 Y35.5356 F350.00
G01 X28.1710 Y35.5620 F350.00
G01 X28.1960 Y35.5889 F350.00
G01 X28.2290 Y35.6253 F350.00
G01 X28.2534 Y35.6529 F350.00
G01 X28.2771 Y35.6811 F350.00
G01 X28.3001 Y35.7098 F350.00
G01 X28.3224 Y35.7391 F350.00
G01 X28.3516 Y35.7785 F350.00
G01 X28.3732 Y35.8084 F350.00
G01 X28.3940 Y35.8387 F350.00
G01 X28.4141 Y35.8696 F350.00
G01 X28.4334 Y35.9009 F350.00
G01 X28.4586 Y35.9430 F350.00
G01 X28.4772 Y35.9748 F350.00
G01 X28.4949 Y36.0071 F350.00
G01 X28.5119 Y36.0398 F350.00
G01 X28.5280 Y36.0729 F350.00
G01 X28.5490 Y36.1172 F350.00
G01 X28.5643 Y36.1507 F350.00
G01 X28.5789 Y36.1845 F350.00
G01 X28.5925 Y36.2187 F350.00
G01 X28.6053 Y36.2532 F350.00
G01 X28.6219 Y36.2995 F350.00
G01 X28.6339 Y36.3343 F350.00
G01 X28.6450 Y36.3694 F350.00
G01 X28.6552 Y36.4047 F350.00
G01 X28.6646 Y36.4403 F350.00
G01 X28.6765 Y36.4879 F350.00
G01 X28.6851 Y36.5238 F350.00
G01 X28.6927 Y36.5598 F350.00
G01 X28.6994 Y36.5960 F350.00
G01 X28.7053 Y36.6323 F350.00
G01 X28.7125 Y36.6809 F350.00
G01 X28.7174 Y36.7174 F350.00
G01 X28.7215 Y36.7539 F350.00
G01 X28.7246 Y36.7906 F350.00
G01 X28.7269 Y36.8274 F350.00
G01 X28.7293 Y36.8764 F350.00
G01 X28.7307 Y36.9132 F350.00
G01 X28.7311 Y36.9500 F350.00
G01 X28.7311 Y37.3165 F350.00
G01 X28.7989 Y37.3779 F350.00
G01 X28.8258 Y37.4030 F350.00
G01 X28.8522 Y37.4287 F350.00
G01 X28.8779 Y37.4550 F350.00
G01 X28.9029 Y37.4820 F350.00
G01 X29.0018 Y37.5911 F350.00
G01 X29.0262 Y37.6187 F350.00
G01 X29.0499 Y37.6468 F350.00
G01 X29.0729 Y37.6756 F350.00
G01 X29.0952 Y37.7049 F350.00
G01 X29.1829 Y37.8231 F350.00
G01 X29.2044 Y37.8529 F350.00
G01 X29.2253 Y37.8833 F350.00
G01 X29.2453 Y37.9141 F350.00
G01 X29.2647 Y37.9455 F350.00
G01 X29.3403 Y38.0718 F350.00
G01 X29.3589 Y38.1036 F350.00
G01 X29.3766 Y38.1358 F350.00
G01 X29.3936 Y38.1685 F350.00
G01 X29.4097 Y38.2016 F350.00
G01 X29.4727 Y38.3346 F350.00
G01 X29.4880 Y38.3681 F350.00
G01 X29.5025 Y38.4019 F350.00
G01 X29.5162 Y38.4361 F350.00
G01 X29.5290 Y38.4706 F350.00
G01 X29.5786 Y38.6092 F350.00
G01 X29.5906 Y38.6441 F350.00
G01 X29.6017 Y38.6791 F350.00
G01 X29.6119 Y38.7145 F350.00
G01 X29.6213 Y38.7501 F350.00
G01 X29.6571 Y38.8929 F350.00
G01 X29.6656 Y38.9287 F350.00
G01 X29.6732 Y38.9647 F350.00
G01 X29.6800 Y39.0009 F350.00
G01 X29.6858 Y39.0373 F350.00
G01 X29.7074 Y39.1829 F350.00
G01 X29.7124 Y39.2194 F350.00
G01 X29.7164 Y39.2559 F350.00
G01 X29.7196 Y39.2926 F350.00
G01 X29.7218 Y39.3294 F350.00
G01 X29.7291 Y39.4764 F350.00
G01 X29.7304 Y39.5132 F350.00
G01 X29.7309 Y39.5500 F350.00
G01 X29.7304 Y39.5868 F350.00
G01 X29.7291 Y39.6236 F350.00
G01 X29.7218 Y39.7706 F350.00
G01 X29.7196 Y39.8074 F350.00
G01 X29.7164 Y39.8441 F350.00
G01 X29.7124 Y39.8806 F350.00
G01 X29.7074 Y39.9171 F350.00
G01 X29.6858 Y40.0627 F350.00
G01 X29.6800 Y40.0991 F350.00
G01 X29.6732 Y40.1353 F350.00
G01 X29.6656 Y40.1713 F350.00
G01 X29.6571 Y40.2071 F350.00
G01 X29.6213 Y40.3499 F350.00
G01 X29.6119 Y40.3855 F350.00
G01 X29.6017 Y40.4209 F350.00
G01 X29.5906 Y40.4559 F350.00
G01 X29.5786 Y40.4908 F350.00
G01 X29.5290 Y40.6294 F350.00
G01 X29.5162 Y40.6639 F350.00
G01 X29.5025 Y40.6981 F350.00
G01 X29.4880 Y40.7319 F350.00
G01 X29.4727 Y40.7654 F350.00
G01 X29.4097 Y40.8984 F350.00
G01 X29.3936 Y40.9315 F350.00
G01 X29.3766 Y40.9642 F350.00
G01 X29.3589 Y40.9964 F350.00
G01 X29.3403 Y41.0282 F350.00
G01 X29.2647 Y41.1545 F350.00
G01 X29.2453 Y41.1859 F350.00
G01 X29.2253 Y41.2167 F350.00
G01 X29.2044 Y41.2471 F350.00
G01 X29.1829 Y41.2769 F350.00
G01 X29.0952 Y41.3951 F350.00
G01 X29.0729 Y41.4244 F350.00
G01 X29.0499 Y41.4532 F350.00
G01 X29.0262 Y41.4813 F350.00
G01 X29.0018 Y41.5089 F350.00
G01 X28.9029 Y41.6180 F350.00
G01 X28.8779 Y41.6450 F350.00
G01 X28.8522 Y41.6713 F350.00
G01 X28.8258 Y41.6970 F350.00
G01 X28.7989 Y41.7221 F350.00
G01 X28.6898 Y41.8209 F350.00
G01 X28.6622 Y41.8453 F350.00
G01 X28.6340 Y41.8690 F350.00
G01 X28.6053 Y41.8920 F350.00
G01 X28.5760 Y41.9143 F350.00
G01 X28.4578 Y42.0020 F350.00
G01 X28.4279 Y42.0236 F350.00
G01 X28.3976 Y42.0444 F350.00
G01 X28.3667 Y42.0645 F350.00
G01 X28.3354 Y42.0838 F350.00
G01 X28.2091 Y42.1595 F350.00
G01 X28.1773 Y42.1780 F350.00
G01 X28.1451 Y42.1958 F350.00
G01 X28.1124 Y42.2127 F350.00
G01 X28.0793 Y42.2289 F350.00
G01 X27.9462 Y42.2918 F350.00
G01 X27.9127 Y42.3071 F350.00
G01 X27.8789 Y42.3216 F350.00
G01 X27.8447 Y42.3353 F350.00
G01 X27.8102 Y42.3481 F350.00
G01 X27.6716 Y42.3977 F350.00
G01 X27.6368 Y42.4097 F350.00
G01 X27.6017 Y42.4208 F350.00
G01 X27.5664 Y42.4311 F350.00
G01 X27.5308 Y42.4405 F350.00
G01 X27.3880 Y42.4762 F350.00
G01 X27.3521 Y42.4847 F350.00
G01 X27.3161 Y42.4924 F350.00
G01 X27.2799 Y42.4991 F350.00
G01 X27.2436 Y42.5049 F350.00
G01 X27.0980 Y42.5265 F350.00
G01 X27.0615 Y42.5315 F350.00
G01 X27.0249 Y42.5356 F350.00
G01 X26.9882 Y42.5387 F350.00
G01 X26.9515 Y42.5410 F350.00
G01 X26.8045 Y42.5482 F350.00
G01 X26.7677 Y42.5495 F350.00
G01 X26.7309 Y42.5500 F350.00
G01 X26.6940 Y42.5495 F350.00
G01 X26.6573 Y42.5482 F350.00
G01 X26.5102 Y42.5410 F350.00
G01 X26.4735 Y42.5387 F350.00
G01 X26.4368 Y42.5356 F350.00
G01 X26.4002 Y42.5315 F350.00
G01 X26.3637 Y42.5265 F350.00
G01 X26.2181 Y42.5049 F350.00
G01 X26.1818 Y42.4991 F350.00
G01 X26.1456 Y42.4924 F350.00
G01 X26.1096 Y42.4847 F350.00
G01 X26.0738 Y42.4762 F350.00
G01 X25.9310 Y42.4405 F350.00
G01 X25.8954 Y42.4311 F350.00
G01 X25.8600 Y42.4208 F350.00
G01 X25.8249 Y42.4097 F350.00
G01 X25.7901 Y42.3977 F350.00
G01 X25.6515 Y42.3481 F350.00
G01 X25.6170 Y42.3353 F350.00
G01 X25.5828 Y42.3216 F350.00
G01 X25.5490 Y42.3071 F350.00
G01 X25.5155 Y42.2918 F350.00
G01 X25.3824 Y42.2289 F350.00
G01 X25.3493 Y42.2127 F350.00
G01 X25.3167 Y42.1958 F350.00
G01 X25.2844 Y42.1780 F350.00
G01 X25.2526 Y42.1595 F350.00
G01 X25.1264 Y42.0838 F350.00
G01 X25.0950 Y42.0645 F350.00
G01 X25.0642 Y42.0444 F350.00
G01 X25.0338 Y42.0236 F350.00
G01 X25.0040 Y42.0020 F350.00
G01 X24.8857 Y41.9143 F350.00
G01 X24.8564 Y41.8920 F350.00
G01 X24.8277 Y41.8690 F350.00
G01 X24.7995 Y41.8453 F350.00
G01 X24.7719 Y41.8209 F350.00
G01 X24.6629 Y41.7221 F350.00
G01 X24.6359 Y41.6970 F350.00
G01 X24.6095 Y41.6713 F350.00
G01 X24.5838 Y41.6450 F350.00
G01 X24.5588 Y41.6180 F350.00
G01 X24.4599 Y41.5089 F350.00
G01 X24.4355 Y41.4813 F350.00
G01 X24.4118 Y41.4532 F350.00
G01 X24.3888 Y41.4244 F350.00
G01 X24.3665 Y41.3951 F350.00
G01 X24.2788 Y41.2769 F350.00
G01 X24.2573 Y41.2471 F350.00
G01 X24.2365 Y41.2167 F350.00
G01 X24.2164 Y41.1859 F350.00
G01 X24.1971 Y41.1545 F350.00
G01 X24.1214 Y41.0282 F350.00
G01 X24.1028 Y40.9964 F350.00
G01 X24.0851 Y40.9642 F350.00
G01 X24.0681 Y40.9315 F350.00
G01 X24.0520 Y40.8984 F350.00
G01 X23.9891 Y40.7654 F350.00
G01 X23.9737 Y40.7319 F350.00
G01 X23.9592 Y40.6981 F350.00
G01 X23.9456 Y40.6639 F350.00
G01 X23.9327 Y40.6294 F350.00
G01 X23.8831 Y40.4908 F350.00
G01 X23.8712 Y40.4559 F350.00
G01 X23.8600 Y40.4209 F350.00
G01 X23.8498 Y40.3855 F350.00
G01 X23.8404 Y40.3499 F350.00
G01 X23.8046 Y40.2071 F350.00
G01 X23.7961 Y40.1713 F350.00
G01 X23.7885 Y40.1353 F350.00
G01 X23.7818 Y40.0991 F350.00
G01 X23.7759 Y40.0627 F350.00
G01 X23.7543 Y39.9171 F350.00
G01 X23.7494 Y39.8806 F350.00
G01 X23.7453 Y39.8441 F350.00
G01 X23.7421 Y39.8074 F350.00
G01 X23.7399 Y39.7706 F350.00
G01 X23.7327 Y39.6236 F350.00
G01 X23.7313 Y39.5868 F350.00
G01 X23.7309 Y39.5500 F350.00
G01 X23.7313 Y39.5132 F350.00
G01 X23.7327 Y39.4764 F350.00
G01 X23.7399 Y39.3294 F350.00
G01 X23.7421 Y39.2926 F350.00
G01 X23.7453 Y39.2559 F350.00
G01 X23.7494 Y39.2194 F350.00
G01 X23.7543 Y39.1829 F350.00
G01 X23.7759 Y39.0373 F350.00
G01 X23.7818 Y39.0009 F350.00
G01 X23.7885 Y38.9647 F350.00
G01 X23.7961 Y38.9287 F350.00
G01 X23.8046 Y38.8929 F350.00
G01 X23.8404 Y38.7501 F350.00
G01 X23.8498 Y38.7145 F350.00
G01 X23.8600 Y38.6791 F350.00
G01 X23.8712 Y38.6441 F350.00
G01 X23.8831 Y38.6092 F350.00
G01 X23.9327 Y38.4706 F350.00
G01 X23.9456 Y38.4361 F350.00
G01 X23.9592 Y38.4019 F350.00
G01 X23.9737 Y38.3681 F350.00
G01 X23.9891 Y38.3346 F350.00
G01 X24.0520 Y38.2016 F350.00
G01 X24.0681 Y38.1685 F350.00
G01 X24.0851 Y38.1358 F350.00
G01 X24.1028 Y38.1036 F350.00
G01 X24.1214 Y38.0718 F350.00
G01 X24.1971 Y37.9455 F350.00
G01 X24.2164 Y37.9141 F350.00
G01 X24.2365 Y37.8833 F350.00
G01 X24.2573 Y37.8529 F350.00
G01 X24.2788 Y37.8231 F350.00
G01 X24.3665 Y37.7049 F350.00
G01 X24.3888 Y37.6756 F350.00
G01 X24.4118 Y37.6468 F350.00
G01 X24.4355 Y37.6187 F350.00
G01 X24.4599 Y37.5911 F350.00
G01 X24.4995 Y37.5474 F350.00
G01 X22.4075 Y35.4554 F350.00
G01 X22.3713 Y35.5999 F350.00
G01 X22.3619 Y35.6355 F350.00
G01 X22.3517 Y35.6709 F350.00
G01 X22.3406 Y35.7059 F350.00
G01 X22.3286 Y35.7408 F350.00
G01 X22.2790 Y35.8794 F350.00
G01 X22.2662 Y35.9139 F350.00
G01 X22.2525 Y35.9481 F350.00
G01 X22.2380 Y35.9819 F350.00
G01 X22.2227 Y36.0154 F350.00
G01 X22.1597 Y36.1484 F350.00
G01 X22.1436 Y36.1815 F350.00
G01 X22.1266 Y36.2142 F350.00
G01 X22.1089 Y36.2464 F350.00
G01 X22.0903 Y36.2782 F350.00
G01 X22.0147 Y36.4045 F350.00
G01 X21.9953 Y36.4359 F350.00
G01 X21.9753 Y36.4667 F350.00
G01 X21.9544 Y36.4971 F350.00
G01 X21.9329 Y36.5269 F350.00
G01 X21.8452 Y36.6451 F350.00
G01 X21.8229 Y36.6744 F350.00
G01 X21.7999 Y36.7032 F350.00
G01 X21.7762 Y36.7313 F350.00
G01 X21.7518 Y36.7589 F350.00
G01 X21.6529 Y36.8680 F350.00
G01 X21.6279 Y36.8950 F350.00
G01 X21.6022 Y36.9213 F350.00
G01 X21.5758 Y36.9470 F350.00
G01 X21.5489 Y36.9721 F350.00
G01 X21.4398 Y37.0709 F350.00
G01 X21.4122 Y37.0953 F350.00
G01 X21.3840 Y37.1190 F350.00
G01 X21.3553 Y37.1420 F350.00
G01 X21.3260 Y37.1643 F350.00
G01 X21.2078 Y37.2520 F350.00
G01 X21.1779 Y37.2736 F350.00
G01 X21.1476 Y37.2944 F350.00
G01 X21.1167 Y37.3145 F350.00
G01 X21.0854 Y37.3338 F350.00
G01 X20.9591 Y37.4095 F350.00
G01 X20.9273 Y37.4280 F350.00
G01 X20.8951 Y37.4458 F350.00
G01 X20.8624 Y37.4627 F350.00
G01 X20.8293 Y37.4789 F350.00
G01 X20.6962 Y37.5418 F350.00
G01 X20.6627 Y37.5571 F350.00
G01 X20.6289 Y37.5716 F350.00
G01 X20.5947 Y37.5853 F350.00
G01 X20.5602 Y37.5981 F350.00
G01 X20.4216 Y37.6477 F350.00
G01 X20.3868 Y37.6597 F350.00
G01 X20.3517 Y37.6708 F350.00
G01 X20.3164 Y37.6811 F350.00
G01 X20.2808 Y37.6905 F350.00
G01 X20.1380 Y37.7262 F350.00
G01 X20.1021 Y37.7347 F350.00
G01 X20.0661 Y37.7424 F350.00
G01 X20.0299 Y37.7491 F350.00
G01 X19.9936 Y37.7549 F350.00
G01 X19.8480 Y37.7765 F350.00
G01 X19.8115 Y37.7815 F350.00
G01 X19.7749 Y37.7856 F350.00
G01 X19.7382 Y37.7887 F350.00
G01 X19.7015 Y37.7910 F350.00
G01 X19.5545 Y37.7982 F350.00
G01 X19.5177 Y37.7995 F350.00
G01 X19.4809 Y37.8000 F350.00
G01 X19.4440 Y37.7995 F350.00
G01 X19.4073 Y37.7982 F350.00
G01 X19.2602 Y37.7910 F350.00
G01 X19.2235 Y37.7887 F350.00
G01 X19.1868 Y37.7856 F350.00
G01 X19.1502 Y37.7815 F350.00
G01 X19.1137 Y37.7765 F350.00
G01 X18.9681 Y37.7549 F350.00
G01 X18.9318 Y37.7491 F350.00
G01 X18.8956 Y37.7424 F350.00
G01 X18.8596 Y37.7347 F350.00
G01 X18.8238 Y37.7262 F350.00
G01 X18.6810 Y37.6905 F350.00
G01 X18.6454 Y37.6811 F350.00
G01 X18.6100 Y37.6708 F350.00
G01 X18.5749 Y37.6597 F350.00
G01 X18.5401 Y37.6477 F350.00
G01 X18.4015 Y37.5981 F350.00
G01 X18.3560 Y37.5809 F350.00
G01 X18.3560 Y43.1000 F350.00
G01 X18.3555 Y43.1368 F350.00
G01 X18.3542 Y43.1736 F350.00
G01 X18.3507 Y43.2349 F350.00
G01 X18.3476 Y43.2715 F350.00
G01 X18.3435 Y43.3081 F350.00
G01 X18.3349 Y43.3689 F350.00
G01 X18.3291 Y43.4052 F350.00
G01 X18.3224 Y43.4414 F350.00
G01 X18.3147 Y43.4774 F350.00
G01 X18.3003 Y43.5371 F350.00
G01 X18.2909 Y43.5727 F350.00
G01 X18.2806 Y43.6080 F350.00
G01 X18.2695 Y43.6431 F350.00
G01 X18.2575 Y43.6779 F350.00
G01 X18.2364 Y43.7356 F350.00
G01 X18.2228 Y43.7697 F350.00
G01 X18.2083 Y43.8036 F350.00
G01 X18.1929 Y43.8371 F350.00
G01 X18.1663 Y43.8923 F350.00
G01 X18.1493 Y43.9250 F350.00
G01 X18.1316 Y43.9573 F350.00
G01 X18.1004 Y44.0101 F350.00
G01 X18.0811 Y44.0415 F350.00
G01 X18.0610 Y44.0723 F350.00
G01 X18.0402 Y44.1027 F350.00
G01 X18.0186 Y44.1325 F350.00
G01 X17.9817 Y44.1815 F350.00
G01 X17.9587 Y44.2103 F350.00
G01 X17.9350 Y44.2384 F350.00
G01 X17.8942 Y44.2842 F350.00
G01 X17.8691 Y44.3112 F350.00
G01 X17.8434 Y44.3375 F350.00
G01 X17.8170 Y44.3632 F350.00
G01 X17.7901 Y44.3883 F350.00
G01 X17.7443 Y44.4292 F350.00
G01 X17.7161 Y44.4529 F350.00
G01 X17.6874 Y44.4759 F350.00
G01 X17.6384 Y44.5128 F350.00
G01 X17.6085 Y44.5343 F350.00
G01 X17.5782 Y44.5552 F350.00
G01 X17.5473 Y44.5753 F350.00
G01 X17.5160 Y44.5946 F350.00
G01 X17.4631 Y44.6257 F350.00
G01 X17.4309 Y44.6435 F350.00
G01 X17.3982 Y44.6604 F350.00
G01 X17.3429 Y44.6871 F350.00
G01 X17.3094 Y44.7024 F350.00
G01 X17.2756 Y44.7169 F350.00
G01 X17.2414 Y44.7306 F350.00
G01 X17.2069 Y44.7434 F350.00
G01 X17.1490 Y44.7636 F350.00
G01 X17.1139 Y44.7748 F350.00
G01 X17.0785 Y44.7850 F350.00
G01 X17.0191 Y44.8004 F350.00
G01 X16.9833 Y44.8089 F350.00
G01 X16.9473 Y44.8165 F350.00
G01 X16.9111 Y44.8232 F350.00
G01 X16.8748 Y44.8291 F350.00
G01 X16.8180 Y44.8371 F350.00
G01 X16.8294 Y44.8529 F350.00
G01 X16.8503 Y44.8833 F350.00
G01 X16.8703 Y44.9141 F350.00
G01 X16.8897 Y44.9455 F350.00
G01 X16.9653 Y45.0718 F350.00
G01 X16.9839 Y45.1036 F350.00
G01 X17.0016 Y45.1358 F350.00
G01 X17.0186 Y45.1685 F350.00
G01 X17.0347 Y45.2016 F350.00
G01 X17.0977 Y45.3346 F350.00
G01 X17.1130 Y45.3681 F350.00
G01 X17.1275 Y45.4019 F350.00
G01 X17.1412 Y45.4361 F350.00
G01 X17.1540 Y45.4706 F350.00
G01 X17.2036 Y45.6092 F350.00
G01 X17.2156 Y45.6441 F350.00
G01 X17.2267 Y45.6791 F350.00
G01 X17.2369 Y45.7145 F350.00
G01 X17.2463 Y45.7501 F350.00
G01 X17.2821 Y45.8929 F350.00
G01 X17.2906 Y45.9287 F350.00
G01 X17.2982 Y45.9647 F350.00
G01 X17.3050 Y46.0009 F350.00
G01 X17.3108 Y46.0373 F350.00
G01 X17.3324 Y46.1829 F350.00
G01 X17.3374 Y46.2194 F350.00
G01 X17.3414 Y46.2559 F350.00
G01 X17.3446 Y46.2926 F350.00
G01 X17.3468 Y46.3294 F350.00
G01 X17.3541 Y46.4764 F350.00
G01 X17.3554 Y46.5132 F350.00
G01 X17.3559 Y46.5500 F350.00
G01 X17.3554 Y46.5868 F350.00
G01 X17.3541 Y46.6236 F350.00
G01 X17.3468 Y46.7706 F350.00
G01 X17.3446 Y46.8074 F350.00
G01 X17.3414 Y46.8441 F350.00
G01 X17.3374 Y46.8806 F350.00
G01 X17.3324 Y46.9171 F350.00
G01 X17.3108 Y47.0627 F350.00
G01 X17.3050 Y47.0991 F350.00
G01 X17.2964 Y47.1441 F350.00
G01 X17.3328 Y47.1284 F350.00
G01 X17.3670 Y47.1147 F350.00
G01 X17.4015 Y47.1019 F350.00
G01 X17.5401 Y47.0523 F350.00
G01 X17.5749 Y47.0403 F350.00
G01 X17.6100 Y47.0292 F350.00
G01 X17.6454 Y47.0189 F350.00
G01 X17.6810 Y47.0095 F350.00
G01 X17.8238 Y46.9738 F350.00
G01 X17.8596 Y46.9653 F350.00
G01 X17.8956 Y46.9576 F350.00
G01 X17.9318 Y46.9509 F350.00
G01 X17.9681 Y46.9451 F350.00
G01 X18.1137 Y46.9235 F350.00
G01 X18.1502 Y46.9185 F350.00
G01 X18.1868 Y46.9144 F350.00
G01 X18.2235 Y46.9113 F350.00
G01 X18.2602 Y46.9090 F350.00
G01 X18.4073 Y46.9018 F350.00
G01 X18.4440 Y46.9005 F350.00
G01 X18.4809 Y46.9000 F350.00
G01 X18.5177 Y46.9005 F350.00
G01 X18.5545 Y46.9018 F350.00
G01 X18.7015 Y46.9090 F350.00
G01 X18.7382 Y46.9113 F350.00
G01 X18.7749 Y46.9144 F350.00
G01 X18.8115 Y46.9185 F350.00
G01 X18.8480 Y46.9235 F350.00
G01 X18.9936 Y46.9451 F350.00
G01 X19.0299 Y46.9509 F350.00
G01 X19.0661 Y46.9576 F350.00
G01 X19.1021 Y46.9653 F350.00
G01 X19.1380 Y46.9738 F350.00
G01 X19.2808 Y47.0095 F350.00
G01 X19.3164 Y47.0189 F350.00
G01 X19.3517 Y47.0292 F350.00
G01 X19.3868 Y47.0403 F350.00
G01 X19.4216 Y47.0523 F350.00
G01 X19.5602 Y47.1019 F350.00
G01 X19.5947 Y47.1147 F350.00
G01 X19.6289 Y47.1284 F350.00
G01 X19.6627 Y47.1429 F350.00
G01 X19.6962 Y47.1582 F350.00
G01 X19.8293 Y47.2211 F350.00
G01 X19.8624 Y47.2373 F350.00
G01 X19.8951 Y47.2542 F350.00
G01 X19.9273 Y47.2720 F350.00
G01 X19.9591 Y47.2905 F350.00
G01 X20.0854 Y47.3662 F350.00
G01 X20.1167 Y47.3855 F350.00
G01 X20.1476 Y47.4056 F350.00
G01 X20.1779 Y47.4264 F350.00
G01 X20.2078 Y47.4480 F350.00
G01 X20.3260 Y47.5357 F350.00
G01 X20.3553 Y47.5580 F350.00
G01 X20.3840 Y47.5810 F350.00
G01 X20.4122 Y47.6047 F350.00
G01 X20.4398 Y47.6291 F350.00
G01 X20.5489 Y47.7279 F350.00
G01 X20.5758 Y47.7530 F350.00
G01 X20.6022 Y47.7787 F350.00
G01 X20.6279 Y47.8050 F350.00
G01 X20.6529 Y47.8320 F350.00
G01 X20.7518 Y47.9411 F350.00
G01 X20.7762 Y47.9687 F350.00
G01 X20.7999 Y47.9968 F350.00
G01 X20.8229 Y48.0256 F350.00
G01 X20.8452 Y48.0549 F350.00
G01 X20.9329 Y48.1731 F350.00
G01 X20.9544 Y48.2029 F350.00
G01 X20.9753 Y48.2333 F350.00
G01 X20.9953 Y48.2641 F350.00
G01 X21.0147 Y48.2955 F350.00
G01 X21.0903 Y48.4218 F350.00
G01 X21.1089 Y48.4536 F350.00
G01 X21.1266 Y48.4858 F350.00
G01 X21.1436 Y48.5185 F350.00
G01 X21.1597 Y48.5516 F350.00
G01 X21.2227 Y48.6846 F350.00
G01 X21.2380 Y48.7181 F350.00
G01 X21.2525 Y48.7519 F350.00
G01 X21.2662 Y48.7861 F350.00
G01 X21.2790 Y48.8206 F350.00
G01 X21.3286 Y48.9592 F350.00
G01 X21.3406 Y48.9941 F350.00
G01 X21.3517 Y49.0291 F350.00
G01 X21.3619 Y49.0645 F350.00
G01 X21.3713 Y49.1001 F350.00
G01 X21.4071 Y49.2429 F350.00
G01 X21.4156 Y49.2787 F350.00
G01 X21.4232 Y49.3147 F350.00
G01 X21.4300 Y49.3509 F350.00
G01 X21.4358 Y49.3873 F350.00
G01 X21.4574 Y49.5329 F350.00
G01 X21.4624 Y49.5694 F350.00
G01 X21.4664 Y49.6059 F350.00
G01 X21.4696 Y49.6426 F350.00
G01 X21.4718 Y49.6794 F350.00
G01 X21.4791 Y49.8267 F350.00
G01 X23.0433 Y48.2625 F350.00
G01 X23.0697 Y48.2368 F350.00
G01 X23.0967 Y48.2117 F350.00
G01 X23.1424 Y48.1708 F350.00
G01 X23.1706 Y48.1471 F350.00
G01 X23.1993 Y48.1241 F350.00
G01 X23.2286 Y48.1018 F350.00
G01 X23.2782 Y48.0657 F350.00
G01 X23.3085 Y48.0448 F350.00
G01 X23.3394 Y48.0247 F350.00
G01 X23.3707 Y48.0054 F350.00
G01 X23.4236 Y47.9743 F350.00
G01 X23.4559 Y47.9565 F350.00
G01 X23.4885 Y47.9396 F350.00
G01 X23.5216 Y47.9234 F350.00
G01 X23.5773 Y47.8976 F350.00
G01 X23.6111 Y47.8831 F350.00
G01 X23.6453 Y47.8694 F350.00
G01 X23.6798 Y47.8566 F350.00
G01 X23.7377 Y47.8364 F350.00
G01 X23.7728 Y47.8252 F350.00
G01 X23.8082 Y47.8150 F350.00
G01 X23.8438 Y47.8056 F350.00
G01 X23.9034 Y47.7911 F350.00
G01 X23.9394 Y47.7835 F350.00
G01 X23.9756 Y47.7768 F350.00
G01 X23.9931 Y47.7739 F350.00
G01 X23.9737 Y47.7319 F350.00
G01 X23.9592 Y47.6981 F350.00
G01 X23.9456 Y47.6639 F350.00
G01 X23.9327 Y47.6294 F350.00
G01 X23.8831 Y47.4908 F350.00
G01 X23.8712 Y47.4559 F350.00
G01 X23.8600 Y47.4209 F350.00
G01 X23.8498 Y47.3855 F350.00
G01 X23.8404 Y47.3499 F350.00
G01 X23.8046 Y47.2071 F350.00
G01 X23.7961 Y47.1713 F350.00
G01 X23.7885 Y47.1353 F350.00
G01 X23.7818 Y47.0991 F350.00
G01 X23.7759 Y47.0627 F350.00
G01 X23.7543 Y46.9171 F350.00
G01 X23.7494 Y46.8806 F350.00
G01 X23.7453 Y46.8441 F350.00
G01 X23.7421 Y46.8074 F350.00
G01 X23.7399 Y46.7706 F350.00
G01 X23.7327 Y46.6236 F350.00
G01 X23.7313 Y46.5868 F350.00
G01 X23.7309 Y46.5500 F350.00
G01 X23.7313 Y46.5132 F350.00
G01 X23.7327 Y46.4764 F350.00
G01 X23.7399 Y46.3294 F350.00
G01 X23.7421 Y46.2926 F350.00
G01 X23.7453 Y46.2559 F350.00
G01 X23.7494 Y46.2194 F350.00
G01 X23.7543 Y46.1829 F350.00
G01 X23.7759 Y46.0373 F350.00
G01 X23.7818 Y46.0009 F350.00
G01 X23.7885 Y45.9647 F350.00
G01 X23.7961 Y45.9287 F350.00
G01 X23.8046 Y45.8929 F350.00
G01 X23.8404 Y45.7501 F350.00
G01 X23.8498 Y45.7145 F350.00
G01 X23.8600 Y45.6791 F350.00
G01 X23.8712 Y45.6441 F350.00
G01 X23.8831 Y45.6092 F350.00
G01 X23.9327 Y45.4706 F350.00
G01 X23.9456 Y45.4361 F350.00
G01 X23.9592 Y45.4019 F350.00
G01 X23.9737 Y45.3681 F350.00
G01 X23.9891 Y45.3346 F350.00
G01 X24.0520 Y45.2016 F350.00
G01 X24.0681 Y45.1685 F350.00
G01 X24.0851 Y45.1358 F350.00
G01 X24.1028 Y45.1036 F350.00
G01 X24.1214 Y45.0718 F350.00
G01 X24.1971 Y44.9455 F350.00
G01 X24.2164 Y44.9141 F350.00
G01 X24.2365 Y44.8833 F350.00
G01 X24.2573 Y44.8529 F350.00
G01 X24.2788 Y44.8231 F350.00
G01 X24.3665 Y44.7049 F350.00
G01 X24.3888 Y44.6756 F350.00
G01 X24.4118 Y44.6468 F350.00
G01 X24.4355 Y44.6187 F350.00
G01 X24.4599 Y44.5911 F350.00
G01 X24.5588 Y44.4820 F350.00
G01 X24.5838 Y44.4550 F350.00
G01 X24.6095 Y44.4287 F350.00
G01 X24.6359 Y44.4030 F350.00
G01 X24.6629 Y44.3779 F350.00
G01 X24.7719 Y44.2791 F350.00
G01 X24.7995 Y44.2547 F350.00
G01 X24.8277 Y44.2310 F350.00
G01 X24.8564 Y44.2080 F350.00
G01 X24.8857 Y44.1857 F350.00
G01 X25.0040 Y44.0980 F350.00
G01 X25.0338 Y44.0764 F350.00
G01 X25.0642 Y44.0556 F350.00
G01 X25.0950 Y44.0355 F350.00
G01 X25.1264 Y44.0162 F350.00
G01 X25.2526 Y43.9405 F350.00
G01 X25.2844 Y43.9220 F350.00
G01 X25.3167 Y43.9042 F350.00
G01 X25.3493 Y43.8873 F350.00
G01 X25.3824 Y43.8711 F350.00
G01 X25.5155 Y43.8082 F350.00
G01 X25.5490 Y43.7929 F350.00
G01 X25.5828 Y43.7784 F350.00
G01 X25.6170 Y43.7647 F350.00
G01 X25.6515 Y43.7519 F350.00
G01 X25.7901 Y43.7023 F350.00
G01 X25.8249 Y43.6903 F350.00
G01 X25.8600 Y43.6792 F350.00
G01 X25.8954 Y43.6689 F350.00
G01 X25.9310 Y43.6595 F350.00
G01 X26.0738 Y43.6238 F350.00
G01 X26.1096 Y43.6153 F350.00
G01 X26.1456 Y43.6076 F350.00
G01 X26.1818 Y43.6009 F350.00
G01 X26.2181 Y43.5951 F350.00
G01 X26.3637 Y43.5735 F350.00
G01 X26.4002 Y43.5685 F350.00
G01 X26.4368 Y43.5644 F350.00
G01 X26.4735 Y43.5613 F350.00
G01 X26.5102 Y43.5590 F350.00
G01 X26.6573 Y43.5518 F350.00
G01 X26.6940 Y43.5505 F350.00
G01 X26.7309 Y43.5500 F350.00
G01 X26.7677 Y43.5505 F350.00
G01 X26.8045 Y43.5518 F350.00
G01 X26.9515 Y43.5590 F350.00
G01 X26.9882 Y43.5613 F350.00
G01 X27.0249 Y43.5644 F350.00
G01 X27.0615 Y43.5685 F350.00
G01 X27.0980 Y43.5735 F350.00
G01 X27.2436 Y43.5951 F350.00
G01 X27.2799 Y43.6009 F350.00
G01 X27.3161 Y43.6076 F350.00
G01 X27.3521 Y43.6153 F350.00
G01 X27.3880 Y43.6238 F350.00
G01 X27.5308 Y43.6595 F350.00
G01 X27.5664 Y43.6689 F350.00
G01 X27.6017 Y43.6792 F350.00
G01 X27.6368 Y43.6903 F350.00
G01 X27.6716 Y43.7023 F350.00
G01 X27.8102 Y43.7519 F350.00
G01 X27.8447 Y43.7647 F350.00
G01 X27.8789 Y43.7784 F350.00
G01 X27.9127 Y43.7929 F350.00
G01 X27.9462 Y43.8082 F350.00
G01 X28.0793 Y43.8711 F350.00
G01 X28.1124 Y43.8873 F350.00
G01 X28.1451 Y43.9042 F350.00
G01 X28.1773 Y43.9220 F350.00
G01 X28.2091 Y43.9405 F350.00
G01 X28.3354 Y44.0162 F350.00
G01 X28.3667 Y44.0355 F350.00
G01 X28.3976 Y44.0556 F350.00
G01 X28.4279 Y44.0764 F350.00
G01 X28.4578 Y44.0980 F350.00
G01 X28.5760 Y44.1857 F350.00
G01 X28.6053 Y44.2080 F350.00
G01 X28.6340 Y44.2310 F350.00
G01 X28.6622 Y44.2547 F350.00
G01 X28.6898 Y44.2791 F350.00
G01 X28.7989 Y44.3779 F350.00
G01 X28.8258 Y44.4030 F350.00
G01 X28.8522 Y44.4287 F350.00
G01 X28.8779 Y44.4550 F350.00
G01 X28.9029 Y44.4820 F350.00
G01 X29.0018 Y44.5911 F350.00
G01 X29.0262 Y44.6187 F350.00
G01 X29.0499 Y44.6468 F350.00
G01 X29.0729 Y44.6756 F350.00
G01 X29.0952 Y44.7049 F350.00
G01 X29.1829 Y44.8231 F350.00
G01 X29.2044 Y44.8529 F350.00
G01 X29.2253 Y44.8833 F350.00
G01 X29.2453 Y44.9141 F350.00
G01 X29.2647 Y44.9455 F350.00
G01 X29.3403 Y45.0718 F350.00
G01 X29.3589 Y45.1036 F350.00
G01 X29.3766 Y45.1358 F350.00
G01 X29.3936 Y45.1685 F350.00
G01 X29.4097 Y45.2016 F350.00
G01 X29.4727 Y45.3346 F350.00
G01 X29.4880 Y45.3681 F350.00
G01 X29.5025 Y45.4019 F350.00
G01 X29.5162 Y45.4361 F350.00
G01 X29.5290 Y45.4706 F350.00
G01 X29.5786 Y45.6092 F350.00
G01 X29.5906 Y45.6441 F350.00
G01 X29.6017 Y45.6791 F350.00
G01 X29.6119 Y45.7145 F350.00
G01 X29.6213 Y45.7501 F350.00
G01 X29.6571 Y45.8929 F350.00
G01 X29.6656 Y45.9287 F350.00
G01 X29.6732 Y45.9647 F350.00
G01 X29.6800 Y46.0009 F350.00
G01 X29.6858 Y46.0373 F350.00
G01 X29.7074 Y46.1829 F350.00
G01 X29.7124 Y46.2194 F350.00
G01 X29.7164 Y46.2559 F350.00
G01 X29.7196 Y46.2926 F350.00
G01 X29.7218 Y46.3294 F350.00
G01 X29.7291 Y46.4764 F350.00
G01 X29.7304 Y46.5132 F350.00
G01 X29.7309 Y46.5500 F350.00
G01 X29.7304 Y46.5868 F350.00
G01 X29.7291 Y46.6236 F350.00
G01 X29.7218 Y46.7706 F350.00
G01 X29.7196 Y46.8074 F350.00
G01 X29.7164 Y46.8441 F350.00
G01 X29.7124 Y46.8806 F350.00
G01 X29.7074 Y46.9171 F350.00
G01 X29.6858 Y47.0627 F350.00
G01 X29.6800 Y47.0991 F350.00
G01 X29.6732 Y47.1353 F350.00
G01 X29.6656 Y47.1713 F350.00
G01 X29.6571 Y47.2071 F350.00
G01 X29.6213 Y47.3499 F350.00
G01 X29.6119 Y47.3855 F350.00
G01 X29.6017 Y47.4209 F350.00
G01 X29.5906 Y47.4559 F350.00
G01 X29.5786 Y47.4908 F350.00
G01 X29.5290 Y47.6294 F350.00
G01 X29.5162 Y47.6639 F350.00
G01 X29.5025 Y47.6981 F350.00
G01 X29.4880 Y47.7319 F350.00
G01 X29.4798 Y47.7499 F350.00
G00 Z0.5000
G00 X26.1859 Y43.6003
G01 F250.00
G01 Z-0.0500
G01 F350.00
G01 X18.2829 Y43.6003 F350.00
G00 Z0.5000
G00 X18.3560 Y41.6503
G01 F250.00
G01 Z-0.0500
G01 F350.00
G01 X24.5890 Y41.6503 F350.00
G00 Z0.5000
G00 X23.7364 Y39.7003
G01 F250.00
G01 Z-0.0500
G01 F350.00
G01 X18.3560 Y39.7003 F350.00
G01 X18.3560 Y37.7503 F350.00
G01 X18.9390 Y37.7503 F350.00
G00 Z0.5000
G00 X20.0228 Y37.7503
G01 F250.00
G01 Z-0.0500
G01 F350.00
G01 X24.3329 Y37.7503 F350.00
G01 X22.7523 Y35.8003 F350.00
G01 X22.3073 Y35.8003 F350.00
G00 Z0.5000
G00 X21.2523 Y31.9003
G01 F250.00
G01 Z-0.0500
G01 F350.00
G01 X20.2437 Y31.9003 F350.00
G00 Z0.5000
G00 X18.7181 Y31.9003
G01 F250.00
G01 Z-0.0500
G01 F350.00
G01 X18.3560 Y31.9003 F350.00
G01 X18.3560 Y32.0191 F350.00
G01 X18.4015 Y32.0019 F350.00
G01 X18.5401 Y31.9523 F350.00
G01 X18.5749 Y31.9403 F350.00
G01 X18.6100 Y31.9292 F350.00
G01 X18.6454 Y31.9189 F350.00
G01 X18.6810 Y31.9095 F350.00
G01 X18.8238 Y31.8738 F350.00
G01 X18.8596 Y31.8653 F350.00
G01 X18.8956 Y31.8576 F350.00
G01 X18.9318 Y31.8509 F350.00
G01 X18.9681 Y31.8451 F350.00
G01 X19.1137 Y31.8235 F350.00
G01 X19.1502 Y31.8185 F350.00
G01 X19.1868 Y31.8144 F350.00
G01 X19.2235 Y31.8113 F350.00
G01 X19.2602 Y31.8090 F350.00
G01 X19.4073 Y31.8018 F350.00
G01 X19.4440 Y31.8005 F350.00
G01 X19.4809 Y31.8000 F350.00
G01 X19.5177 Y31.8005 F350.00
G01 X19.5545 Y31.8018 F350.00
G01 X19.7015 Y31.8090 F350.00
G01 X19.7382 Y31.8113 F350.00
G01 X19.7749 Y31.8144 F350.00
G01 X19.8115 Y31.8185 F350.00
G01 X19.8480 Y31.8235 F350.00
G01 X19.9936 Y31.8451 F350.00
G01 X20.0299 Y31.8509 F350.00
G01 X20.0661 Y31.8576 F350.00
G01 X20.1021 Y31.8653 F350.00
G01 X20.1380 Y31.8738 F350.00
G01 X20.2808 Y31.9095 F350.00
G01 X20.3164 Y31.9189 F350.00
G01 X20.3517 Y31.9292 F350.00
G01 X20.3868 Y31.9403 F350.00
G01 X20.4216 Y31.9523 F350.00
G01 X20.5602 Y32.0019 F350.00
G01 X20.5947 Y32.0147 F350.00
G01 X20.6289 Y32.0284 F350.00
G01 X20.6627 Y32.0429 F350.00
G01 X20.6962 Y32.0582 F350.00
G01 X20.8293 Y32.1211 F350.00
G01 X20.8624 Y32.1373 F350.00
G01 X20.8951 Y32.1542 F350.00
G01 X20.9273 Y32.1720 F350.00
G01 X20.9591 Y32.1905 F350.00
G01 X21.0854 Y32.2662 F350.00
G01 X21.1167 Y32.2855 F350.00
G01 X21.1476 Y32.3056 F350.00
G01 X21.1779 Y32.3264 F350.00
G01 X21.2078 Y32.3480 F350.00
G01 X21.3260 Y32.4357 F350.00
G01 X21.3553 Y32.4580 F350.00
G01 X21.3840 Y32.4810 F350.00
G01 X21.4122 Y32.5047 F350.00
G01 X21.4398 Y32.5291 F350.00
G01 X21.4806 Y32.5661 F350.00
G01 X21.4806 Y32.1285 F350.00
G01 X19.1255 Y29.7734 F350.00
G01 X19.0657 Y29.7645 F350.00
G01 X19.0293 Y29.7587 F350.00
G01 X18.9931 Y29.7520 F350.00
G01 X18.9571 Y29.7443 F350.00
G01 X18.9213 Y29.7358 F350.00
G01 X18.8261 Y29.7120 F350.00
G01 X18.7905 Y29.7026 F350.00
G01 X18.7551 Y29.6924 F350.00
G01 X18.7201 Y29.6812 F350.00
G01 X18.6852 Y29.6693 F350.00
G01 X18.5928 Y29.6362 F350.00
G01 X18.5583 Y29.6234 F350.00
G01 X18.5242 Y29.6097 F350.00
G01 X18.4903 Y29.5952 F350.00
G01 X18.4568 Y29.5799 F350.00
G01 X18.3560 Y29.5320 F350.00
G01 X18.3560 Y32.0191 F350.00
G01 X18.3560 Y29.9503 F350.00
G01 X19.3023 Y29.9503 F350.00
G00 Z0.5000
G00 X23.0099 Y28.0003
G01 F250.00
G01 Z-0.0500
G01 F350.00
G01 X23.6061 Y28.0003 F350.00
G01 X24.9563 Y29.9503 F350.00
G01 X25.5561 Y29.9503 F350.00
G01 X25.4811 Y31.9003 F350.00
G01 X27.5061 Y31.9003 F350.00
G01 X26.4599 Y33.8503 F350.00
G01 X29.4561 Y33.8503 F350.00
G00 Z0.5000
G00 X28.3673 Y35.8003
G01 F250.00
G01 Z-0.0500
G01 F350.00
G01 X31.4061 Y35.8003 F350.00
G00 Z0.5000
G00 X23.9042 Y45.5503
G01 F250.00
G01 Z-0.0500
G01 F350.00
G01 X17.1825 Y45.5503 F350.00
G00 Z0.5000
G00 X20.2782 Y47.5003
G01 F250.00
G01 Z-0.0500
G01 F350.00
G01 X23.8865 Y47.5003 F350.00
G00 Z0.5000
G00 X21.8556 Y49.4503
G01 F250.00
G01 Z-0.0500
G01 F350.00
G01 X21.4451 Y49.4503 F350.00
G00 Z0.5000
G00 X15.8846 Y51.4003
G01 F250.00
G01 Z-0.0500
G01 F350.00
G01 X4.5535 Y51.4003 F350.00
G01 X3.0061 Y49.4503 F350.00
G01 X13.5951 Y49.4503 F350.00
G00 Z0.5000
G00 X15.1167 Y49.4503
G01 F250.00
G01 Z-0.0500
G01 F350.00
G01 X15.5166 Y49.4503 F350.00
G00 Z0.5000
G00 X16.4806 Y53.3503
G01 F250.00
G01 Z-0.0500
G01 F350.00
G01 X6.1010 Y53.3503 F350.00
G01 X7.6485 Y55.3003 F350.00
G01 X16.4806 Y55.3003 F350.00
G01 X16.4806 Y57.2503 F350.00
G01 X9.1960 Y57.2503 F350.00
G01 X10.7434 Y59.2003 F350.00
G01 X16.4806 Y59.2003 F350.00
G01 X16.4806 Y61.1503 F350.00
G01 X12.2909 Y61.1503 F350.00
G01 X13.8384 Y63.1003 F350.00
G01 X16.4806 Y63.1003 F350.00
G01 X16.4806 Y65.0503 F350.00
G01 X15.3859 Y65.0503 F350.00
G00 Z0.5000
G00 X20.4811 Y65.0503
G01 F250.00
G01 Z-0.0500
G01 F350.00
G01 X21.0061 Y65.0503 F350.00
G01 X22.9056 Y66.9497 F350.00
G01 X20.4811 Y64.5253 F350.00
G01 X20.4811 Y66.9497 F350.00
G01 X22.9056 Y66.9497 F350.00
G00 Z0.5000
G00 X26.7562 Y63.1003
G01 F250.00
G01 Z-0.0500
G01 F350.00
G01 X34.1507 Y63.1003 F350.00
G00 Z0.5000
G00 X33.1571 Y61.1503
G01 F250.00
G01 Z-0.0500
G01 F350.00
G01 X28.4847 Y61.1503 F350.00
G00 Z0.5000
G00 X28.5907 Y59.2003
G01 F250.00
G01 Z-0.0500
G01 F350.00
G01 X33.0510 Y59.2003 F350.00
G01 X33.0886 Y57.2503 F350.00
G01 X28.5531 Y57.2503 F350.00
G00 Z0.5000
G00 X28.5318 Y55.3003
G01 F250.00
G01 Z-0.0500
G01 F350.00
G01 X33.1099 Y55.3003 F350.00
G00 Z0.5000
G00 X33.7437 Y54.4295
G01 F250.00
G01 Z-0.0500
G01 F350.00
G01 X33.6764 Y54.3685 F350.00
G01 X33.6494 Y54.3435 F350.00
G01 X33.6231 Y54.3178 F350.00
G01 X33.5974 Y54.2914 F350.00
G01 X33.5723 Y54.2644 F350.00
G01 X33.5064 Y54.1917 F350.00
G01 X33.4820 Y54.1642 F350.00
G01 X33.4583 Y54.1360 F350.00
G01 X33.4353 Y54.1072 F350.00
G01 X33.4130 Y54.0779 F350.00
G01 X33.3546 Y53.9991 F350.00
G01 X33.3330 Y53.9693 F350.00
G01 X33.3122 Y53.9389 F350.00
G01 X33.2921 Y53.9081 F350.00
G01 X33.2728 Y53.8767 F350.00
G01 X33.2223 Y53.7926 F350.00
G01 X33.2038 Y53.7607 F350.00
G01 X33.1861 Y53.7285 F350.00
G01 X33.1691 Y53.6958 F350.00
G01 X33.1530 Y53.6627 F350.00
G01 X33.1110 Y53.5740 F350.00
G01 X33.0957 Y53.5405 F350.00
G01 X33.0812 Y53.5067 F350.00
G01 X33.0675 Y53.4725 F350.00
G01 X33.0547 Y53.4380 F350.00
G01 X33.0216 Y53.3456 F350.00
G01 X33.0096 Y53.3108 F350.00
G01 X32.9985 Y53.2757 F350.00
G01 X32.9883 Y53.2404 F350.00
G01 X32.9789 Y53.2048 F350.00
G01 X32.9550 Y53.1096 F350.00
G01 X32.9465 Y53.0737 F350.00
G01 X32.9389 Y53.0377 F350.00
G01 X32.9322 Y53.0015 F350.00
G01 X32.9263 Y52.9652 F350.00
G01 X32.9119 Y52.8681 F350.00
G01 X32.9070 Y52.8316 F350.00
G01 X32.9029 Y52.7950 F350.00
G01 X32.8997 Y52.7584 F350.00
G01 X32.8975 Y52.7216 F350.00
G01 X32.8927 Y52.6236 F350.00
G01 X32.8913 Y52.5868 F350.00
G01 X32.8909 Y52.5500 F350.00
G01 X32.8913 Y52.5132 F350.00
G01 X32.8927 Y52.4764 F350.00
G01 X32.8975 Y52.3784 F350.00
G01 X32.8992 Y52.3501 F350.00
G01 X28.7225 Y52.3501 F350.00
G01 X28.7242 Y52.3784 F350.00
G01 X28.7291 Y52.4764 F350.00
G01 X28.7304 Y52.5132 F350.00
G01 X28.7309 Y52.5500 F350.00
G01 X28.7304 Y52.5868 F350.00
G01 X28.7291 Y52.6236 F350.00
G01 X28.7242 Y52.7216 F350.00
G01 X28.7220 Y52.7584 F350.00
G01 X28.7188 Y52.7950 F350.00
G01 X28.7148 Y52.8316 F350.00
G01 X28.7098 Y52.8681 F350.00
G01 X28.6954 Y52.9652 F350.00
G01 X28.6896 Y53.0015 F350.00
G01 X28.6828 Y53.0377 F350.00
G01 X28.6752 Y53.0737 F350.00
G01 X28.6667 Y53.1096 F350.00
G01 X28.6428 Y53.2048 F350.00
G01 X28.6335 Y53.2404 F350.00
G01 X28.6232 Y53.2757 F350.00
G01 X28.6121 Y53.3108 F350.00
G01 X28.6001 Y53.3456 F350.00
G01 X28.5671 Y53.4380 F350.00
G01 X28.5542 Y53.4725 F350.00
G01 X28.5406 Y53.5067 F350.00
G01 X28.5261 Y53.5405 F350.00
G01 X28.5107 Y53.5740 F350.00
G01 X28.4688 Y53.6627 F350.00
G01 X28.4526 Y53.6958 F350.00
G01 X28.4357 Y53.7285 F350.00
G01 X28.4179 Y53.7607 F350.00
G01 X28.3994 Y53.7926 F350.00
G01 X28.3489 Y53.8767 F350.00
G01 X28.3296 Y53.9081 F350.00
G01 X28.3095 Y53.9389 F350.00
G01 X28.2887 Y53.9693 F350.00
G01 X28.2671 Y53.9991 F350.00
G01 X28.2087 Y54.0779 F350.00
G01 X28.1864 Y54.1072 F350.00
G01 X28.1634 Y54.1360 F350.00
G01 X28.1397 Y54.1642 F350.00
G01 X28.1153 Y54.1917 F350.00
G01 X28.0494 Y54.2644 F350.00
G01 X28.0243 Y54.2914 F350.00
G01 X27.9986 Y54.3178 F350.00
G01 X27.9812 Y54.3347 F350.00
G01 X27.9812 Y54.5056 F350.00
G01 X28.0086 Y54.5322 F350.00
G01 X28.0343 Y54.5586 F350.00
G01 X28.0594 Y54.5856 F350.00
G01 X28.1253 Y54.6583 F350.00
G01 X28.1497 Y54.6858 F350.00
G01 X28.1734 Y54.7140 F350.00
G01 X28.1964 Y54.7428 F350.00
G01 X28.2187 Y54.7721 F350.00
G01 X28.2771 Y54.8509 F350.00
G01 X28.2987 Y54.8807 F350.00
G01 X28.3195 Y54.9111 F350.00
G01 X28.3396 Y54.9419 F350.00
G01 X28.3589 Y54.9733 F350.00
G01 X28.4094 Y55.0574 F350.00
G01 X28.4279 Y55.0893 F350.00
G01 X28.4457 Y55.1215 F350.00
G01 X28.4626 Y55.1542 F350.00
G01 X28.4788 Y55.1873 F350.00
G01 X28.5207 Y55.2760 F350.00
G01 X28.5361 Y55.3095 F350.00
G01 X28.5506 Y55.3433 F350.00
G01 X28.5642 Y55.3775 F350.00
G01 X28.5771 Y55.4120 F350.00
G01 X28.6101 Y55.5044 F350.00
G01 X28.6221 Y55.5392 F350.00
G01 X28.6332 Y55.5743 F350.00
G01 X28.6435 Y55.6096 F350.00
G01 X28.6528 Y55.6452 F350.00
G01 X28.6767 Y55.7404 F350.00
G01 X28.6852 Y55.7763 F350.00
G01 X28.6928 Y55.8123 F350.00
G01 X28.6996 Y55.8485 F350.00
G01 X28.7054 Y55.8848 F350.00
G01 X28.7198 Y55.9819 F350.00
G01 X28.7248 Y56.0184 F350.00
G01 X28.7288 Y56.0550 F350.00
G01 X28.7320 Y56.0916 F350.00
G01 X28.7342 Y56.1284 F350.00
G01 X28.7391 Y56.2264 F350.00
G01 X28.7404 Y56.2632 F350.00
G01 X28.7409 Y56.3000 F350.00
G01 X28.7404 Y56.3368 F350.00
G01 X28.7391 Y56.3736 F350.00
G01 X28.7342 Y56.4716 F350.00
G01 X28.7320 Y56.5084 F350.00
G01 X28.7288 Y56.5450 F350.00
G01 X28.7248 Y56.5816 F350.00
G01 X28.7198 Y56.6181 F350.00
G01 X28.7054 Y56.7152 F350.00
G01 X28.6996 Y56.7515 F350.00
G01 X28.6928 Y56.7877 F350.00
G01 X28.6852 Y56.8237 F350.00
G01 X28.6767 Y56.8596 F350.00
G01 X28.6528 Y56.9548 F350.00
G01 X28.6435 Y56.9904 F350.00
G01 X28.6332 Y57.0257 F350.00
G01 X28.6221 Y57.0608 F350.00
G01 X28.6101 Y57.0956 F350.00
G01 X28.5771 Y57.1880 F350.00
G01 X28.5642 Y57.2225 F350.00
G01 X28.5506 Y57.2567 F350.00
G01 X28.5361 Y57.2905 F350.00
G01 X28.5207 Y57.3240 F350.00
G01 X28.4788 Y57.4127 F350.00
G01 X28.4626 Y57.4458 F350.00
G01 X28.4457 Y57.4785 F350.00
G01 X28.4279 Y57.5107 F350.00
G01 X28.4094 Y57.5426 F350.00
G01 X28.3589 Y57.6267 F350.00
G01 X28.3396 Y57.6581 F350.00
G01 X28.3195 Y57.6889 F350.00
G01 X28.2987 Y57.7193 F350.00
G01 X28.2771 Y57.7491 F350.00
G01 X28.2187 Y57.8279 F350.00
G01 X28.1964 Y57.8572 F350.00
G01 X28.1734 Y57.8860 F350.00
G01 X28.1497 Y57.9142 F350.00
G01 X28.1253 Y57.9417 F350.00
G01 X28.0594 Y58.0144 F350.00
G01 X28.0343 Y58.0414 F350.00
G01 X28.0086 Y58.0678 F350.00
G01 X27.9812 Y58.0944 F350.00
G01 X27.9812 Y58.2556 F350.00
G01 X28.0086 Y58.2822 F350.00
G01 X28.0343 Y58.3086 F350.00
G01 X28.0594 Y58.3356 F350.00
G01 X28.1253 Y58.4083 F350.00
G01 X28.1497 Y58.4358 F350.00
G01 X28.1734 Y58.4640 F350.00
G01 X28.1964 Y58.4928 F350.00
G01 X28.2187 Y58.5221 F350.00
G01 X28.2771 Y58.6009 F350.00
G01 X28.2987 Y58.6307 F350.00
G01 X28.3195 Y58.6611 F350.00
G01 X28.3396 Y58.6919 F350.00
G01 X28.3589 Y58.7233 F350.00
G01 X28.4094 Y58.8074 F350.00
G01 X28.4279 Y58.8393 F350.00
G01 X28.4457 Y58.8715 F350.00
G01 X28.4626 Y58.9042 F350.00
G01 X28.4788 Y58.9373 F350.00
G01 X28.5207 Y59.0260 F350.00
G01 X28.5361 Y59.0595 F350.00
G01 X28.5506 Y59.0933 F350.00
G01 X28.5642 Y59.1275 F350.00
G01 X28.5771 Y59.1620 F350.00
G01 X28.6101 Y59.2544 F350.00
G01 X28.6221 Y59.2892 F350.00
G01 X28.6332 Y59.3243 F350.00
G01 X28.6435 Y59.3596 F350.00
G01 X28.6528 Y59.3952 F350.00
G01 X28.6767 Y59.4904 F350.00
G01 X28.6852 Y59.5263 F350.00
G01 X28.6928 Y59.5623 F350.00
G01 X28.6996 Y59.5985 F350.00
G01 X28.7054 Y59.6348 F350.00
G01 X28.7198 Y59.7319 F350.00
G01 X28.7248 Y59.7684 F350.00
G01 X28.7288 Y59.8050 F350.00
G01 X28.7320 Y59.8416 F350.00
G01 X28.7342 Y59.8784 F350.00
G01 X28.7391 Y59.9764 F350.00
G01 X28.7404 Y60.0132 F350.00
G01 X28.7409 Y60.0500 F350.00
G01 X28.7404 Y60.0868 F350.00
G01 X28.7391 Y60.1236 F350.00
G01 X28.7342 Y60.2216 F350.00
G01 X28.7320 Y60.2584 F350.00
G01 X28.7288 Y60.2950 F350.00
G01 X28.7248 Y60.3316 F350.00
G01 X28.7198 Y60.3681 F350.00
G01 X28.7054 Y60.4652 F350.00
G01 X28.6996 Y60.5015 F350.00
G01 X28.6928 Y60.5377 F350.00
G01 X28.6852 Y60.5737 F350.00
G01 X28.6767 Y60.6096 F350.00
G01 X28.6528 Y60.7048 F350.00
G01 X28.6435 Y60.7404 F350.00
G01 X28.6332 Y60.7757 F350.00
G01 X28.6221 Y60.8108 F350.00
G01 X28.6101 Y60.8456 F350.00
G01 X28.5771 Y60.9380 F350.00
G01 X28.5642 Y60.9725 F350.00
G01 X28.5506 Y61.0067 F350.00
G01 X28.5361 Y61.0405 F350.00
G01 X28.5207 Y61.0740 F350.00
G01 X28.4788 Y61.1627 F350.00
G01 X28.4626 Y61.1958 F350.00
G01 X28.4457 Y61.2285 F350.00
G01 X28.4279 Y61.2607 F350.00
G01 X28.4094 Y61.2926 F350.00
G01 X28.3589 Y61.3767 F350.00
G01 X28.3396 Y61.4081 F350.00
G01 X28.3195 Y61.4389 F350.00
G01 X28.2987 Y61.4693 F350.00
G01 X28.2771 Y61.4991 F350.00
G01 X28.2187 Y61.5779 F350.00
G01 X28.1964 Y61.6072 F350.00
G01 X28.1734 Y61.6360 F350.00
G01 X28.1497 Y61.6642 F350.00
G01 X28.1253 Y61.6917 F350.00
G01 X28.0594 Y61.7644 F350.00
G01 X28.0343 Y61.7914 F350.00
G01 X28.0086 Y61.8178 F350.00
G01 X27.9823 Y61.8435 F350.00
G01 X27.9553 Y61.8685 F350.00
G01 X27.8826 Y61.9344 F350.00
G01 X27.8550 Y61.9588 F350.00
G01 X27.8268 Y61.9825 F350.00
G01 X27.7981 Y62.0055 F350.00
G01 X27.7688 Y62.0278 F350.00
G01 X27.6900 Y62.0863 F350.00
G01 X27.6601 Y62.1078 F350.00
G01 X27.6298 Y62.1287 F350.00
G01 X27.5989 Y62.1487 F350.00
G01 X27.5676 Y62.1681 F350.00
G01 X27.4834 Y62.2185 F350.00
G01 X27.4516 Y62.2371 F350.00
G01 X27.4194 Y62.2548 F350.00
G01 X27.3867 Y62.2718 F350.00
G01 X27.3536 Y62.2879 F350.00
G01 X27.2649 Y62.3299 F350.00
G01 X27.2314 Y62.3452 F350.00
G01 X27.1976 Y62.3597 F350.00
G01 X27.1634 Y62.3734 F350.00
G01 X27.1289 Y62.3862 F350.00
G01 X27.0365 Y62.4193 F350.00
G01 X27.0017 Y62.4312 F350.00
G01 X26.9666 Y62.4424 F350.00
G01 X26.9312 Y62.4526 F350.00
G01 X26.8956 Y62.4620 F350.00
G01 X26.8004 Y62.4858 F350.00
G01 X26.7646 Y62.4943 F350.00
G01 X26.7286 Y62.5020 F350.00
G01 X26.6924 Y62.5087 F350.00
G01 X26.6560 Y62.5145 F350.00
G01 X26.5590 Y62.5289 F350.00
G01 X26.5225 Y62.5339 F350.00
G01 X26.4859 Y62.5380 F350.00
G01 X26.4492 Y62.5411 F350.00
G01 X26.4125 Y62.5434 F350.00
G01 X26.3145 Y62.5482 F350.00
G01 X26.2777 Y62.5495 F350.00
G01 X26.2059 Y62.5500 F350.00
G01 X28.6058 Y64.9499 F350.00
G01 X34.1507 Y64.9499 F350.00
G01 X34.1507 Y62.2140 F350.00
G01 X34.0741 Y62.1681 F350.00
G01 X34.0428 Y62.1487 F350.00
G01 X34.0119 Y62.1287 F350.00
G01 X33.9816 Y62.1078 F350.00
G01 X33.9517 Y62.0863 F350.00
G01 X33.8729 Y62.0278 F350.00
G01 X33.8436 Y62.0055 F350.00
G01 X33.8149 Y61.9825 F350.00
G01 X33.7867 Y61.9588 F350.00
G01 X33.7591 Y61.9344 F350.00
G01 X33.6864 Y61.8685 F350.00
G01 X33.6594 Y61.8435 F350.00
G01 X33.6331 Y61.8178 F350.00
G01 X33.6074 Y61.7914 F350.00
G01 X33.5823 Y61.7644 F350.00
G01 X33.5164 Y61.6917 F350.00
G01 X33.4920 Y61.6642 F350.00
G01 X33.4683 Y61.6360 F350.00
G01 X33.4453 Y61.6072 F350.00
G01 X33.4230 Y61.5779 F350.00
G01 X33.3646 Y61.4991 F350.00
G01 X33.3430 Y61.4693 F350.00
G01 X33.3222 Y61.4389 F350.00
G01 X33.3021 Y61.4081 F350.00
G01 X33.2828 Y61.3767 F350.00
G01 X33.2323 Y61.2926 F350.00
G01 X33.2138 Y61.2607 F350.00
G01 X33.1961 Y61.2285 F350.00
G01 X33.1791 Y61.1958 F350.00
G01 X33.1630 Y61.1627 F350.00
G01 X33.1210 Y61.0740 F350.00
G01 X33.1057 Y61.0405 F350.00
G01 X33.0912 Y61.0067 F350.00
G01 X33.0775 Y60.9725 F350.00
G01 X33.0647 Y60.9380 F350.00
G01 X33.0316 Y60.8456 F350.00
G01 X33.0196 Y60.8108 F350.00
G01 X33.0085 Y60.7757 F350.00
G01 X32.9983 Y60.7404 F350.00
G01 X32.9889 Y60.7048 F350.00
G01 X32.9650 Y60.6096 F350.00
G01 X32.9565 Y60.5737 F350.00
G01 X32.9489 Y60.5377 F350.00
G01 X32.9422 Y60.5015 F350.00
G01 X32.9363 Y60.4652 F350.00
G01 X32.9219 Y60.3681 F350.00
G01 X32.9170 Y60.3316 F350.00
G01 X32.9129 Y60.2950 F350.00
G01 X32.9097 Y60.2584 F350.00
G01 X32.9075 Y60.2216 F350.00
G01 X32.9027 Y60.1236 F350.00
G01 X32.9013 Y60.0868 F350.00
G01 X32.9009 Y60.0500 F350.00
G01 X32.9013 Y60.0132 F350.00
G01 X32.9027 Y59.9764 F350.00
G01 X32.9075 Y59.8784 F350.00
G01 X32.9097 Y59.8416 F350.00
G01 X32.9129 Y59.8050 F350.00
G01 X32.9170 Y59.7684 F350.00
G01 X32.9219 Y59.7319 F350.00
G01 X32.9363 Y59.6348 F350.00
G01 X32.9422 Y59.5985 F350.00
G01 X32.9489 Y59.5623 F350.00
G01 X32.9565 Y59.5263 F350.00
G01 X32.9650 Y59.4904 F350.00
G01 X32.9889 Y59.3952 F350.00
G01 X32.9983 Y59.3596 F350.00
G01 X33.0085 Y59.3243 F350.00
G01 X33.0196 Y59.2892 F350.00
G01 X33.0316 Y59.2544 F350.00
G01 X33.0647 Y59.1620 F350.00
G01 X33.0775 Y59.1275 F350.00
G01 X33.0912 Y59.0933 F350.00
G01 X33.1057 Y59.0595 F350.00
G01 X33.1210 Y59.0260 F350.00
G01 X33.1630 Y58.9373 F350.00
G01 X33.1791 Y58.9042 F350.00
G01 X33.1961 Y58.8715 F350.00
G01 X33.2138 Y58.8393 F350.00
G01 X33.2323 Y58.8074 F350.00
G01 X33.2828 Y58.7233 F350.00
G01 X33.3021 Y58.6919 F350.00
G01 X33.3222 Y58.6611 F350.00
G01 X33.3430 Y58.6307 F350.00
G01 X33.3646 Y58.6009 F350.00
G01 X33.4230 Y58.5221 F350.00
G01 X33.4453 Y58.4928 F350.00
G01 X33.4683 Y58.4640 F350.00
G01 X33.4920 Y58.4358 F350.00
G01 X33.5164 Y58.4083 F350.00
G01 X33.5823 Y58.3356 F350.00
G01 X33.6074 Y58.3086 F350.00
G01 X33.6331 Y58.2822 F350.00
G01 X33.6594 Y58.2565 F350.00
G01 X33.6864 Y58.2315 F350.00
G01 X33.7487 Y58.1750 F350.00
G01 X33.6864 Y58.1185 F350.00
G01 X33.6594 Y58.0935 F350.00
G01 X33.6331 Y58.0678 F350.00
G01 X33.6074 Y58.0414 F350.00
G01 X33.5823 Y58.0144 F350.00
G01 X33.5164 Y57.9417 F350.00
G01 X33.4920 Y57.9142 F350.00
G01 X33.4683 Y57.8860 F350.00
G01 X33.4453 Y57.8572 F350.00
G01 X33.4230 Y57.8279 F350.00
G01 X33.3646 Y57.7491 F350.00
G01 X33.3430 Y57.7193 F350.00
G01 X33.3222 Y57.6889 F350.00
G01 X33.3021 Y57.6581 F350.00
G01 X33.2828 Y57.6267 F350.00
G01 X33.2323 Y57.5426 F350.00
G01 X33.2138 Y57.5107 F350.00
G01 X33.1961 Y57.4785 F350.00
G01 X33.1791 Y57.4458 F350.00
G01 X33.1630 Y57.4127 F350.00
G01 X33.1210 Y57.3240 F350.00
G01 X33.1057 Y57.2905 F350.00
G01 X33.0912 Y57.2567 F350.00
G01 X33.0775 Y57.2225 F350.00
G01 X33.0647 Y57.1880 F350.00
G01 X33.0316 Y57.0956 F350.00
G01 X33.0196 Y57.0608 F350.00
G01 X33.0085 Y57.0257 F350.00
G01 X32.9983 Y56.9904 F350.00
G01 X32.9889 Y56.9548 F350.00
G01 X32.9650 Y56.8596 F350.00
G01 X32.9565 Y56.8237 F350.00
G01 X32.9489 Y56.7877 F350.00
G01 X32.9422 Y56.7515 F350.00
G01 X32.9363 Y56.7152 F350.00
G01 X32.9219 Y56.6181 F350.00
G01 X32.9170 Y56.5816 F350.00
G01 X32.9129 Y56.5450 F350.00
G01 X32.9097 Y56.5084 F350.00
G01 X32.9075 Y56.4716 F350.00
G01 X32.9027 Y56.3736 F350.00
G01 X32.9013 Y56.3368 F350.00
G01 X32.9009 Y56.3000 F350.00
G01 X32.9013 Y56.2632 F350.00
G01 X32.9027 Y56.2264 F350.00
G01 X32.9075 Y56.1284 F350.00
G01 X32.9097 Y56.0916 F350.00
G01 X32.9129 Y56.0550 F350.00
G01 X32.9170 Y56.0184 F350.00
G01 X32.9219 Y55.9819 F350.00
G01 X32.9363 Y55.8848 F350.00
G01 X32.9422 Y55.8485 F350.00
G01 X32.9489 Y55.8123 F350.00
G01 X32.9565 Y55.7763 F350.00
G01 X32.9650 Y55.7404 F350.00
G01 X32.9889 Y55.6452 F350.00
G01 X32.9983 Y55.6096 F350.00
G01 X33.0085 Y55.5743 F350.00
G01 X33.0196 Y55.5392 F350.00
G01 X33.0316 Y55.5044 F350.00
G01 X33.0647 Y55.4120 F350.00
G01 X33.0775 Y55.3775 F350.00
G01 X33.0912 Y55.3433 F350.00
G01 X33.1057 Y55.3095 F350.00
G01 X33.1210 Y55.2760 F350.00
G01 X33.1630 Y55.1873 F350.00
G01 X33.1791 Y55.1542 F350.00
G01 X33.1961 Y55.1215 F350.00
G01 X33.2138 Y55.0893 F350.00
G01 X33.2323 Y55.0574 F350.00
G01 X33.2828 Y54.9733 F350.00
G01 X33.3021 Y54.9419 F350.00
G01 X33.3222 Y54.9111 F350.00
G01 X33.3430 Y54.8807 F350.00
G01 X33.3646 Y54.8509 F350.00
G01 X33.4230 Y54.7721 F350.00
G01 X33.4453 Y54.7428 F350.00
G01 X33.4683 Y54.7140 F350.00
G01 X33.4920 Y54.6858 F350.00
G01 X33.5164 Y54.6583 F350.00
G01 X33.5823 Y54.5856 F350.00
G01 X33.6074 Y54.5586 F350.00
G01 X33.6331 Y54.5322 F350.00
G01 X33.6594 Y54.5065 F350.00
G01 X33.6864 Y54.4815 F350.00
G01 X33.7437 Y54.4295 F350.00
G00 Z0.5000
G00 X33.0233 Y53.3503
G01 F250.00
G01 Z-0.0500
G01 F350.00
G01 X28.5985 Y53.3503 F350.00
G00 Z0.5000
G00 X43.1557 Y53.3503
G01 F250.00
G01 Z-0.0500
G01 F350.00
G01 X57.2056 Y53.3503 F350.00
G00 Z0.5000
G00 X57.2559 Y57.9694
G01 F250.00
G01 Z-0.0500
G01 F350.00
G01 X57.2389 Y57.9748 F350.00
G01 X57.2035 Y57.9850 F350.00
G01 X57.1441 Y58.0004 F350.00
G01 X57.1083 Y58.0089 F350.00
G01 X57.0723 Y58.0165 F350.00
G01 X57.0361 Y58.0232 F350.00
G01 X56.9998 Y58.0291 F350.00
G01 X56.9390 Y58.0376 F350.00
G01 X56.9024 Y58.0417 F350.00
G01 X56.8657 Y58.0449 F350.00
G01 X56.8045 Y58.0483 F350.00
G01 X56.7677 Y58.0497 F350.00
G01 X56.7309 Y58.0501 F350.00
G01 X48.3656 Y58.0501 F350.00
G01 X48.3732 Y58.0743 F350.00
G01 X48.3835 Y58.1096 F350.00
G01 X48.3928 Y58.1452 F350.00
G01 X48.4167 Y58.2404 F350.00
G01 X48.4252 Y58.2763 F350.00
G01 X48.4328 Y58.3123 F350.00
G01 X48.4396 Y58.3485 F350.00
G01 X48.4454 Y58.3848 F350.00
G01 X48.4598 Y58.4819 F350.00
G01 X48.4648 Y58.5184 F350.00
G01 X48.4688 Y58.5550 F350.00
G01 X48.4720 Y58.5916 F350.00
G01 X48.4742 Y58.6284 F350.00
G01 X48.4791 Y58.7264 F350.00
G01 X48.4804 Y58.7632 F350.00
G01 X48.4809 Y58.8000 F350.00
G01 X48.4809 Y59.6481 F350.00
G01 X48.8068 Y59.9740 F350.00
G01 X48.8325 Y60.0004 F350.00
G01 X48.8576 Y60.0274 F350.00
G01 X48.9067 Y60.0822 F350.00
G01 X48.9304 Y60.1104 F350.00
G01 X48.9534 Y60.1391 F350.00
G01 X48.9757 Y60.1684 F350.00
G01 X49.0192 Y60.2278 F350.00
G01 X49.0400 Y60.2582 F350.00
G01 X49.0601 Y60.2891 F350.00
G01 X49.0794 Y60.3204 F350.00
G01 X49.1169 Y60.3838 F350.00
G01 X49.1346 Y60.4160 F350.00
G01 X49.1516 Y60.4487 F350.00
G01 X49.1677 Y60.4818 F350.00
G01 X49.1988 Y60.5486 F350.00
G01 X49.2133 Y60.5824 F350.00
G01 X49.2270 Y60.6166 F350.00
G01 X49.2522 Y60.6858 F350.00
G01 X49.2642 Y60.7206 F350.00
G01 X49.2753 Y60.7557 F350.00
G01 X49.2856 Y60.7910 F350.00
G01 X49.2949 Y60.8266 F350.00
G01 X49.3124 Y60.8982 F350.00
G01 X49.3200 Y60.9342 F350.00
G01 X49.3268 Y60.9704 F350.00
G01 X49.3326 Y61.0067 F350.00
G01 X49.3430 Y61.0796 F350.00
G01 X49.3470 Y61.1162 F350.00
G01 X49.3502 Y61.1529 F350.00
G01 X49.3524 Y61.1896 F350.00
G01 X49.3546 Y61.2352 F350.00
G01 X49.3700 Y61.2447 F350.00
G01 X49.4008 Y61.2648 F350.00
G01 X49.4312 Y61.2856 F350.00
G01 X49.4610 Y61.3071 F350.00
G01 X49.5193 Y61.3509 F350.00
G01 X49.5480 Y61.3739 F350.00
G01 X49.5762 Y61.3976 F350.00
G01 X49.6038 Y61.4220 F350.00
G01 X49.6575 Y61.4713 F350.00
G01 X49.6838 Y61.4970 F350.00
G01 X49.7095 Y61.5234 F350.00
G01 X49.7346 Y61.5503 F350.00
G01 X49.7832 Y61.6047 F350.00
G01 X49.8069 Y61.6328 F350.00
G01 X49.8299 Y61.6616 F350.00
G01 X49.8737 Y61.7198 F350.00
G01 X49.8953 Y61.7497 F350.00
G01 X49.9161 Y61.7800 F350.00
G01 X49.9289 Y61.7997 F350.00
G01 X56.8113 Y61.7997 F350.00
G01 X57.4457 Y61.1654 F350.00
G01 X57.4325 Y61.1325 F350.00
G01 X57.4197 Y61.0980 F350.00
G01 X57.3866 Y61.0056 F350.00
G01 X57.3746 Y60.9708 F350.00
G01 X57.3635 Y60.9357 F350.00
G01 X57.3533 Y60.9004 F350.00
G01 X57.3439 Y60.8648 F350.00
G01 X57.3200 Y60.7696 F350.00
G01 X57.3115 Y60.7337 F350.00
G01 X57.3039 Y60.6977 F350.00
G01 X57.2972 Y60.6615 F350.00
G01 X57.2913 Y60.6252 F350.00
G01 X57.2769 Y60.5281 F350.00
G01 X57.2720 Y60.4916 F350.00
G01 X57.2679 Y60.4550 F350.00
G01 X57.2647 Y60.4184 F350.00
G01 X57.2625 Y60.3816 F350.00
G01 X57.2577 Y60.2836 F350.00
G01 X57.2563 Y60.2468 F350.00
G01 X57.2559 Y60.2100 F350.00
G01 X57.2559 Y57.9694 F350.00
G01 X57.2559 Y59.2003 F350.00
G01 X48.4809 Y59.2003 F350.00
G00 Z0.5000
G00 X49.3500 Y61.1503
G01 F250.00
G01 Z-0.0500
G01 F350.00
G01 X57.4396 Y61.1503 F350.00
G00 Z0.5000
G00 X45.1057 Y51.4003
G01 F250.00
