(G-CODE GENERATED BY FLATCAM v8.994 - www.flatcam.org - Version Date: 2020/11/7)

(Name: BACK_NCC_1mm_cnc)
(Type: G-code from Geometry)
(Units: MM)

(Created on Friday, 26 June 2026 at 06:31)

(This preprocessor is used with a motion controller loaded with GRBL firmware.)
(It is configured to be compatible with almost any version of GRBL firmware.)

(TOOL DIAMETER: 1.0 mm)
(Feedrate_XY: 350.0 mm/min)
(Feedrate_Z: 250.0 mm/min)
(Feedrate rapids 1500.0 mm/min)

(Z_Cut: -0.05 mm)
(Z_Move: 0.5 mm)
(Z Start: None mm)
(Z End: 40.0 mm)
(X,Y End: None mm)
(Steps per circle: 64)
(Steps per circle: 64)
(Preprocessor Geometry: grbl_11)

(X range:   -2.5593 ...  129.6309  mm)
(Y range:   -3.7100 ...   70.9502  mm)

(Spindle Speed: 0.0 RPM)
G21
G90
G17
G94


G01 F350.00

M5             
G00 Z40.0000
G00 X0.0000 Y0.0000                
T1
M6
(MSG, Change to Tool Dia = 1.0000)
M0
G00 Z40.0000

M03
G01 F350.00
G00 X2.8055 Y11.3499
G01 F250.00
G01 Z-0.0500
G01 F350.00
G01 X23.3809 Y11.3499 F350.00
G01 X23.4287 Y11.3507 F350.00
G01 X23.4826 Y11.3532 F350.00
G01 X23.5120 Y11.3553 F350.00
G01 X23.5609 Y11.3599 F350.00
G01 X23.6108 Y11.3662 F350.00
G01 X23.6436 Y11.3711 F350.00
G01 X23.6726 Y11.3760 F350.00
G01 X23.7328 Y11.3880 F350.00
G01 X23.7615 Y11.3946 F350.00
G01 X23.8020 Y11.4047 F350.00
G01 X23.8504 Y11.4183 F350.00
G01 X23.8774 Y11.4266 F350.00
G01 X23.9054 Y11.4356 F350.00
G01 X23.9678 Y11.4580 F350.00
G01 X23.9952 Y11.4687 F350.00
G01 X24.0292 Y11.4828 F350.00
G01 X24.0752 Y11.5033 F350.00
G01 X24.1051 Y11.5175 F350.00
G01 X24.1315 Y11.5307 F350.00
G01 X24.1856 Y11.5596 F350.00
G01 X24.2111 Y11.5742 F350.00
G01 X24.2469 Y11.5957 F350.00
G01 X24.2893 Y11.6227 F350.00
G01 X24.3128 Y11.6384 F350.00
G01 X24.3369 Y11.6553 F350.00
G01 X24.3902 Y11.6948 F350.00
G01 X24.4133 Y11.7130 F350.00
G01 X24.4351 Y11.7308 F350.00
G01 X24.4641 Y11.7555 F350.00
G01 X24.4979 Y11.7858 F350.00
G01 X24.5195 Y11.8058 F350.00
G01 X24.5477 Y11.8332 F350.00
G01 X26.5540 Y13.8395 F350.00
G01 X27.3806 Y13.0129 F350.00
G01 X27.3806 Y8.2577 F350.00
G01 X22.2684 Y8.2577 F350.00
G01 X22.2537 Y8.2781 F350.00
G01 X22.2197 Y8.3237 F350.00
G01 X22.1960 Y8.3535 F350.00
G01 X22.1702 Y8.3846 F350.00
G01 X22.1451 Y8.4132 F350.00
G01 X22.1067 Y8.4553 F350.00
G01 X22.0802 Y8.4826 F350.00
G01 X22.0515 Y8.5111 F350.00
G01 X22.0237 Y8.5371 F350.00
G01 X21.9814 Y8.5752 F350.00
G01 X21.9524 Y8.5998 F350.00
G01 X21.9209 Y8.6254 F350.00
G01 X21.8908 Y8.6485 F350.00
G01 X21.8449 Y8.6823 F350.00
G01 X21.8136 Y8.7039 F350.00
G01 X21.7799 Y8.7262 F350.00
G01 X21.7476 Y8.7463 F350.00
G01 X21.6986 Y8.7754 F350.00
G01 X21.6654 Y8.7939 F350.00
G01 X21.6296 Y8.8128 F350.00
G01 X21.5954 Y8.8297 F350.00
G01 X21.5439 Y8.8538 F350.00
G01 X21.5090 Y8.8689 F350.00
G01 X21.4715 Y8.8843 F350.00
G01 X21.4359 Y8.8977 F350.00
G01 X21.3822 Y8.9166 F350.00
G01 X21.3460 Y8.9283 F350.00
G01 X21.3072 Y8.9398 F350.00
G01 X21.2705 Y8.9497 F350.00
G01 X21.2152 Y8.9633 F350.00
G01 X21.1780 Y8.9714 F350.00
G01 X21.1382 Y8.9791 F350.00
G01 X21.1092 Y8.9839 F350.00
G01 X21.0565 Y8.9918 F350.00
G01 X21.0273 Y8.9955 F350.00
G01 X20.9870 Y8.9997 F350.00
G01 X20.9662 Y9.0015 F350.00
G01 X20.9283 Y9.0040 F350.00
G01 X20.8837 Y9.0062 F350.00
G01 X20.8444 Y9.0073 F350.00
G01 X19.0589 Y9.0075 F350.00
G01 X19.0294 Y9.0071 F350.00
G01 X18.9987 Y9.0062 F350.00
G01 X18.9541 Y9.0040 F350.00
G01 X18.9039 Y9.0005 F350.00
G01 X18.8673 Y8.9969 F350.00
G01 X18.8381 Y8.9934 F350.00
G01 X18.7732 Y8.9839 F350.00
G01 X18.7237 Y8.9752 F350.00
G01 X18.6960 Y8.9696 F350.00
G01 X18.6672 Y8.9633 F350.00
G01 X18.5918 Y8.9444 F350.00
G01 X18.5634 Y8.9364 F350.00
G01 X18.5364 Y8.9283 F350.00
G01 X18.5002 Y8.9166 F350.00
G01 X18.4384 Y8.8947 F350.00
G01 X18.3995 Y8.8797 F350.00
G01 X18.3542 Y8.8608 F350.00
G01 X18.3274 Y8.8487 F350.00
G01 X18.2870 Y8.8297 F350.00
G01 X18.2529 Y8.8128 F350.00
G01 X18.1987 Y8.7839 F350.00
G01 X18.1658 Y8.7649 F350.00
G01 X18.1171 Y8.7354 F350.00
G01 X18.0923 Y8.7196 F350.00
G01 X18.0688 Y8.7039 F350.00
G01 X18.0276 Y8.6751 F350.00
G01 X17.9750 Y8.6359 F350.00
G01 X17.9519 Y8.6177 F350.00
G01 X17.9300 Y8.5998 F350.00
G01 X17.9010 Y8.5752 F350.00
G01 X17.8524 Y8.5313 F350.00
G01 X17.8160 Y8.4965 F350.00
G01 X17.7961 Y8.4765 F350.00
G01 X17.7757 Y8.4553 F350.00
G01 X17.7373 Y8.4132 F350.00
G01 X17.7122 Y8.3846 F350.00
G01 X17.6733 Y8.3372 F350.00
G01 X17.6553 Y8.3139 F350.00
G01 X17.6287 Y8.2781 F350.00
G01 X17.6065 Y8.2471 F350.00
G01 X17.5791 Y8.2064 F350.00
G01 X17.5568 Y8.1712 F350.00
G01 X17.5232 Y8.1149 F350.00
G01 X17.5089 Y8.0892 F350.00
G01 X17.4955 Y8.0643 F350.00
G01 X17.4781 Y8.0305 F350.00
G01 X17.4500 Y7.9713 F350.00
G01 X17.4331 Y7.9332 F350.00
G01 X17.4144 Y7.8878 F350.00
G01 X17.4040 Y7.8602 F350.00
G01 X17.3889 Y7.8182 F350.00
G01 X17.3767 Y7.7822 F350.00
G01 X17.3588 Y7.7235 F350.00
G01 X17.3511 Y7.6950 F350.00
G01 X17.3402 Y7.6517 F350.00
G01 X17.3291 Y7.6027 F350.00
G01 X17.3219 Y7.5666 F350.00
G01 X17.3167 Y7.5376 F350.00
G01 X17.3053 Y7.4606 F350.00
G01 X17.3018 Y7.4314 F350.00
G01 X17.2990 Y7.4033 F350.00
G01 X17.2951 Y7.3531 F350.00
G01 X17.2925 Y7.2999 F350.00
G01 X17.2916 Y7.2693 F350.00
G01 X17.2912 Y7.2398 F350.00
G01 X17.2913 Y5.4665 F350.00
G01 X17.2918 Y5.4359 F350.00
G01 X17.2929 Y5.4064 F350.00
G01 X17.2959 Y5.3496 F350.00
G01 X17.2982 Y5.3202 F350.00
G01 X17.3018 Y5.2836 F350.00
G01 X17.3053 Y5.2543 F350.00
G01 X17.3167 Y5.1774 F350.00
G01 X17.3235 Y5.1399 F350.00
G01 X17.3316 Y5.1003 F350.00
G01 X17.3382 Y5.0716 F350.00
G01 X17.3490 Y5.0282 F350.00
G01 X17.3543 Y5.0080 F350.00
G01 X17.3647 Y4.9715 F350.00
G01 X17.3767 Y4.9328 F350.00
G01 X17.3860 Y4.9049 F350.00
G01 X17.4040 Y4.8547 F350.00
G01 X17.4144 Y4.8272 F350.00
G01 X17.4379 Y4.7705 F350.00
G01 X17.4500 Y4.7436 F350.00
G01 X17.4728 Y4.6955 F350.00
G01 X17.4859 Y4.6691 F350.00
G01 X17.5048 Y4.6333 F350.00
G01 X17.5148 Y4.6150 F350.00
G01 X17.5338 Y4.5821 F350.00
G01 X17.5632 Y4.5333 F350.00
G01 X17.5791 Y4.5085 F350.00
G01 X17.5996 Y4.4779 F350.00
G01 X17.6164 Y4.4538 F350.00
G01 X17.6628 Y4.3913 F350.00
G01 X17.6864 Y4.3615 F350.00
G01 X17.7122 Y4.3303 F350.00
G01 X17.7316 Y4.3081 F350.00
G01 X17.7674 Y4.2686 F350.00
G01 X17.7876 Y4.2472 F350.00
G01 X17.8160 Y4.2184 F350.00
G01 X17.8434 Y4.1920 F350.00
G01 X17.8587 Y4.1778 F350.00
G01 X17.8918 Y4.1479 F350.00
G01 X17.9140 Y4.1285 F350.00
G01 X17.9615 Y4.0896 F350.00
G01 X17.9916 Y4.0664 F350.00
G01 X18.0375 Y4.0327 F350.00
G01 X18.0617 Y4.0158 F350.00
G01 X18.0923 Y3.9954 F350.00
G01 X18.1171 Y3.9795 F350.00
G01 X18.1658 Y3.9501 F350.00
G01 X18.1838 Y3.9395 F350.00
G01 X18.2171 Y3.9210 F350.00
G01 X18.2529 Y3.9021 F350.00
G01 X18.2792 Y3.8890 F350.00
G01 X18.3274 Y3.8663 F350.00
G01 X18.3542 Y3.8542 F350.00
G01 X18.3916 Y3.8385 F350.00
G01 X18.4269 Y3.8245 F350.00
G01 X18.5002 Y3.7983 F350.00
G01 X18.5364 Y3.7867 F350.00
G01 X18.5752 Y3.7751 F350.00
G01 X18.6036 Y3.7674 F350.00
G01 X18.6470 Y3.7565 F350.00
G01 X18.6672 Y3.7516 F350.00
G01 X18.7044 Y3.7436 F350.00
G01 X18.7442 Y3.7359 F350.00
G01 X18.7732 Y3.7310 F350.00
G01 X18.8259 Y3.7232 F350.00
G01 X18.8551 Y3.7194 F350.00
G01 X18.8954 Y3.7153 F350.00
G01 X18.9333 Y3.7122 F350.00
G01 X18.9987 Y3.7088 F350.00
G01 X19.0294 Y3.7078 F350.00
G01 X19.0589 Y3.7075 F350.00
G01 X20.8444 Y3.7077 F350.00
G01 X20.8837 Y3.7088 F350.00
G01 X20.9491 Y3.7122 F350.00
G01 X20.9870 Y3.7153 F350.00
G01 X21.0273 Y3.7194 F350.00
G01 X21.0650 Y3.7244 F350.00
G01 X21.1213 Y3.7330 F350.00
G01 X21.1587 Y3.7398 F350.00
G01 X21.1984 Y3.7479 F350.00
G01 X21.2355 Y3.7565 F350.00
G01 X21.2906 Y3.7705 F350.00
G01 X21.3190 Y3.7785 F350.00
G01 X21.3542 Y3.7892 F350.00
G01 X21.3938 Y3.8023 F350.00
G01 X21.4440 Y3.8202 F350.00
G01 X21.4715 Y3.8307 F350.00
G01 X21.5090 Y3.8460 F350.00
G01 X21.5439 Y3.8611 F350.00
G01 X21.5954 Y3.8853 F350.00
G01 X21.6296 Y3.9021 F350.00
G01 X21.6654 Y3.9210 F350.00
G01 X21.6986 Y3.9395 F350.00
G01 X21.7166 Y3.9501 F350.00
G01 X21.7653 Y3.9795 F350.00
G01 X21.7973 Y4.0001 F350.00
G01 X21.8309 Y4.0228 F350.00
G01 X21.8549 Y4.0399 F350.00
G01 X21.8976 Y4.0716 F350.00
G01 X21.9305 Y4.0973 F350.00
G01 X21.9590 Y4.1206 F350.00
G01 X21.9814 Y4.1397 F350.00
G01 X22.0237 Y4.1778 F350.00
G01 X22.0515 Y4.2038 F350.00
G01 X22.0802 Y4.2323 F350.00
G01 X22.1067 Y4.2597 F350.00
G01 X22.1451 Y4.3017 F350.00
G01 X22.1702 Y4.3303 F350.00
G01 X22.1960 Y4.3615 F350.00
G01 X22.2197 Y4.3913 F350.00
G01 X22.2537 Y4.4369 F350.00
G01 X22.2676 Y4.4560 F350.00
G01 X27.3806 Y4.4571 F350.00
G01 X27.3806 Y1.9100 F350.00
G01 X27.3810 Y1.8806 F350.00
G01 X27.3819 Y1.8499 F350.00
G01 X27.3847 Y1.7923 F350.00
G01 X27.3872 Y1.7543 F350.00
G01 X27.3932 Y1.6933 F350.00
G01 X27.3982 Y1.6555 F350.00
G01 X27.4086 Y1.5864 F350.00
G01 X27.4138 Y1.5574 F350.00
G01 X27.4193 Y1.5297 F350.00
G01 X27.4301 Y1.4806 F350.00
G01 X27.4494 Y1.4044 F350.00
G01 X27.4574 Y1.3761 F350.00
G01 X27.4655 Y1.3491 F350.00
G01 X27.4772 Y1.3128 F350.00
G01 X27.5005 Y1.2469 F350.00
G01 X27.5139 Y1.2113 F350.00
G01 X27.5292 Y1.1738 F350.00
G01 X27.5444 Y1.1389 F350.00
G01 X27.5741 Y1.0756 F350.00
G01 X27.5909 Y1.0415 F350.00
G01 X27.6098 Y1.0057 F350.00
G01 X27.6283 Y0.9724 F350.00
G01 X27.6686 Y0.9050 F350.00
G01 X27.6909 Y0.8697 F350.00
G01 X27.7183 Y0.8290 F350.00
G01 X27.7354 Y0.8050 F350.00
G01 X27.7748 Y0.7518 F350.00
G01 X27.8059 Y0.7122 F350.00
G01 X27.8318 Y0.6811 F350.00
G01 X27.8568 Y0.6525 F350.00
G01 X27.9040 Y0.6008 F350.00
G01 X27.9372 Y0.5663 F350.00
G01 X29.0009 Y-0.4974 F350.00
G01 X29.0011 Y-1.2309 F350.00
G01 X29.0025 Y-1.2787 F350.00
G01 X29.0078 Y-1.3853 F350.00
G01 X29.0099 Y-1.4147 F350.00
G01 X29.0145 Y-1.4635 F350.00
G01 X29.0208 Y-1.5134 F350.00
G01 X29.0385 Y-1.6311 F350.00
G01 X29.0437 Y-1.6601 F350.00
G01 X29.0509 Y-1.6962 F350.00
G01 X29.0620 Y-1.7453 F350.00
G01 X29.0911 Y-1.8606 F350.00
G01 X29.0991 Y-1.8890 F350.00
G01 X29.1073 Y-1.9160 F350.00
G01 X29.1189 Y-1.9522 F350.00
G01 X29.1258 Y-1.9719 F350.00
G01 X29.1588 Y-2.0643 F350.00
G01 X29.1693 Y-2.0925 F350.00
G01 X2.8055 Y11.3499 F350.00
G01 X5.7194 Y10.6499 F350.00
G01 X23.3809 Y10.6499 F350.00
G01 X23.4146 Y10.6502 F350.00
G01 X23.4502 Y10.6511 F350.00
G01 X23.5213 Y10.6543 F350.00
G01 X23.5635 Y10.6572 F350.00
G01 X23.5971 Y10.6601 F350.00
G01 X23.6380 Y10.6642 F350.00
G01 X23.6758 Y10.6686 F350.00
G01 X23.7505 Y10.6794 F350.00
G01 X23.7923 Y10.6863 F350.00
G01 X23.8170 Y10.6909 F350.00
G01 X23.8862 Y10.7050 F350.00
G01 X23.9232 Y10.7135 F350.00
G01 X23.9679 Y10.7246 F350.00
G01 X24.0005 Y10.7332 F350.00
G01 X24.0371 Y10.7436 F350.00
G01 X24.0765 Y10.7554 F350.00
G01 X24.1087 Y10.7656 F350.00
G01 X24.1447 Y10.7777 F350.00
G01 X24.1881 Y10.7931 F350.00
G01 X24.2197 Y10.8049 F350.00
G01 X24.2551 Y10.8188 F350.00
G01 X24.2932 Y10.8344 F350.00
G01 X24.3242 Y10.8477 F350.00
G01 X24.3589 Y10.8633 F350.00
G01 X24.4005 Y10.8829 F350.00
G01 X24.4308 Y10.8977 F350.00
G01 X24.4647 Y10.9150 F350.00
G01 X24.5010 Y10.9342 F350.00
G01 X24.5306 Y10.9505 F350.00
G01 X24.5636 Y10.9694 F350.00
G01 X24.6031 Y10.9930 F350.00
G01 X24.6319 Y11.0107 F350.00
G01 X24.6639 Y11.0312 F350.00
G01 X24.7088 Y11.0612 F350.00
G01 X24.7470 Y11.0880 F350.00
G01 X24.8008 Y11.1276 F350.00
G01 X24.8411 Y11.1588 F350.00
G01 X24.8891 Y11.1980 F350.00
G01 X24.9278 Y11.2311 F350.00
G01 X24.9712 Y11.2700 F350.00
G01 X25.0124 Y11.3086 F350.00
G01 X25.0427 Y11.3382 F350.00
G01 X26.5540 Y12.8496 F350.00
G01 X26.6806 Y12.7229 F350.00
G01 X26.6806 Y8.9577 F350.00
G01 X22.5948 Y8.9577 F350.00
G01 X22.5522 Y9.0006 F350.00
G01 X22.5154 Y9.0358 F350.00
G01 X22.4639 Y9.0829 F350.00
G01 X22.4256 Y9.1165 F350.00
G01 X22.3780 Y9.1561 F350.00
G01 X22.3381 Y9.1878 F350.00
G01 X22.2788 Y9.2323 F350.00
G01 X22.2480 Y9.2546 F350.00
G01 X22.2061 Y9.2836 F350.00
G01 X22.1544 Y9.3176 F350.00
G01 X22.1111 Y9.3445 F350.00
G01 X22.0511 Y9.3802 F350.00
G01 X22.0067 Y9.4051 F350.00
G01 X21.9519 Y9.4342 F350.00
G01 X21.9102 Y9.4550 F350.00
G01 X21.8582 Y9.4797 F350.00
G01 X21.8118 Y9.5007 F350.00
G01 X21.7587 Y9.5232 F350.00
G01 X21.7234 Y9.5373 F350.00
G01 X21.6717 Y9.5567 F350.00
G01 X21.6099 Y9.5786 F350.00
G01 X21.5656 Y9.5931 F350.00
G01 X21.5022 Y9.6121 F350.00
G01 X21.4530 Y9.6255 F350.00
G01 X21.3930 Y9.6405 F350.00
G01 X21.3434 Y9.6519 F350.00
G01 X21.2827 Y9.6642 F350.00
G01 X21.2325 Y9.6731 F350.00
G01 X21.1635 Y9.6836 F350.00
G01 X21.1130 Y9.6903 F350.00
G01 X21.0514 Y9.6967 F350.00
G01 X21.0385 Y9.6979 F350.00
G01 X21.0263 Y9.6989 F350.00
G01 X21.0006 Y9.7009 F350.00
G01 X20.9669 Y9.7030 F350.00
G01 X20.9094 Y9.7057 F350.00
G01 X20.8659 Y9.7070 F350.00
G01 X20.8236 Y9.7075 F350.00
G01 X19.0589 Y9.7075 F350.00
G01 X19.0251 Y9.7072 F350.00
G01 X18.9895 Y9.7063 F350.00
G01 X18.9069 Y9.7025 F350.00
G01 X18.8647 Y9.6996 F350.00
G01 X18.8268 Y9.6963 F350.00
G01 X18.7780 Y9.6913 F350.00
G01 X18.7317 Y9.6854 F350.00
G01 X18.6663 Y9.6757 F350.00
G01 X18.6245 Y9.6688 F350.00
G01 X18.5871 Y9.6617 F350.00
G01 X18.5390 Y9.6519 F350.00
G01 X18.4936 Y9.6416 F350.00
G01 X18.4377 Y9.6277 F350.00
G01 X18.4051 Y9.6191 F350.00
G01 X18.3561 Y9.6051 F350.00
G01 X18.3051 Y9.5893 F350.00
G01 X18.2725 Y9.5786 F350.00
G01 X18.2107 Y9.5567 F350.00
G01 X18.1750 Y9.5435 F350.00
G01 X18.1396 Y9.5296 F350.00
G01 X18.1056 Y9.5157 F350.00
G01 X18.0549 Y9.4938 F350.00
G01 X17.9838 Y9.4606 F350.00
G01 X17.9305 Y9.4342 F350.00
G01 X17.8720 Y9.4031 F350.00
G01 X17.8207 Y9.3740 F350.00
G01 X17.7499 Y9.3314 F350.00
G01 X17.6998 Y9.2992 F350.00
G01 X17.6485 Y9.2645 F350.00
G01 X17.6036 Y9.2323 F350.00
G01 X17.5443 Y9.1878 F350.00
G01 X17.5145 Y9.1642 F350.00
G01 X17.4827 Y9.1382 F350.00
G01 X17.4373 Y9.0996 F350.00
G01 X17.4153 Y9.0800 F350.00
G01 X17.3886 Y9.0558 F350.00
G01 X17.3760 Y9.0442 F350.00
G01 X17.3333 Y9.0036 F350.00
G01 X17.2866 Y8.9566 F350.00
G01 X17.2458 Y8.9132 F350.00
G01 X17.1934 Y8.8549 F350.00
G01 X17.1577 Y8.8127 F350.00
G01 X17.1345 Y8.7842 F350.00
G01 X17.1109 Y8.7543 F350.00
G01 X17.0639 Y8.6916 F350.00
G01 X17.0293 Y8.6432 F350.00
G01 X16.9924 Y8.5881 F350.00
G01 X16.9609 Y8.5384 F350.00
G01 X16.9246 Y8.4780 F350.00
G01 X16.8956 Y8.4267 F350.00
G01 X16.8645 Y8.3682 F350.00
G01 X16.8491 Y8.3375 F350.00
G01 X16.8362 Y8.3110 F350.00
G01 X16.8049 Y8.2438 F350.00
G01 X16.7897 Y8.2090 F350.00
G01 X16.7755 Y8.1750 F350.00
G01 X16.7645 Y8.1477 F350.00
G01 X16.7521 Y8.1156 F350.00
G01 X16.7255 Y8.0419 F350.00
G01 X16.7120 Y8.0018 F350.00
G01 X16.7005 Y7.9655 F350.00
G01 X16.6865 Y7.9184 F350.00
G01 X16.6742 Y7.8735 F350.00
G01 X16.6581 Y7.8093 F350.00
G01 X16.6486 Y7.7681 F350.00
G01 X16.6408 Y7.7308 F350.00
G01 X16.6314 Y7.6826 F350.00
G01 X16.6236 Y7.6367 F350.00
G01 X16.6151 Y7.5797 F350.00
G01 X16.6105 Y7.5463 F350.00
G01 X16.6056 Y7.5043 F350.00
G01 X16.6012 Y7.4591 F350.00
G01 X16.5978 Y7.4169 F350.00
G01 X16.5955 Y7.3789 F350.00
G01 X16.5925 Y7.3134 F350.00
G01 X16.5915 Y7.2736 F350.00
G01 X16.5912 Y7.2398 F350.00
G01 X16.5912 Y5.4751 F350.00
G01 X16.5915 Y5.4457 F350.00
G01 X16.5924 Y5.4058 F350.00
G01 X16.5937 Y5.3721 F350.00
G01 X16.5965 Y5.3189 F350.00
G01 X16.5997 Y5.2724 F350.00
G01 X16.6043 Y5.2235 F350.00
G01 X16.6084 Y5.1857 F350.00
G01 X16.6139 Y5.1437 F350.00
G01 X16.6216 Y5.0911 F350.00
G01 X5.7194 Y10.6499 F350.00
G01 X8.6351 Y9.9499 F350.00
G01 X17.4196 Y9.9499 F350.00
G01 X17.3717 Y9.9205 F350.00
G01 X17.3216 Y9.8884 F350.00
G01 X17.2696 Y9.8535 F350.00
G01 X17.2174 Y9.8169 F350.00
G01 X17.1559 Y9.7717 F350.00
G01 X17.1137 Y9.7396 F350.00
G01 X17.0637 Y9.6999 F350.00
G01 X17.0094 Y9.6549 F350.00
G01 X16.9629 Y9.6145 F350.00
G01 X16.9058 Y9.5629 F350.00
G01 X16.8625 Y9.5221 F350.00
G01 X16.8261 Y9.4865 F350.00
G01 X16.7825 Y9.4424 F350.00
G01 X16.7416 Y9.3991 F350.00
G01 X16.6885 Y9.3406 F350.00
G01 X16.6494 Y9.2958 F350.00
G01 X16.6042 Y9.2416 F350.00
G01 X16.5696 Y9.1985 F350.00
G01 X16.5360 Y9.1548 F350.00
G01 X16.4902 Y9.0930 F350.00
G01 X16.4545 Y9.0427 F350.00
G01 X16.4198 Y8.9914 F350.00
G01 X16.3920 Y8.9487 F350.00
G01 X16.3615 Y8.9001 F350.00
G01 X16.3526 Y8.8854 F350.00
G01 X16.3515 Y8.8836 F350.00
G01 X16.3330 Y8.8526 F350.00
G01 X16.3231 Y8.8360 F350.00
G01 X16.2946 Y8.7863 F350.00
G01 X16.2608 Y8.7243 F350.00
G01 X16.2373 Y8.6791 F350.00
G01 X16.2109 Y8.6258 F350.00
G01 X16.1771 Y8.5543 F350.00
G01 X16.1529 Y8.5000 F350.00
G01 X16.1288 Y8.4429 F350.00
G01 X16.1098 Y8.3956 F350.00
G01 X16.0917 Y8.3480 F350.00
G01 X16.0686 Y8.2838 F350.00
G01 X16.0527 Y8.2376 F350.00
G01 X16.0364 Y8.1871 F350.00
G01 X16.0195 Y8.1314 F350.00
G01 X16.0050 Y8.0803 F350.00
G01 X15.9925 Y8.0331 F350.00
G01 X15.9776 Y7.9731 F350.00
G01 X15.9656 Y7.9214 F350.00
G01 X15.9546 Y7.8695 F350.00
G01 X15.9433 Y7.8108 F350.00
G01 X15.9345 Y7.7600 F350.00
G01 X15.9230 Y7.6846 F350.00
G01 X15.9163 Y7.6363 F350.00
G01 X15.9101 Y7.5836 F350.00
G01 X15.9023 Y7.5026 F350.00
G01 X15.8978 Y7.4390 F350.00
G01 X15.8936 Y7.3536 F350.00
G01 X15.8915 Y7.2800 F350.00
G01 X15.8912 Y7.2398 F350.00
G01 X15.8912 Y6.2527 F350.00
G01 X8.6351 Y9.9499 F350.00
G01 X11.5508 Y9.2499 F350.00
G01 X15.7550 Y9.2499 F350.00
G01 X15.7173 Y9.1866 F350.00
G01 X15.6876 Y9.1350 F350.00
G01 X15.6629 Y9.0905 F350.00
G01 X15.6319 Y9.0324 F350.00
G01 X15.6101 Y8.9900 F350.00
G01 X15.5818 Y8.9328 F350.00
G01 X15.5502 Y8.8663 F350.00
G01 X15.5259 Y8.8131 F350.00
G01 X15.5017 Y8.7576 F350.00
G01 X15.4908 Y8.7319 F350.00
G01 X15.4896 Y8.7289 F350.00
G01 X15.4821 Y8.7108 F350.00
G01 X15.4817 Y8.7098 F350.00
G01 X15.4776 Y8.6998 F350.00
G01 X15.4575 Y8.6496 F350.00
G01 X15.4356 Y8.5919 F350.00
G01 X15.4088 Y8.5176 F350.00
G01 X15.3908 Y8.4654 F350.00
G01 X15.3747 Y8.4164 F350.00
G01 X15.3548 Y8.3521 F350.00
G01 X15.3396 Y8.3001 F350.00
G01 X15.3242 Y8.2442 F350.00
G01 X15.3032 Y8.1620 F350.00
G01 X15.2907 Y8.1104 F350.00
G01 X15.2785 Y8.0559 F350.00
G01 X15.2677 Y8.0039 F350.00
G01 X15.2547 Y7.9368 F350.00
G01 X15.2447 Y7.8797 F350.00
G01 X15.2363 Y7.8262 F350.00
G01 X15.2244 Y7.7432 F350.00
G01 X15.2179 Y7.6921 F350.00
G01 X15.2120 Y7.6383 F350.00
G01 X15.2062 Y7.5781 F350.00
G01 X15.2014 Y7.5177 F350.00
G01 X15.1979 Y7.4605 F350.00
G01 X15.1946 Y7.3933 F350.00
G01 X11.5508 Y9.2499 F350.00
G01 X14.4930 Y8.5499 F350.00
G01 X14.6833 Y8.5499 F350.00
G01 X14.6591 Y8.4661 F350.00
G01 X14.4930 Y8.5499 F350.00
G01 X22.4628 Y9.9499 F350.00
G01 X23.3895 Y9.9499 F350.00
G01 X23.4275 Y9.9503 F350.00
G01 X23.4717 Y9.9514 F350.00
G01 X23.5513 Y9.9549 F350.00
G01 X23.6193 Y9.9594 F350.00
G01 X23.6981 Y9.9666 F350.00
G01 X23.7658 Y9.9744 F350.00
G01 X23.8405 Y9.9850 F350.00
G01 X23.9120 Y9.9966 F350.00
G01 X23.9662 Y10.0068 F350.00
G01 X24.0353 Y10.0211 F350.00
G01 X24.0730 Y10.0296 F350.00
G01 X24.1100 Y10.0386 F350.00
G01 X24.1748 Y10.0552 F350.00
G01 X24.2321 Y10.0713 F350.00
G01 X24.2982 Y10.0913 F350.00
G01 X24.3568 Y10.1104 F350.00
G01 X24.4280 Y10.1355 F350.00
G01 X24.4877 Y10.1580 F350.00
G01 X24.5389 Y10.1785 F350.00
G01 X24.6039 Y10.2060 F350.00
G01 X24.6582 Y10.2305 F350.00
G01 X24.7302 Y10.2648 F350.00
G01 X24.7871 Y10.2936 F350.00
G01 X24.8442 Y10.3241 F350.00
G01 X24.9018 Y10.3563 F350.00
G01 X24.9648 Y10.3937 F350.00
G01 X25.0209 Y10.4285 F350.00
G01 X25.0671 Y10.4587 F350.00
G01 X25.1149 Y10.4910 F350.00
G01 X25.1536 Y10.5181 F350.00
G01 X25.2075 Y10.5577 F350.00
G01 X25.2481 Y10.5884 F350.00
G01 X25.2898 Y10.6213 F350.00
G01 X25.3382 Y10.6610 F350.00
G01 X25.3818 Y10.6982 F350.00
G01 X25.4199 Y10.7320 F350.00
G01 X25.4786 Y10.7860 F350.00
G01 X25.5315 Y10.8372 F350.00
G01 X25.9806 Y11.2862 F350.00
G01 X25.9806 Y9.6577 F350.00
G01 X22.8697 Y9.6577 F350.00
G01 X22.8187 Y9.6999 F350.00
G01 X22.7687 Y9.7396 F350.00
G01 X22.7265 Y9.7717 F350.00
G01 X22.6615 Y9.8194 F350.00
G01 X22.6110 Y9.8547 F350.00
G01 X22.5590 Y9.8895 F350.00
G01 X22.5107 Y9.9205 F350.00
G01 X22.4628 Y9.9499 F350.00
G00 Z0.5000
G00 X22.1012 Y13.9501
G01 F250.00
G01 Z-0.0500
G01 F350.00
G01 X24.4527 Y16.3016 F350.00
G01 X24.4764 Y16.3265 F350.00
G01 X24.5010 Y16.3539 F350.00
G01 X24.5307 Y16.3903 F350.00
G01 X24.5307 Y15.4936 F350.00
G01 X22.9873 Y13.9501 F350.00
G01 X22.1012 Y13.9501 F350.00
G00 Z0.5000
G00 X26.4310 Y15.1567
G01 F250.00
G01 Z-0.0500
G01 F350.00
G01 X26.4391 Y15.1306 F350.00
G01 X26.4596 Y15.0727 F350.00
G01 X26.4639 Y15.0612 F350.00
G01 X26.4760 Y15.0317 F350.00
G01 X26.4859 Y15.0093 F350.00
G01 X26.5123 Y14.9539 F350.00
G01 X26.5331 Y14.9149 F350.00
G01 X26.5709 Y14.8518 F350.00
G01 X26.5955 Y14.8150 F350.00
G01 X26.6393 Y14.7559 F350.00
G01 X26.6595 Y14.7311 F350.00
G01 X26.6755 Y14.7126 F350.00
G01 X26.7085 Y14.6762 F350.00
G01 X26.7322 Y14.6513 F350.00
G01 X28.0806 Y13.3028 F350.00
G01 X28.0806 Y7.5577 F350.00
G01 X21.8426 Y7.5577 F350.00
G01 X21.8345 Y7.5824 F350.00
G01 X21.8180 Y7.6278 F350.00
G01 X21.8060 Y7.6574 F350.00
G01 X21.7960 Y7.6798 F350.00
G01 X21.7752 Y7.7235 F350.00
G01 X21.7603 Y7.7517 F350.00
G01 X21.7482 Y7.7730 F350.00
G01 X21.7232 Y7.8144 F350.00
G01 X21.7056 Y7.8410 F350.00
G01 X21.6915 Y7.8611 F350.00
G01 X21.6626 Y7.8998 F350.00
G01 X21.6425 Y7.9246 F350.00
G01 X21.6264 Y7.9432 F350.00
G01 X21.5938 Y7.9789 F350.00
G01 X21.5714 Y8.0015 F350.00
G01 X21.5536 Y8.0185 F350.00
G01 X21.5177 Y8.0508 F350.00
G01 X21.4931 Y8.0712 F350.00
G01 X21.4738 Y8.0863 F350.00
G01 X21.4448 Y8.1078 F350.00
G01 X21.4247 Y8.1219 F350.00
G01 X21.3981 Y8.1395 F350.00
G01 X21.3567 Y8.1645 F350.00
G01 X21.3354 Y8.1766 F350.00
G01 X21.3072 Y8.1915 F350.00
G01 X21.2635 Y8.2123 F350.00
G01 X21.2411 Y8.2222 F350.00
G01 X21.2116 Y8.2343 F350.00
G01 X21.1661 Y8.2507 F350.00
G01 X21.1428 Y8.2584 F350.00
G01 X21.1122 Y8.2675 F350.00
G01 X21.0654 Y8.2794 F350.00
G01 X21.0414 Y8.2848 F350.00
G01 X21.0101 Y8.2909 F350.00
G01 X20.9501 Y8.2998 F350.00
G01 X20.9184 Y8.3031 F350.00
G01 X20.8939 Y8.3049 F350.00
G01 X20.8579 Y8.3066 F350.00
G01 X20.8236 Y8.3075 F350.00
G01 X19.0466 Y8.3073 F350.00
G01 X19.0245 Y8.3066 F350.00
G01 X18.9762 Y8.3041 F350.00
G01 X18.9323 Y8.2998 F350.00
G01 X18.8723 Y8.2909 F350.00
G01 X18.8290 Y8.2823 F350.00
G01 X18.7702 Y8.2675 F350.00
G01 X18.7396 Y8.2584 F350.00
G01 X18.7163 Y8.2507 F350.00
G01 X18.6708 Y8.2343 F350.00
G01 X18.6413 Y8.2222 F350.00
G01 X18.6189 Y8.2123 F350.00
G01 X18.5752 Y8.1915 F350.00
G01 X18.5470 Y8.1766 F350.00
G01 X18.5257 Y8.1645 F350.00
G01 X18.4843 Y8.1395 F350.00
G01 X18.4577 Y8.1219 F350.00
G01 X18.4376 Y8.1078 F350.00
G01 X18.3989 Y8.0788 F350.00
G01 X18.3741 Y8.0587 F350.00
G01 X18.3555 Y8.0427 F350.00
G01 X18.3198 Y8.0101 F350.00
G01 X18.2971 Y7.9877 F350.00
G01 X18.2802 Y7.9699 F350.00
G01 X18.2479 Y7.9340 F350.00
G01 X18.2198 Y7.8998 F350.00
G01 X18.1909 Y7.8611 F350.00
G01 X18.1768 Y7.8410 F350.00
G01 X18.1592 Y7.8144 F350.00
G01 X18.1342 Y7.7730 F350.00
G01 X18.1221 Y7.7517 F350.00
G01 X18.1072 Y7.7235 F350.00
G01 X18.0864 Y7.6798 F350.00
G01 X18.0765 Y7.6574 F350.00
G01 X18.0644 Y7.6278 F350.00
G01 X18.0480 Y7.5824 F350.00
G01 X18.0403 Y7.5591 F350.00
G01 X18.0311 Y7.5285 F350.00
G01 X18.0280 Y7.5166 F350.00
G01 X18.0164 Y7.4697 F350.00
G01 X18.0100 Y7.4384 F350.00
G01 X18.0058 Y7.4143 F350.00
G01 X18.0006 Y7.3786 F350.00
G01 X17.9975 Y7.3542 F350.00
G01 X17.9946 Y7.3225 F350.00
G01 X17.9921 Y7.2742 F350.00
G01 X17.9914 Y7.2521 F350.00
G01 X17.9912 Y5.4751 F350.00
G01 X17.9921 Y5.4408 F350.00
G01 X17.9946 Y5.3925 F350.00
G01 X17.9975 Y5.3607 F350.00
G01 X18.0006 Y5.3364 F350.00
G01 X18.0078 Y5.2886 F350.00
G01 X18.0139 Y5.2573 F350.00
G01 X18.0192 Y5.2333 F350.00
G01 X18.0311 Y5.1865 F350.00
G01 X18.0440 Y5.1442 F350.00
G01 X18.0601 Y5.0986 F350.00
G01 X18.0689 Y5.0757 F350.00
G01 X18.0813 Y5.0463 F350.00
G01 X18.0864 Y5.0351 F350.00
G01 X18.1072 Y4.9915 F350.00
G01 X18.1280 Y4.9525 F350.00
G01 X18.1592 Y4.9006 F350.00
G01 X18.1768 Y4.8739 F350.00
G01 X18.1909 Y4.8539 F350.00
G01 X18.2124 Y4.8249 F350.00
G01 X18.2275 Y4.8056 F350.00
G01 X18.2479 Y4.7810 F350.00
G01 X18.2886 Y4.7361 F350.00
G01 X18.3198 Y4.7048 F350.00
G01 X18.3555 Y4.6723 F350.00
G01 X18.3741 Y4.6562 F350.00
G01 X18.3989 Y4.6361 F350.00
G01 X18.4086 Y4.6287 F350.00
G01 X18.4476 Y4.6000 F350.00
G01 X18.4843 Y4.5755 F350.00
G01 X18.5363 Y4.5443 F350.00
G01 X18.5643 Y4.5291 F350.00
G01 X18.5863 Y4.5181 F350.00
G01 X18.6189 Y4.5027 F350.00
G01 X18.6413 Y4.4927 F350.00
G01 X18.6708 Y4.4807 F350.00
G01 X18.7279 Y4.4602 F350.00
G01 X18.7702 Y4.4474 F350.00
G01 X18.8170 Y4.4355 F350.00
G01 X18.8290 Y4.4327 F350.00
G01 X18.8602 Y4.4263 F350.00
G01 X18.8844 Y4.4221 F350.00
G01 X18.9323 Y4.4152 F350.00
G01 X18.9762 Y4.4108 F350.00
G01 X19.0245 Y4.4083 F350.00
G01 X19.0589 Y4.4075 F350.00
G01 X20.8358 Y4.4076 F350.00
G01 X20.8579 Y4.4083 F350.00
G01 X20.9062 Y4.4108 F350.00
G01 X20.9379 Y4.4138 F350.00
G01 X20.9623 Y4.4168 F350.00
G01 X21.0101 Y4.4241 F350.00
G01 X21.0414 Y4.4301 F350.00
G01 X21.0654 Y4.4355 F350.00
G01 X21.1122 Y4.4474 F350.00
G01 X21.1545 Y4.4602 F350.00
G01 X21.2001 Y4.4764 F350.00
G01 X21.2230 Y4.4852 F350.00
G01 X21.2524 Y4.4976 F350.00
G01 X21.2962 Y4.5181 F350.00
G01 X21.3181 Y4.5291 F350.00
G01 X21.3461 Y4.5443 F350.00
G01 X21.3981 Y4.5755 F350.00
G01 X21.4247 Y4.5931 F350.00
G01 X21.4448 Y4.6072 F350.00
G01 X21.4835 Y4.6361 F350.00
G01 X21.5083 Y4.6562 F350.00
G01 X21.5269 Y4.6723 F350.00
G01 X21.5626 Y4.7048 F350.00
G01 X21.5938 Y4.7361 F350.00
G01 X21.6264 Y4.7718 F350.00
G01 X21.6425 Y4.7904 F350.00
G01 X21.6626 Y4.8151 F350.00
G01 X21.6915 Y4.8539 F350.00
G01 X21.7056 Y4.8739 F350.00
G01 X21.7232 Y4.9006 F350.00
G01 X21.7482 Y4.9419 F350.00
G01 X21.7603 Y4.9633 F350.00
G01 X21.7752 Y4.9915 F350.00
G01 X21.7960 Y5.0351 F350.00
G01 X21.8060 Y5.0576 F350.00
G01 X21.8180 Y5.0871 F350.00
G01 X21.8345 Y5.1326 F350.00
G01 X21.8426 Y5.1572 F350.00
G01 X28.0806 Y5.1572 F350.00
G01 X28.0808 Y1.8977 F350.00
G01 X28.0815 Y1.8757 F350.00
G01 X28.0839 Y1.8266 F350.00
G01 X28.0846 Y1.8144 F350.00
G01 X28.0876 Y1.7826 F350.00
G01 X28.0906 Y1.7583 F350.00
G01 X28.0978 Y1.7097 F350.00
G01 X28.1020 Y1.6855 F350.00
G01 X28.1084 Y1.6543 F350.00
G01 X28.1263 Y1.5828 F350.00
G01 X28.1391 Y1.5406 F350.00
G01 X28.1639 Y1.4712 F350.00
G01 X28.1808 Y1.4304 F350.00
G01 X28.2123 Y1.3639 F350.00
G01 X28.2331 Y1.3249 F350.00
G01 X28.2709 Y1.2618 F350.00
G01 X28.2955 Y1.2250 F350.00
G01 X28.3393 Y1.1659 F350.00
G01 X28.3674 Y1.1317 F350.00
G01 X28.4085 Y1.0862 F350.00
G01 X28.4322 Y1.0613 F350.00
G01 X29.7009 Y-0.2074 F350.00
G01 X29.7010 Y-1.2223 F350.00
G01 X29.7017 Y-1.2443 F350.00
G01 X29.7065 Y-1.3424 F350.00
G01 X29.7083 Y-1.3668 F350.00
G01 X29.7116 Y-1.3986 F350.00
G01 X29.7133 Y-1.4107 F350.00
G01 X29.7277 Y-1.5078 F350.00
G01 X29.7318 Y-1.5320 F350.00
G01 X29.7382 Y-1.5632 F350.00
G01 X29.7680 Y-1.6822 F350.00
G01 X29.7771 Y-1.7128 F350.00
G01 X29.7848 Y-1.7361 F350.00
G01 X29.8179 Y-1.8285 F350.00
G01 X29.8267 Y-1.8514 F350.00
G01 X29.8391 Y-1.8808 F350.00
G01 X29.8442 Y-1.8920 F350.00
G01 X29.8861 Y-1.9807 F350.00
G01 X29.8915 Y-1.9917 F350.00
G01 X29.9064 Y-2.0199 F350.00
G01 X29.9185 Y-2.0413 F350.00
G01 X29.9690 Y-2.1254 F350.00
G01 X29.9821 Y-2.1462 F350.00
G01 X30.0000 Y-2.1726 F350.00
G01 X30.0730 Y-2.2711 F350.00
G01 X30.1011 Y-2.3053 F350.00
G01 X30.1834 Y-2.3962 F350.00
G01 X30.2147 Y-2.4274 F350.00
G01 X30.3056 Y-2.5098 F350.00
G01 X30.3397 Y-2.5378 F350.00
G01 X30.4382 Y-2.6109 F350.00
G01 X30.4647 Y-2.6288 F350.00
G01 X30.4854 Y-2.6419 F350.00
G01 X30.5696 Y-2.6923 F350.00
G01 X30.5802 Y-2.6985 F350.00
G01 X30.6083 Y-2.7137 F350.00
G01 X30.6302 Y-2.7247 F350.00
G01 X30.7189 Y-2.7667 F350.00
G01 X30.7413 Y-2.7766 F350.00
G01 X30.7709 Y-2.7887 F350.00
G01 X30.8748 Y-2.8260 F350.00
G01 X30.8981 Y-2.8337 F350.00
G01 X30.9286 Y-2.8428 F350.00
G01 X31.0476 Y-2.8726 F350.00
G01 X31.0909 Y-2.8813 F350.00
G01 X31.2123 Y-2.8993 F350.00
G01 X31.2440 Y-2.9025 F350.00
G01 X31.2685 Y-2.9043 F350.00
G01 X31.3665 Y-2.9092 F350.00
G01 X31.3910 Y-2.9098 F350.00
G01 X31.4229 Y-2.9096 F350.00
G01 X31.4352 Y-2.9092 F350.00
G01 X31.5332 Y-2.9043 F350.00
G01 X31.5577 Y-2.9025 F350.00
G01 X31.5894 Y-2.8993 F350.00
G01 X31.6987 Y-2.8832 F350.00
G01 X31.7228 Y-2.8790 F350.00
G01 X31.7541 Y-2.8726 F350.00
G01 X31.7660 Y-2.8698 F350.00
G01 X31.8612 Y-2.8460 F350.00
G01 X31.8849 Y-2.8394 F350.00
G01 X31.9154 Y-2.8300 F350.00
G01 X32.0309 Y-2.7887 F350.00
G01 X32.0604 Y-2.7766 F350.00
G01 X32.0828 Y-2.7667 F350.00
G01 X32.1715 Y-2.7247 F350.00
G01 X32.1935 Y-2.7137 F350.00
G01 X32.2215 Y-2.6985 F350.00
G01 X32.2321 Y-2.6923 F350.00
G01 X32.3163 Y-2.6419 F350.00
G01 X32.3370 Y-2.6288 F350.00
G01 X32.3635 Y-2.6109 F350.00
G01 X32.4620 Y-2.5378 F350.00
G01 X32.4868 Y-2.5177 F350.00
G01 X32.5053 Y-2.5017 F350.00
G01 X32.5781 Y-2.4358 F350.00
G01 X32.5958 Y-2.4189 F350.00
G01 X32.6183 Y-2.3962 F350.00
G01 X32.6709 Y-2.3384 F350.00
G01 X32.7234 Y-2.3962 F350.00
G01 X32.7459 Y-2.4189 F350.00
G01 X32.7637 Y-2.4358 F350.00
G01 X32.8364 Y-2.5017 F350.00
G01 X32.8550 Y-2.5177 F350.00
G01 X32.8797 Y-2.5378 F350.00
G01 X32.9683 Y-2.6037 F350.00
G01 X32.9884 Y-2.6178 F350.00
G01 X33.0150 Y-2.6354 F350.00
G01 X33.1202 Y-2.6985 F350.00
G01 X33.1591 Y-2.7193 F350.00
G01 X33.2700 Y-2.7718 F350.00
G01 X33.3109 Y-2.7887 F350.00
G01 X33.4264 Y-2.8300 F350.00
G01 X33.4686 Y-2.8428 F350.00
G01 X33.5876 Y-2.8726 F350.00
G01 X33.6309 Y-2.8813 F350.00
G01 X33.7523 Y-2.8993 F350.00
G01 X33.7962 Y-2.9036 F350.00
G01 X33.9188 Y-2.9096 F350.00
G01 X33.9507 Y-2.9098 F350.00
G01 X33.9752 Y-2.9092 F350.00
G01 X34.0732 Y-2.9043 F350.00
G01 X34.0977 Y-2.9025 F350.00
G01 X34.1294 Y-2.8993 F350.00
G01 X34.1416 Y-2.8976 F350.00
G01 X34.2387 Y-2.8832 F350.00
G01 X34.2508 Y-2.8813 F350.00
G01 X34.2821 Y-2.8752 F350.00
G01 X34.3060 Y-2.8698 F350.00
G01 X34.4012 Y-2.8460 F350.00
G01 X34.4131 Y-2.8428 F350.00
G01 X34.4437 Y-2.8337 F350.00
G01 X34.4670 Y-2.8260 F350.00
G01 X34.5594 Y-2.7930 F350.00
G01 X34.5823 Y-2.7841 F350.00
G01 X34.6117 Y-2.7718 F350.00
G01 X34.7226 Y-2.7193 F350.00
G01 X34.7615 Y-2.6985 F350.00
G01 X34.8668 Y-2.6354 F350.00
G01 X34.8934 Y-2.6178 F350.00
G01 X34.9134 Y-2.6037 F350.00
G01 X35.0020 Y-2.5378 F350.00
G01 X35.0268 Y-2.5177 F350.00
G01 X35.0453 Y-2.5017 F350.00
G01 X35.1181 Y-2.4358 F350.00
G01 X35.1358 Y-2.4189 F350.00
G01 X35.1583 Y-2.3962 F350.00
G01 X35.2109 Y-2.3384 F350.00
G01 X35.2634 Y-2.3962 F350.00
G01 X35.2859 Y-2.4189 F350.00
G01 X35.3037 Y-2.4358 F350.00
G01 X35.3764 Y-2.5017 F350.00
G01 X35.3950 Y-2.5177 F350.00
G01 X35.4197 Y-2.5378 F350.00
G01 X35.5083 Y-2.6037 F350.00
G01 X35.5284 Y-2.6178 F350.00
G01 X35.5550 Y-2.6354 F350.00
G01 X35.6602 Y-2.6985 F350.00
G01 X35.6991 Y-2.7193 F350.00
G01 X35.8100 Y-2.7718 F350.00
G01 X35.8509 Y-2.7887 F350.00
G01 X35.9664 Y-2.8300 F350.00
G01 X36.0086 Y-2.8428 F350.00
G01 X36.1276 Y-2.8726 F350.00
G01 X36.1709 Y-2.8813 F350.00
G01 X36.2923 Y-2.8993 F350.00
G01 X36.3362 Y-2.9036 F350.00
G01 X36.4588 Y-2.9096 F350.00
G01 X36.4907 Y-2.9098 F350.00
G01 X36.5152 Y-2.9092 F350.00
G01 X36.6132 Y-2.9043 F350.00
G01 X36.6377 Y-2.9025 F350.00
G01 X36.6694 Y-2.8993 F350.00
G01 X36.6816 Y-2.8976 F350.00
G01 X36.7787 Y-2.8832 F350.00
G01 X36.7908 Y-2.8813 F350.00
G01 X36.8221 Y-2.8752 F350.00
G01 X36.8460 Y-2.8698 F350.00
G01 X36.9412 Y-2.8460 F350.00
G01 X36.9531 Y-2.8428 F350.00
G01 X36.9837 Y-2.8337 F350.00
G01 X37.0070 Y-2.8260 F350.00
G01 X37.0994 Y-2.7930 F350.00
G01 X37.1223 Y-2.7841 F350.00
G01 X37.1517 Y-2.7718 F350.00
G01 X37.2626 Y-2.7193 F350.00
G01 X37.3015 Y-2.6985 F350.00
G01 X37.4068 Y-2.6354 F350.00
G01 X37.4334 Y-2.6178 F350.00
G01 X37.4534 Y-2.6037 F350.00
G01 X37.5420 Y-2.5378 F350.00
G01 X37.5668 Y-2.5177 F350.00
G01 X37.5853 Y-2.5017 F350.00
G01 X37.6581 Y-2.4358 F350.00
G01 X37.6758 Y-2.4189 F350.00
G01 X37.6983 Y-2.3962 F350.00
G01 X37.7509 Y-2.3384 F350.00
G01 X37.8034 Y-2.3962 F350.00
G01 X37.8259 Y-2.4189 F350.00
G01 X37.8437 Y-2.4358 F350.00
G01 X37.9164 Y-2.5017 F350.00
G01 X37.9350 Y-2.5177 F350.00
G01 X37.9597 Y-2.5378 F350.00
G01 X38.0483 Y-2.6037 F350.00
G01 X38.0684 Y-2.6178 F350.00
G01 X38.0950 Y-2.6354 F350.00
G01 X38.2002 Y-2.6985 F350.00
G01 X38.2391 Y-2.7193 F350.00
G01 X38.3500 Y-2.7718 F350.00
G01 X38.3909 Y-2.7887 F350.00
G01 X38.5064 Y-2.8300 F350.00
G01 X38.5486 Y-2.8428 F350.00
G01 X38.6676 Y-2.8726 F350.00
G01 X38.7109 Y-2.8813 F350.00
G01 X38.8323 Y-2.8993 F350.00
G01 X38.8762 Y-2.9036 F350.00
G01 X38.9988 Y-2.9096 F350.00
G01 X39.0307 Y-2.9098 F350.00
G01 X39.0552 Y-2.9092 F350.00
G01 X39.1532 Y-2.9043 F350.00
G01 X39.1777 Y-2.9025 F350.00
G01 X39.2094 Y-2.8993 F350.00
G01 X39.2216 Y-2.8976 F350.00
G01 X39.3187 Y-2.8832 F350.00
G01 X39.3308 Y-2.8813 F350.00
G01 X39.3621 Y-2.8752 F350.00
G01 X39.3860 Y-2.8698 F350.00
G01 X39.4812 Y-2.8460 F350.00
G01 X39.4931 Y-2.8428 F350.00
G01 X39.5237 Y-2.8337 F350.00
G01 X39.5470 Y-2.8260 F350.00
G01 X39.6394 Y-2.7930 F350.00
G01 X39.6623 Y-2.7841 F350.00
G01 X39.6917 Y-2.7718 F350.00
G01 X39.8026 Y-2.7193 F350.00
G01 X39.8415 Y-2.6985 F350.00
G01 X39.9468 Y-2.6354 F350.00
G01 X39.9734 Y-2.6178 F350.00
G01 X39.9934 Y-2.6037 F350.00
G01 X40.0820 Y-2.5378 F350.00
G01 X40.1068 Y-2.5177 F350.00
G01 X40.1253 Y-2.5017 F350.00
G01 X40.1981 Y-2.4358 F350.00
G01 X40.2158 Y-2.4189 F350.00
G01 X40.2383 Y-2.3962 F350.00
G01 X40.2909 Y-2.3384 F350.00
G01 X40.3434 Y-2.3962 F350.00
G01 X40.3747 Y-2.4274 F350.00
G01 X40.4656 Y-2.5098 F350.00
G01 X40.4997 Y-2.5378 F350.00
G01 X40.5982 Y-2.6109 F350.00
G01 X40.6350 Y-2.6354 F350.00
G01 X40.7402 Y-2.6985 F350.00
G01 X40.7791 Y-2.7193 F350.00
G01 X40.8900 Y-2.7718 F350.00
G01 X40.9309 Y-2.7887 F350.00
G01 X41.0464 Y-2.8300 F350.00
G01 X41.0886 Y-2.8428 F350.00
G01 X41.2076 Y-2.8726 F350.00
G01 X41.2509 Y-2.8813 F350.00
G01 X41.3723 Y-2.8993 F350.00
G01 X41.4162 Y-2.9036 F350.00
G01 X41.5265 Y-2.9092 F350.00
G01 X41.5388 Y-2.9096 F350.00
G01 X41.5707 Y-2.9098 F350.00
G01 X41.5952 Y-2.9092 F350.00
G01 X41.6932 Y-2.9043 F350.00
G01 X41.7055 Y-2.9036 F350.00
G01 X41.7372 Y-2.9006 F350.00
G01 X41.7616 Y-2.8976 F350.00
G01 X41.8587 Y-2.8832 F350.00
G01 X41.8708 Y-2.8813 F350.00
G01 X41.9021 Y-2.8752 F350.00
G01 X41.9260 Y-2.8698 F350.00
G01 X42.0212 Y-2.8460 F350.00
G01 X42.0331 Y-2.8428 F350.00
G01 X42.0637 Y-2.8337 F350.00
G01 X42.0870 Y-2.8260 F350.00
G01 X42.1794 Y-2.7930 F350.00
G01 X42.1909 Y-2.7887 F350.00
G01 X42.2204 Y-2.7766 F350.00
G01 X42.2428 Y-2.7667 F350.00
G01 X42.3315 Y-2.7247 F350.00
G01 X42.3426 Y-2.7193 F350.00
G01 X42.3708 Y-2.7044 F350.00
G01 X42.3921 Y-2.6923 F350.00
G01 X42.4763 Y-2.6419 F350.00
G01 X42.4868 Y-2.6354 F350.00
G01 X42.5134 Y-2.6178 F350.00
G01 X42.5334 Y-2.6037 F350.00
G01 X42.6122 Y-2.5453 F350.00
G01 X42.6220 Y-2.5378 F350.00
G01 X42.6468 Y-2.5177 F350.00
G01 X42.6653 Y-2.5017 F350.00
G01 X42.7381 Y-2.4358 F350.00
G01 X42.7558 Y-2.4189 F350.00
G01 X42.7783 Y-2.3962 F350.00
G01 X42.7866 Y-2.3872 F350.00
G01 X42.8525 Y-2.3145 F350.00
G01 X42.8686 Y-2.2959 F350.00
G01 X42.8887 Y-2.2711 F350.00
G01 X42.8961 Y-2.2614 F350.00
G01 X42.9546 Y-2.1826 F350.00
G01 X42.9618 Y-2.1726 F350.00
G01 X42.9796 Y-2.1462 F350.00
G01 X42.9927 Y-2.1254 F350.00
G01 X43.0432 Y-2.0413 F350.00
G01 X43.0553 Y-2.0199 F350.00
G01 X43.0702 Y-1.9917 F350.00
G01 X43.0756 Y-1.9807 F350.00
G01 X43.1175 Y-1.8920 F350.00
G01 X43.1226 Y-1.8808 F350.00
G01 X43.1350 Y-1.8514 F350.00
G01 X43.1438 Y-1.8285 F350.00
G01 X43.1809 Y-1.7245 F350.00
G01 X43.1937 Y-1.6822 F350.00
G01 X43.2235 Y-1.5632 F350.00
G01 X43.2299 Y-1.5320 F350.00
G01 X43.2341 Y-1.5078 F350.00
G01 X43.2485 Y-1.4107 F350.00
G01 X43.2501 Y-1.3986 F350.00
G01 X43.2534 Y-1.3668 F350.00
G01 X43.2552 Y-1.3424 F350.00
G01 X43.2600 Y-1.2443 F350.00
G01 X43.2609 Y-1.2100 F350.00
G01 X43.2609 Y-0.2050 F350.00
G01 X43.2786 Y-0.1751 F350.00
G01 X43.2995 Y-0.1361 F350.00
G01 X43.3309 Y-0.0696 F350.00
G01 X43.3478 Y-0.0288 F350.00
G01 X43.3726 Y0.0406 F350.00
G01 X43.3820 Y0.0710 F350.00
G01 X43.3886 Y0.0947 F350.00
G01 X43.4034 Y0.1543 F350.00
G01 X43.4097 Y0.1855 F350.00
G01 X43.4139 Y0.2097 F350.00
G01 X43.4228 Y0.2704 F350.00
G01 X43.4271 Y0.3144 F350.00
G01 X43.4303 Y0.3757 F350.00
G01 X43.4311 Y0.4100 F350.00
G01 X43.4311 Y7.1997 F350.00
G01 X85.0809 Y7.1997 F350.00
G01 X85.1152 Y7.2006 F350.00
G01 X85.1642 Y7.2030 F350.00
G01 X85.1887 Y7.2048 F350.00
G01 X85.2204 Y7.2081 F350.00
G01 X85.2326 Y7.2097 F350.00
G01 X85.2812 Y7.2169 F350.00
G01 X85.3053 Y7.2211 F350.00
G01 X85.3366 Y7.2275 F350.00
G01 X85.4080 Y7.2454 F350.00
G01 X85.4503 Y7.2582 F350.00
G01 X85.5196 Y7.2830 F350.00
G01 X85.5604 Y7.2999 F350.00
G01 X85.6270 Y7.3314 F350.00
G01 X85.6659 Y7.3522 F350.00
G01 X85.7187 Y7.3836 F350.00
G01 X85.7394 Y7.3968 F350.00
G01 X85.7658 Y7.4146 F350.00
G01 X85.7758 Y7.4218 F350.00
G01 X85.8152 Y7.4511 F350.00
G01 X85.8346 Y7.4662 F350.00
G01 X85.8591 Y7.4865 F350.00
G01 X85.8683 Y7.4946 F350.00
G01 X85.9047 Y7.5276 F350.00
G01 X85.9296 Y7.5513 F350.00
G01 X101.4780 Y23.0997 F350.00
G01 X104.2309 Y23.0997 F350.00
G01 X104.2652 Y23.1006 F350.00
G01 X104.3265 Y23.1038 F350.00
G01 X104.3582 Y23.1067 F350.00
G01 X104.3826 Y23.1097 F350.00
G01 X104.4312 Y23.1169 F350.00
G01 X104.4553 Y23.1211 F350.00
G01 X104.4866 Y23.1275 F350.00
G01 X104.5462 Y23.1423 F350.00
G01 X104.5698 Y23.1488 F350.00
G01 X104.6003 Y23.1582 F350.00
G01 X104.6696 Y23.1830 F350.00
G01 X104.7104 Y23.1999 F350.00
G01 X104.7660 Y23.2260 F350.00
G01 X104.7879 Y23.2371 F350.00
G01 X104.8159 Y23.2522 F350.00
G01 X104.8265 Y23.2584 F350.00
G01 X104.8791 Y23.2901 F350.00
G01 X104.9158 Y23.3146 F350.00
G01 X104.9750 Y23.3585 F350.00
G01 X104.9997 Y23.3786 F350.00
G01 X105.0183 Y23.3946 F350.00
G01 X105.0547 Y23.4276 F350.00
G01 X105.0796 Y23.4513 F350.00
G01 X107.3381 Y25.7101 F350.00
G01 X107.3533 Y25.7262 F350.00
G01 X107.3862 Y25.7626 F350.00
G01 X107.4023 Y25.7811 F350.00
G01 X107.4224 Y25.8059 F350.00
G01 X107.4590 Y25.8551 F350.00
G01 X107.4732 Y25.8752 F350.00
G01 X107.4908 Y25.9018 F350.00
G01 X107.5225 Y25.9543 F350.00
G01 X107.5345 Y25.9757 F350.00
G01 X107.5495 Y26.0039 F350.00
G01 X107.5548 Y26.0149 F350.00
G01 X107.5809 Y26.0704 F350.00
G01 X107.5933 Y26.0998 F350.00
G01 X107.6021 Y26.1227 F350.00
G01 X107.6226 Y26.1806 F350.00
G01 X107.6320 Y26.2110 F350.00
G01 X107.6386 Y26.2347 F350.00
G01 X107.6534 Y26.2943 F350.00
G01 X107.6597 Y26.3255 F350.00
G01 X107.6639 Y26.3497 F350.00
G01 X107.6728 Y26.4104 F350.00
G01 X107.6761 Y26.4421 F350.00
G01 X107.6779 Y26.4666 F350.00
G01 X107.6803 Y26.5157 F350.00
G01 X107.6811 Y26.5500 F350.00
G01 X107.6811 Y46.9820 F350.00
G01 X107.6803 Y47.0163 F350.00
G01 X107.6779 Y47.0654 F350.00
G01 X107.6761 Y47.0898 F350.00
G01 X107.6728 Y47.1216 F350.00
G01 X107.6711 Y47.1337 F350.00
G01 X107.6639 Y47.1823 F350.00
G01 X107.6597 Y47.2065 F350.00
G01 X107.6534 Y47.2377 F350.00
G01 X107.6355 Y47.3091 F350.00
G01 X107.6226 Y47.3514 F350.00
G01 X107.5978 Y47.4207 F350.00
G01 X107.5809 Y47.4616 F350.00
G01 X107.5495 Y47.5281 F350.00
G01 X107.5286 Y47.5671 F350.00
G01 X107.4972 Y47.6198 F350.00
G01 X107.4841 Y47.6405 F350.00
G01 X107.4662 Y47.6669 F350.00
G01 X107.4590 Y47.6769 F350.00
G01 X107.4298 Y47.7163 F350.00
G01 X107.4147 Y47.7357 F350.00
G01 X107.3944 Y47.7602 F350.00
G01 X107.3862 Y47.7694 F350.00
G01 X107.3533 Y47.8058 F350.00
G01 X107.3296 Y47.8307 F350.00
G01 X86.5115 Y68.6487 F350.00
G01 X86.4867 Y68.6724 F350.00
G01 X86.4411 Y68.7135 F350.00
G01 X86.4165 Y68.7338 F350.00
G01 X86.3972 Y68.7489 F350.00
G01 X86.3478 Y68.7854 F350.00
G01 X86.3214 Y68.8032 F350.00
G01 X86.3006 Y68.8164 F350.00
G01 X86.2479 Y68.8478 F350.00
G01 X86.2199 Y68.8629 F350.00
G01 X86.1979 Y68.8740 F350.00
G01 X86.1424 Y68.9001 F350.00
G01 X86.1130 Y68.9124 F350.00
G01 X86.0901 Y68.9213 F350.00
G01 X86.0323 Y68.9418 F350.00
G01 X86.0018 Y68.9512 F350.00
G01 X85.9781 Y68.9577 F350.00
G01 X85.9186 Y68.9725 F350.00
G01 X85.8873 Y68.9789 F350.00
G01 X85.8631 Y68.9831 F350.00
G01 X85.8024 Y68.9919 F350.00
G01 X85.7707 Y68.9952 F350.00
G01 X85.7462 Y68.9970 F350.00
G01 X85.6972 Y68.9994 F350.00
G01 X85.6628 Y69.0003 F350.00
G01 X72.3809 Y69.0003 F350.00
G01 X72.3465 Y68.9994 F350.00
G01 X72.2852 Y68.9962 F350.00
G01 X72.2535 Y68.9933 F350.00
G01 X72.2291 Y68.9903 F350.00
G01 X72.1684 Y68.9811 F350.00
G01 X72.1371 Y68.9750 F350.00
G01 X72.1132 Y68.9697 F350.00
G01 X72.0537 Y68.9546 F350.00
G01 X72.0231 Y68.9455 F350.00
G01 X71.9998 Y68.9378 F350.00
G01 X71.9421 Y68.9170 F350.00
G01 X71.9126 Y68.9049 F350.00
G01 X71.8901 Y68.8950 F350.00
G01 X71.8347 Y68.8686 F350.00
G01 X71.8065 Y68.8537 F350.00
G01 X71.7852 Y68.8416 F350.00
G01 X71.7326 Y68.8099 F350.00
G01 X71.7060 Y68.7923 F350.00
G01 X71.6859 Y68.7782 F350.00
G01 X71.6367 Y68.7415 F350.00
G01 X71.6026 Y68.7135 F350.00
G01 X71.5570 Y68.6724 F350.00
G01 X71.5393 Y68.6555 F350.00
G01 X71.5168 Y68.6328 F350.00
G01 X71.4755 Y68.5874 F350.00
G01 X71.4595 Y68.5689 F350.00
G01 X71.4393 Y68.5441 F350.00
G01 X71.4319 Y68.5343 F350.00
G01 X71.3955 Y68.4850 F350.00
G01 X71.3776 Y68.4585 F350.00
G01 X71.3645 Y68.4378 F350.00
G01 X71.3331 Y68.3851 F350.00
G01 X71.3179 Y68.3570 F350.00
G01 X71.3061 Y68.3335 F350.00
G01 X71.3061 Y68.8250 F350.00
G01 X71.3053 Y68.8593 F350.00
G01 X71.3029 Y68.9084 F350.00
G01 X71.3011 Y68.9329 F350.00
G01 X71.2978 Y68.9646 F350.00
G01 X71.2889 Y69.0253 F350.00
G01 X71.2847 Y69.0495 F350.00
G01 X71.2784 Y69.0807 F350.00
G01 X71.2755 Y69.0927 F350.00
G01 X71.2605 Y69.1522 F350.00
G01 X71.2513 Y69.1827 F350.00
G01 X71.2437 Y69.2060 F350.00
G01 X71.2271 Y69.2523 F350.00
G01 X71.2183 Y69.2752 F350.00
G01 X71.2059 Y69.3046 F350.00
G01 X71.1745 Y69.3711 F350.00
G01 X71.1536 Y69.4101 F350.00
G01 X71.1158 Y69.4732 F350.00
G01 X71.0912 Y69.5100 F350.00
G01 X71.0474 Y69.5691 F350.00
G01 X71.0194 Y69.6033 F350.00
G01 X70.9783 Y69.6488 F350.00
G01 X70.9699 Y69.6578 F350.00
G01 X70.9475 Y69.6805 F350.00
G01 X70.9297 Y69.6974 F350.00
G01 X70.8841 Y69.7385 F350.00
G01 X70.8596 Y69.7588 F350.00
G01 X70.8402 Y69.7739 F350.00
G01 X70.7908 Y69.8104 F350.00
G01 X70.7541 Y69.8349 F350.00
G01 X70.6909 Y69.8728 F350.00
G01 X70.6629 Y69.8879 F350.00
G01 X70.6410 Y69.8990 F350.00
G01 X70.5966 Y69.9200 F350.00
G01 X70.5854 Y69.9251 F350.00
G01 X70.5560 Y69.9374 F350.00
G01 X70.5331 Y69.9463 F350.00
G01 X70.4869 Y69.9628 F350.00
G01 X70.4753 Y69.9668 F350.00
G01 X70.4448 Y69.9762 F350.00
G01 X70.4212 Y69.9827 F350.00
G01 X70.3735 Y69.9947 F350.00
G01 X70.3616 Y69.9975 F350.00
G01 X70.3303 Y70.0039 F350.00
G01 X70.3062 Y70.0081 F350.00
G01 X70.2576 Y70.0153 F350.00
G01 X70.2454 Y70.0169 F350.00
G01 X70.2137 Y70.0202 F350.00
G01 X70.1892 Y70.0220 F350.00
G01 X70.1402 Y70.0244 F350.00
G01 X70.1059 Y70.0253 F350.00
G01 X68.3310 Y70.0253 F350.00
G01 X68.2782 Y70.0501 F350.00
G01 X68.2488 Y70.0624 F350.00
G01 X68.2259 Y70.0713 F350.00
G01 X68.1797 Y70.0878 F350.00
G01 X68.1564 Y70.0955 F350.00
G01 X68.1258 Y70.1046 F350.00
G01 X68.0663 Y70.1197 F350.00
G01 X68.0424 Y70.1250 F350.00
G01 X68.0110 Y70.1311 F350.00
G01 X67.9382 Y70.1419 F350.00
G01 X67.8943 Y70.1462 F350.00
G01 X67.8330 Y70.1494 F350.00
G01 X67.8109 Y70.1501 F350.00
G01 X18.4809 Y70.1503 F350.00
G01 X18.4465 Y70.1494 F350.00
G01 X18.3975 Y70.1470 F350.00
G01 X18.3730 Y70.1452 F350.00
G01 X18.3413 Y70.1419 F350.00
G01 X18.3291 Y70.1403 F350.00
G01 X18.2806 Y70.1331 F350.00
G01 X18.2564 Y70.1289 F350.00
G01 X18.2251 Y70.1225 F350.00
G01 X18.1537 Y70.1046 F350.00
G01 X18.1114 Y70.0918 F350.00
G01 X18.0421 Y70.0670 F350.00
G01 X18.0013 Y70.0501 F350.00
G01 X17.9458 Y70.0240 F350.00
G01 X17.9238 Y70.0129 F350.00
G01 X17.8958 Y69.9978 F350.00
G01 X17.8326 Y69.9599 F350.00
G01 X17.8060 Y69.9423 F350.00
G01 X17.7859 Y69.9282 F350.00
G01 X17.7367 Y69.8915 F350.00
G01 X17.7026 Y69.8635 F350.00
G01 X17.6570 Y69.8224 F350.00
G01 X17.6393 Y69.8055 F350.00
G01 X17.6168 Y69.7828 F350.00
G01 X17.5755 Y69.7374 F350.00
G01 X17.5595 Y69.7189 F350.00
G01 X17.5393 Y69.6941 F350.00
G01 X17.5027 Y69.6449 F350.00
G01 X17.4885 Y69.6248 F350.00
G01 X17.4709 Y69.5982 F350.00
G01 X17.4393 Y69.5457 F350.00
G01 X17.4272 Y69.5243 F350.00
G01 X17.4123 Y69.4961 F350.00
G01 X17.3859 Y69.4407 F350.00
G01 X17.3808 Y69.4296 F350.00
G01 X17.3684 Y69.4002 F350.00
G01 X17.3596 Y69.3773 F350.00
G01 X17.3391 Y69.3194 F350.00
G01 X17.3297 Y69.2890 F350.00
G01 X17.3231 Y69.2653 F350.00
G01 X17.3084 Y69.2057 F350.00
G01 X17.2997 Y69.1624 F350.00
G01 X17.2906 Y69.1017 F350.00
G01 X17.2876 Y69.0774 F350.00
G01 X17.2846 Y69.0456 F350.00
G01 X17.2815 Y68.9843 F350.00
G01 X17.2806 Y68.9500 F350.00
G01 X17.2806 Y51.7433 F350.00
G01 X17.2506 Y51.7236 F350.00
G01 X17.2305 Y51.7094 F350.00
G01 X17.1025 Y51.6143 F350.00
G01 X17.0778 Y51.5942 F350.00
G01 X17.0592 Y51.5782 F350.00
G01 X16.9501 Y51.4793 F350.00
G01 X16.9411 Y51.4710 F350.00
G01 X16.9185 Y51.4485 F350.00
G01 X16.9015 Y51.4308 F350.00
G01 X16.7946 Y51.3125 F350.00
G01 X16.7742 Y51.2879 F350.00
G01 X16.7591 Y51.2686 F350.00
G01 X16.6714 Y51.1503 F350.00
G01 X16.6642 Y51.1404 F350.00
G01 X16.6464 Y51.1140 F350.00
G01 X16.6332 Y51.0932 F350.00
G01 X16.5576 Y50.9670 F350.00
G01 X16.5455 Y50.9456 F350.00
G01 X16.5306 Y50.9174 F350.00
G01 X16.4622 Y50.7733 F350.00
G01 X16.4571 Y50.7622 F350.00
G01 X16.4448 Y50.7327 F350.00
G01 X16.4360 Y50.7098 F350.00
G01 X16.3864 Y50.5712 F350.00
G01 X16.3787 Y50.5479 F350.00
G01 X16.3696 Y50.5174 F350.00
G01 X16.3307 Y50.3627 F350.00
G01 X16.3278 Y50.3508 F350.00
G01 X16.3215 Y50.3195 F350.00
G01 X16.3173 Y50.2953 F350.00
G01 X16.2957 Y50.1497 F350.00
G01 X16.2940 Y50.1376 F350.00
G01 X16.2907 Y50.1058 F350.00
G01 X16.2889 Y50.0814 F350.00
G01 X16.2817 Y49.9343 F350.00
G01 X16.2811 Y49.9098 F350.00
G01 X16.2813 Y49.8779 F350.00
G01 X16.2817 Y49.8657 F350.00
G01 X16.2889 Y49.7186 F350.00
G01 X16.2907 Y49.6942 F350.00
G01 X16.2940 Y49.6624 F350.00
G01 X16.2957 Y49.6503 F350.00
G01 X16.3173 Y49.5047 F350.00
G01 X16.3215 Y49.4805 F350.00
G01 X16.3278 Y49.4492 F350.00
G01 X16.3307 Y49.4373 F350.00
G01 X16.3664 Y49.2945 F350.00
G01 X16.3730 Y49.2708 F350.00
G01 X16.3824 Y49.2404 F350.00
G01 X16.3864 Y49.2288 F350.00
G01 X16.4360 Y49.0902 F350.00
G01 X16.4448 Y49.0673 F350.00
G01 X16.4571 Y49.0378 F350.00
G01 X16.4622 Y49.0267 F350.00
G01 X16.5252 Y48.8936 F350.00
G01 X16.5362 Y48.8717 F350.00
G01 X16.5514 Y48.8436 F350.00
G01 X16.5576 Y48.8330 F350.00
G01 X16.6397 Y48.6963 F350.00
G01 X16.6573 Y48.6697 F350.00
G01 X16.6714 Y48.6497 F350.00
G01 X16.7591 Y48.5314 F350.00
G01 X16.7665 Y48.5217 F350.00
G01 X16.7866 Y48.4969 F350.00
G01 X16.8027 Y48.4783 F350.00
G01 X16.9015 Y48.3692 F350.00
G01 X16.9185 Y48.3515 F350.00
G01 X16.9411 Y48.3290 F350.00
G01 X16.9501 Y48.3207 F350.00
G01 X17.0592 Y48.2218 F350.00
G01 X17.0778 Y48.2058 F350.00
G01 X17.1025 Y48.1857 F350.00
G01 X17.1123 Y48.1782 F350.00
G01 X17.2305 Y48.0906 F350.00
G01 X17.2506 Y48.0764 F350.00
G01 X17.2772 Y48.0588 F350.00
G01 X17.2876 Y48.0524 F350.00
G01 X17.4139 Y47.9767 F350.00
G01 X17.4245 Y47.9705 F350.00
G01 X17.4526 Y47.9554 F350.00
G01 X17.4745 Y47.9443 F350.00
G01 X17.6075 Y47.8814 F350.00
G01 X17.6300 Y47.8714 F350.00
G01 X17.6595 Y47.8594 F350.00
G01 X17.6710 Y47.8551 F350.00
G01 X17.8096 Y47.8055 F350.00
G01 X17.8212 Y47.8015 F350.00
G01 X17.8517 Y47.7921 F350.00
G01 X17.8753 Y47.7856 F350.00
G01 X18.0181 Y47.7498 F350.00
G01 X18.0301 Y47.7470 F350.00
G01 X18.0613 Y47.7406 F350.00
G01 X18.0855 Y47.7364 F350.00
G01 X18.2311 Y47.7148 F350.00
G01 X18.2555 Y47.7118 F350.00
G01 X18.2872 Y47.7088 F350.00
G01 X18.2995 Y47.7081 F350.00
G01 X18.4465 Y47.7008 F350.00
G01 X18.4710 Y47.7002 F350.00
G01 X18.5029 Y47.7004 F350.00
G01 X18.5152 Y47.7008 F350.00
G01 X18.6745 Y47.7088 F350.00
G01 X18.7062 Y47.7118 F350.00
G01 X18.7306 Y47.7148 F350.00
G01 X18.8762 Y47.7364 F350.00
G01 X18.8883 Y47.7383 F350.00
G01 X18.9196 Y47.7444 F350.00
G01 X18.9436 Y47.7498 F350.00
G01 X19.0864 Y47.7856 F350.00
G01 X19.1100 Y47.7921 F350.00
G01 X19.1405 Y47.8015 F350.00
G01 X19.1521 Y47.8055 F350.00
G01 X19.2907 Y47.8551 F350.00
G01 X19.3136 Y47.8639 F350.00
G01 X19.3430 Y47.8763 F350.00
G01 X19.3542 Y47.8814 F350.00
G01 X19.4872 Y47.9443 F350.00
G01 X19.4983 Y47.9497 F350.00
G01 X19.5265 Y47.9646 F350.00
G01 X19.5478 Y47.9767 F350.00
G01 X19.6741 Y48.0524 F350.00
G01 X19.6948 Y48.0655 F350.00
G01 X19.7213 Y48.0834 F350.00
G01 X19.8494 Y48.1782 F350.00
G01 X19.8592 Y48.1857 F350.00
G01 X19.8840 Y48.2058 F350.00
G01 X19.9025 Y48.2218 F350.00
G01 X20.0206 Y48.3290 F350.00
G01 X20.0433 Y48.3515 F350.00
G01 X20.0602 Y48.3692 F350.00
G01 X20.1590 Y48.4783 F350.00
G01 X20.1672 Y48.4875 F350.00
G01 X20.1875 Y48.5121 F350.00
G01 X20.2026 Y48.5314 F350.00
G01 X20.2903 Y48.6497 F350.00
G01 X20.2975 Y48.6596 F350.00
G01 X20.3153 Y48.6860 F350.00
G01 X20.3285 Y48.7068 F350.00
G01 X20.4042 Y48.8330 F350.00
G01 X20.4103 Y48.8436 F350.00
G01 X20.4255 Y48.8717 F350.00
G01 X20.4365 Y48.8936 F350.00
G01 X20.4995 Y49.0267 F350.00
G01 X20.5094 Y49.0491 F350.00
G01 X20.5215 Y49.0786 F350.00
G01 X20.5258 Y49.0902 F350.00
G01 X20.5754 Y49.2288 F350.00
G01 X20.5831 Y49.2521 F350.00
G01 X20.5922 Y49.2826 F350.00
G01 X20.5953 Y49.2945 F350.00
G01 X20.6311 Y49.4373 F350.00
G01 X20.6364 Y49.4612 F350.00
G01 X20.6425 Y49.4925 F350.00
G01 X20.6661 Y49.6503 F350.00
G01 X20.6691 Y49.6746 F350.00
G01 X20.6720 Y49.7064 F350.00
G01 X20.6728 Y49.7186 F350.00
G01 X20.6800 Y49.8657 F350.00
G01 X20.6806 Y49.8902 F350.00
G01 X20.6805 Y49.9221 F350.00
G01 X20.6800 Y49.9343 F350.00
G01 X20.6728 Y50.0814 F350.00
G01 X20.6720 Y50.0936 F350.00
G01 X20.6691 Y50.1254 F350.00
G01 X20.6661 Y50.1497 F350.00
G01 X20.6445 Y50.2953 F350.00
G01 X20.6403 Y50.3195 F350.00
G01 X20.6339 Y50.3508 F350.00
G01 X20.6311 Y50.3627 F350.00
G01 X20.5953 Y50.5055 F350.00
G01 X20.5922 Y50.5174 F350.00
G01 X20.5831 Y50.5479 F350.00
G01 X20.5754 Y50.5712 F350.00
G01 X20.5258 Y50.7098 F350.00
G01 X20.5215 Y50.7214 F350.00
G01 X20.5094 Y50.7509 F350.00
G01 X20.4995 Y50.7733 F350.00
G01 X20.4365 Y50.9064 F350.00
G01 X20.4255 Y50.9283 F350.00
G01 X20.4103 Y50.9564 F350.00
G01 X20.4042 Y50.9670 F350.00
G01 X20.3285 Y51.0932 F350.00
G01 X20.3153 Y51.1140 F350.00
G01 X20.2975 Y51.1404 F350.00
G01 X20.2903 Y51.1503 F350.00
G01 X20.2026 Y51.2686 F350.00
G01 X20.1952 Y51.2783 F350.00
G01 X20.1751 Y51.3031 F350.00
G01 X20.1590 Y51.3217 F350.00
G01 X20.0602 Y51.4308 F350.00
G01 X20.0433 Y51.4485 F350.00
G01 X20.0206 Y51.4710 F350.00
G01 X20.0116 Y51.4793 F350.00
G01 X19.9025 Y51.5782 F350.00
G01 X19.8840 Y51.5942 F350.00
G01 X19.8592 Y51.6143 F350.00
G01 X19.8494 Y51.6218 F350.00
G01 X19.7213 Y51.7166 F350.00
G01 X19.6811 Y51.7433 F350.00
G01 X19.6811 Y67.7497 F350.00
G01 X24.8369 Y67.7497 F350.00
G01 X20.5505 Y63.4631 F350.00
G01 X20.5353 Y63.4470 F350.00
G01 X20.5107 Y63.4196 F350.00
G01 X20.4904 Y63.3950 F350.00
G01 X20.4753 Y63.3757 F350.00
G01 X20.4606 Y63.3560 F350.00
G01 X20.4465 Y63.3359 F350.00
G01 X20.4289 Y63.3093 F350.00
G01 X20.4099 Y63.2778 F350.00
G01 X20.3978 Y63.2564 F350.00
G01 X20.3829 Y63.2282 F350.00
G01 X20.3619 Y63.1839 F350.00
G01 X20.3495 Y63.1544 F350.00
G01 X20.3407 Y63.1315 F350.00
G01 X20.3284 Y63.0968 F350.00
G01 X20.3190 Y63.0663 F350.00
G01 X20.3125 Y63.0427 F350.00
G01 X20.3037 Y63.0069 F350.00
G01 X20.2951 Y62.9636 F350.00
G01 X20.2895 Y62.9272 F350.00
G01 X20.2865 Y62.9029 F350.00
G01 X20.2835 Y62.8711 F350.00
G01 X20.2816 Y62.8343 F350.00
G01 X20.2807 Y62.8000 F350.00
G01 X20.2807 Y52.5500 F350.00
G01 X20.2816 Y52.5157 F350.00
G01 X20.2835 Y52.4789 F350.00
G01 X20.2865 Y52.4471 F350.00
G01 X20.2895 Y52.4228 F350.00
G01 X20.2951 Y52.3864 F350.00
G01 X20.3037 Y52.3431 F350.00
G01 X20.3125 Y52.3073 F350.00
G01 X20.3190 Y52.2837 F350.00
G01 X20.3284 Y52.2532 F350.00
G01 X20.3407 Y52.2185 F350.00
G01 X20.3495 Y52.1956 F350.00
G01 X20.3619 Y52.1661 F350.00
G01 X20.3829 Y52.1218 F350.00
G01 X20.3978 Y52.0936 F350.00
G01 X20.4099 Y52.0722 F350.00
G01 X20.4289 Y52.0407 F350.00
G01 X20.4465 Y52.0141 F350.00
G01 X20.4606 Y51.9940 F350.00
G01 X20.4753 Y51.9743 F350.00
G01 X20.4904 Y51.9550 F350.00
G01 X20.5107 Y51.9304 F350.00
G01 X20.5353 Y51.9030 F350.00
G01 X20.5505 Y51.8869 F350.00
G01 X23.6090 Y48.8282 F350.00
G01 X23.6339 Y48.8045 F350.00
G01 X23.6521 Y48.7880 F350.00
G01 X23.6707 Y48.7720 F350.00
G01 X23.6954 Y48.7518 F350.00
G01 X23.7052 Y48.7444 F350.00
G01 X23.7249 Y48.7298 F350.00
G01 X23.7450 Y48.7157 F350.00
G01 X23.7716 Y48.6981 F350.00
G01 X23.8031 Y48.6790 F350.00
G01 X23.8244 Y48.6669 F350.00
G01 X23.8526 Y48.6520 F350.00
G01 X23.8859 Y48.6361 F350.00
G01 X23.9083 Y48.6262 F350.00
G01 X23.9378 Y48.6141 F350.00
G01 X23.9724 Y48.6016 F350.00
G01 X23.9957 Y48.5939 F350.00
G01 X24.0263 Y48.5848 F350.00
G01 X24.0620 Y48.5757 F350.00
G01 X24.0859 Y48.5703 F350.00
G01 X24.1172 Y48.5642 F350.00
G01 X24.1536 Y48.5587 F350.00
G01 X24.1780 Y48.5557 F350.00
G01 X24.2097 Y48.5527 F350.00
G01 X24.2465 Y48.5507 F350.00
G01 X24.2809 Y48.5499 F350.00
G01 X25.8179 Y48.5499 F350.00
G01 X25.7134 Y48.5003 F350.00
G01 X25.6745 Y48.4795 F350.00
G01 X25.5376 Y48.3976 F350.00
G01 X25.5272 Y48.3912 F350.00
G01 X25.5006 Y48.3736 F350.00
G01 X25.4805 Y48.3594 F350.00
G01 X25.3623 Y48.2718 F350.00
G01 X25.3429 Y48.2567 F350.00
G01 X25.3184 Y48.2363 F350.00
G01 X25.3092 Y48.2282 F350.00
G01 X25.2001 Y48.1293 F350.00
G01 X25.1911 Y48.1210 F350.00
G01 X25.1685 Y48.0985 F350.00
G01 X25.1515 Y48.0808 F350.00
G01 X25.0527 Y47.9717 F350.00
G01 X25.0366 Y47.9531 F350.00
G01 X25.0165 Y47.9283 F350.00
G01 X24.9214 Y47.8003 F350.00
G01 X24.9073 Y47.7803 F350.00
G01 X24.8897 Y47.7537 F350.00
G01 X24.8832 Y47.7432 F350.00
G01 X24.8014 Y47.6064 F350.00
G01 X24.7862 Y47.5783 F350.00
G01 X24.7752 Y47.5564 F350.00
G01 X24.7122 Y47.4233 F350.00
G01 X24.7023 Y47.4009 F350.00
G01 X24.6902 Y47.3714 F350.00
G01 X24.6860 Y47.3598 F350.00
G01 X24.6364 Y47.2212 F350.00
G01 X24.6324 Y47.2096 F350.00
G01 X24.6230 Y47.1792 F350.00
G01 X24.6164 Y47.1555 F350.00
G01 X24.5807 Y47.0127 F350.00
G01 X24.5753 Y46.9888 F350.00
G01 X24.5692 Y46.9575 F350.00
G01 X24.5673 Y46.9453 F350.00
G01 X24.5457 Y46.7997 F350.00
G01 X24.5427 Y46.7754 F350.00
G01 X24.5397 Y46.7436 F350.00
G01 X24.5389 Y46.7314 F350.00
G01 X24.5317 Y46.5843 F350.00
G01 X24.5313 Y46.5721 F350.00
G01 X24.5311 Y46.5402 F350.00
G01 X24.5317 Y46.5157 F350.00
G01 X24.5397 Y46.3564 F350.00
G01 X24.5427 Y46.3246 F350.00
G01 X24.5457 Y46.3003 F350.00
G01 X24.5673 Y46.1547 F350.00
G01 X24.5715 Y46.1305 F350.00
G01 X24.5778 Y46.0992 F350.00
G01 X24.5807 Y46.0873 F350.00
G01 X24.6164 Y45.9445 F350.00
G01 X24.6196 Y45.9326 F350.00
G01 X24.6287 Y45.9021 F350.00
G01 X24.6364 Y45.8788 F350.00
G01 X24.6860 Y45.7402 F350.00
G01 X24.6948 Y45.7173 F350.00
G01 X24.7071 Y45.6878 F350.00
G01 X24.7122 Y45.6767 F350.00
G01 X24.7752 Y45.5436 F350.00
G01 X24.7862 Y45.5217 F350.00
G01 X24.8014 Y45.4936 F350.00
G01 X24.8076 Y45.4830 F350.00
G01 X24.8832 Y45.3568 F350.00
G01 X24.8897 Y45.3463 F350.00
G01 X24.9073 Y45.3197 F350.00
G01 X24.9214 Y45.2997 F350.00
G01 X25.0091 Y45.1814 F350.00
G01 X25.0165 Y45.1717 F350.00
G01 X25.0366 Y45.1469 F350.00
G01 X25.0527 Y45.1283 F350.00
G01 X25.1515 Y45.0192 F350.00
G01 X25.1685 Y45.0015 F350.00
G01 X25.1911 Y44.9790 F350.00
G01 X25.2001 Y44.9707 F350.00
G01 X25.3092 Y44.8718 F350.00
G01 X25.3278 Y44.8558 F350.00
G01 X25.3525 Y44.8357 F350.00
G01 X25.3623 Y44.8282 F350.00
G01 X25.4805 Y44.7406 F350.00
G01 X25.4905 Y44.7334 F350.00
G01 X25.5169 Y44.7155 F350.00
G01 X25.5376 Y44.7024 F350.00
G01 X25.6639 Y44.6267 F350.00
G01 X25.6852 Y44.6146 F350.00
G01 X25.7134 Y44.5997 F350.00
G01 X25.7245 Y44.5943 F350.00
G01 X25.8575 Y44.5314 F350.00
G01 X25.8800 Y44.5214 F350.00
G01 X25.9095 Y44.5094 F350.00
G01 X25.9210 Y44.5051 F350.00
G01 X26.0596 Y44.4555 F350.00
G01 X26.0829 Y44.4478 F350.00
G01 X26.1135 Y44.4387 F350.00
G01 X26.2681 Y44.3998 F350.00
G01 X26.2801 Y44.3970 F350.00
G01 X26.3113 Y44.3906 F350.00
G01 X26.3355 Y44.3864 F350.00
G01 X26.4811 Y44.3648 F350.00
G01 X26.4933 Y44.3631 F350.00
G01 X26.5250 Y44.3599 F350.00
G01 X26.5495 Y44.3581 F350.00
G01 X26.6965 Y44.3508 F350.00
G01 X26.7210 Y44.3502 F350.00
G01 X26.7529 Y44.3504 F350.00
G01 X26.7652 Y44.3508 F350.00
G01 X26.9122 Y44.3581 F350.00
G01 X26.9367 Y44.3599 F350.00
G01 X26.9684 Y44.3631 F350.00
G01 X26.9806 Y44.3648 F350.00
G01 X27.1262 Y44.3864 F350.00
G01 X27.1504 Y44.3906 F350.00
G01 X27.1816 Y44.3970 F350.00
G01 X27.1936 Y44.3998 F350.00
G01 X27.3364 Y44.4356 F350.00
G01 X27.3600 Y44.4421 F350.00
G01 X27.3905 Y44.4515 F350.00
G01 X27.4021 Y44.4555 F350.00
G01 X27.5407 Y44.5051 F350.00
G01 X27.5636 Y44.5139 F350.00
G01 X27.5930 Y44.5263 F350.00
G01 X27.6042 Y44.5314 F350.00
G01 X27.7372 Y44.5943 F350.00
G01 X27.7592 Y44.6054 F350.00
G01 X27.7872 Y44.6205 F350.00
G01 X27.9345 Y44.7088 F350.00
G01 X27.9611 Y44.7264 F350.00
G01 X27.9812 Y44.7406 F350.00
G01 X28.0994 Y44.8282 F350.00
G01 X28.1188 Y44.8433 F350.00
G01 X28.1433 Y44.8637 F350.00
G01 X28.2616 Y44.9707 F350.00
G01 X28.2706 Y44.9790 F350.00
G01 X28.2933 Y45.0015 F350.00
G01 X28.3102 Y45.0192 F350.00
G01 X28.4090 Y45.1283 F350.00
G01 X28.4172 Y45.1375 F350.00
G01 X28.4375 Y45.1621 F350.00
G01 X28.4526 Y45.1814 F350.00
G01 X28.5403 Y45.2997 F350.00
G01 X28.5544 Y45.3197 F350.00
G01 X28.5720 Y45.3463 F350.00
G01 X28.6542 Y45.4830 F350.00
G01 X28.6603 Y45.4936 F350.00
G01 X28.6755 Y45.5217 F350.00
G01 X28.6865 Y45.5436 F350.00
G01 X28.7495 Y45.6767 F350.00
G01 X28.7594 Y45.6991 F350.00
G01 X28.7715 Y45.7286 F350.00
G01 X28.8254 Y45.8788 F350.00
G01 X28.8293 Y45.8904 F350.00
G01 X28.8387 Y45.9208 F350.00
G01 X28.8453 Y45.9445 F350.00
G01 X28.8811 Y46.0873 F350.00
G01 X28.8839 Y46.0992 F350.00
G01 X28.8903 Y46.1305 F350.00
G01 X28.8945 Y46.1547 F350.00
G01 X28.9161 Y46.3003 F350.00
G01 X28.9191 Y46.3246 F350.00
G01 X28.9220 Y46.3564 F350.00
G01 X28.9228 Y46.3686 F350.00
G01 X28.9300 Y46.5157 F350.00
G01 X28.9306 Y46.5402 F350.00
G01 X28.9305 Y46.5721 F350.00
G01 X28.9300 Y46.5843 F350.00
G01 X28.9228 Y46.7314 F350.00
G01 X28.9210 Y46.7558 F350.00
G01 X28.9177 Y46.7876 F350.00
G01 X28.9161 Y46.7997 F350.00
G01 X28.8945 Y46.9453 F350.00
G01 X28.8903 Y46.9695 F350.00
G01 X28.8839 Y47.0008 F350.00
G01 X28.8811 Y47.0127 F350.00
G01 X28.8453 Y47.1555 F350.00
G01 X28.8387 Y47.1792 F350.00
G01 X28.8293 Y47.2096 F350.00
G01 X28.8254 Y47.2212 F350.00
G01 X28.7715 Y47.3714 F350.00
G01 X28.7594 Y47.4009 F350.00
G01 X28.7495 Y47.4233 F350.00
G01 X28.6865 Y47.5564 F350.00
G01 X28.6755 Y47.5783 F350.00
G01 X28.6603 Y47.6064 F350.00
G01 X28.6542 Y47.6170 F350.00
G01 X28.5785 Y47.7432 F350.00
G01 X28.5653 Y47.7640 F350.00
G01 X28.5475 Y47.7904 F350.00
G01 X28.5403 Y47.8003 F350.00
G01 X28.4526 Y47.9186 F350.00
G01 X28.4375 Y47.9379 F350.00
G01 X28.4172 Y47.9625 F350.00
G01 X28.4090 Y47.9717 F350.00
G01 X28.3018 Y48.0897 F350.00
G01 X28.2794 Y48.1124 F350.00
G01 X28.2616 Y48.1293 F350.00
G01 X28.1525 Y48.2282 F350.00
G01 X28.1340 Y48.2442 F350.00
G01 X28.1092 Y48.2643 F350.00
G01 X28.0994 Y48.2718 F350.00
G01 X27.9713 Y48.3666 F350.00
G01 X27.9448 Y48.3845 F350.00
G01 X27.9241 Y48.3976 F350.00
G01 X27.7872 Y48.4795 F350.00
G01 X27.7483 Y48.5003 F350.00
G01 X27.6438 Y48.5499 F350.00
G01 X33.8049 Y48.5499 F350.00
G01 X33.8049 Y37.0678 F350.00
G01 X18.5590 Y21.8218 F350.00
G01 X18.5353 Y21.7970 F350.00
G01 X18.5188 Y21.7788 F350.00
G01 X18.5028 Y21.7602 F350.00
G01 X18.4827 Y21.7354 F350.00
G01 X18.4753 Y21.7257 F350.00
G01 X18.4606 Y21.7060 F350.00
G01 X18.4465 Y21.6859 F350.00
G01 X18.4289 Y21.6593 F350.00
G01 X18.4037 Y21.6172 F350.00
G01 X18.3829 Y21.5782 F350.00
G01 X18.3619 Y21.5339 F350.00
G01 X18.3450 Y21.4930 F350.00
G01 X18.3284 Y21.4468 F350.00
G01 X18.3156 Y21.4046 F350.00
G01 X18.3065 Y21.3689 F350.00
G01 X18.3037 Y21.3569 F350.00
G01 X18.2973 Y21.3257 F350.00
G01 X18.2931 Y21.3015 F350.00
G01 X18.2879 Y21.2651 F350.00
G01 X18.2846 Y21.2333 F350.00
G01 X18.2829 Y21.2109 F350.00
G01 X18.2583 Y21.1937 F350.00
G01 X18.1795 Y21.1353 F350.00
G01 X18.1601 Y21.1202 F350.00
G01 X18.1356 Y21.0998 F350.00
G01 X18.0537 Y21.0258 F350.00
G01 X18.0359 Y21.0089 F350.00
G01 X18.0134 Y20.9862 F350.00
G01 X17.9609 Y20.9284 F350.00
G01 X17.9166 Y20.9772 F350.00
G01 X17.9083 Y20.9862 F350.00
G01 X17.8911 Y21.0036 F350.00
G01 X17.8911 Y24.0128 F350.00
G01 X18.6794 Y24.8011 F350.00
G01 X18.7102 Y24.7853 F350.00
G01 X18.7989 Y24.7433 F350.00
G01 X18.8213 Y24.7334 F350.00
G01 X18.8509 Y24.7213 F350.00
G01 X18.8624 Y24.7170 F350.00
G01 X18.9548 Y24.6840 F350.00
G01 X18.9781 Y24.6763 F350.00
G01 X19.0086 Y24.6672 F350.00
G01 X19.0205 Y24.6640 F350.00
G01 X19.1157 Y24.6402 F350.00
G01 X19.1396 Y24.6348 F350.00
G01 X19.1709 Y24.6287 F350.00
G01 X19.1831 Y24.6268 F350.00
G01 X19.2801 Y24.6124 F350.00
G01 X19.2923 Y24.6107 F350.00
G01 X19.3240 Y24.6075 F350.00
G01 X19.3485 Y24.6057 F350.00
G01 X19.4588 Y24.6004 F350.00
G01 X19.4907 Y24.6002 F350.00
G01 X19.5152 Y24.6008 F350.00
G01 X19.6132 Y24.6057 F350.00
G01 X19.6255 Y24.6064 F350.00
G01 X19.6572 Y24.6094 F350.00
G01 X19.6816 Y24.6124 F350.00
G01 X19.7787 Y24.6268 F350.00
G01 X19.7908 Y24.6287 F350.00
G01 X19.8221 Y24.6348 F350.00
G01 X19.8460 Y24.6402 F350.00
G01 X19.9412 Y24.6640 F350.00
G01 X19.9531 Y24.6672 F350.00
G01 X19.9837 Y24.6763 F350.00
G01 X20.0070 Y24.6840 F350.00
G01 X20.0994 Y24.7170 F350.00
G01 X20.1223 Y24.7259 F350.00
G01 X20.1517 Y24.7382 F350.00
G01 X20.1628 Y24.7433 F350.00
G01 X20.2515 Y24.7853 F350.00
G01 X20.2735 Y24.7963 F350.00
G01 X20.3015 Y24.8115 F350.00
G01 X20.3121 Y24.8177 F350.00
G01 X20.3963 Y24.8681 F350.00
G01 X20.4068 Y24.8746 F350.00
G01 X20.4334 Y24.8922 F350.00
G01 X20.4534 Y24.9063 F350.00
G01 X20.5420 Y24.9722 F350.00
G01 X20.5668 Y24.9923 F350.00
G01 X20.5853 Y25.0083 F350.00
G01 X20.6670 Y25.0826 F350.00
G01 X20.6983 Y25.1138 F350.00
G01 X20.7807 Y25.2047 F350.00
G01 X20.8087 Y25.2389 F350.00
G01 X20.8746 Y25.3274 F350.00
G01 X20.8887 Y25.3475 F350.00
G01 X20.9063 Y25.3741 F350.00
G01 X20.9127 Y25.3846 F350.00
G01 X20.9632 Y25.4687 F350.00
G01 X20.9753 Y25.4901 F350.00
G01 X20.9902 Y25.5183 F350.00
G01 X21.0426 Y25.6292 F350.00
G01 X21.0550 Y25.6586 F350.00
G01 X21.0638 Y25.6815 F350.00
G01 X21.0969 Y25.7739 F350.00
G01 X21.1046 Y25.7972 F350.00
G01 X21.1137 Y25.8278 F350.00
G01 X21.1168 Y25.8396 F350.00
G01 X21.1407 Y25.9348 F350.00
G01 X21.1460 Y25.9588 F350.00
G01 X21.1521 Y25.9901 F350.00
G01 X21.1685 Y26.0993 F350.00
G01 X21.1701 Y26.1114 F350.00
G01 X21.1734 Y26.1432 F350.00
G01 X21.1752 Y26.1676 F350.00
G01 X21.1800 Y26.2657 F350.00
G01 X21.1807 Y26.2877 F350.00
G01 X21.1808 Y27.3026 F350.00
G01 X24.3381 Y30.4601 F350.00
G01 X24.3533 Y30.4762 F350.00
G01 X24.3862 Y30.5126 F350.00
G01 X24.4023 Y30.5311 F350.00
G01 X24.4224 Y30.5559 F350.00
G01 X24.4662 Y30.6150 F350.00
G01 X24.4908 Y30.6518 F350.00
G01 X24.5225 Y30.7043 F350.00
G01 X24.5345 Y30.7257 F350.00
G01 X24.5495 Y30.7539 F350.00
G01 X24.5548 Y30.7649 F350.00
G01 X24.5809 Y30.8204 F350.00
G01 X24.5978 Y30.8612 F350.00
G01 X24.6226 Y30.9306 F350.00
G01 X24.6355 Y30.9728 F350.00
G01 X24.6534 Y31.0443 F350.00
G01 X24.6620 Y31.0876 F350.00
G01 X24.6728 Y31.1604 F350.00
G01 X24.6761 Y31.1921 F350.00
G01 X24.6779 Y31.2166 F350.00
G01 X24.6803 Y31.2657 F350.00
G01 X24.6811 Y31.3000 F350.00
G01 X24.6811 Y33.2028 F350.00
G01 X27.5881 Y36.1101 F350.00
G01 X27.6033 Y36.1262 F350.00
G01 X27.6362 Y36.1626 F350.00
G01 X27.6523 Y36.1811 F350.00
G01 X27.6724 Y36.2059 F350.00
G01 X27.7090 Y36.2551 F350.00
G01 X27.7162 Y36.2650 F350.00
G01 X27.7341 Y36.2915 F350.00
G01 X27.7472 Y36.3122 F350.00
G01 X27.7786 Y36.3649 F350.00
G01 X27.7938 Y36.3930 F350.00
G01 X27.8048 Y36.4149 F350.00
G01 X27.8258 Y36.4593 F350.00
G01 X27.8358 Y36.4817 F350.00
G01 X27.8478 Y36.5112 F350.00
G01 X27.8521 Y36.5227 F350.00
G01 X27.8687 Y36.5690 F350.00
G01 X27.8763 Y36.5923 F350.00
G01 X27.8855 Y36.6228 F350.00
G01 X27.8886 Y36.6347 F350.00
G01 X27.9005 Y36.6823 F350.00
G01 X27.9059 Y36.7063 F350.00
G01 X27.9120 Y36.7376 F350.00
G01 X27.9139 Y36.7497 F350.00
G01 X27.9211 Y36.7983 F350.00
G01 X27.9241 Y36.8226 F350.00
G01 X27.9271 Y36.8544 F350.00
G01 X27.9279 Y36.8666 F350.00
G01 X27.9303 Y36.9157 F350.00
G01 X27.9311 Y36.9500 F350.00
G01 X27.9311 Y37.7067 F350.00
G01 X27.9611 Y37.7264 F350.00
G01 X27.9812 Y37.7406 F350.00
G01 X28.0994 Y37.8282 F350.00
G01 X28.1188 Y37.8433 F350.00
G01 X28.1433 Y37.8637 F350.00
G01 X28.1525 Y37.8718 F350.00
G01 X28.2616 Y37.9707 F350.00
G01 X28.2794 Y37.9876 F350.00
G01 X28.3018 Y38.0103 F350.00
G01 X28.3102 Y38.0192 F350.00
G01 X28.4090 Y38.1283 F350.00
G01 X28.4172 Y38.1375 F350.00
G01 X28.4375 Y38.1621 F350.00
G01 X28.4526 Y38.1814 F350.00
G01 X28.5403 Y38.2997 F350.00
G01 X28.5544 Y38.3197 F350.00
G01 X28.5720 Y38.3463 F350.00
G01 X28.6542 Y38.4830 F350.00
G01 X28.6662 Y38.5044 F350.00
G01 X28.6812 Y38.5326 F350.00
G01 X28.7546 Y38.6878 F350.00
G01 X28.7669 Y38.7173 F350.00
G01 X28.7758 Y38.7402 F350.00
G01 X28.8254 Y38.8788 F350.00
G01 X28.8331 Y38.9021 F350.00
G01 X28.8422 Y38.9326 F350.00
G01 X28.8453 Y38.9445 F350.00
G01 X28.8811 Y39.0873 F350.00
G01 X28.8864 Y39.1112 F350.00
G01 X28.8925 Y39.1425 F350.00
G01 X28.9161 Y39.3003 F350.00
G01 X28.9191 Y39.3246 F350.00
G01 X28.9220 Y39.3564 F350.00
G01 X28.9228 Y39.3686 F350.00
G01 X28.9300 Y39.5157 F350.00
G01 X28.9306 Y39.5402 F350.00
G01 X28.9305 Y39.5721 F350.00
G01 X28.9300 Y39.5843 F350.00
G01 X28.9228 Y39.7314 F350.00
G01 X28.9210 Y39.7558 F350.00
G01 X28.9177 Y39.7876 F350.00
G01 X28.9161 Y39.7997 F350.00
G01 X28.8945 Y39.9453 F350.00
G01 X28.8903 Y39.9695 F350.00
G01 X28.8839 Y40.0008 F350.00
G01 X28.8811 Y40.0127 F350.00
G01 X28.8453 Y40.1555 F350.00
G01 X28.8387 Y40.1792 F350.00
G01 X28.8293 Y40.2096 F350.00
G01 X28.8254 Y40.2212 F350.00
G01 X28.7758 Y40.3598 F350.00
G01 X28.7669 Y40.3827 F350.00
G01 X28.7546 Y40.4122 F350.00
G01 X28.7495 Y40.4233 F350.00
G01 X28.6865 Y40.5564 F350.00
G01 X28.6755 Y40.5783 F350.00
G01 X28.6603 Y40.6064 F350.00
G01 X28.6542 Y40.6170 F350.00
G01 X28.5785 Y40.7432 F350.00
G01 X28.5653 Y40.7640 F350.00
G01 X28.5475 Y40.7904 F350.00
G01 X28.5403 Y40.8003 F350.00
G01 X28.4526 Y40.9186 F350.00
G01 X28.4452 Y40.9283 F350.00
G01 X28.4251 Y40.9531 F350.00
G01 X28.4090 Y40.9717 F350.00
G01 X28.3102 Y41.0808 F350.00
G01 X28.3018 Y41.0897 F350.00
G01 X28.2794 Y41.1124 F350.00
G01 X28.2616 Y41.1293 F350.00
G01 X28.1525 Y41.2282 F350.00
G01 X28.1340 Y41.2442 F350.00
G01 X28.1092 Y41.2643 F350.00
G01 X28.0994 Y41.2718 F350.00
G01 X27.9812 Y41.3594 F350.00
G01 X27.9611 Y41.3736 F350.00
G01 X27.9345 Y41.3912 F350.00
G01 X27.9241 Y41.3976 F350.00
G01 X27.7978 Y41.4733 F350.00
G01 X27.7765 Y41.4854 F350.00
G01 X27.7483 Y41.5003 F350.00
G01 X27.6042 Y41.5686 F350.00
G01 X27.5817 Y41.5786 F350.00
G01 X27.5522 Y41.5906 F350.00
G01 X27.5407 Y41.5949 F350.00
G01 X27.4021 Y41.6445 F350.00
G01 X27.3788 Y41.6522 F350.00
G01 X27.3482 Y41.6613 F350.00
G01 X27.3364 Y41.6644 F350.00
G01 X27.1936 Y41.7002 F350.00
G01 X27.1696 Y41.7056 F350.00
G01 X27.1383 Y41.7117 F350.00
G01 X27.1262 Y41.7136 F350.00
G01 X26.9806 Y41.7352 F350.00
G01 X26.9562 Y41.7382 F350.00
G01 X26.9245 Y41.7412 F350.00
G01 X26.9122 Y41.7419 F350.00
G01 X26.7652 Y41.7492 F350.00
G01 X26.7529 Y41.7496 F350.00
G01 X26.7210 Y41.7498 F350.00
G01 X26.6965 Y41.7492 F350.00
G01 X26.5495 Y41.7419 F350.00
G01 X26.5372 Y41.7412 F350.00
G01 X26.5055 Y41.7382 F350.00
G01 X26.4811 Y41.7352 F350.00
G01 X26.3355 Y41.7136 F350.00
G01 X26.3113 Y41.7094 F350.00
G01 X26.2801 Y41.7030 F350.00
G01 X26.2681 Y41.7002 F350.00
G01 X26.1253 Y41.6644 F350.00
G01 X26.1135 Y41.6613 F350.00
G01 X26.0829 Y41.6522 F350.00
G01 X26.0596 Y41.6445 F350.00
G01 X25.9210 Y41.5949 F350.00
G01 X25.8981 Y41.5861 F350.00
G01 X25.8687 Y41.5737 F350.00
G01 X25.7245 Y41.5057 F350.00
G01 X25.7026 Y41.4946 F350.00
G01 X25.6745 Y41.4795 F350.00
G01 X25.6639 Y41.4733 F350.00
G01 X25.5376 Y41.3976 F350.00
G01 X25.5169 Y41.3845 F350.00
G01 X25.4905 Y41.3666 F350.00
G01 X25.4805 Y41.3594 F350.00
G01 X25.3623 Y41.2718 F350.00
G01 X25.3429 Y41.2567 F350.00
G01 X25.3184 Y41.2363 F350.00
G01 X25.3092 Y41.2282 F350.00
G01 X25.2001 Y41.1293 F350.00
G01 X25.1911 Y41.1210 F350.00
G01 X25.1685 Y41.0985 F350.00
G01 X25.1515 Y41.0808 F350.00
G01 X25.0527 Y40.9717 F350.00
G01 X25.0366 Y40.9531 F350.00
G01 X25.0165 Y40.9283 F350.00
G01 X24.9214 Y40.8003 F350.00
G01 X24.9142 Y40.7904 F350.00
G01 X24.8964 Y40.7640 F350.00
G01 X24.8832 Y40.7432 F350.00
G01 X24.8076 Y40.6170 F350.00
G01 X24.8014 Y40.6064 F350.00
G01 X24.7862 Y40.5783 F350.00
G01 X24.7752 Y40.5564 F350.00
G01 X24.7122 Y40.4233 F350.00
G01 X24.7071 Y40.4122 F350.00
G01 X24.6948 Y40.3827 F350.00
G01 X24.6860 Y40.3598 F350.00
G01 X24.6364 Y40.2212 F350.00
G01 X24.6287 Y40.1979 F350.00
G01 X24.6196 Y40.1674 F350.00
G01 X24.5807 Y40.0127 F350.00
G01 X24.5778 Y40.0008 F350.00
G01 X24.5715 Y39.9695 F350.00
G01 X24.5673 Y39.9453 F350.00
G01 X24.5457 Y39.7997 F350.00
G01 X24.5427 Y39.7754 F350.00
G01 X24.5397 Y39.7436 F350.00
G01 X24.5317 Y39.5843 F350.00
G01 X24.5311 Y39.5598 F350.00
G01 X24.5313 Y39.5279 F350.00
G01 X24.5397 Y39.3564 F350.00
G01 X24.5427 Y39.3246 F350.00
G01 X24.5457 Y39.3003 F350.00
G01 X24.5673 Y39.1547 F350.00
G01 X24.5692 Y39.1425 F350.00
G01 X24.5753 Y39.1112 F350.00
G01 X24.5807 Y39.0873 F350.00
G01 X24.6164 Y38.9445 F350.00
G01 X24.6196 Y38.9326 F350.00
G01 X24.6287 Y38.9021 F350.00
G01 X24.6364 Y38.8788 F350.00
G01 X24.6860 Y38.7402 F350.00
G01 X24.6948 Y38.7173 F350.00
G01 X24.7071 Y38.6878 F350.00
G01 X24.7122 Y38.6767 F350.00
G01 X24.7752 Y38.5436 F350.00
G01 X24.7862 Y38.5217 F350.00
G01 X24.8014 Y38.4936 F350.00
G01 X24.8076 Y38.4830 F350.00
G01 X24.8832 Y38.3568 F350.00
G01 X24.8897 Y38.3463 F350.00
G01 X24.9073 Y38.3197 F350.00
G01 X24.9214 Y38.2997 F350.00
G01 X25.0091 Y38.1814 F350.00
G01 X25.0165 Y38.1717 F350.00
G01 X25.0366 Y38.1469 F350.00
G01 X25.0527 Y38.1283 F350.00
G01 X25.1515 Y38.0192 F350.00
G01 X25.1685 Y38.0015 F350.00
G01 X25.1911 Y37.9790 F350.00
G01 X25.2001 Y37.9707 F350.00
G01 X25.3092 Y37.8718 F350.00
G01 X25.3278 Y37.8558 F350.00
G01 X25.3525 Y37.8357 F350.00
G01 X25.3623 Y37.8282 F350.00
G01 X25.4805 Y37.7406 F350.00
G01 X25.5006 Y37.7264 F350.00
G01 X25.5306 Y37.7067 F350.00
G01 X25.5306 Y37.4472 F350.00
G01 X22.6322 Y34.5487 F350.00
G01 X22.6085 Y34.5238 F350.00
G01 X22.5674 Y34.4783 F350.00
G01 X22.5470 Y34.4537 F350.00
G01 X22.5319 Y34.4343 F350.00
G01 X22.4955 Y34.3850 F350.00
G01 X22.4776 Y34.3585 F350.00
G01 X22.4645 Y34.3378 F350.00
G01 X22.4331 Y34.2851 F350.00
G01 X22.4123 Y34.2461 F350.00
G01 X22.3859 Y34.1907 F350.00
G01 X22.3760 Y34.1683 F350.00
G01 X22.3639 Y34.1388 F350.00
G01 X22.3596 Y34.1273 F350.00
G01 X22.3391 Y34.0694 F350.00
G01 X22.3297 Y34.0390 F350.00
G01 X22.3231 Y34.0153 F350.00
G01 X22.3084 Y33.9557 F350.00
G01 X22.2997 Y33.9124 F350.00
G01 X22.2889 Y33.8396 F350.00
G01 X22.2857 Y33.8079 F350.00
G01 X22.2839 Y33.7834 F350.00
G01 X22.2815 Y33.7343 F350.00
G01 X22.2806 Y33.7000 F350.00
G01 X22.2806 Y31.7972 F350.00
G01 X19.4832 Y28.9998 F350.00
G01 X19.4588 Y28.9996 F350.00
G01 X19.4465 Y28.9992 F350.00
G01 X19.3485 Y28.9943 F350.00
G01 X19.3362 Y28.9936 F350.00
G01 X19.3045 Y28.9906 F350.00
G01 X19.2801 Y28.9876 F350.00
G01 X19.1831 Y28.9732 F350.00
G01 X19.1709 Y28.9713 F350.00
G01 X19.1396 Y28.9652 F350.00
G01 X19.1157 Y28.9598 F350.00
G01 X19.0205 Y28.9360 F350.00
G01 X19.0086 Y28.9328 F350.00
G01 X18.9781 Y28.9237 F350.00
G01 X18.9548 Y28.9160 F350.00
G01 X18.8624 Y28.8830 F350.00
G01 X18.8509 Y28.8787 F350.00
G01 X18.8213 Y28.8666 F350.00
G01 X18.7989 Y28.8567 F350.00
G01 X18.7102 Y28.8147 F350.00
G01 X18.6991 Y28.8093 F350.00
G01 X18.6709 Y28.7944 F350.00
G01 X18.6496 Y28.7823 F350.00
G01 X18.5654 Y28.7319 F350.00
G01 X18.5550 Y28.7254 F350.00
G01 X18.5284 Y28.7078 F350.00
G01 X18.5083 Y28.6937 F350.00
G01 X18.4295 Y28.6353 F350.00
G01 X18.4197 Y28.6278 F350.00
G01 X18.3950 Y28.6077 F350.00
G01 X18.3764 Y28.5917 F350.00
G01 X18.3037 Y28.5258 F350.00
G01 X18.2947 Y28.5174 F350.00
G01 X18.2720 Y28.4950 F350.00
G01 X18.2551 Y28.4772 F350.00
G01 X18.1892 Y28.4045 F350.00
G01 X18.1811 Y28.3953 F350.00
G01 X18.1607 Y28.3707 F350.00
G01 X18.1456 Y28.3514 F350.00
G01 X18.0871 Y28.2726 F350.00
G01 X18.0800 Y28.2626 F350.00
G01 X18.0621 Y28.2362 F350.00
G01 X18.0490 Y28.2154 F350.00
G01 X17.9985 Y28.1313 F350.00
G01 X17.9924 Y28.1207 F350.00
G01 X17.9772 Y28.0926 F350.00
G01 X17.9661 Y28.0707 F350.00
G01 X17.9242 Y27.9820 F350.00
G01 X17.9191 Y27.9708 F350.00
G01 X17.9067 Y27.9414 F350.00
G01 X17.8979 Y27.9185 F350.00
G01 X17.8648 Y27.8261 F350.00
G01 X17.8608 Y27.8145 F350.00
G01 X17.8514 Y27.7840 F350.00
G01 X17.8449 Y27.7604 F350.00
G01 X17.8211 Y27.6652 F350.00
G01 X17.8182 Y27.6532 F350.00
G01 X17.8118 Y27.6220 F350.00
G01 X17.8077 Y27.5978 F350.00
G01 X17.7933 Y27.5007 F350.00
G01 X17.7916 Y27.4886 F350.00
G01 X17.7883 Y27.4568 F350.00
G01 X17.7865 Y27.4324 F350.00
G01 X17.7817 Y27.3343 F350.00
G01 X17.7809 Y27.2974 F350.00
G01 X17.5409 Y27.0575 F350.00
G01 X17.5436 Y27.0735 F350.00
G01 X17.5489 Y27.1099 F350.00
G01 X17.5521 Y27.1417 F350.00
G01 X17.5539 Y27.1661 F350.00
G01 X17.5551 Y27.1907 F350.00
G01 X17.5560 Y27.2250 F350.00
G01 X17.5560 Y33.7357 F350.00
G01 X17.6332 Y33.6068 F350.00
G01 X17.6397 Y33.5963 F350.00
G01 X17.6573 Y33.5697 F350.00
G01 X17.6714 Y33.5497 F350.00
G01 X17.7591 Y33.4314 F350.00
G01 X17.7742 Y33.4121 F350.00
G01 X17.7946 Y33.3875 F350.00
G01 X17.8027 Y33.3783 F350.00
G01 X17.9015 Y33.2692 F350.00
G01 X17.9185 Y33.2515 F350.00
G01 X17.9411 Y33.2290 F350.00
G01 X17.9501 Y33.2207 F350.00
G01 X18.0592 Y33.1218 F350.00
G01 X18.0778 Y33.1058 F350.00
G01 X18.1025 Y33.0857 F350.00
G01 X18.2305 Y32.9906 F350.00
G01 X18.2506 Y32.9764 F350.00
G01 X18.2772 Y32.9588 F350.00
G01 X18.2876 Y32.9524 F350.00
G01 X18.4139 Y32.8767 F350.00
G01 X18.4245 Y32.8705 F350.00
G01 X18.4526 Y32.8554 F350.00
G01 X18.4745 Y32.8443 F350.00
G01 X18.6075 Y32.7814 F350.00
G01 X18.6300 Y32.7714 F350.00
G01 X18.6595 Y32.7594 F350.00
G01 X18.6710 Y32.7551 F350.00
G01 X18.8096 Y32.7055 F350.00
G01 X18.8329 Y32.6978 F350.00
G01 X18.8635 Y32.6887 F350.00
G01 X18.8753 Y32.6856 F350.00
G01 X19.0181 Y32.6498 F350.00
G01 X19.0421 Y32.6444 F350.00
G01 X19.0734 Y32.6383 F350.00
G01 X19.0855 Y32.6364 F350.00
G01 X19.2433 Y32.6131 F350.00
G01 X19.2750 Y32.6099 F350.00
G01 X19.2995 Y32.6081 F350.00
G01 X19.4465 Y32.6008 F350.00
G01 X19.4588 Y32.6004 F350.00
G01 X19.4907 Y32.6002 F350.00
G01 X19.5152 Y32.6008 F350.00
G01 X19.6622 Y32.6081 F350.00
G01 X19.6867 Y32.6099 F350.00
G01 X19.7184 Y32.6131 F350.00
G01 X19.7306 Y32.6148 F350.00
G01 X19.8762 Y32.6364 F350.00
G01 X19.9004 Y32.6406 F350.00
G01 X19.9316 Y32.6470 F350.00
G01 X19.9436 Y32.6498 F350.00
G01 X20.0864 Y32.6856 F350.00
G01 X20.1100 Y32.6921 F350.00
G01 X20.1405 Y32.7015 F350.00
G01 X20.1521 Y32.7055 F350.00
G01 X20.3022 Y32.7594 F350.00
G01 X20.3317 Y32.7714 F350.00
G01 X20.3542 Y32.7814 F350.00
G01 X20.4872 Y32.8443 F350.00
G01 X20.4983 Y32.8497 F350.00
G01 X20.5265 Y32.8646 F350.00
G01 X20.5478 Y32.8767 F350.00
G01 X20.6741 Y32.9524 F350.00
G01 X20.6948 Y32.9655 F350.00
G01 X20.7213 Y32.9834 F350.00
G01 X20.7312 Y32.9906 F350.00
G01 X20.8494 Y33.0782 F350.00
G01 X20.8688 Y33.0933 F350.00
G01 X20.8933 Y33.1137 F350.00
G01 X20.9025 Y33.1218 F350.00
G01 X21.0116 Y33.2207 F350.00
G01 X21.0206 Y33.2290 F350.00
G01 X21.0433 Y33.2515 F350.00
G01 X21.0602 Y33.2692 F350.00
G01 X21.1672 Y33.3875 F350.00
G01 X21.1875 Y33.4121 F350.00
G01 X21.2026 Y33.4314 F350.00
G01 X21.2903 Y33.5497 F350.00
G01 X21.2975 Y33.5596 F350.00
G01 X21.3153 Y33.5860 F350.00
G01 X21.3285 Y33.6068 F350.00
G01 X21.4042 Y33.7330 F350.00
G01 X21.4103 Y33.7436 F350.00
G01 X21.4255 Y33.7717 F350.00
G01 X21.4365 Y33.7936 F350.00
G01 X21.4995 Y33.9267 F350.00
G01 X21.5094 Y33.9491 F350.00
G01 X21.5215 Y33.9786 F350.00
G01 X21.5258 Y33.9902 F350.00
G01 X21.5793 Y34.1404 F350.00
G01 X21.5887 Y34.1708 F350.00
G01 X21.5953 Y34.1945 F350.00
G01 X21.6311 Y34.3373 F350.00
G01 X21.6364 Y34.3612 F350.00
G01 X21.6425 Y34.3925 F350.00
G01 X21.6445 Y34.4047 F350.00
G01 X21.6661 Y34.5503 F350.00
G01 X21.6677 Y34.5624 F350.00
G01 X21.6710 Y34.5942 F350.00
G01 X21.6728 Y34.6186 F350.00
G01 X21.6800 Y34.7657 F350.00
G01 X21.6806 Y34.7902 F350.00
G01 X21.6805 Y34.8221 F350.00
G01 X21.6728 Y34.9814 F350.00
G01 X21.6720 Y34.9936 F350.00
G01 X21.6691 Y35.0254 F350.00
G01 X21.6661 Y35.0497 F350.00
G01 X21.6425 Y35.2075 F350.00
G01 X21.6364 Y35.2388 F350.00
G01 X21.6311 Y35.2627 F350.00
G01 X21.5953 Y35.4055 F350.00
G01 X21.5887 Y35.4292 F350.00
G01 X21.5793 Y35.4596 F350.00
G01 X21.5754 Y35.4712 F350.00
G01 X21.5258 Y35.6098 F350.00
G01 X21.5215 Y35.6214 F350.00
G01 X21.5094 Y35.6509 F350.00
G01 X21.4995 Y35.6733 F350.00
G01 X21.4365 Y35.8064 F350.00
G01 X21.4312 Y35.8174 F350.00
G01 X21.4162 Y35.8456 F350.00
G01 X21.4042 Y35.8670 F350.00
G01 X21.3285 Y35.9932 F350.00
G01 X21.3153 Y36.0140 F350.00
G01 X21.2975 Y36.0404 F350.00
G01 X21.2903 Y36.0503 F350.00
G01 X21.1952 Y36.1783 F350.00
G01 X21.1751 Y36.2031 F350.00
G01 X21.1590 Y36.2217 F350.00
G01 X21.0602 Y36.3308 F350.00
G01 X21.0433 Y36.3485 F350.00
G01 X21.0206 Y36.3710 F350.00
G01 X21.0116 Y36.3793 F350.00
G01 X20.9025 Y36.4782 F350.00
G01 X20.8933 Y36.4863 F350.00
G01 X20.8688 Y36.5067 F350.00
G01 X20.8494 Y36.5218 F350.00
G01 X20.7312 Y36.6094 F350.00
G01 X20.7213 Y36.6166 F350.00
G01 X20.6948 Y36.6345 F350.00
G01 X20.6741 Y36.6476 F350.00
G01 X20.5478 Y36.7233 F350.00
G01 X20.5265 Y36.7354 F350.00
G01 X20.4983 Y36.7503 F350.00
G01 X20.4872 Y36.7557 F350.00
G01 X20.3542 Y36.8186 F350.00
G01 X20.3317 Y36.8286 F350.00
G01 X20.3022 Y36.8406 F350.00
G01 X20.2907 Y36.8449 F350.00
G01 X20.1405 Y36.8985 F350.00
G01 X20.1100 Y36.9079 F350.00
G01 X20.0864 Y36.9144 F350.00
G01 X19.9436 Y36.9502 F350.00
G01 X19.9316 Y36.9530 F350.00
G01 X19.9004 Y36.9594 F350.00
G01 X19.8762 Y36.9636 F350.00
G01 X19.7306 Y36.9852 F350.00
G01 X19.7062 Y36.9882 F350.00
G01 X19.6745 Y36.9912 F350.00
G01 X19.6622 Y36.9919 F350.00
G01 X19.5152 Y36.9992 F350.00
G01 X19.4907 Y36.9998 F350.00
G01 X19.4588 Y36.9996 F350.00
G01 X19.4465 Y36.9992 F350.00
G01 X19.2995 Y36.9919 F350.00
G01 X19.2750 Y36.9901 F350.00
G01 X19.2433 Y36.9869 F350.00
G01 X19.0855 Y36.9636 F350.00
G01 X19.0613 Y36.9594 F350.00
G01 X19.0301 Y36.9530 F350.00
G01 X19.0181 Y36.9502 F350.00
G01 X18.8753 Y36.9144 F350.00
G01 X18.8635 Y36.9113 F350.00
G01 X18.8329 Y36.9022 F350.00
G01 X18.8096 Y36.8945 F350.00
G01 X18.6710 Y36.8449 F350.00
G01 X18.6595 Y36.8406 F350.00
G01 X18.6300 Y36.8286 F350.00
G01 X18.6075 Y36.8186 F350.00
G01 X18.4745 Y36.7557 F350.00
G01 X18.4526 Y36.7446 F350.00
G01 X18.4245 Y36.7295 F350.00
G01 X18.4139 Y36.7233 F350.00
G01 X18.2876 Y36.6476 F350.00
G01 X18.2669 Y36.6345 F350.00
G01 X18.2405 Y36.6166 F350.00
G01 X18.2305 Y36.6094 F350.00
G01 X18.1025 Y36.5143 F350.00
G01 X18.0778 Y36.4942 F350.00
G01 X18.0592 Y36.4782 F350.00
G01 X17.9501 Y36.3793 F350.00
G01 X17.9411 Y36.3710 F350.00
G01 X17.9185 Y36.3485 F350.00
G01 X17.9015 Y36.3308 F350.00
G01 X17.8027 Y36.2217 F350.00
G01 X17.7946 Y36.2125 F350.00
G01 X17.7742 Y36.1879 F350.00
G01 X17.7591 Y36.1686 F350.00
G01 X17.6714 Y36.0503 F350.00
G01 X17.6573 Y36.0303 F350.00
G01 X17.6397 Y36.0037 F350.00
G01 X17.6332 Y35.9932 F350.00
G01 X17.5560 Y35.8643 F350.00
G01 X17.5560 Y43.1000 F350.00
G01 X17.5551 Y43.1343 F350.00
G01 X17.5532 Y43.1711 F350.00
G01 X17.5489 Y43.2151 F350.00
G01 X17.5417 Y43.2636 F350.00
G01 X17.5330 Y43.3069 F350.00
G01 X17.5211 Y43.3546 F350.00
G01 X17.5083 Y43.3968 F350.00
G01 X17.4918 Y43.4430 F350.00
G01 X17.4797 Y43.4726 F350.00
G01 X17.4697 Y43.4950 F350.00
G01 X17.4592 Y43.5172 F350.00
G01 X17.4482 Y43.5391 F350.00
G01 X17.4330 Y43.5672 F350.00
G01 X17.4142 Y43.5988 F350.00
G01 X17.4011 Y43.6196 F350.00
G01 X17.3833 Y43.6460 F350.00
G01 X17.3615 Y43.6757 F350.00
G01 X17.3464 Y43.6950 F350.00
G01 X17.3260 Y43.7196 F350.00
G01 X17.2930 Y43.7559 F350.00
G01 X17.2618 Y43.7872 F350.00
G01 X17.2346 Y43.8120 F350.00
G01 X17.2160 Y43.8280 F350.00
G01 X17.1913 Y43.8482 F350.00
G01 X17.1618 Y43.8702 F350.00
G01 X17.1417 Y43.8843 F350.00
G01 X17.1151 Y43.9019 F350.00
G01 X17.1047 Y43.9084 F350.00
G01 X17.0730 Y43.9272 F350.00
G01 X17.0341 Y43.9480 F350.00
G01 X16.9897 Y43.9690 F350.00
G01 X16.9489 Y43.9859 F350.00
G01 X16.9027 Y44.0024 F350.00
G01 X16.8604 Y44.0152 F350.00
G01 X16.8128 Y44.0272 F350.00
G01 X16.7815 Y44.0335 F350.00
G01 X16.7574 Y44.0377 F350.00
G01 X16.7331 Y44.0413 F350.00
G01 X16.7209 Y44.0430 F350.00
G01 X16.6892 Y44.0463 F350.00
G01 X16.6647 Y44.0481 F350.00
G01 X16.6402 Y44.0493 F350.00
G01 X16.6059 Y44.0501 F350.00
G01 X-0.8091 Y44.0501 F350.00
G01 X-0.8435 Y44.0493 F350.00
G01 X-0.8803 Y44.0473 F350.00
G01 X-0.9120 Y44.0443 F350.00
G01 X-0.9364 Y44.0413 F350.00
G01 X-0.9728 Y44.0358 F350.00
G01 X-1.0041 Y44.0297 F350.00
G01 X-1.0280 Y44.0243 F350.00
G01 X-1.0637 Y44.0152 F350.00
G01 X-1.1060 Y44.0024 F350.00
G01 X-1.1407 Y43.9902 F350.00
G01 X-1.1636 Y43.9813 F350.00
G01 X-1.1930 Y43.9690 F350.00
G01 X-1.2263 Y43.9534 F350.00
G01 X-1.2483 Y43.9423 F350.00
G01 X-1.2763 Y43.9272 F350.00
G01 X-1.3080 Y43.9084 F350.00
G01 X-1.3287 Y43.8953 F350.00
G01 X-1.3551 Y43.8774 F350.00
G01 X-1.3848 Y43.8556 F350.00
G01 X-1.4042 Y43.8405 F350.00
G01 X-1.4287 Y43.8201 F350.00
G01 X-1.4561 Y43.7955 F350.00
G01 X-1.4739 Y43.7786 F350.00
G01 X-1.4963 Y43.7559 F350.00
G01 X-1.5212 Y43.7288 F350.00
G01 X-1.5372 Y43.7102 F350.00
G01 X-1.5573 Y43.6854 F350.00
G01 X-1.5794 Y43.6560 F350.00
G01 X-1.5935 Y43.6359 F350.00
G01 X-1.6111 Y43.6093 F350.00
G01 X-1.6363 Y43.5672 F350.00
G01 X-1.6571 Y43.5282 F350.00
G01 X-1.6730 Y43.4950 F350.00
G01 X-1.6830 Y43.4726 F350.00
G01 X-1.6950 Y43.4430 F350.00
G01 X-1.7076 Y43.4084 F350.00
G01 X-1.7153 Y43.3851 F350.00
G01 X-1.7244 Y43.3546 F350.00
G01 X-1.7335 Y43.3189 F350.00
G01 X-1.7389 Y43.2949 F350.00
G01 X-1.7449 Y43.2636 F350.00
G01 X-1.7505 Y43.2272 F350.00
G01 X-1.7535 Y43.2029 F350.00
G01 X-1.7565 Y43.1711 F350.00
G01 X-1.7584 Y43.1343 F350.00
G01 X-1.7591 Y43.1123 F350.00
G01 X-1.7593 Y15.6900 F350.00
G01 X-1.7584 Y15.6557 F350.00
G01 X-1.7565 Y15.6189 F350.00
G01 X-1.7521 Y15.5749 F350.00
G01 X-1.7469 Y15.5385 F350.00
G01 X-1.7427 Y15.5143 F350.00
G01 X-1.7363 Y15.4831 F350.00
G01 X-1.7335 Y15.4711 F350.00
G01 X-1.7244 Y15.4354 F350.00
G01 X-1.7116 Y15.3932 F350.00
G01 X-1.6950 Y15.3470 F350.00
G01 X-1.6830 Y15.3174 F350.00
G01 X-1.6730 Y15.2950 F350.00
G01 X-1.6571 Y15.2618 F350.00
G01 X-1.6363 Y15.2228 F350.00
G01 X-1.6175 Y15.1912 F350.00
G01 X-1.6044 Y15.1704 F350.00
G01 X-1.5865 Y15.1440 F350.00
G01 X-1.5647 Y15.1143 F350.00
G01 X-1.5496 Y15.0950 F350.00
G01 X-1.5293 Y15.0704 F350.00
G01 X-1.5047 Y15.0430 F350.00
G01 X-1.4810 Y15.0182 F350.00
G01 X1.2178 Y12.3196 F350.00
G01 X1.2339 Y12.3045 F350.00
G01 X1.2613 Y12.2799 F350.00
G01 X1.2858 Y12.2595 F350.00
G01 X1.3052 Y12.2444 F350.00
G01 X1.3249 Y12.2298 F350.00
G01 X1.3349 Y12.2226 F350.00
G01 X1.3613 Y12.2047 F350.00
G01 X1.3820 Y12.1916 F350.00
G01 X1.4031 Y12.1790 F350.00
G01 X1.4137 Y12.1728 F350.00
G01 X1.4417 Y12.1577 F350.00
G01 X1.4637 Y12.1466 F350.00
G01 X1.4859 Y12.1361 F350.00
G01 X1.5083 Y12.1262 F350.00
G01 X1.5378 Y12.1141 F350.00
G01 X1.5493 Y12.1098 F350.00
G01 X1.5724 Y12.1016 F350.00
G01 X1.5957 Y12.0939 F350.00
G01 X1.6263 Y12.0848 F350.00
G01 X1.6382 Y12.0816 F350.00
G01 X1.6620 Y12.0757 F350.00
G01 X1.6859 Y12.0703 F350.00
G01 X1.7172 Y12.0642 F350.00
G01 X1.7294 Y12.0623 F350.00
G01 X1.7536 Y12.0587 F350.00
G01 X1.7780 Y12.0557 F350.00
G01 X1.8097 Y12.0527 F350.00
G01 X1.8465 Y12.0507 F350.00
G01 X1.8686 Y12.0500 F350.00
G01 X23.3809 Y12.0499 F350.00
G01 X23.4152 Y12.0507 F350.00
G01 X23.4520 Y12.0527 F350.00
G01 X23.4959 Y12.0570 F350.00
G01 X23.5324 Y12.0623 F350.00
G01 X23.5565 Y12.0665 F350.00
G01 X23.5878 Y12.0728 F350.00
G01 X23.6354 Y12.0848 F350.00
G01 X23.6777 Y12.0976 F350.00
G01 X23.7124 Y12.1098 F350.00
G01 X23.7353 Y12.1187 F350.00
G01 X23.7647 Y12.1310 F350.00
G01 X23.7981 Y12.1466 F350.00
G01 X23.8200 Y12.1577 F350.00
G01 X23.8480 Y12.1728 F350.00
G01 X23.8901 Y12.1981 F350.00
G01 X23.9269 Y12.2226 F350.00
G01 X23.9565 Y12.2444 F350.00
G01 X23.9663 Y12.2518 F350.00
G01 X23.9910 Y12.2720 F350.00
G01 X24.0096 Y12.2880 F350.00
G01 X24.0368 Y12.3128 F350.00
G01 X24.0527 Y12.3282 F350.00
G01 X26.1527 Y14.4282 F350.00
G01 X26.1680 Y14.4441 F350.00
G01 X26.2010 Y14.4804 F350.00
G01 X26.2290 Y14.5146 F350.00
G01 X26.2583 Y14.5540 F350.00
G01 X26.2828 Y14.5907 F350.00
G01 X26.3080 Y14.6328 F350.00
G01 X26.3289 Y14.6718 F350.00
G01 X26.3498 Y14.7161 F350.00
G01 X26.3622 Y14.7456 F350.00
G01 X26.3710 Y14.7685 F350.00
G01 X26.3833 Y14.8032 F350.00
G01 X26.3961 Y14.8454 F350.00
G01 X26.4080 Y14.8931 F350.00
G01 X26.4144 Y14.9243 F350.00
G01 X26.4186 Y14.9485 F350.00
G01 X26.4239 Y14.9849 F350.00
G01 X26.4271 Y15.0167 F350.00
G01 X26.4289 Y15.0411 F350.00
G01 X26.4308 Y15.0877 F350.00
G01 X26.4310 Y15.1567 F350.00
G00 Z0.5000
G00 X30.6578 Y15.1091
G01 F250.00
G01 Z-0.0500
G01 F350.00
G01 X30.7706 Y15.1374 F350.00
G01 X30.7706 Y14.9793 F350.00
G01 X30.7434 Y15.0129 F350.00
G01 X30.7187 Y15.0419 F350.00
G01 X30.6578 Y15.1091 F350.00
G01 X31.4706 Y16.2464 F350.00
G01 X31.4706 Y10.2561 F350.00
G01 X31.4521 Y10.2326 F350.00
G01 X31.4234 Y10.1937 F350.00
G01 X31.3988 Y10.1569 F350.00
G01 X31.3739 Y10.1155 F350.00
G01 X31.3618 Y10.0942 F350.00
G01 X31.3469 Y10.0660 F350.00
G01 X31.3415 Y10.0549 F350.00
G01 X31.3209 Y10.0112 F350.00
G01 X31.3040 Y9.9704 F350.00
G01 X31.2836 Y9.9133 F350.00
G01 X31.2742 Y9.8828 F350.00
G01 X31.2677 Y9.8592 F350.00
G01 X31.2561 Y9.8122 F350.00
G01 X31.2497 Y9.7810 F350.00
G01 X31.2455 Y9.7568 F350.00
G01 X31.2386 Y9.7089 F350.00
G01 X31.2342 Y9.6650 F350.00
G01 X31.2317 Y9.6167 F350.00
G01 X31.2309 Y9.5824 F350.00
G01 X31.2310 Y7.8054 F350.00
G01 X31.2335 Y7.7473 F350.00
G01 X31.2353 Y7.7228 F350.00
G01 X31.2386 Y7.6911 F350.00
G01 X31.2475 Y7.6311 F350.00
G01 X31.2561 Y7.5878 F350.00
G01 X31.2677 Y7.5408 F350.00
G01 X31.2708 Y7.5290 F350.00
G01 X31.2799 Y7.4984 F350.00
G01 X31.2876 Y7.4751 F350.00
G01 X31.2998 Y7.4411 F350.00
G01 X31.3086 Y7.4182 F350.00
G01 X31.3209 Y7.3888 F350.00
G01 X31.3415 Y7.3451 F350.00
G01 X31.3525 Y7.3231 F350.00
G01 X31.3677 Y7.2951 F350.00
G01 X31.3924 Y7.2535 F350.00
G01 X31.4055 Y7.2328 F350.00
G01 X31.4234 Y7.2063 F350.00
G01 X31.4595 Y7.1577 F350.00
G01 X31.4875 Y7.1235 F350.00
G01 X31.5199 Y7.0876 F350.00
G01 X31.5368 Y7.0698 F350.00
G01 X31.5595 Y7.0474 F350.00
G01 X31.5685 Y7.0390 F350.00
G01 X31.6044 Y7.0067 F350.00
G01 X31.6289 Y6.9863 F350.00
G01 X31.6483 Y6.9712 F350.00
G01 X31.6872 Y6.9425 F350.00
G01 X31.7239 Y6.9180 F350.00
G01 X31.7759 Y6.8868 F350.00
G01 X31.8040 Y6.8717 F350.00
G01 X31.8259 Y6.8606 F350.00
G01 X31.8697 Y6.8401 F350.00
G01 X31.8991 Y6.8277 F350.00
G01 X31.9220 Y6.8189 F350.00
G01 X31.9560 Y6.8067 F350.00
G01 X31.9676 Y6.8028 F350.00
G01 X31.9980 Y6.7934 F350.00
G01 X32.0217 Y6.7868 F350.00
G01 X32.0686 Y6.7752 F350.00
G01 X32.1120 Y6.7666 F350.00
G01 X32.1598 Y6.7593 F350.00
G01 X32.1841 Y6.7563 F350.00
G01 X32.2159 Y6.7534 F350.00
G01 X32.2642 Y6.7508 F350.00
G01 X32.2985 Y6.7500 F350.00
G01 X33.3335 Y6.7500 F350.00
G01 X35.2806 Y4.8028 F350.00
G01 X35.2806 Y1.9936 F350.00
G01 X35.2634 Y1.9762 F350.00
G01 X35.2551 Y1.9672 F350.00
G01 X35.2109 Y1.9184 F350.00
G01 X35.1583 Y1.9762 F350.00
G01 X35.1270 Y2.0074 F350.00
G01 X35.0362 Y2.0898 F350.00
G01 X35.0020 Y2.1178 F350.00
G01 X34.9035 Y2.1909 F350.00
G01 X34.8668 Y2.2154 F350.00
G01 X34.7615 Y2.2785 F350.00
G01 X34.7226 Y2.2993 F350.00
G01 X34.6228 Y2.3467 F350.00
G01 X34.6117 Y2.3518 F350.00
G01 X34.5823 Y2.3641 F350.00
G01 X34.5594 Y2.3730 F350.00
G01 X34.4670 Y2.4060 F350.00
G01 X34.4554 Y2.4100 F350.00
G01 X34.4249 Y2.4194 F350.00
G01 X34.4012 Y2.4260 F350.00
G01 X34.3060 Y2.4498 F350.00
G01 X34.2941 Y2.4526 F350.00
G01 X34.2628 Y2.4590 F350.00
G01 X34.2387 Y2.4632 F350.00
G01 X34.1416 Y2.4776 F350.00
G01 X34.1172 Y2.4806 F350.00
G01 X34.0855 Y2.4836 F350.00
G01 X34.0732 Y2.4843 F350.00
G01 X33.9752 Y2.4892 F350.00
G01 X33.9629 Y2.4896 F350.00
G01 X33.9310 Y2.4898 F350.00
G01 X33.9065 Y2.4892 F350.00
G01 X33.7962 Y2.4836 F350.00
G01 X33.7645 Y2.4806 F350.00
G01 X33.7401 Y2.4776 F350.00
G01 X33.6431 Y2.4632 F350.00
G01 X33.6189 Y2.4590 F350.00
G01 X33.5876 Y2.4526 F350.00
G01 X33.5757 Y2.4498 F350.00
G01 X33.4805 Y2.4260 F350.00
G01 X33.4568 Y2.4194 F350.00
G01 X33.4264 Y2.4100 F350.00
G01 X33.3109 Y2.3687 F350.00
G01 X33.2813 Y2.3566 F350.00
G01 X33.2589 Y2.3467 F350.00
G01 X33.1702 Y2.3047 F350.00
G01 X33.1483 Y2.2937 F350.00
G01 X33.1202 Y2.2785 F350.00
G01 X33.1096 Y2.2723 F350.00
G01 X33.0254 Y2.2219 F350.00
G01 X33.0047 Y2.2088 F350.00
G01 X32.9782 Y2.1909 F350.00
G01 X32.8797 Y2.1178 F350.00
G01 X32.8550 Y2.0977 F350.00
G01 X32.8364 Y2.0817 F350.00
G01 X32.7637 Y2.0158 F350.00
G01 X32.7459 Y1.9989 F350.00
G01 X32.7234 Y1.9762 F350.00
G01 X32.6709 Y1.9184 F350.00
G01 X32.6183 Y1.9762 F350.00
G01 X32.5870 Y2.0074 F350.00
G01 X32.5053 Y2.0817 F350.00
G01 X32.4962 Y2.0898 F350.00
G01 X32.4716 Y2.1102 F350.00
G01 X32.4522 Y2.1253 F350.00
G01 X32.3734 Y2.1837 F350.00
G01 X32.3534 Y2.1978 F350.00
G01 X32.3268 Y2.2154 F350.00
G01 X32.3163 Y2.2219 F350.00
G01 X32.2215 Y2.2785 F350.00
G01 X32.1826 Y2.2993 F350.00
G01 X32.0828 Y2.3467 F350.00
G01 X32.0604 Y2.3566 F350.00
G01 X32.0309 Y2.3687 F350.00
G01 X31.9270 Y2.4060 F350.00
G01 X31.9037 Y2.4137 F350.00
G01 X31.8731 Y2.4228 F350.00
G01 X31.8612 Y2.4260 F350.00
G01 X31.7541 Y2.4526 F350.00
G01 X31.7108 Y2.4613 F350.00
G01 X31.5894 Y2.4793 F350.00
G01 X31.5455 Y2.4836 F350.00
G01 X31.4352 Y2.4892 F350.00
G01 X31.4107 Y2.4898 F350.00
G01 X31.3788 Y2.4896 F350.00
G01 X31.2685 Y2.4843 F350.00
G01 X31.2562 Y2.4836 F350.00
G01 X31.2245 Y2.4806 F350.00
G01 X31.2001 Y2.4776 F350.00
G01 X31.1031 Y2.4632 F350.00
G01 X31.0909 Y2.4613 F350.00
G01 X31.0596 Y2.4552 F350.00
G01 X31.0357 Y2.4498 F350.00
G01 X30.9405 Y2.4260 F350.00
G01 X30.9286 Y2.4228 F350.00
G01 X30.8981 Y2.4137 F350.00
G01 X30.8748 Y2.4060 F350.00
G01 X30.7824 Y2.3730 F350.00
G01 X30.7709 Y2.3687 F350.00
G01 X30.7413 Y2.3566 F350.00
G01 X30.7189 Y2.3467 F350.00
G01 X30.6302 Y2.3047 F350.00
G01 X30.5994 Y2.2889 F350.00
G01 X30.4811 Y2.4072 F350.00
G01 X30.4811 Y13.8000 F350.00
G01 X30.4803 Y13.8343 F350.00
G01 X30.4779 Y13.8834 F350.00
G01 X30.4761 Y13.9079 F350.00
G01 X30.4728 Y13.9396 F350.00
G01 X30.4639 Y14.0003 F350.00
G01 X30.4597 Y14.0245 F350.00
G01 X30.4534 Y14.0557 F350.00
G01 X30.4386 Y14.1153 F350.00
G01 X30.4320 Y14.1390 F350.00
G01 X30.4226 Y14.1694 F350.00
G01 X30.3978 Y14.2388 F350.00
G01 X30.3858 Y14.2683 F350.00
G01 X30.3758 Y14.2907 F350.00
G01 X30.3495 Y14.3461 F350.00
G01 X30.3345 Y14.3743 F350.00
G01 X30.3225 Y14.3957 F350.00
G01 X30.2908 Y14.4482 F350.00
G01 X30.2732 Y14.4748 F350.00
G01 X30.2590 Y14.4949 F350.00
G01 X30.2224 Y14.5441 F350.00
G01 X30.1944 Y14.5783 F350.00
G01 X30.1533 Y14.6238 F350.00
G01 X30.1296 Y14.6487 F350.00
G01 X28.7811 Y15.9972 F350.00
G01 X28.7811 Y16.2365 F350.00
G01 X28.8083 Y16.2638 F350.00
G01 X28.8609 Y16.3216 F350.00
G01 X28.9134 Y16.2638 F350.00
G01 X28.9359 Y16.2411 F350.00
G01 X28.9537 Y16.2242 F350.00
G01 X29.0264 Y16.1583 F350.00
G01 X29.0450 Y16.1423 F350.00
G01 X29.0697 Y16.1222 F350.00
G01 X29.1583 Y16.0563 F350.00
G01 X29.1784 Y16.0422 F350.00
G01 X29.2050 Y16.0246 F350.00
G01 X29.3102 Y15.9615 F350.00
G01 X29.3491 Y15.9407 F350.00
G01 X29.4600 Y15.8882 F350.00
G01 X29.4895 Y15.8759 F350.00
G01 X29.5124 Y15.8670 F350.00
G01 X29.6048 Y15.8340 F350.00
G01 X29.6281 Y15.8263 F350.00
G01 X29.6586 Y15.8172 F350.00
G01 X29.6705 Y15.8140 F350.00
G01 X29.7657 Y15.7902 F350.00
G01 X29.7896 Y15.7848 F350.00
G01 X29.8209 Y15.7787 F350.00
G01 X29.8331 Y15.7768 F350.00
G01 X29.9301 Y15.7624 F350.00
G01 X29.9545 Y15.7594 F350.00
G01 X29.9862 Y15.7564 F350.00
G01 X29.9985 Y15.7557 F350.00
G01 X30.0965 Y15.7508 F350.00
G01 X30.1088 Y15.7504 F350.00
G01 X30.1407 Y15.7502 F350.00
G01 X30.1652 Y15.7508 F350.00
G01 X30.2632 Y15.7557 F350.00
G01 X30.2755 Y15.7564 F350.00
G01 X30.3072 Y15.7594 F350.00
G01 X30.3316 Y15.7624 F350.00
G01 X30.4287 Y15.7768 F350.00
G01 X30.4528 Y15.7810 F350.00
G01 X30.4841 Y15.7874 F350.00
G01 X30.4960 Y15.7902 F350.00
G01 X30.5912 Y15.8140 F350.00
G01 X30.6149 Y15.8206 F350.00
G01 X30.6454 Y15.8300 F350.00
G01 X30.6570 Y15.8340 F350.00
G01 X30.7609 Y15.8713 F350.00
G01 X30.7904 Y15.8834 F350.00
G01 X30.8128 Y15.8933 F350.00
G01 X30.9015 Y15.9353 F350.00
G01 X30.9235 Y15.9463 F350.00
G01 X30.9515 Y15.9615 F350.00
G01 X30.9621 Y15.9677 F350.00
G01 X31.0463 Y16.0181 F350.00
G01 X31.0670 Y16.0312 F350.00
G01 X31.0935 Y16.0491 F350.00
G01 X31.1920 Y16.1222 F350.00
G01 X31.2168 Y16.1423 F350.00
G01 X31.2353 Y16.1583 F350.00
G01 X31.3081 Y16.2242 F350.00
G01 X31.3258 Y16.2411 F350.00
G01 X31.3483 Y16.2638 F350.00
G01 X31.4009 Y16.3216 F350.00
G01 X31.4451 Y16.2728 F350.00
G01 X31.4534 Y16.2638 F350.00
G01 X31.4706 Y16.2464 F350.00
G00 Z0.5000
G00 X37.1111 Y15.1374
G01 F250.00
G01 Z-0.0500
G01 F350.00
G01 X37.2239 Y15.1091 F350.00
G01 X37.2731 Y15.0983 F350.00
G01 X37.3008 Y15.0928 F350.00
G01 X37.3297 Y15.0876 F350.00
G01 X37.4559 Y15.0688 F350.00
G01 X37.5059 Y15.0628 F350.00
G01 X37.5340 Y15.0600 F350.00
G01 X37.5633 Y15.0577 F350.00
G01 X37.6907 Y15.0513 F350.00
G01 X37.7410 Y15.0502 F350.00
G01 X37.7693 Y15.0503 F350.00
G01 X37.7987 Y15.0509 F350.00
G01 X37.9262 Y15.0570 F350.00
G01 X37.9763 Y15.0608 F350.00
G01 X38.0044 Y15.0637 F350.00
G01 X38.0336 Y15.0671 F350.00
G01 X38.1599 Y15.0857 F350.00
G01 X38.2094 Y15.0944 F350.00
G01 X38.2371 Y15.1000 F350.00
G01 X38.2658 Y15.1063 F350.00
G01 X38.3906 Y15.1374 F350.00
G01 X38.3906 Y14.6900 F350.00
G01 X38.3910 Y14.6606 F350.00
G01 X38.3923 Y14.6213 F350.00
G01 X38.3959 Y14.5514 F350.00
G01 X38.3990 Y14.5135 F350.00
G01 X38.4032 Y14.4733 F350.00
G01 X38.4070 Y14.4440 F350.00
G01 X38.4154 Y14.3870 F350.00
G01 X38.4186 Y14.3664 F350.00
G01 X38.4254 Y14.3290 F350.00
G01 X38.4335 Y14.2893 F350.00
G01 X38.4401 Y14.2606 F350.00
G01 X38.4562 Y14.1963 F350.00
G01 X38.4674 Y14.1561 F350.00
G01 X38.4781 Y14.1209 F350.00
G01 X38.4872 Y14.0928 F350.00
G01 X38.5105 Y14.0269 F350.00
G01 X38.5239 Y13.9913 F350.00
G01 X38.5392 Y13.9538 F350.00
G01 X38.5544 Y13.9189 F350.00
G01 X38.5841 Y13.8556 F350.00
G01 X38.6009 Y13.8215 F350.00
G01 X38.6198 Y13.7857 F350.00
G01 X38.6383 Y13.7524 F350.00
G01 X38.6786 Y13.6850 F350.00
G01 X38.7009 Y13.6497 F350.00
G01 X38.7283 Y13.6090 F350.00
G01 X38.7504 Y13.5781 F350.00
G01 X38.7848 Y13.5318 F350.00
G01 X38.8028 Y13.5085 F350.00
G01 X38.8284 Y13.4771 F350.00
G01 X38.8530 Y13.4481 F350.00
G01 X38.8998 Y13.3961 F350.00
G01 X38.9266 Y13.3674 F350.00
G01 X38.9472 Y13.3463 F350.00
G01 X40.3306 Y11.9629 F350.00
G01 X40.3306 Y9.8376 F350.00
G01 X37.1111 Y13.0571 F350.00
G01 X37.1111 Y15.1374 F350.00
G01 X37.8111 Y13.9083 F350.00
G01 X37.8292 Y13.8535 F350.00
G01 X37.8514 Y13.7911 F350.00
G01 X37.8647 Y13.7554 F350.00
G01 X37.8801 Y13.7160 F350.00
G01 X37.8992 Y13.6701 F350.00
G01 X37.9180 Y13.6274 F350.00
G01 X37.9513 Y13.5563 F350.00
G01 X37.9641 Y13.5298 F350.00
G01 X37.9796 Y13.4991 F350.00
G01 X38.0045 Y13.4519 F350.00
G01 X38.0292 Y13.4074 F350.00
G01 X38.0463 Y13.3783 F350.00
G01 X38.0804 Y13.3214 F350.00
G01 X38.1028 Y13.2855 F350.00
G01 X38.1236 Y13.2537 F350.00
G01 X38.1560 Y13.2060 F350.00
G01 X38.1856 Y13.1646 F350.00
G01 X38.2277 Y13.1079 F350.00
G01 X38.2563 Y13.0711 F350.00
G01 X38.2873 Y13.0330 F350.00
G01 X38.3117 Y13.0038 F350.00
G01 X38.3396 Y12.9720 F350.00
G01 X38.3898 Y12.9165 F350.00
G01 X38.4226 Y12.8816 F350.00
G01 X38.4522 Y12.8513 F350.00
G01 X39.6306 Y11.6729 F350.00
G01 X39.6306 Y11.5276 F350.00
G01 X37.8111 Y13.3471 F350.00
G01 X37.8111 Y13.9083 F350.00
G01 X39.0906 Y16.2464 F350.00
G01 X39.0906 Y14.6900 F350.00
G01 X39.0915 Y14.6557 F350.00
G01 X39.0939 Y14.6066 F350.00
G01 X39.0957 Y14.5821 F350.00
G01 X39.0989 Y14.5504 F350.00
G01 X39.1097 Y14.4776 F350.00
G01 X39.1184 Y14.4343 F350.00
G01 X39.1363 Y14.3628 F350.00
G01 X39.1491 Y14.3206 F350.00
G01 X39.1739 Y14.2512 F350.00
G01 X39.1908 Y14.2104 F350.00
G01 X39.2169 Y14.1549 F350.00
G01 X39.2223 Y14.1439 F350.00
G01 X39.2372 Y14.1157 F350.00
G01 X39.2493 Y14.0943 F350.00
G01 X39.2809 Y14.0418 F350.00
G01 X39.3055 Y14.0050 F350.00
G01 X39.3493 Y13.9459 F350.00
G01 X39.3695 Y13.9211 F350.00
G01 X39.3855 Y13.9026 F350.00
G01 X39.4185 Y13.8662 F350.00
G01 X39.4336 Y13.8501 F350.00
G01 X41.0306 Y12.2528 F350.00
G01 X41.0306 Y2.4045 F350.00
G01 X40.9424 Y2.3730 F350.00
G01 X40.9309 Y2.3687 F350.00
G01 X40.9013 Y2.3566 F350.00
G01 X40.8789 Y2.3467 F350.00
G01 X40.7902 Y2.3047 F350.00
G01 X40.7683 Y2.2937 F350.00
G01 X40.7402 Y2.2785 F350.00
G01 X40.6350 Y2.2154 F350.00
G01 X40.6084 Y2.1978 F350.00
G01 X40.5883 Y2.1837 F350.00
G01 X40.5095 Y2.1253 F350.00
G01 X40.4997 Y2.1178 F350.00
G01 X40.4750 Y2.0977 F350.00
G01 X40.4564 Y2.0817 F350.00
G01 X40.3747 Y2.0074 F350.00
G01 X40.3520 Y1.9850 F350.00
G01 X40.3311 Y1.9628 F350.00
G01 X40.3311 Y8.3500 F350.00
G01 X40.3303 Y8.3843 F350.00
G01 X40.3279 Y8.4334 F350.00
G01 X40.3261 Y8.4579 F350.00
G01 X40.3228 Y8.4896 F350.00
G01 X40.3120 Y8.5624 F350.00
G01 X40.3034 Y8.6057 F350.00
G01 X40.2855 Y8.6772 F350.00
G01 X40.2726 Y8.7194 F350.00
G01 X40.2521 Y8.7773 F350.00
G01 X40.2433 Y8.8002 F350.00
G01 X40.2309 Y8.8296 F350.00
G01 X40.1995 Y8.8961 F350.00
G01 X40.1786 Y8.9351 F350.00
G01 X40.1408 Y8.9982 F350.00
G01 X40.1162 Y9.0350 F350.00
G01 X40.0724 Y9.0941 F350.00
G01 X40.0444 Y9.1283 F350.00
G01 X40.0033 Y9.1738 F350.00
G01 X39.9881 Y9.1899 F350.00
G01 X36.4111 Y12.7672 F350.00
G01 X36.4111 Y16.2464 F350.00
G01 X36.4283 Y16.2638 F350.00
G01 X36.4366 Y16.2728 F350.00
G01 X36.4809 Y16.3216 F350.00
G01 X36.5334 Y16.2638 F350.00
G01 X36.5559 Y16.2411 F350.00
G01 X36.5737 Y16.2242 F350.00
G01 X36.6464 Y16.1583 F350.00
G01 X36.6650 Y16.1423 F350.00
G01 X36.6897 Y16.1222 F350.00
G01 X36.7882 Y16.0491 F350.00
G01 X36.8147 Y16.0312 F350.00
G01 X36.8354 Y16.0181 F350.00
G01 X36.9196 Y15.9677 F350.00
G01 X36.9302 Y15.9615 F350.00
G01 X36.9583 Y15.9463 F350.00
G01 X36.9802 Y15.9353 F350.00
G01 X37.0800 Y15.8882 F350.00
G01 X37.1095 Y15.8759 F350.00
G01 X37.1324 Y15.8670 F350.00
G01 X37.2364 Y15.8300 F350.00
G01 X37.2786 Y15.8172 F350.00
G01 X37.3976 Y15.7874 F350.00
G01 X37.4409 Y15.7787 F350.00
G01 X37.5501 Y15.7624 F350.00
G01 X37.5623 Y15.7607 F350.00
G01 X37.5940 Y15.7575 F350.00
G01 X37.6185 Y15.7557 F350.00
G01 X37.7165 Y15.7508 F350.00
G01 X37.7288 Y15.7504 F350.00
G01 X37.7607 Y15.7502 F350.00
G01 X37.7852 Y15.7508 F350.00
G01 X37.8832 Y15.7557 F350.00
G01 X37.8955 Y15.7564 F350.00
G01 X37.9272 Y15.7594 F350.00
G01 X37.9516 Y15.7624 F350.00
G01 X38.0487 Y15.7768 F350.00
G01 X38.0728 Y15.7810 F350.00
G01 X38.1041 Y15.7874 F350.00
G01 X38.1160 Y15.7902 F350.00
G01 X38.2112 Y15.8140 F350.00
G01 X38.2349 Y15.8206 F350.00
G01 X38.2654 Y15.8300 F350.00
G01 X38.2770 Y15.8340 F350.00
G01 X38.3809 Y15.8713 F350.00
G01 X38.4104 Y15.8834 F350.00
G01 X38.4328 Y15.8933 F350.00
G01 X38.5215 Y15.9353 F350.00
G01 X38.5435 Y15.9463 F350.00
G01 X38.5715 Y15.9615 F350.00
G01 X38.5821 Y15.9677 F350.00
G01 X38.6663 Y16.0181 F350.00
G01 X38.6870 Y16.0312 F350.00
G01 X38.7135 Y16.0491 F350.00
G01 X38.8120 Y16.1222 F350.00
G01 X38.8368 Y16.1423 F350.00
G01 X38.8553 Y16.1583 F350.00
G01 X38.9281 Y16.2242 F350.00
G01 X38.9458 Y16.2411 F350.00
G01 X38.9683 Y16.2638 F350.00
G01 X39.0209 Y16.3216 F350.00
G01 X39.0651 Y16.2728 F350.00
G01 X39.0734 Y16.2638 F350.00
G01 X39.0906 Y16.2464 F350.00
G00 Z0.5000
G00 X44.1009 Y14.6228
G01 F250.00
G01 Z-0.0500
G01 F350.00
G01 X44.1485 Y14.6015 F350.00
G01 X44.1937 Y14.5824 F350.00
G01 X44.2290 Y14.5683 F350.00
G01 X44.2767 Y14.5503 F350.00
G01 X44.3772 Y14.5144 F350.00
G01 X44.4254 Y14.4980 F350.00
G01 X44.4846 Y14.4796 F350.00
G01 X44.5418 Y14.4634 F350.00
G01 X44.5703 Y14.4560 F350.00
G01 X44.6941 Y14.4252 F350.00
G01 X44.7439 Y14.4143 F350.00
G01 X44.8047 Y14.4024 F350.00
G01 X44.8634 Y14.3926 F350.00
G01 X44.9775 Y14.3757 F350.00
G01 X45.0280 Y14.3693 F350.00
G01 X45.0768 Y14.3642 F350.00
G01 X45.1318 Y14.3596 F350.00
G01 X45.1698 Y14.3573 F350.00
G01 X45.2850 Y14.3518 F350.00
G01 X45.3482 Y14.3503 F350.00
G01 X45.3979 Y14.3503 F350.00
G01 X45.4445 Y14.3513 F350.00
G01 X45.5719 Y14.3573 F350.00
G01 X45.6099 Y14.3596 F350.00
G01 X45.6478 Y14.3626 F350.00
G01 X45.6845 Y14.3661 F350.00
G01 X45.7393 Y14.3724 F350.00
G01 X45.7770 Y14.3775 F350.00
G01 X45.8868 Y14.3939 F350.00
G01 X45.9370 Y14.4024 F350.00
G01 X45.9852 Y14.4117 F350.00
G01 X46.0224 Y14.4195 F350.00
G01 X46.0762 Y14.4321 F350.00
G01 X46.1714 Y14.4560 F350.00
G01 X46.2082 Y14.4656 F350.00
G01 X46.2572 Y14.4796 F350.00
G01 X46.3163 Y14.4980 F350.00
G01 X46.3646 Y14.5144 F350.00
G01 X46.4772 Y14.5548 F350.00
G01 X46.5207 Y14.5714 F350.00
G01 X46.5780 Y14.5949 F350.00
G01 X46.6358 Y14.6205 F350.00
G01 X46.7401 Y14.6697 F350.00
G01 X46.7743 Y14.6863 F350.00
G01 X46.8196 Y14.7096 F350.00
G01 X46.8666 Y14.7350 F350.00
G01 X46.9071 Y14.7581 F350.00
G01 X47.0097 Y14.8195 F350.00
G01 X47.0530 Y14.8464 F350.00
G01 X47.1047 Y14.8805 F350.00
G01 X47.1536 Y14.9145 F350.00
