(G-CODE GENERATED BY FLATCAM v8.994 - www.flatcam.org - Version Date: 2020/11/7)

(Name: BACK_NPTH_3.2mm_cnc)
(Type: G-code from Geometry)
(Units: MM)

(Created on Friday, 26 June 2026 at 10:17)

(This preprocessor is used with a motion controller loaded with GRBL firmware.)
(It is configured to be compatible with almost any version of GRBL firmware.)


(TOOLS DIAMETER: )
(Tool: 1 -> Dia: 3.2)
(Tool: 2 -> Dia: 3.25)

(FEEDRATE Z: )
(Tool: 1 -> Feedrate: 300.0)
(Tool: 2 -> Feedrate: 300.0)

(FEEDRATE RAPIDS: )
(Tool: 1 -> Feedrate Rapids: 1500)
(Tool: 2 -> Feedrate Rapids: 1500)

(Z_CUT: )
(Tool: 1 -> Z_Cut: -1.7)
(Tool: 2 -> Z_Cut: -1.7)

(Tools Offset: )
(Tool: 1 -> Offset Z: 0.0)
(Tool: 2 -> Offset Z: 0.0)

(DEPTH_PER_CUT: )
(Tool: 1 -> DeptPerCut: 0.7)
(Tool: 2 -> DeptPerCut: 0.7)

(Z_MOVE: )
(Tool: 1 -> Z_Move: 0.5)
(Tool: 2 -> Z_Move: 0.5)

(Z Toolchange: 40.0 mm)
(X,Y Toolchange: 0.0000, 0.0000 mm)
(Z Start: None mm)
(Z End: 40.0 mm)
(X,Y End: None mm)
(Steps per circle: 64)
(Steps per circle: 64)
(Preprocessor Excellon: grbl_11)

(X range:   51.2759 ...  113.5259  mm)
(Y range:   -1.4750 ...   60.5400  mm)

(Spindle Speed: 0 RPM)
G21
G90
G17
G94


G01 F300.00

M5             
G00 Z40.0000
G00 X0.0000 Y0.0000                
T1
M6
(MSG, Change to Tool Dia = 3.2000 ||| Total drills for tool T1 = 2)
M0
G00 Z40.0000

G01 F300.00
M03
G00 X109.2859 Y58.9400
G01 Z-0.7000
G01 Z0
G00 Z0.5000
G01 Z-1.4000
G01 Z0
G00 Z0.5000
G01 Z-1.7000
G01 Z0
G00 Z0.5000
G00 X109.2859 Y41.1600
G01 Z-0.7000
G01 Z0
G00 Z0.5000
G01 Z-1.4000
G01 Z0
G00 Z0.5000
G01 Z-1.7000
G01 Z0
G00 Z0.5000
G01 F300.00

M5             
G00 Z40.0000
G00 X0.0000 Y0.0000                
T2
M6
(MSG, Change to Tool Dia = 3.2500 ||| Total drills for tool T2 = 4)
M0
G00 Z40.0000

G01 F300.00
M03
G00 X111.9009 Y29.6600
G01 Z-0.7000
G01 Z0
G00 Z0.5000
G01 Z-1.4000
G01 Z0
G00 Z0.5000
G01 Z-1.7000
G01 Z0
G00 Z0.5000
G00 X111.9009 Y0.1500
G01 Z-0.7000
G01 Z0
G00 Z0.5000
G01 Z-1.4000
G01 Z0
G00 Z0.5000
G01 Z-1.7000
G01 Z0
G00 Z0.5000
G00 X52.9009 Y0.1500
G01 Z-0.7000
G01 Z0
G00 Z0.5000
G01 Z-1.4000
G01 Z0
G00 Z0.5000
G01 Z-1.7000
G01 Z0
G00 Z0.5000
G00 X52.9009 Y29.6600
G01 Z-0.7000
G01 Z0
G00 Z0.5000
G01 Z-1.4000
G01 Z0
G00 Z0.5000
G01 Z-1.7000
G01 Z0
G00 Z0.5000
M05
G00 Z40.00


