(G-CODE GENERATED BY FLATCAM v8.994 - www.flatcam.org - Version Date: 2020/11/7)

(Name: Buzzer PCB-B_Cu.gbr_iso_combined_cnc)
(Type: G-code from Geometry)
(Units: MM)

(Created on Thursday, 25 June 2026 at 18:58)


G01 F350.00

M5             
G00 Z40.0000
G00 X0.0000 Y0.0000                
T1
M6
(MSG, Change to Tool Dia = 0.4000)
M0
G00 Z40.0000

M03
G01 F350.00
G00 X2.2109 Y17.5823
G01 F250.00
G01 Z-0.0500
G01 F350.00
G01 X2.1854 Y17.5555 F350.00
G01 X2.1720 Y17.5425 F350.00
G01 X2.0856 Y17.4639 F350.00
G01 X2.0574 Y17.4395 F350.00
G01 X2.0280 Y17.4166 F350.00
G01 X1.9492 Y17.3581 F350.00
G01 X1.9187 Y17.3366 F350.00
G01 X1.8871 Y17.3167 F350.00
G01 X1.8030 Y17.2662 F350.00
G01 X1.7705 Y17.2478 F350.00
G01 X1.7372 Y17.2310 F350.00
G01 X1.6315 Y17.1813 F350.00
G01 X1.6144 Y17.1740 F350.00
G01 X1.5796 Y17.1605 F350.00
G01 X1.4872 Y17.1275 F350.00
G01 X1.4518 Y17.1158 F350.00
G01 X1.4158 Y17.1058 F350.00
G01 X1.3206 Y17.0820 F350.00
G01 X1.3025 Y17.0777 F350.00
G01 X1.2659 Y17.0704 F350.00
G01 X1.1319 Y17.0505 F350.00
G01 X1.1134 Y17.0485 F350.00
G01 X1.0762 Y17.0457 F350.00
G01 X0.9782 Y17.0409 F350.00
G01 X0.9409 Y17.0400 F350.00
G01 X0.9036 Y17.0409 F350.00
G01 X0.8056 Y17.0457 F350.00
G01 X0.7684 Y17.0485 F350.00
G01 X0.7438 Y17.0513 F350.00
G01 X2.4707 Y15.3244 F350.00
G01 X2.4707 Y17.3594 F350.00
G01 X2.3789 Y17.4278 F350.00
G01 X2.3501 Y17.4515 F350.00
G01 X2.2497 Y17.5425 F350.00
G01 X2.2364 Y17.5555 F350.00
G01 X2.2109 Y17.5823 F350.00
G00 Z0.5000
G00 X2.2109 Y18.0424
G01 F250.00
G01 Z-0.0500
G01 F350.00
G01 X2.1779 Y17.9876 F350.00
G01 X2.1648 Y17.9680 F350.00
G01 X2.0923 Y17.8703 F350.00
G01 X2.0773 Y17.8521 F350.00
G01 X2.0695 Y17.8433 F350.00
G01 X1.9956 Y17.7619 F350.00
G01 X1.9789 Y17.7453 F350.00
G01 X1.9703 Y17.7372 F350.00
G01 X1.8976 Y17.6713 F350.00
G01 X1.8798 Y17.6559 F350.00
G01 X1.8612 Y17.6415 F350.00
G01 X1.7728 Y17.5761 F350.00
G01 X1.7631 Y17.5694 F350.00
G01 X1.7432 Y17.5568 F350.00
G01 X1.6590 Y17.5064 F350.00
G01 X1.6385 Y17.4948 F350.00
G01 X1.6175 Y17.4842 F350.00
G01 X1.5288 Y17.4422 F350.00
G01 X1.5072 Y17.4327 F350.00
G01 X1.4853 Y17.4242 F350.00
G01 X1.3929 Y17.3911 F350.00
G01 X1.3705 Y17.3837 F350.00
G01 X1.3478 Y17.3774 F350.00
G01 X1.2526 Y17.3536 F350.00
G01 X1.2296 Y17.3484 F350.00
G01 X1.2064 Y17.3444 F350.00
G01 X1.1093 Y17.3300 F350.00
G01 X1.0859 Y17.3271 F350.00
G01 X1.0624 Y17.3254 F350.00
G01 X0.9644 Y17.3206 F350.00
G01 X0.9526 Y17.3201 F350.00
G01 X0.9291 Y17.3201 F350.00
G01 X0.8075 Y17.3261 F350.00
G01 X0.7958 Y17.3271 F350.00
G01 X0.7724 Y17.3300 F350.00
G01 X0.6753 Y17.3444 F350.00
G01 X0.6521 Y17.3484 F350.00
G01 X0.6291 Y17.3536 F350.00
G01 X0.5226 Y17.3804 F350.00
G01 X0.5112 Y17.3837 F350.00
G01 X0.4889 Y17.3911 F350.00
G01 X0.3965 Y17.4242 F350.00
G01 X0.3745 Y17.4327 F350.00
G01 X0.3530 Y17.4422 F350.00
G01 X0.2642 Y17.4842 F350.00
G01 X0.2432 Y17.4948 F350.00
G01 X0.2329 Y17.5004 F350.00
G01 X0.1285 Y17.5630 F350.00
G01 X0.1186 Y17.5694 F350.00
G01 X0.0994 Y17.5830 F350.00
G01 X0.0205 Y17.6415 F350.00
G01 X0.0020 Y17.6559 F350.00
G01 X-0.0159 Y17.6713 F350.00
G01 X-0.0790 Y17.7286 F350.00
G01 X-0.0790 Y17.4782 F350.00
G01 X2.7507 Y14.6485 F350.00
G01 X2.7507 Y17.5135 F350.00
G01 X2.6785 Y17.5568 F350.00
G01 X2.6586 Y17.5694 F350.00
G01 X2.6394 Y17.5830 F350.00
G01 X2.5605 Y17.6415 F350.00
G01 X2.5420 Y17.6559 F350.00
G01 X2.5241 Y17.6713 F350.00
G01 X2.4514 Y17.7372 F350.00
G01 X2.4343 Y17.7535 F350.00
G01 X2.4181 Y17.7705 F350.00
G01 X2.3522 Y17.8433 F350.00
G01 X2.3444 Y17.8521 F350.00
G01 X2.3294 Y17.8703 F350.00
G01 X2.2570 Y17.9680 F350.00
G01 X2.2439 Y17.9876 F350.00
G01 X2.2109 Y18.0424 F350.00
G00 Z0.5000
G00 X3.0307 Y17.6878
G01 F250.00
G01 Z-0.0500
G01 F350.00
G01 X3.0307 Y14.3000 F350.00
G01 X3.0329 Y14.2559 F350.00
G01 X3.0394 Y14.2122 F350.00
G01 X3.0475 Y14.1788 F350.00
G01 X3.0516 Y14.1647 F350.00
G01 X3.0615 Y14.1369 F350.00
G01 X3.0690 Y14.1188 F350.00
G01 X3.0839 Y14.0878 F350.00
G01 X3.1066 Y14.0499 F350.00
G01 X3.1329 Y14.0144 F350.00
G01 X3.1558 Y13.9888 F350.00
G01 X3.1697 Y13.9749 F350.00
G01 X3.1915 Y13.9552 F350.00
G01 X3.2030 Y13.9460 F350.00
G01 X3.2308 Y13.9257 F350.00
G01 X3.2687 Y13.9030 F350.00
G01 X3.3041 Y13.8861 F350.00
G01 X3.3178 Y13.8806 F350.00
G01 X3.3502 Y13.8693 F350.00
G01 X3.3930 Y13.8585 F350.00
G01 X3.4367 Y13.8520 F350.00
G01 X3.4809 Y13.8499 F350.00
G01 X21.1074 Y13.8499 F350.00
G01 X21.1515 Y13.8520 F350.00
G01 X21.1904 Y13.8576 F350.00
G01 X21.2048 Y13.8607 F350.00
G01 X21.2381 Y13.8693 F350.00
G01 X21.2705 Y13.8806 F350.00
G01 X21.2842 Y13.8861 F350.00
G01 X21.3152 Y13.9008 F350.00
G01 X21.3239 Y13.9054 F350.00
G01 X21.3492 Y13.9205 F350.00
G01 X21.3655 Y13.9314 F350.00
G01 X21.3930 Y13.9520 F350.00
G01 X21.4257 Y13.9817 F350.00
G01 X24.7991 Y17.3552 F350.00
G01 X24.8288 Y17.3879 F350.00
G01 X24.8495 Y17.4154 F350.00
G01 X24.8604 Y17.4317 F350.00
G01 X24.8755 Y17.4570 F350.00
G01 X24.8801 Y17.4656 F350.00
G01 X24.8948 Y17.4967 F350.00
G01 X24.9003 Y17.5104 F350.00
G01 X24.9116 Y17.5428 F350.00
G01 X24.9202 Y17.5761 F350.00
G01 X24.9232 Y17.5905 F350.00
G01 X24.9283 Y17.6245 F350.00
G01 X24.9295 Y17.6391 F350.00
G01 X24.9309 Y17.6685 F350.00
G01 X24.9310 Y21.1136 F350.00
G01 X40.5491 Y36.7317 F350.00
G01 X40.5788 Y36.7644 F350.00
G01 X40.5995 Y36.7919 F350.00
G01 X40.6104 Y36.8082 F350.00
G01 X40.6255 Y36.8335 F350.00
G01 X40.6301 Y36.8422 F350.00
G01 X40.6448 Y36.8732 F350.00
G01 X40.6503 Y36.8869 F350.00
G01 X40.6616 Y36.9193 F350.00
G01 X40.6702 Y36.9526 F350.00
G01 X40.6732 Y36.9670 F350.00
G01 X40.6788 Y37.0059 F350.00
G01 X40.6810 Y37.0500 F350.00
G01 X40.6810 Y46.5500 F350.00
G01 X40.6788 Y46.5941 F350.00
G01 X40.6723 Y46.6378 F350.00
G01 X40.6630 Y46.6759 F350.00
G01 X40.6585 Y46.6900 F350.00
G01 X40.6467 Y46.7223 F350.00
G01 X40.6278 Y46.7622 F350.00
G01 X40.6051 Y46.8001 F350.00
G01 X40.5849 Y46.8278 F350.00
G01 X40.5757 Y46.8393 F350.00
G01 X40.5491 Y46.8683 F350.00
G01 X36.3410 Y51.0764 F350.00
G01 X36.3410 Y51.3500 F350.00
G01 X36.3958 Y51.3501 F350.00
G01 X36.4987 Y51.3551 F350.00
G01 X36.5134 Y51.3563 F350.00
G01 X36.6250 Y51.3731 F350.00
G01 X36.7345 Y51.4003 F350.00
G01 X36.7485 Y51.4048 F350.00
G01 X36.8409 Y51.4378 F350.00
G01 X36.8591 Y51.4453 F350.00
G01 X36.9565 Y51.4917 F350.00
G01 X37.0534 Y51.5496 F350.00
G01 X37.0656 Y51.5579 F350.00
G01 X37.1444 Y51.6163 F350.00
G01 X37.1596 Y51.6288 F350.00
G01 X37.2394 Y51.7015 F350.00
G01 X37.3185 Y51.7887 F350.00
G01 X37.3886 Y51.8833 F350.00
G01 X37.4443 Y51.9758 F350.00
G01 X37.4536 Y51.9931 F350.00
G01 X37.4955 Y52.0818 F350.00
G01 X37.5013 Y52.0953 F350.00
G01 X37.5392 Y52.2017 F350.00
G01 X37.5657 Y52.3063 F350.00
G01 X37.5695 Y52.3256 F350.00
G01 X37.5851 Y52.4324 F350.00
G01 X37.5906 Y52.5402 F350.00
G01 X37.5906 Y52.5598 F350.00
G01 X37.5851 Y52.6676 F350.00
G01 X37.5678 Y52.7841 F350.00
G01 X37.5418 Y52.8889 F350.00
G01 X37.5361 Y52.9077 F350.00
G01 X37.4995 Y53.0092 F350.00
G01 X37.4492 Y53.1157 F350.00
G01 X37.3886 Y53.2167 F350.00
G01 X37.3245 Y53.3035 F350.00
G01 X37.3121 Y53.3187 F350.00
G01 X37.2462 Y53.3914 F350.00
G01 X37.2323 Y53.4053 F350.00
G01 X37.1521 Y53.4776 F350.00
G01 X37.0575 Y53.5478 F350.00
G01 X36.9565 Y53.6083 F350.00
G01 X36.8591 Y53.6547 F350.00
G01 X36.8409 Y53.6622 F350.00
G01 X36.7392 Y53.6983 F350.00
G01 X36.6345 Y53.7248 F350.00
G01 X36.6153 Y53.7286 F350.00
G01 X36.5182 Y53.7430 F350.00
G01 X36.4987 Y53.7449 F350.00
G01 X36.3909 Y53.7500 F350.00
G01 X35.3909 Y53.7500 F350.00
G01 X35.2830 Y53.7449 F350.00
G01 X35.2684 Y53.7437 F350.00
G01 X35.1664 Y53.7286 F350.00
G01 X35.1472 Y53.7248 F350.00
G01 X35.0425 Y53.6983 F350.00
G01 X34.9408 Y53.6622 F350.00
G01 X34.9227 Y53.6547 F350.00
G01 X34.8252 Y53.6083 F350.00
G01 X34.7325 Y53.5530 F350.00
G01 X34.7201 Y53.5450 F350.00
G01 X34.6296 Y53.4776 F350.00
G01 X34.5423 Y53.3985 F350.00
G01 X34.4632 Y53.3113 F350.00
G01 X34.3987 Y53.2247 F350.00
G01 X34.3878 Y53.2084 F350.00
G01 X34.3374 Y53.1242 F350.00
G01 X34.3281 Y53.1069 F350.00
G01 X34.2822 Y53.0092 F350.00
G01 X34.2456 Y52.9077 F350.00
G01 X34.2399 Y52.8889 F350.00
G01 X34.2139 Y52.7841 F350.00
G01 X34.1978 Y52.6774 F350.00
G01 X34.1959 Y52.6578 F350.00
G01 X34.1909 Y52.5500 F350.00
G01 X34.1966 Y52.4324 F350.00
G01 X34.2139 Y52.3159 F350.00
G01 X34.2425 Y52.2017 F350.00
G01 X34.2822 Y52.0908 F350.00
G01 X34.3326 Y51.9843 F350.00
G01 X34.3931 Y51.8833 F350.00
G01 X34.4602 Y51.7926 F350.00
G01 X34.4664 Y51.7850 F350.00
G01 X34.4772 Y51.7729 F350.00
G01 X33.2044 Y50.5001 F350.00
G01 X25.3315 Y50.5001 F350.00
G01 X22.9310 Y52.9007 F350.00
G01 X22.9310 Y61.1136 F350.00
G01 X28.0673 Y66.2499 F350.00
G01 X60.1944 Y66.2499 F350.00
G01 X60.7126 Y65.7317 F350.00
G01 X60.7415 Y65.7052 F350.00
G01 X60.7530 Y65.6960 F350.00
G01 X60.7808 Y65.6757 F350.00
G01 X60.8144 Y65.6554 F350.00
G01 X60.8274 Y65.6486 F350.00
G01 X60.8586 Y65.6341 F350.00
G01 X60.8909 Y65.6223 F350.00
G01 X60.9049 Y65.6179 F350.00
G01 X60.9382 Y65.6095 F350.00
G01 X60.9527 Y65.6068 F350.00
G01 X60.9867 Y65.6020 F350.00
G01 X61.0309 Y65.5999 F350.00
G01 X63.0986 Y65.5999 F350.00
G01 X63.0866 Y65.5176 F350.00
G01 X63.0811 Y65.4098 F350.00
G01 X63.0811 Y65.3902 F350.00
G01 X63.0859 Y65.2922 F350.00
G01 X63.0878 Y65.2726 F350.00
G01 X63.1039 Y65.1659 F350.00
G01 X63.1312 Y65.0564 F350.00
G01 X63.1356 Y65.0423 F350.00
G01 X63.1722 Y64.9408 F350.00
G01 X63.2226 Y64.8343 F350.00
G01 X63.2831 Y64.7333 F350.00
G01 X63.3472 Y64.6465 F350.00
G01 X63.3564 Y64.6350 F350.00
G01 X63.4323 Y64.5515 F350.00
G01 X63.5122 Y64.4788 F350.00
G01 X63.5273 Y64.4663 F350.00
G01 X63.6062 Y64.4079 F350.00
G01 X63.6225 Y64.3970 F350.00
G01 X63.7152 Y64.3417 F350.00
G01 X63.8127 Y64.2953 F350.00
G01 X63.8308 Y64.2878 F350.00
G01 X63.9325 Y64.2517 F350.00
G01 X64.0468 Y64.2231 F350.00
G01 X64.1632 Y64.2058 F350.00
G01 X64.2809 Y64.2000 F350.00
G01 X65.2858 Y64.2001 F350.00
G01 X65.3985 Y64.2058 F350.00
G01 X65.5150 Y64.2231 F350.00
G01 X65.6292 Y64.2517 F350.00
G01 X65.7309 Y64.2878 F350.00
G01 X65.7491 Y64.2953 F350.00
G01 X65.8465 Y64.3417 F350.00
G01 X65.9393 Y64.3970 F350.00
G01 X65.9556 Y64.4079 F350.00
G01 X66.0421 Y64.4724 F350.00
G01 X66.1294 Y64.5515 F350.00
G01 X66.2085 Y64.6387 F350.00
G01 X66.2786 Y64.7333 F350.00
G01 X66.3392 Y64.8343 F350.00
G01 X66.3855 Y64.9318 F350.00
G01 X66.3930 Y64.9499 F350.00
G01 X66.4261 Y65.0423 F350.00
G01 X66.4318 Y65.0611 F350.00
G01 X66.4578 Y65.1659 F350.00
G01 X66.4739 Y65.2726 F350.00
G01 X66.4758 Y65.2922 F350.00
G01 X66.4809 Y65.4000 F350.00
G01 X66.4751 Y65.5176 F350.00
G01 X66.4578 Y65.6341 F350.00
G01 X66.4292 Y65.7483 F350.00
G01 X66.3895 Y65.8592 F350.00
G01 X66.3392 Y65.9657 F350.00
G01 X66.2786 Y66.0667 F350.00
G01 X66.2115 Y66.1574 F350.00
G01 X66.2021 Y66.1687 F350.00
G01 X66.1294 Y66.2485 F350.00
G01 X66.0421 Y66.3276 F350.00
G01 X65.9475 Y66.3978 F350.00
G01 X65.8465 Y66.4583 F350.00
G01 X65.7401 Y66.5087 F350.00
G01 X65.6292 Y66.5483 F350.00
G01 X65.5150 Y66.5769 F350.00
G01 X65.4082 Y66.5930 F350.00
G01 X65.3936 Y66.5946 F350.00
G01 X65.2809 Y66.6000 F350.00
G01 X64.2809 Y66.6000 F350.00
G01 X64.1730 Y66.5949 F350.00
G01 X64.1535 Y66.5930 F350.00
G01 X64.0468 Y66.5769 F350.00
G01 X63.9420 Y66.5509 F350.00
G01 X63.9232 Y66.5452 F350.00
G01 X63.8308 Y66.5122 F350.00
G01 X63.8171 Y66.5067 F350.00
G01 X63.8030 Y66.5001 F350.00
G01 X61.2173 Y66.5001 F350.00
G01 X60.6991 Y67.0183 F350.00
G01 X60.6739 Y67.0415 F350.00
G01 X60.6626 Y67.0510 F350.00
G01 X60.6309 Y67.0743 F350.00
G01 X60.5930 Y67.0970 F350.00
G01 X60.5531 Y67.1159 F350.00
G01 X60.5208 Y67.1277 F350.00
G01 X60.5021 Y67.1334 F350.00
G01 X60.4735 Y67.1405 F350.00
G01 X60.4639 Y67.1424 F350.00
G01 X60.4250 Y67.1480 F350.00
G01 X60.3858 Y67.1501 F350.00
G01 X27.8809 Y67.1501 F350.00
G01 X27.8367 Y67.1480 F350.00
G01 X27.8027 Y67.1432 F350.00
G01 X27.7835 Y67.1393 F350.00
G01 X27.7549 Y67.1321 F350.00
G01 X27.7409 Y67.1277 F350.00
G01 X27.7086 Y67.1159 F350.00
G01 X27.6687 Y67.0970 F350.00
G01 X27.6308 Y67.0743 F350.00
G01 X27.5991 Y67.0510 F350.00
G01 X27.5879 Y67.0415 F350.00
G01 X27.5626 Y67.0183 F350.00
G01 X22.1626 Y61.6183 F350.00
G01 X22.1329 Y61.5856 F350.00
G01 X22.1066 Y61.5501 F350.00
G01 X22.0839 Y61.5122 F350.00
G01 X22.0690 Y61.4812 F350.00
G01 X22.0632 Y61.4677 F350.00
G01 X22.0501 Y61.4307 F350.00
G01 X22.0394 Y61.3878 F350.00
G01 X22.0329 Y61.3441 F350.00
G01 X22.0307 Y61.3000 F350.00
G01 X22.0307 Y52.7142 F350.00
G01 X22.0329 Y52.6701 F350.00
G01 X22.0394 Y52.6264 F350.00
G01 X22.0501 Y52.5835 F350.00
G01 X22.0650 Y52.5420 F350.00
G01 X22.0839 Y52.5020 F350.00
G01 X22.1066 Y52.4641 F350.00
G01 X22.1329 Y52.4287 F350.00
G01 X22.1626 Y52.3959 F350.00
G01 X24.8303 Y49.7283 F350.00
G01 X24.8595 Y49.7020 F350.00
G01 X24.8950 Y49.6757 F350.00
G01 X24.9329 Y49.6530 F350.00
G01 X24.9638 Y49.6381 F350.00
G01 X24.9774 Y49.6323 F350.00
G01 X25.0051 Y49.6223 F350.00
G01 X25.0239 Y49.6166 F350.00
G01 X25.0573 Y49.6085 F350.00
G01 X25.1010 Y49.6020 F350.00
G01 X25.1451 Y49.5999 F350.00
G01 X33.3909 Y49.5999 F350.00
G01 X33.4350 Y49.6020 F350.00
G01 X33.4739 Y49.6076 F350.00
G01 X33.4835 Y49.6095 F350.00
G01 X33.5121 Y49.6166 F350.00
G01 X33.5308 Y49.6223 F350.00
G01 X33.5631 Y49.6341 F350.00
G01 X33.6030 Y49.6530 F350.00
G01 X33.6368 Y49.6731 F350.00
G01 X33.6490 Y49.6814 F350.00
G01 X33.6764 Y49.7020 F350.00
G01 X33.7056 Y49.7283 F350.00
G01 X35.3302 Y51.3527 F350.00
G01 X35.3860 Y51.3501 F350.00
G01 X35.4407 Y51.3500 F350.00
G01 X35.4407 Y50.8900 F350.00
G01 X35.4425 Y50.8508 F350.00
G01 X35.4441 Y50.8361 F350.00
G01 X35.4494 Y50.8022 F350.00
G01 X35.4588 Y50.7641 F350.00
G01 X35.4632 Y50.7500 F350.00
G01 X35.4732 Y50.7223 F350.00
G01 X35.4769 Y50.7132 F350.00
G01 X35.4939 Y50.6778 F350.00
G01 X35.5113 Y50.6482 F350.00
G01 X35.5222 Y50.6319 F350.00
G01 X35.5398 Y50.6083 F350.00
G01 X35.5461 Y50.6007 F350.00
G01 X35.5726 Y50.5717 F350.00
G01 X39.7807 Y46.3636 F350.00
G01 X39.7807 Y37.2364 F350.00
G01 X24.1626 Y21.6183 F350.00
G01 X24.1329 Y21.5856 F350.00
G01 X24.1066 Y21.5501 F350.00
G01 X24.0887 Y21.5207 F350.00
G01 X24.0795 Y21.5034 F350.00
G01 X24.0669 Y21.4768 F350.00
G01 X24.0615 Y21.4631 F350.00
G01 X24.0501 Y21.4307 F350.00
G01 X24.0394 Y21.3878 F350.00
G01 X24.0329 Y21.3441 F350.00
G01 X24.0308 Y21.3049 F350.00
G01 X24.0307 Y17.8599 F350.00
G01 X20.9210 Y14.7501 F350.00
G01 X3.9310 Y14.7501 F350.00
G01 X3.9310 Y17.6878 F350.00
G01 X3.9491 Y17.6953 F350.00
G01 X4.0465 Y17.7417 F350.00
G01 X4.1475 Y17.8022 F350.00
G01 X4.2421 Y17.8724 F350.00
G01 X4.3223 Y17.9447 F350.00
G01 X4.3362 Y17.9586 F350.00
G01 X4.4085 Y18.0387 F350.00
G01 X4.4730 Y18.1253 F350.00
G01 X4.4839 Y18.1416 F350.00
G01 X4.5343 Y18.2258 F350.00
G01 X4.5436 Y18.2431 F350.00
G01 X4.5895 Y18.3408 F350.00
G01 X4.6261 Y18.4423 F350.00
G01 X4.6318 Y18.4611 F350.00
G01 X4.6557 Y18.5563 F350.00
G01 X4.6595 Y18.5756 F350.00
G01 X4.6751 Y18.6824 F350.00
G01 X4.6806 Y18.7902 F350.00
G01 X4.6808 Y19.8049 F350.00
G01 X4.6751 Y19.9176 F350.00
G01 X4.6578 Y20.0341 F350.00
G01 X4.6292 Y20.1483 F350.00
G01 X4.5930 Y20.2501 F350.00
G01 X4.5855 Y20.2682 F350.00
G01 X4.5436 Y20.3569 F350.00
G01 X4.5343 Y20.3742 F350.00
G01 X4.4786 Y20.4667 F350.00
G01 X4.4085 Y20.5613 F350.00
G01 X4.3294 Y20.6485 F350.00
G01 X4.2421 Y20.7276 F350.00
G01 X4.1475 Y20.7978 F350.00
G01 X4.0551 Y20.8535 F350.00
G01 X4.0378 Y20.8627 F350.00
G01 X3.9491 Y20.9047 F350.00
G01 X3.9309 Y20.9122 F350.00
G01 X3.8292 Y20.9483 F350.00
G01 X3.7245 Y20.9748 F350.00
G01 X3.7101 Y20.9778 F350.00
G01 X3.5985 Y20.9942 F350.00
G01 X3.4809 Y21.0000 F350.00
G01 X3.3632 Y20.9942 F350.00
G01 X3.2468 Y20.9769 F350.00
G01 X3.1325 Y20.9483 F350.00
G01 X3.0216 Y20.9087 F350.00
G01 X2.9152 Y20.8583 F350.00
G01 X2.8142 Y20.7978 F350.00
G01 X2.7196 Y20.7276 F350.00
G01 X2.6323 Y20.6485 F350.00
G01 X2.5532 Y20.5613 F350.00
G01 X2.4831 Y20.4667 F350.00
G01 X2.4226 Y20.3657 F350.00
G01 X2.3722 Y20.2592 F350.00
G01 X2.3325 Y20.1483 F350.00
G01 X2.3039 Y20.0341 F350.00
G01 X2.2866 Y19.9176 F350.00
G01 X2.2809 Y19.8049 F350.00
G01 X2.2809 Y18.7951 F350.00
G01 X2.2866 Y18.6824 F350.00
G01 X2.3022 Y18.5756 F350.00
G01 X2.3061 Y18.5563 F350.00
G01 X2.3325 Y18.4517 F350.00
G01 X2.3722 Y18.3408 F350.00
G01 X2.4181 Y18.2431 F350.00
G01 X2.4274 Y18.2258 F350.00
G01 X2.4831 Y18.1333 F350.00
G01 X2.5472 Y18.0465 F350.00
G01 X2.5597 Y18.0313 F350.00
G01 X2.6256 Y17.9586 F350.00
G01 X2.6394 Y17.9447 F350.00
G01 X2.7196 Y17.8724 F350.00
G01 X2.8142 Y17.8022 F350.00
G01 X2.9152 Y17.7417 F350.00
G01 X3.0127 Y17.6953 F350.00
G01 X3.0307 Y17.6878 F350.00
G00 Z0.5000
G00 X4.5419 Y20.8313
G01 F250.00
G01 Z-0.0500
G01 F350.00
G01 X4.5432 Y20.8470 F350.00
G01 X4.5461 Y20.8704 F350.00
G01 X4.5479 Y20.8821 F350.00
G01 X4.5525 Y20.9052 F350.00
G01 X4.5582 Y20.9280 F350.00
G01 X4.5651 Y20.9506 F350.00
G01 X4.5730 Y20.9727 F350.00
G01 X4.5774 Y20.9837 F350.00
G01 X4.5820 Y20.9945 F350.00
G01 X4.5921 Y21.0158 F350.00
G01 X4.6032 Y21.0366 F350.00
G01 X4.6153 Y21.0568 F350.00
G01 X4.6218 Y21.0667 F350.00
G01 X4.6353 Y21.0859 F350.00
G01 X4.6498 Y21.1045 F350.00
G01 X4.6652 Y21.1223 F350.00
G01 X4.6814 Y21.1394 F350.00
G01 X4.6899 Y21.1476 F350.00
G01 X4.7073 Y21.1635 F350.00
G01 X4.7255 Y21.1784 F350.00
G01 X4.7349 Y21.1855 F350.00
G01 X4.7542 Y21.1991 F350.00
G01 X4.7641 Y21.2055 F350.00
G01 X4.7843 Y21.2176 F350.00
G01 X4.8050 Y21.2287 F350.00
G01 X4.8263 Y21.2388 F350.00
G01 X4.8481 Y21.2478 F350.00
G01 X4.8592 Y21.2519 F350.00
G01 X4.8815 Y21.2593 F350.00
G01 X4.9042 Y21.2656 F350.00
G01 X4.9272 Y21.2708 F350.00
G01 X4.9388 Y21.2729 F350.00
G01 X4.9504 Y21.2748 F350.00
G01 X4.9738 Y21.2777 F350.00
G01 X4.9973 Y21.2794 F350.00
G01 X5.0209 Y21.2800 F350.00
G01 X7.0209 Y21.2800 F350.00
G01 X7.0444 Y21.2794 F350.00
G01 X7.0679 Y21.2777 F350.00
G01 X7.0796 Y21.2764 F350.00
G01 X7.1029 Y21.2729 F350.00
G01 X7.1145 Y21.2708 F350.00
G01 X7.1375 Y21.2656 F350.00
G01 X7.1602 Y21.2593 F350.00
G01 X7.1826 Y21.2519 F350.00
G01 X7.2045 Y21.2435 F350.00
G01 X7.2261 Y21.2339 F350.00
G01 X7.2367 Y21.2287 F350.00
G01 X7.2471 Y21.2233 F350.00
G01 X7.2676 Y21.2117 F350.00
G01 X7.2875 Y21.1991 F350.00
G01 X7.3068 Y21.1855 F350.00
G01 X7.3162 Y21.1784 F350.00
G01 X7.3344 Y21.1635 F350.00
G01 X7.3518 Y21.1476 F350.00
G01 X7.3603 Y21.1394 F350.00
G01 X7.3765 Y21.1223 F350.00
G01 X7.3919 Y21.1045 F350.00
G01 X7.3993 Y21.0953 F350.00
G01 X7.4133 Y21.0764 F350.00
G01 X7.4200 Y21.0667 F350.00
G01 X7.4326 Y21.0468 F350.00
G01 X7.4442 Y21.0263 F350.00
G01 X7.4548 Y21.0052 F350.00
G01 X7.4643 Y20.9837 F350.00
G01 X7.4728 Y20.9617 F350.00
G01 X7.4802 Y20.9393 F350.00
G01 X7.4865 Y20.9166 F350.00
G01 X7.4916 Y20.8936 F350.00
G01 X7.4957 Y20.8704 F350.00
G01 X7.4985 Y20.8470 F350.00
G01 X7.5003 Y20.8236 F350.00
G01 X7.5009 Y20.8000 F350.00
G01 X7.5009 Y20.4783 F350.00
G01 X7.5106 Y20.4977 F350.00
G01 X7.5222 Y20.5182 F350.00
G01 X7.5727 Y20.6023 F350.00
G01 X7.5853 Y20.6222 F350.00
G01 X7.5989 Y20.6415 F350.00
G01 X7.6573 Y20.7203 F350.00
G01 X7.6718 Y20.7389 F350.00
G01 X7.6872 Y20.7567 F350.00
G01 X7.7531 Y20.8295 F350.00
G01 X7.7693 Y20.8465 F350.00
G01 X7.7864 Y20.8628 F350.00
G01 X7.8591 Y20.9287 F350.00
G01 X7.8679 Y20.9365 F350.00
G01 X7.8862 Y20.9514 F350.00
G01 X7.9744 Y21.0170 F350.00
G01 X7.9936 Y21.0306 F350.00
G01 X8.0135 Y21.0432 F350.00
G01 X8.0977 Y21.0936 F350.00
G01 X8.1079 Y21.0996 F350.00
G01 X8.1287 Y21.1107 F350.00
G01 X8.2280 Y21.1578 F350.00
G01 X8.2387 Y21.1627 F350.00
G01 X8.2604 Y21.1717 F350.00
G01 X8.3750 Y21.2127 F350.00
G01 X8.3976 Y21.2196 F350.00
G01 X8.4607 Y21.2355 F350.00
G01 X8.4609 Y24.5218 F350.00
G01 X8.4632 Y24.5698 F350.00
G01 X8.4656 Y24.5933 F350.00
G01 X8.4671 Y24.6049 F350.00
G01 X8.4707 Y24.6292 F350.00
G01 X8.4748 Y24.6524 F350.00
G01 X8.4799 Y24.6754 F350.00
G01 X8.4889 Y24.7106 F350.00
G01 X8.4957 Y24.7332 F350.00
G01 X8.4996 Y24.7443 F350.00
G01 X8.5078 Y24.7674 F350.00
G01 X8.5163 Y24.7894 F350.00
G01 X8.5259 Y24.8109 F350.00
G01 X8.5415 Y24.8437 F350.00
G01 X8.5469 Y24.8542 F350.00
G01 X8.5586 Y24.8747 F350.00
G01 X8.5712 Y24.8957 F350.00
G01 X8.5838 Y24.9156 F350.00
G01 X8.5974 Y24.9349 F350.00
G01 X8.6191 Y24.9640 F350.00
G01 X8.6341 Y24.9822 F350.00
G01 X8.6419 Y24.9910 F350.00
G01 X8.6583 Y25.0092 F350.00
G01 X8.6746 Y25.0263 F350.00
G01 X10.2509 Y26.6026 F350.00
G01 X10.2510 Y27.3118 F350.00
G01 X10.2563 Y27.4216 F350.00
G01 X10.2570 Y27.4333 F350.00
G01 X10.2593 Y27.4568 F350.00
G01 X10.2771 Y27.5772 F350.00
G01 X10.2793 Y27.5887 F350.00
G01 X10.2845 Y27.6117 F350.00
G01 X10.3083 Y27.7069 F350.00
G01 X10.3146 Y27.7296 F350.00
G01 X10.3220 Y27.7520 F350.00
G01 X10.3550 Y27.8444 F350.00
G01 X10.3635 Y27.8664 F350.00
G01 X10.3731 Y27.8879 F350.00
G01 X10.4150 Y27.9766 F350.00
G01 X10.4256 Y27.9977 F350.00
G01 X10.4372 Y28.0182 F350.00
G01 X10.4877 Y28.1023 F350.00
G01 X10.5003 Y28.1222 F350.00
G01 X10.5139 Y28.1415 F350.00
G01 X10.5723 Y28.2203 F350.00
G01 X10.5868 Y28.2389 F350.00
G01 X10.6022 Y28.2567 F350.00
G01 X10.6681 Y28.3295 F350.00
G01 X10.6843 Y28.3465 F350.00
G01 X10.7014 Y28.3628 F350.00
G01 X10.7741 Y28.4287 F350.00
G01 X10.7920 Y28.4441 F350.00
G01 X10.8105 Y28.4585 F350.00
G01 X10.8894 Y28.5170 F350.00
G01 X10.9086 Y28.5306 F350.00
G01 X10.9285 Y28.5432 F350.00
G01 X11.0127 Y28.5936 F350.00
G01 X11.0332 Y28.6052 F350.00
G01 X11.0542 Y28.6158 F350.00
G01 X11.1430 Y28.6578 F350.00
G01 X11.1645 Y28.6673 F350.00
G01 X11.1865 Y28.6758 F350.00
G01 X11.2789 Y28.7089 F350.00
G01 X11.3012 Y28.7163 F350.00
G01 X11.3239 Y28.7226 F350.00
G01 X11.4191 Y28.7464 F350.00
G01 X11.4421 Y28.7516 F350.00
G01 X11.4653 Y28.7556 F350.00
G01 X11.5624 Y28.7700 F350.00
G01 X11.5858 Y28.7729 F350.00
G01 X11.6093 Y28.7746 F350.00
G01 X11.7073 Y28.7794 F350.00
G01 X11.7309 Y28.7800 F350.00
G01 X11.7544 Y28.7794 F350.00
G01 X11.8524 Y28.7746 F350.00
G01 X11.8759 Y28.7729 F350.00
G01 X11.8993 Y28.7700 F350.00
G01 X11.9964 Y28.7556 F350.00
G01 X12.0196 Y28.7516 F350.00
G01 X12.0426 Y28.7464 F350.00
G01 X12.1378 Y28.7226 F350.00
G01 X12.1605 Y28.7163 F350.00
G01 X12.1829 Y28.7089 F350.00
G01 X12.2753 Y28.6758 F350.00
G01 X12.2972 Y28.6673 F350.00
G01 X12.3101 Y28.6618 F350.00
G01 X13.7507 Y30.1024 F350.00
G01 X13.7507 Y37.6655 F350.00
G01 X13.6201 Y37.7122 F350.00
G01 X13.5981 Y37.7207 F350.00
G01 X13.5766 Y37.7303 F350.00
G01 X13.4435 Y37.7932 F350.00
G01 X13.4225 Y37.8038 F350.00
G01 X13.4020 Y37.8154 F350.00
G01 X13.2757 Y37.8911 F350.00
G01 X13.2558 Y37.9037 F350.00
G01 X13.2366 Y37.9173 F350.00
G01 X13.1183 Y38.0049 F350.00
G01 X13.0998 Y38.0194 F350.00
G01 X13.0819 Y38.0348 F350.00
G01 X12.9729 Y38.1337 F350.00
G01 X12.9558 Y38.1499 F350.00
G01 X12.9395 Y38.1670 F350.00
G01 X12.8407 Y38.2761 F350.00
G01 X12.8253 Y38.2939 F350.00
G01 X12.8179 Y38.3031 F350.00
G01 X12.7231 Y38.4307 F350.00
G01 X12.7096 Y38.4500 F350.00
G01 X12.6969 Y38.4699 F350.00
G01 X12.6213 Y38.5961 F350.00
G01 X12.6097 Y38.6166 F350.00
G01 X12.5991 Y38.6377 F350.00
G01 X12.5361 Y38.7707 F350.00
G01 X12.5266 Y38.7923 F350.00
G01 X12.5181 Y38.8143 F350.00
G01 X12.4685 Y38.9529 F350.00
G01 X12.4611 Y38.9752 F350.00
G01 X12.4548 Y38.9979 F350.00
G01 X12.4191 Y39.1407 F350.00
G01 X12.4139 Y39.1637 F350.00
G01 X12.4099 Y39.1869 F350.00
G01 X12.3883 Y39.3325 F350.00
G01 X12.3854 Y39.3559 F350.00
G01 X12.3837 Y39.3794 F350.00
G01 X12.3764 Y39.5264 F350.00
G01 X12.3759 Y39.5500 F350.00
G01 X12.3764 Y39.5736 F350.00
G01 X12.3837 Y39.7206 F350.00
G01 X12.3854 Y39.7441 F350.00
G01 X12.3883 Y39.7675 F350.00
G01 X12.4099 Y39.9131 F350.00
G01 X12.4139 Y39.9363 F350.00
G01 X12.4191 Y39.9593 F350.00
G01 X12.4548 Y40.1021 F350.00
G01 X12.4611 Y40.1248 F350.00
G01 X12.4685 Y40.1471 F350.00
G01 X12.5181 Y40.2857 F350.00
G01 X12.5266 Y40.3077 F350.00
G01 X12.5361 Y40.3293 F350.00
G01 X12.5991 Y40.4623 F350.00
G01 X12.6097 Y40.4834 F350.00
G01 X12.6213 Y40.5039 F350.00
G01 X12.6969 Y40.6301 F350.00
G01 X12.7096 Y40.6500 F350.00
G01 X12.7231 Y40.6693 F350.00
G01 X12.8108 Y40.7875 F350.00
G01 X12.8253 Y40.8061 F350.00
G01 X12.8407 Y40.8239 F350.00
G01 X12.9395 Y40.9330 F350.00
G01 X12.9558 Y40.9501 F350.00
G01 X12.9729 Y40.9663 F350.00
G01 X13.0872 Y41.0699 F350.00
G01 X3.2495 Y41.0699 F350.00
G01 X3.3639 Y40.9663 F350.00
G01 X3.3809 Y40.9501 F350.00
G01 X3.3972 Y40.9330 F350.00
G01 X3.4960 Y40.8239 F350.00
G01 X3.5114 Y40.8061 F350.00
G01 X3.5259 Y40.7875 F350.00
G01 X3.6136 Y40.6693 F350.00
G01 X3.6272 Y40.6500 F350.00
G01 X3.6398 Y40.6301 F350.00
G01 X3.7155 Y40.5039 F350.00
G01 X3.7271 Y40.4834 F350.00
G01 X3.7377 Y40.4623 F350.00
G01 X3.8006 Y40.3293 F350.00
G01 X3.8101 Y40.3077 F350.00
G01 X3.8186 Y40.2857 F350.00
G01 X3.8682 Y40.1471 F350.00
G01 X3.8756 Y40.1248 F350.00
G01 X3.8819 Y40.1021 F350.00
G01 X3.9177 Y39.9593 F350.00
G01 X3.9228 Y39.9363 F350.00
G01 X3.9268 Y39.9131 F350.00
G01 X3.9484 Y39.7675 F350.00
G01 X3.9513 Y39.7441 F350.00
G01 X3.9531 Y39.7206 F350.00
G01 X3.9603 Y39.5736 F350.00
G01 X3.9609 Y39.5500 F350.00
G01 X3.9603 Y39.5264 F350.00
G01 X3.9531 Y39.3794 F350.00
G01 X3.9523 Y39.3677 F350.00
G01 X3.9500 Y39.3442 F350.00
G01 X3.9268 Y39.1869 F350.00
G01 X3.9228 Y39.1637 F350.00
G01 X3.9177 Y39.1407 F350.00
G01 X3.8819 Y38.9979 F350.00
G01 X3.8756 Y38.9752 F350.00
G01 X3.8682 Y38.9529 F350.00
G01 X3.8186 Y38.8143 F350.00
G01 X3.8101 Y38.7923 F350.00
G01 X3.8006 Y38.7707 F350.00
G01 X3.7377 Y38.6377 F350.00
G01 X3.7271 Y38.6166 F350.00
G01 X3.7155 Y38.5961 F350.00
G01 X3.6398 Y38.4699 F350.00
G01 X3.6272 Y38.4500 F350.00
G01 X3.6136 Y38.4307 F350.00
G01 X3.5259 Y38.3125 F350.00
G01 X3.5114 Y38.2939 F350.00
G01 X3.4960 Y38.2761 F350.00
G01 X3.3972 Y38.1670 F350.00
G01 X3.3809 Y38.1499 F350.00
G01 X3.3639 Y38.1337 F350.00
G01 X3.2548 Y38.0348 F350.00
G01 X3.2370 Y38.0194 F350.00
G01 X3.2184 Y38.0049 F350.00
G01 X3.1002 Y37.9173 F350.00
G01 X3.0809 Y37.9037 F350.00
G01 X3.0610 Y37.8911 F350.00
G01 X2.9347 Y37.8154 F350.00
G01 X2.9142 Y37.8038 F350.00
G01 X2.8932 Y37.7932 F350.00
G01 X2.7601 Y37.7303 F350.00
G01 X2.7386 Y37.7207 F350.00
G01 X2.7166 Y37.7122 F350.00
G01 X2.5780 Y37.6626 F350.00
G01 X2.5556 Y37.6553 F350.00
G01 X2.5329 Y37.6490 F350.00
G01 X2.3901 Y37.6132 F350.00
G01 X2.3671 Y37.6080 F350.00
G01 X2.3439 Y37.6040 F350.00
G01 X2.1983 Y37.5824 F350.00
G01 X2.1749 Y37.5795 F350.00
G01 X2.1514 Y37.5778 F350.00
G01 X2.0044 Y37.5706 F350.00
G01 X1.9809 Y37.5700 F350.00
G01 X1.9610 Y37.5704 F350.00
G01 X1.9610 Y30.6024 F350.00
G01 X3.9859 Y28.5775 F350.00
G01 X4.0229 Y28.5996 F350.00
G01 X4.0437 Y28.6107 F350.00
G01 X4.1430 Y28.6578 F350.00
G01 X4.1537 Y28.6627 F350.00
G01 X4.1754 Y28.6717 F350.00
G01 X4.2789 Y28.7089 F350.00
G01 X4.3012 Y28.7163 F350.00
G01 X4.3239 Y28.7226 F350.00
G01 X4.4306 Y28.7491 F350.00
G01 X4.4421 Y28.7516 F350.00
G01 X4.4653 Y28.7556 F350.00
G01 X4.5624 Y28.7700 F350.00
G01 X4.5858 Y28.7729 F350.00
G01 X4.6093 Y28.7746 F350.00
G01 X4.7073 Y28.7794 F350.00
G01 X4.7309 Y28.7800 F350.00
G01 X4.7544 Y28.7794 F350.00
G01 X4.8524 Y28.7746 F350.00
G01 X4.8642 Y28.7739 F350.00
G01 X4.8876 Y28.7716 F350.00
G01 X4.9964 Y28.7556 F350.00
G01 X5.0196 Y28.7516 F350.00
G01 X5.0426 Y28.7464 F350.00
G01 X5.1378 Y28.7226 F350.00
G01 X5.1605 Y28.7163 F350.00
G01 X5.1829 Y28.7089 F350.00
G01 X5.2753 Y28.6758 F350.00
G01 X5.2972 Y28.6673 F350.00
G01 X5.3188 Y28.6578 F350.00
G01 X5.4075 Y28.6158 F350.00
G01 X5.4285 Y28.6052 F350.00
G01 X5.4490 Y28.5936 F350.00
G01 X5.5432 Y28.5370 F350.00
G01 X5.5531 Y28.5306 F350.00
G01 X5.5724 Y28.5170 F350.00
G01 X5.6512 Y28.4585 F350.00
G01 X5.6698 Y28.4441 F350.00
G01 X5.6876 Y28.4287 F350.00
G01 X5.7603 Y28.3628 F350.00
G01 X5.7689 Y28.3547 F350.00
G01 X5.7856 Y28.3381 F350.00
G01 X5.8595 Y28.2567 F350.00
G01 X5.8749 Y28.2389 F350.00
G01 X5.8894 Y28.2203 F350.00
G01 X5.9479 Y28.1415 F350.00
G01 X5.9614 Y28.1222 F350.00
G01 X5.9740 Y28.1023 F350.00
G01 X6.0245 Y28.0182 F350.00
G01 X6.0361 Y27.9977 F350.00
G01 X6.0467 Y27.9766 F350.00
G01 X6.0887 Y27.8879 F350.00
G01 X6.0982 Y27.8664 F350.00
G01 X6.1067 Y27.8444 F350.00
G01 X6.1397 Y27.7520 F350.00
G01 X6.1471 Y27.7296 F350.00
G01 X6.1534 Y27.7069 F350.00
G01 X6.1773 Y27.6117 F350.00
G01 X6.1824 Y27.5887 F350.00
G01 X6.1865 Y27.5655 F350.00
G01 X6.2009 Y27.4684 F350.00
G01 X6.2037 Y27.4451 F350.00
G01 X6.2055 Y27.4216 F350.00
G01 X6.2107 Y27.3118 F350.00
G01 X6.2109 Y26.3000 F350.00
G01 X6.2103 Y26.2764 F350.00
G01 X6.2047 Y26.1667 F350.00
G01 X6.2037 Y26.1549 F350.00
G01 X6.2009 Y26.1316 F350.00
G01 X6.1865 Y26.0345 F350.00
G01 X6.1824 Y26.0113 F350.00
G01 X6.1773 Y25.9883 F350.00
G01 X6.1534 Y25.8931 F350.00
G01 X6.1471 Y25.8704 F350.00
G01 X6.1397 Y25.8480 F350.00
G01 X6.1067 Y25.7556 F350.00
G01 X6.0982 Y25.7336 F350.00
G01 X6.0887 Y25.7121 F350.00
G01 X6.0467 Y25.6234 F350.00
G01 X6.0361 Y25.6023 F350.00
G01 X6.0245 Y25.5818 F350.00
G01 X5.9740 Y25.4977 F350.00
G01 X5.9614 Y25.4778 F350.00
G01 X5.9479 Y25.4585 F350.00
G01 X5.8894 Y25.3797 F350.00
G01 X5.8749 Y25.3611 F350.00
G01 X5.8595 Y25.3433 F350.00
G01 X5.7936 Y25.2705 F350.00
G01 X5.7774 Y25.2535 F350.00
G01 X5.7603 Y25.2372 F350.00
G01 X5.6876 Y25.1713 F350.00
G01 X5.6788 Y25.1635 F350.00
G01 X5.6606 Y25.1486 F350.00
G01 X5.5724 Y25.0830 F350.00
G01 X5.5531 Y25.0694 F350.00
G01 X5.5332 Y25.0568 F350.00
G01 X5.4490 Y25.0064 F350.00
G01 X5.4285 Y24.9948 F350.00
G01 X5.4075 Y24.9842 F350.00
G01 X5.3188 Y24.9422 F350.00
G01 X5.2972 Y24.9327 F350.00
G01 X5.2753 Y24.9242 F350.00
G01 X5.1829 Y24.8911 F350.00
G01 X5.1605 Y24.8837 F350.00
G01 X5.1378 Y24.8774 F350.00
G01 X5.0426 Y24.8536 F350.00
G01 X5.0196 Y24.8484 F350.00
G01 X4.9964 Y24.8444 F350.00
G01 X4.8993 Y24.8300 F350.00
G01 X4.8759 Y24.8271 F350.00
G01 X4.8642 Y24.8261 F350.00
G01 X4.7544 Y24.8206 F350.00
G01 X4.7309 Y24.8200 F350.00
G01 X4.7073 Y24.8206 F350.00
G01 X4.6093 Y24.8254 F350.00
G01 X4.5858 Y24.8271 F350.00
G01 X4.5624 Y24.8300 F350.00
G01 X4.4653 Y24.8444 F350.00
G01 X4.4537 Y24.8463 F350.00
G01 X4.4306 Y24.8509 F350.00
G01 X4.3239 Y24.8774 F350.00
G01 X4.3012 Y24.8837 F350.00
G01 X4.2789 Y24.8911 F350.00
G01 X4.1754 Y24.9283 F350.00
G01 X4.1537 Y24.9373 F350.00
G01 X4.1430 Y24.9422 F350.00
G01 X4.0437 Y24.9893 F350.00
G01 X4.0229 Y25.0004 F350.00
G01 X3.9859 Y25.0225 F350.00
G01 X1.6710 Y22.7076 F350.00
G01 X1.6710 Y21.0865 F350.00
G01 X1.7432 Y21.0432 F350.00
G01 X1.7631 Y21.0306 F350.00
G01 X1.7824 Y21.0170 F350.00
G01 X1.8612 Y20.9585 F350.00
G01 X1.8798 Y20.9441 F350.00
G01 X1.8976 Y20.9287 F350.00
G01 X1.9703 Y20.8628 F350.00
G01 X1.9874 Y20.8465 F350.00
G01 X2.0036 Y20.8295 F350.00
G01 X2.0695 Y20.7567 F350.00
G01 X2.0773 Y20.7479 F350.00
G01 X2.0923 Y20.7297 F350.00
G01 X2.1648 Y20.6320 F350.00
G01 X2.1779 Y20.6124 F350.00
G01 X2.2109 Y20.5576 F350.00
G01 X2.2439 Y20.6124 F350.00
G01 X2.2570 Y20.6320 F350.00
G01 X2.3294 Y20.7297 F350.00
G01 X2.3368 Y20.7389 F350.00
G01 X2.3522 Y20.7567 F350.00
G01 X2.4261 Y20.8381 F350.00
G01 X2.4343 Y20.8465 F350.00
G01 X2.4514 Y20.8628 F350.00
G01 X2.5241 Y20.9287 F350.00
G01 X2.5420 Y20.9441 F350.00
G01 X2.5605 Y20.9585 F350.00
G01 X2.6394 Y21.0170 F350.00
G01 X2.6586 Y21.0306 F350.00
G01 X2.6685 Y21.0370 F350.00
G01 X2.7729 Y21.0996 F350.00
G01 X2.7937 Y21.1107 F350.00
G01 X2.8042 Y21.1158 F350.00
G01 X2.8930 Y21.1578 F350.00
G01 X2.9145 Y21.1673 F350.00
G01 X2.9365 Y21.1758 F350.00
G01 X3.0289 Y21.2089 F350.00
G01 X3.0512 Y21.2163 F350.00
G01 X3.0626 Y21.2196 F350.00
G01 X3.1806 Y21.2491 F350.00
G01 X3.2037 Y21.2537 F350.00
G01 X3.2153 Y21.2556 F350.00
G01 X3.3241 Y21.2716 F350.00
G01 X3.3475 Y21.2739 F350.00
G01 X3.3593 Y21.2746 F350.00
G01 X3.4573 Y21.2794 F350.00
G01 X3.4809 Y21.2800 F350.00
G01 X3.5044 Y21.2794 F350.00
G01 X3.6024 Y21.2746 F350.00
G01 X3.6259 Y21.2729 F350.00
G01 X3.6493 Y21.2700 F350.00
G01 X3.7464 Y21.2556 F350.00
G01 X3.7696 Y21.2516 F350.00
G01 X3.7926 Y21.2464 F350.00
G01 X3.8878 Y21.2226 F350.00
G01 X3.8992 Y21.2196 F350.00
G01 X3.9217 Y21.2127 F350.00
G01 X4.0253 Y21.1758 F350.00
G01 X4.0472 Y21.1673 F350.00
G01 X4.0688 Y21.1578 F350.00
G01 X4.1575 Y21.1158 F350.00
G01 X4.1785 Y21.1052 F350.00
G01 X4.1990 Y21.0936 F350.00
G01 X4.2832 Y21.0432 F350.00
G01 X4.3031 Y21.0306 F350.00
G01 X4.3224 Y21.0170 F350.00
G01 X4.4012 Y20.9585 F350.00
G01 X4.4198 Y20.9441 F350.00
G01 X4.4376 Y20.9287 F350.00
G01 X4.5103 Y20.8628 F350.00
G01 X4.5274 Y20.8465 F350.00
G01 X4.5419 Y20.8313 F350.00
G00 Z0.5000
G00 X4.4320 Y21.2804
G01 F250.00
G01 Z-0.0500
G01 F350.00
G01 X4.4454 Y21.2964 F350.00
G01 X4.4577 Y21.3104 F350.00
G01 X4.4835 Y21.3374 F350.00
G01 X4.5105 Y21.3631 F350.00
G01 X4.5387 Y21.3875 F350.00
G01 X4.5681 Y21.4104 F350.00
G01 X4.5986 Y21.4319 F350.00
G01 X4.6301 Y21.4519 F350.00
G01 X4.6626 Y21.4703 F350.00
G01 X4.6959 Y21.4870 F350.00
G01 X4.7300 Y21.5021 F350.00
G01 X4.7648 Y21.5156 F350.00
G01 X4.8002 Y21.5273 F350.00
G01 X4.8362 Y21.5372 F350.00
G01 X4.8726 Y21.5454 F350.00
G01 X4.9093 Y21.5518 F350.00
G01 X4.9464 Y21.5563 F350.00
G01 X4.9836 Y21.5591 F350.00
G01 X5.0209 Y21.5600 F350.00
G01 X7.0209 Y21.5600 F350.00
G01 X7.0582 Y21.5591 F350.00
G01 X7.0954 Y21.5563 F350.00
G01 X7.1139 Y21.5543 F350.00
G01 X7.1508 Y21.5488 F350.00
G01 X7.1874 Y21.5415 F350.00
G01 X7.2055 Y21.5372 F350.00
G01 X7.2236 Y21.5325 F350.00
G01 X7.2593 Y21.5216 F350.00
G01 X7.2769 Y21.5156 F350.00
G01 X7.3117 Y21.5021 F350.00
G01 X7.3458 Y21.4870 F350.00
G01 X7.3791 Y21.4703 F350.00
G01 X7.4116 Y21.4519 F350.00
G01 X7.4275 Y21.4421 F350.00
G01 X7.4431 Y21.4319 F350.00
G01 X7.4736 Y21.4104 F350.00
G01 X7.5030 Y21.3875 F350.00
G01 X7.5312 Y21.3631 F350.00
G01 X7.5449 Y21.3504 F350.00
G01 X7.5583 Y21.3374 F350.00
G01 X7.5840 Y21.3104 F350.00
G01 X7.5963 Y21.2964 F350.00
G01 X7.6200 Y21.2676 F350.00
G01 X7.6422 Y21.2376 F350.00
G01 X7.6528 Y21.2222 F350.00
G01 X7.6727 Y21.1907 F350.00
G01 X7.6821 Y21.1746 F350.00
G01 X7.6928 Y21.1550 F350.00
G01 X7.7139 Y21.1722 F350.00
G01 X7.7287 Y21.1834 F350.00
G01 X7.8076 Y21.2419 F350.00
G01 X7.8381 Y21.2634 F350.00
G01 X7.8696 Y21.2833 F350.00
G01 X7.9537 Y21.3338 F350.00
G01 X7.9699 Y21.3432 F350.00
G01 X8.0028 Y21.3608 F350.00
G01 X8.1082 Y21.4109 F350.00
G01 X8.1423 Y21.4260 F350.00
G01 X8.1597 Y21.4330 F350.00
G01 X8.1807 Y21.4407 F350.00
G01 X8.1810 Y24.5287 F350.00
G01 X8.1829 Y24.5718 F350.00
G01 X8.1856 Y24.6090 F350.00
G01 X8.1877 Y24.6275 F350.00
G01 X8.1938 Y24.6703 F350.00
G01 X8.1967 Y24.6887 F350.00
G01 X8.2040 Y24.7253 F350.00
G01 X8.2143 Y24.7673 F350.00
G01 X8.2242 Y24.8032 F350.00
G01 X8.2359 Y24.8386 F350.00
G01 X8.2507 Y24.8792 F350.00
G01 X8.2576 Y24.8966 F350.00
G01 X8.2650 Y24.9137 F350.00
G01 X8.2832 Y24.9528 F350.00
G01 X8.2914 Y24.9696 F350.00
G01 X8.3090 Y25.0025 F350.00
G01 X8.3408 Y25.0556 F350.00
G01 X8.3510 Y25.0712 F350.00
G01 X8.3725 Y25.1017 F350.00
G01 X8.3984 Y25.1363 F350.00
G01 X8.4100 Y25.1508 F350.00
G01 X8.4220 Y25.1651 F350.00
G01 X8.4509 Y25.1972 F350.00
G01 X8.4766 Y25.2243 F350.00
G01 X9.9709 Y26.7185 F350.00
G01 X9.9711 Y27.3187 F350.00
G01 X9.9766 Y27.4353 F350.00
G01 X9.9793 Y27.4725 F350.00
G01 X9.9839 Y27.5095 F350.00
G01 X10.0013 Y27.6250 F350.00
G01 X10.0047 Y27.6434 F350.00
G01 X10.0129 Y27.6798 F350.00
G01 X10.0367 Y27.7749 F350.00
G01 X10.0466 Y27.8109 F350.00
G01 X10.0583 Y27.8463 F350.00
G01 X10.0979 Y27.9562 F350.00
G01 X10.1048 Y27.9735 F350.00
G01 X10.1199 Y28.0076 F350.00
G01 X10.1701 Y28.1131 F350.00
G01 X10.1877 Y28.1460 F350.00
G01 X10.2475 Y28.2463 F350.00
G01 X10.2675 Y28.2778 F350.00
G01 X10.2890 Y28.3083 F350.00
G01 X10.3587 Y28.4020 F350.00
G01 X10.3704 Y28.4165 F350.00
G01 X10.3947 Y28.4448 F350.00
G01 X10.4606 Y28.5175 F350.00
G01 X10.4864 Y28.5445 F350.00
G01 X10.5134 Y28.5702 F350.00
G01 X10.5861 Y28.6361 F350.00
G01 X10.6143 Y28.6605 F350.00
G01 X10.6437 Y28.6834 F350.00
G01 X10.7226 Y28.7419 F350.00
G01 X10.7531 Y28.7634 F350.00
G01 X10.7846 Y28.7833 F350.00
G01 X10.8687 Y28.8338 F350.00
G01 X10.8849 Y28.8432 F350.00
G01 X10.9178 Y28.8608 F350.00
G01 X11.0232 Y28.9109 F350.00
G01 X11.0573 Y28.9260 F350.00
G01 X11.0921 Y28.9395 F350.00
G01 X11.1845 Y28.9725 F350.00
G01 X11.2200 Y28.9842 F350.00
G01 X11.2559 Y28.9942 F350.00
G01 X11.3511 Y29.0180 F350.00
G01 X11.3875 Y29.0262 F350.00
G01 X11.4243 Y29.0326 F350.00
G01 X11.5213 Y29.0470 F350.00
G01 X11.5584 Y29.0515 F350.00
G01 X11.5956 Y29.0543 F350.00
G01 X11.6936 Y29.0591 F350.00
G01 X11.7309 Y29.0600 F350.00
G01 X11.7682 Y29.0591 F350.00
G01 X11.8848 Y29.0531 F350.00
G01 X11.9219 Y29.0495 F350.00
G01 X12.0375 Y29.0326 F350.00
G01 X12.0742 Y29.0262 F350.00
G01 X12.1106 Y29.0180 F350.00
G01 X12.2058 Y28.9942 F350.00
G01 X12.2377 Y28.9854 F350.00
G01 X13.4707 Y30.2184 F350.00
G01 X13.4707 Y33.3578 F350.00
G01 X13.4535 Y33.3380 F350.00
G01 X13.3546 Y33.2290 F350.00
G01 X13.3289 Y33.2019 F350.00
G01 X13.3019 Y33.1762 F350.00
G01 X13.1928 Y33.0774 F350.00
G01 X13.1646 Y33.0530 F350.00
G01 X13.1352 Y33.0300 F350.00
G01 X13.0169 Y32.9424 F350.00
G01 X12.9864 Y32.9209 F350.00
G01 X12.9549 Y32.9009 F350.00
G01 X12.8287 Y32.8252 F350.00
G01 X12.7962 Y32.8069 F350.00
G01 X12.7629 Y32.7901 F350.00
G01 X12.6298 Y32.7271 F350.00
G01 X12.5957 Y32.7120 F350.00
G01 X12.5609 Y32.6986 F350.00
G01 X12.4223 Y32.6490 F350.00
G01 X12.3869 Y32.6373 F350.00
G01 X12.3510 Y32.6274 F350.00
G01 X12.2082 Y32.5916 F350.00
G01 X12.1718 Y32.5834 F350.00
G01 X12.1350 Y32.5770 F350.00
G01 X11.9894 Y32.5554 F350.00
G01 X11.9524 Y32.5509 F350.00
G01 X11.9152 Y32.5481 F350.00
G01 X11.7682 Y32.5409 F350.00
G01 X11.7309 Y32.5400 F350.00
G01 X11.6936 Y32.5409 F350.00
G01 X11.5465 Y32.5481 F350.00
G01 X11.5093 Y32.5509 F350.00
G01 X11.4723 Y32.5554 F350.00
G01 X11.3267 Y32.5770 F350.00
G01 X11.2900 Y32.5834 F350.00
G01 X11.2536 Y32.5916 F350.00
G01 X11.1108 Y32.6274 F350.00
G01 X11.0748 Y32.6373 F350.00
G01 X11.0394 Y32.6490 F350.00
G01 X10.9008 Y32.6986 F350.00
G01 X10.8660 Y32.7120 F350.00
G01 X10.8319 Y32.7271 F350.00
G01 X10.6988 Y32.7901 F350.00
G01 X10.6655 Y32.8069 F350.00
G01 X10.6330 Y32.8252 F350.00
G01 X10.5068 Y32.9009 F350.00
G01 X10.4753 Y32.9209 F350.00
G01 X10.4448 Y32.9424 F350.00
G01 X10.3265 Y33.0300 F350.00
G01 X10.2971 Y33.0530 F350.00
G01 X10.2689 Y33.0774 F350.00
G01 X10.1598 Y33.1762 F350.00
G01 X10.1328 Y33.2019 F350.00
G01 X10.1071 Y33.2290 F350.00
G01 X10.0082 Y33.3380 F350.00
G01 X9.9839 Y33.3663 F350.00
G01 X9.9609 Y33.3957 F350.00
G01 X9.8732 Y33.5139 F350.00
G01 X9.8517 Y33.5444 F350.00
G01 X9.8318 Y33.5759 F350.00
G01 X9.7561 Y33.7022 F350.00
G01 X9.7377 Y33.7346 F350.00
G01 X9.7209 Y33.7680 F350.00
G01 X9.6580 Y33.9010 F350.00
G01 X9.6429 Y33.9351 F350.00
G01 X9.6295 Y33.9699 F350.00
G01 X9.5799 Y34.1085 F350.00
G01 X9.5682 Y34.1440 F350.00
G01 X9.5582 Y34.1799 F350.00
G01 X9.5225 Y34.3227 F350.00
G01 X9.5143 Y34.3591 F350.00
G01 X9.5079 Y34.3958 F350.00
G01 X9.4863 Y34.5415 F350.00
G01 X9.4817 Y34.5785 F350.00
G01 X9.4790 Y34.6157 F350.00
G01 X9.4718 Y34.7627 F350.00
G01 X9.4709 Y34.8000 F350.00
G01 X9.4718 Y34.8373 F350.00
G01 X9.4790 Y34.9843 F350.00
G01 X9.4817 Y35.0215 F350.00
G01 X9.4863 Y35.0585 F350.00
G01 X9.5079 Y35.2042 F350.00
G01 X9.5143 Y35.2409 F350.00
G01 X9.5225 Y35.2773 F350.00
G01 X9.5582 Y35.4201 F350.00
G01 X9.5682 Y35.4560 F350.00
G01 X9.5799 Y35.4915 F350.00
G01 X9.6295 Y35.6301 F350.00
G01 X9.6429 Y35.6649 F350.00
G01 X9.6502 Y35.6820 F350.00
G01 X9.7209 Y35.8320 F350.00
G01 X9.7377 Y35.8654 F350.00
G01 X9.7561 Y35.8978 F350.00
G01 X9.8318 Y36.0241 F350.00
G01 X9.8517 Y36.0556 F350.00
G01 X9.8732 Y36.0861 F350.00
G01 X9.9609 Y36.2043 F350.00
G01 X9.9839 Y36.2337 F350.00
G01 X10.0082 Y36.2620 F350.00
G01 X10.1071 Y36.3710 F350.00
G01 X10.1328 Y36.3981 F350.00
G01 X10.1598 Y36.4238 F350.00
G01 X10.2689 Y36.5226 F350.00
G01 X10.2829 Y36.5350 F350.00
G01 X10.3117 Y36.5587 F350.00
G01 X10.4448 Y36.6576 F350.00
G01 X10.4753 Y36.6791 F350.00
G01 X10.5068 Y36.6991 F350.00
G01 X10.6330 Y36.7748 F350.00
G01 X10.6655 Y36.7931 F350.00
G01 X10.6988 Y36.8099 F350.00
G01 X10.8319 Y36.8729 F350.00
G01 X10.8660 Y36.8880 F350.00
G01 X10.9008 Y36.9014 F350.00
G01 X11.0394 Y36.9510 F350.00
G01 X11.0748 Y36.9627 F350.00
G01 X11.1108 Y36.9726 F350.00
G01 X11.2536 Y37.0084 F350.00
G01 X11.2900 Y37.0166 F350.00
G01 X11.3267 Y37.0230 F350.00
G01 X11.4723 Y37.0446 F350.00
G01 X11.5093 Y37.0491 F350.00
G01 X11.5465 Y37.0519 F350.00
G01 X11.6936 Y37.0591 F350.00
G01 X11.7309 Y37.0600 F350.00
G01 X11.7682 Y37.0591 F350.00
G01 X11.9152 Y37.0519 F350.00
G01 X11.9524 Y37.0491 F350.00
G01 X11.9894 Y37.0446 F350.00
G01 X12.1534 Y37.0200 F350.00
G01 X12.1900 Y37.0127 F350.00
G01 X12.2082 Y37.0084 F350.00
G01 X12.3510 Y36.9726 F350.00
G01 X12.3869 Y36.9627 F350.00
G01 X12.4223 Y36.9510 F350.00
G01 X12.5609 Y36.9014 F350.00
G01 X12.5957 Y36.8880 F350.00
G01 X12.6298 Y36.8729 F350.00
G01 X12.7629 Y36.8099 F350.00
G01 X12.7962 Y36.7931 F350.00
G01 X12.8287 Y36.7748 F350.00
G01 X12.9549 Y36.6991 F350.00
G01 X12.9864 Y36.6791 F350.00
G01 X13.0018 Y36.6686 F350.00
G01 X13.1352 Y36.5700 F350.00
G01 X13.1646 Y36.5470 F350.00
G01 X13.1928 Y36.5226 F350.00
G01 X13.3019 Y36.4238 F350.00
G01 X13.3289 Y36.3981 F350.00
G01 X13.3546 Y36.3710 F350.00
G01 X13.4535 Y36.2620 F350.00
G01 X13.4707 Y36.2422 F350.00
G01 X13.4707 Y37.4708 F350.00
G01 X13.3071 Y37.5483 F350.00
G01 X13.2905 Y37.5569 F350.00
G01 X13.2580 Y37.5752 F350.00
G01 X13.1318 Y37.6509 F350.00
G01 X13.1003 Y37.6709 F350.00
G01 X13.0698 Y37.6924 F350.00
G01 X12.9515 Y37.7800 F350.00
G01 X12.9221 Y37.8030 F350.00
G01 X12.8939 Y37.8274 F350.00
G01 X12.7848 Y37.9262 F350.00
G01 X12.7578 Y37.9519 F350.00
G01 X12.7321 Y37.9790 F350.00
G01 X12.6332 Y38.0880 F350.00
G01 X12.6089 Y38.1163 F350.00
G01 X12.5859 Y38.1457 F350.00
G01 X12.4982 Y38.2639 F350.00
G01 X12.4767 Y38.2944 F350.00
G01 X12.4568 Y38.3259 F350.00
G01 X12.3811 Y38.4522 F350.00
G01 X12.3627 Y38.4846 F350.00
G01 X12.3459 Y38.5180 F350.00
G01 X12.2830 Y38.6510 F350.00
G01 X12.2679 Y38.6851 F350.00
G01 X12.2545 Y38.7199 F350.00
G01 X12.2049 Y38.8585 F350.00
G01 X12.1988 Y38.8762 F350.00
G01 X12.1880 Y38.9119 F350.00
G01 X12.1431 Y39.0908 F350.00
G01 X12.1393 Y39.1091 F350.00
G01 X12.1329 Y39.1458 F350.00
G01 X12.1113 Y39.2915 F350.00
G01 X12.1067 Y39.3285 F350.00
G01 X12.1040 Y39.3657 F350.00
G01 X12.0968 Y39.5127 F350.00
G01 X12.0959 Y39.5500 F350.00
G01 X12.0968 Y39.5873 F350.00
G01 X12.1040 Y39.7343 F350.00
G01 X12.1067 Y39.7715 F350.00
G01 X12.1113 Y39.8085 F350.00
G01 X12.1329 Y39.9542 F350.00
G01 X12.1393 Y39.9909 F350.00
G01 X12.1475 Y40.0273 F350.00
G01 X12.1832 Y40.1701 F350.00
G01 X12.1932 Y40.2060 F350.00
G01 X12.2049 Y40.2415 F350.00
G01 X12.2545 Y40.3801 F350.00
G01 X12.2679 Y40.4149 F350.00
G01 X12.2830 Y40.4490 F350.00
G01 X12.3459 Y40.5820 F350.00
G01 X12.3627 Y40.6154 F350.00
G01 X12.3811 Y40.6478 F350.00
G01 X12.4665 Y40.7899 F350.00
G01 X3.8702 Y40.7899 F350.00
G01 X3.9650 Y40.6317 F350.00
G01 X3.9826 Y40.5988 F350.00
G01 X3.9908 Y40.5820 F350.00
G01 X4.0537 Y40.4490 F350.00
G01 X4.0688 Y40.4149 F350.00
G01 X4.0823 Y40.3801 F350.00
G01 X4.1318 Y40.2415 F350.00
G01 X4.1435 Y40.2060 F350.00
G01 X4.1535 Y40.1701 F350.00
G01 X4.1893 Y40.0273 F350.00
G01 X4.1974 Y39.9909 F350.00
G01 X4.2038 Y39.9542 F350.00
G01 X4.2254 Y39.8085 F350.00
G01 X4.2300 Y39.7715 F350.00
G01 X4.2316 Y39.7529 F350.00
G01 X4.2406 Y39.5687 F350.00
G01 X4.2409 Y39.5500 F350.00
G01 X4.2399 Y39.5127 F350.00
G01 X4.2327 Y39.3657 F350.00
G01 X4.2300 Y39.3285 F350.00
G01 X4.2254 Y39.2915 F350.00
G01 X4.2008 Y39.1274 F350.00
G01 X4.1974 Y39.1091 F350.00
G01 X4.1893 Y39.0727 F350.00
G01 X4.1535 Y38.9299 F350.00
G01 X4.1435 Y38.8940 F350.00
G01 X4.1318 Y38.8585 F350.00
G01 X4.0823 Y38.7199 F350.00
G01 X4.0688 Y38.6851 F350.00
G01 X4.0537 Y38.6510 F350.00
G01 X3.9908 Y38.5180 F350.00
G01 X3.9740 Y38.4846 F350.00
G01 X3.9556 Y38.4522 F350.00
G01 X3.8799 Y38.3259 F350.00
G01 X3.8600 Y38.2944 F350.00
G01 X3.8494 Y38.2790 F350.00
G01 X3.7395 Y38.1308 F350.00
G01 X3.7159 Y38.1020 F350.00
G01 X3.7035 Y38.0880 F350.00
G01 X3.6046 Y37.9790 F350.00
G01 X3.5789 Y37.9519 F350.00
G01 X3.5519 Y37.9262 F350.00
G01 X3.4428 Y37.8274 F350.00
G01 X3.4146 Y37.8030 F350.00
G01 X3.3852 Y37.7800 F350.00
G01 X3.2669 Y37.6924 F350.00
G01 X3.2364 Y37.6709 F350.00
G01 X3.2049 Y37.6509 F350.00
G01 X3.0787 Y37.5752 F350.00
G01 X3.0462 Y37.5569 F350.00
G01 X3.0129 Y37.5401 F350.00
G01 X2.8798 Y37.4771 F350.00
G01 X2.8457 Y37.4620 F350.00
G01 X2.8109 Y37.4486 F350.00
G01 X2.6723 Y37.3990 F350.00
G01 X2.6369 Y37.3873 F350.00
G01 X2.6010 Y37.3774 F350.00
G01 X2.4582 Y37.3416 F350.00
G01 X2.4218 Y37.3334 F350.00
G01 X2.3850 Y37.3270 F350.00
G01 X2.2410 Y37.3057 F350.00
G01 X2.2410 Y30.7191 F350.00
G01 X4.0449 Y28.9207 F350.00
G01 X4.0747 Y28.9330 F350.00
G01 X4.0921 Y28.9395 F350.00
G01 X4.1845 Y28.9725 F350.00
G01 X4.2022 Y28.9786 F350.00
G01 X4.2379 Y28.9894 F350.00
G01 X4.3511 Y29.0180 F350.00
G01 X4.3875 Y29.0262 F350.00
G01 X4.4243 Y29.0326 F350.00
G01 X4.5213 Y29.0470 F350.00
G01 X4.5584 Y29.0515 F350.00
G01 X4.5769 Y29.0531 F350.00
G01 X4.6936 Y29.0591 F350.00
G01 X4.7309 Y29.0600 F350.00
G01 X4.7682 Y29.0591 F350.00
G01 X4.8662 Y29.0543 F350.00
G01 X4.9034 Y29.0515 F350.00
G01 X4.9219 Y29.0495 F350.00
G01 X5.0375 Y29.0326 F350.00
G01 X5.0742 Y29.0262 F350.00
G01 X5.1106 Y29.0180 F350.00
G01 X5.2058 Y28.9942 F350.00
G01 X5.2418 Y28.9842 F350.00
G01 X5.2595 Y28.9786 F350.00
G01 X5.3696 Y28.9395 F350.00
G01 X5.4044 Y28.9260 F350.00
G01 X5.4385 Y28.9109 F350.00
G01 X5.5440 Y28.8608 F350.00
G01 X5.5769 Y28.8432 F350.00
G01 X5.5930 Y28.8338 F350.00
G01 X5.6771 Y28.7833 F350.00
G01 X5.7087 Y28.7634 F350.00
G01 X5.7392 Y28.7419 F350.00
G01 X5.8180 Y28.6834 F350.00
G01 X5.8474 Y28.6605 F350.00
G01 X5.8617 Y28.6485 F350.00
G01 X5.9620 Y28.5575 F350.00
G01 X5.9884 Y28.5312 F350.00
G01 X6.0011 Y28.5175 F350.00
G01 X6.0794 Y28.4308 F350.00
G01 X6.1030 Y28.4020 F350.00
G01 X6.1143 Y28.3871 F350.00
G01 X6.1728 Y28.3083 F350.00
G01 X6.1942 Y28.2778 F350.00
G01 X6.2142 Y28.2463 F350.00
G01 X6.2740 Y28.1460 F350.00
G01 X6.2916 Y28.1131 F350.00
G01 X6.2998 Y28.0963 F350.00
G01 X6.3418 Y28.0076 F350.00
G01 X6.3569 Y27.9735 F350.00
G01 X6.3703 Y27.9387 F350.00
G01 X6.4094 Y27.8287 F350.00
G01 X6.4151 Y27.8109 F350.00
G01 X6.4250 Y27.7749 F350.00
G01 X6.4532 Y27.6616 F350.00
G01 X6.4605 Y27.6250 F350.00
G01 X6.4778 Y27.5095 F350.00
G01 X6.4824 Y27.4725 F350.00
G01 X6.4840 Y27.4539 F350.00
G01 X6.4899 Y27.3373 F350.00
G01 X6.4909 Y27.3000 F350.00
G01 X6.4906 Y26.2813 F350.00
G01 X6.4851 Y26.1647 F350.00
G01 X6.4824 Y26.1275 F350.00
G01 X6.4778 Y26.0905 F350.00
G01 X6.4634 Y25.9934 F350.00
G01 X6.4570 Y25.9566 F350.00
G01 X6.4489 Y25.9202 F350.00
G01 X6.4203 Y25.8070 F350.00
G01 X6.4151 Y25.7891 F350.00
G01 X6.4034 Y25.7537 F350.00
G01 X6.3703 Y25.6613 F350.00
G01 X6.3569 Y25.6265 F350.00
G01 X6.3418 Y25.5924 F350.00
G01 X6.2998 Y25.5037 F350.00
G01 X6.2830 Y25.4703 F350.00
G01 X6.2647 Y25.4379 F350.00
G01 X6.2044 Y25.3378 F350.00
G01 X6.1837 Y25.3068 F350.00
G01 X6.1728 Y25.2917 F350.00
G01 X6.1143 Y25.2129 F350.00
G01 X6.0914 Y25.1835 F350.00
G01 X6.0670 Y25.1552 F350.00
G01 X6.0011 Y25.0825 F350.00
G01 X5.9754 Y25.0555 F350.00
G01 X5.9484 Y25.0298 F350.00
G01 X5.8617 Y24.9515 F350.00
G01 X5.8328 Y24.9278 F350.00
G01 X5.8180 Y24.9166 F350.00
G01 X5.7392 Y24.8581 F350.00
G01 X5.7087 Y24.8366 F350.00
G01 X5.6771 Y24.8167 F350.00
G01 X5.5930 Y24.7662 F350.00
G01 X5.5605 Y24.7478 F350.00
G01 X5.5272 Y24.7310 F350.00
G01 X5.4385 Y24.6891 F350.00
G01 X5.4044 Y24.6740 F350.00
G01 X5.3696 Y24.6605 F350.00
G01 X5.2772 Y24.6275 F350.00
G01 X5.2595 Y24.6214 F350.00
G01 X5.2238 Y24.6106 F350.00
G01 X5.1106 Y24.5820 F350.00
G01 X5.0742 Y24.5738 F350.00
G01 X5.0375 Y24.5674 F350.00
G01 X4.9404 Y24.5530 F350.00
G01 X4.9034 Y24.5485 F350.00
G01 X4.8662 Y24.5457 F350.00
G01 X4.7682 Y24.5409 F350.00
G01 X4.7495 Y24.5402 F350.00
G01 X4.7122 Y24.5402 F350.00
G01 X4.5956 Y24.5457 F350.00
G01 X4.5584 Y24.5485 F350.00
G01 X4.5213 Y24.5530 F350.00
G01 X4.4243 Y24.5674 F350.00
G01 X4.3875 Y24.5738 F350.00
G01 X4.3511 Y24.5820 F350.00
G01 X4.2559 Y24.6058 F350.00
G01 X4.2200 Y24.6158 F350.00
G01 X4.1845 Y24.6275 F350.00
G01 X4.0747 Y24.6670 F350.00
G01 X4.0406 Y24.6812 F350.00
G01 X1.9510 Y22.5916 F350.00
G01 X1.9510 Y21.2406 F350.00
G01 X2.0428 Y21.1722 F350.00
G01 X2.0717 Y21.1485 F350.00
G01 X2.1720 Y21.0575 F350.00
G01 X2.1854 Y21.0445 F350.00
G01 X2.2109 Y21.0177 F350.00
G01 X2.2364 Y21.0445 F350.00
G01 X2.2497 Y21.0575 F350.00
G01 X2.3361 Y21.1361 F350.00
G01 X2.3643 Y21.1605 F350.00
G01 X2.3937 Y21.1834 F350.00
G01 X2.4877 Y21.2528 F350.00
G01 X2.5187 Y21.2736 F350.00
G01 X2.6187 Y21.3338 F350.00
G01 X2.6512 Y21.3522 F350.00
G01 X2.6678 Y21.3608 F350.00
G01 X2.7732 Y21.4109 F350.00
G01 X2.8073 Y21.4260 F350.00
G01 X2.8421 Y21.4395 F350.00
G01 X2.9345 Y21.4725 F350.00
G01 X2.9700 Y21.4842 F350.00
G01 X3.0059 Y21.4942 F350.00
G01 X3.1011 Y21.5180 F350.00
G01 X3.1375 Y21.5262 F350.00
G01 X3.1743 Y21.5326 F350.00
G01 X3.2898 Y21.5495 F350.00
G01 X3.3084 Y21.5515 F350.00
G01 X3.3456 Y21.5543 F350.00
G01 X3.4622 Y21.5598 F350.00
G01 X3.4995 Y21.5598 F350.00
G01 X3.6162 Y21.5543 F350.00
G01 X3.6534 Y21.5515 F350.00
G01 X3.6904 Y21.5470 F350.00
G01 X3.8059 Y21.5296 F350.00
G01 X3.8425 Y21.5223 F350.00
G01 X3.9558 Y21.4942 F350.00
G01 X3.9918 Y21.4842 F350.00
G01 X4.0272 Y21.4725 F350.00
G01 X4.1196 Y21.4395 F350.00
G01 X4.1544 Y21.4260 F350.00
G01 X4.1885 Y21.4109 F350.00
G01 X4.2772 Y21.3690 F350.00
G01 X4.3105 Y21.3522 F350.00
G01 X4.3430 Y21.3338 F350.00
G01 X4.4320 Y21.2804 F350.00
G00 Z0.5000
G00 X0.4907 Y20.9122
G01 F250.00
G01 Z-0.0500
G01 F350.00
G01 X0.4727 Y20.9047 F350.00
G01 X0.3752 Y20.8583 F350.00
G01 X0.2742 Y20.7978 F350.00
G01 X0.1796 Y20.7276 F350.00
G01 X0.0994 Y20.6553 F350.00
G01 X0.0856 Y20.6414 F350.00
G01 X0.0132 Y20.5613 F350.00
G01 X-0.0513 Y20.4747 F350.00
G01 X-0.0622 Y20.4584 F350.00
G01 X-0.1126 Y20.3742 F350.00
G01 X-0.1219 Y20.3569 F350.00
G01 X-0.1678 Y20.2592 F350.00
G01 X-0.2075 Y20.1483 F350.00
G01 X-0.2339 Y20.0437 F350.00
G01 X-0.2378 Y20.0244 F350.00
G01 X-0.2534 Y19.9176 F350.00
G01 X-0.2591 Y19.8049 F350.00
G01 X-0.2591 Y18.7951 F350.00
G01 X-0.2534 Y18.6824 F350.00
G01 X-0.2361 Y18.5659 F350.00
G01 X-0.2075 Y18.4517 F350.00
G01 X-0.1678 Y18.3408 F350.00
G01 X-0.1174 Y18.2343 F350.00
G01 X-0.0569 Y18.1333 F350.00
G01 X0.0132 Y18.0387 F350.00
G01 X0.0923 Y17.9515 F350.00
G01 X0.1796 Y17.8724 F350.00
G01 X0.2742 Y17.8022 F350.00
G01 X0.3752 Y17.7417 F350.00
G01 X0.4816 Y17.6913 F350.00
G01 X0.5925 Y17.6517 F350.00
G01 X0.7068 Y17.6231 F350.00
G01 X0.8232 Y17.6058 F350.00
G01 X0.9409 Y17.6000 F350.00
G01 X1.0585 Y17.6058 F350.00
G01 X1.1750 Y17.6231 F350.00
G01 X1.2892 Y17.6517 F350.00
G01 X1.3909 Y17.6878 F350.00
G01 X1.4091 Y17.6953 F350.00
G01 X1.4978 Y17.7373 F350.00
G01 X1.5151 Y17.7465 F350.00
G01 X1.6075 Y17.8022 F350.00
G01 X1.7021 Y17.8724 F350.00
G01 X1.7894 Y17.9515 F350.00
G01 X1.8685 Y18.0387 F350.00
G01 X1.9386 Y18.1333 F350.00
G01 X1.9943 Y18.2258 F350.00
G01 X2.0036 Y18.2431 F350.00
G01 X2.0455 Y18.3318 F350.00
G01 X2.0530 Y18.3499 F350.00
G01 X2.0892 Y18.4517 F350.00
G01 X2.1178 Y18.5659 F350.00
G01 X2.1351 Y18.6824 F350.00
G01 X2.1406 Y18.7902 F350.00
G01 X2.1406 Y19.8098 F350.00
G01 X2.1351 Y19.9176 F350.00
G01 X2.1195 Y20.0244 F350.00
G01 X2.1157 Y20.0437 F350.00
G01 X2.0918 Y20.1389 F350.00
G01 X2.0861 Y20.1577 F350.00
G01 X2.0495 Y20.2592 F350.00
G01 X2.0036 Y20.3569 F350.00
G01 X1.9943 Y20.3742 F350.00
G01 X1.9386 Y20.4667 F350.00
G01 X1.8745 Y20.5535 F350.00
G01 X1.8621 Y20.5687 F350.00
G01 X1.7962 Y20.6414 F350.00
G01 X1.7823 Y20.6553 F350.00
G01 X1.7021 Y20.7276 F350.00
G01 X1.6075 Y20.7978 F350.00
G01 X1.5065 Y20.8583 F350.00
G01 X1.4091 Y20.9047 F350.00
G01 X1.3910 Y20.9122 F350.00
G01 X1.3910 Y22.8236 F350.00
G01 X3.9538 Y25.3864 F350.00
G01 X3.9658 Y25.3755 F350.00
G01 X3.9734 Y25.3693 F350.00
G01 X4.0642 Y25.3022 F350.00
G01 X4.1566 Y25.2465 F350.00
G01 X4.1740 Y25.2373 F350.00
G01 X4.2716 Y25.1913 F350.00
G01 X4.3732 Y25.1548 F350.00
G01 X4.3920 Y25.1491 F350.00
G01 X4.4872 Y25.1252 F350.00
G01 X4.5064 Y25.1214 F350.00
G01 X4.6132 Y25.1058 F350.00
G01 X4.7210 Y25.1002 F350.00
G01 X4.7407 Y25.1002 F350.00
G01 X4.8485 Y25.1058 F350.00
G01 X4.9553 Y25.1214 F350.00
G01 X4.9745 Y25.1252 F350.00
G01 X5.0792 Y25.1517 F350.00
G01 X5.1901 Y25.1913 F350.00
G01 X5.2878 Y25.2373 F350.00
G01 X5.3051 Y25.2465 F350.00
G01 X5.3975 Y25.3022 F350.00
G01 X5.4921 Y25.3724 F350.00
G01 X5.5723 Y25.4447 F350.00
G01 X5.5862 Y25.4586 F350.00
G01 X5.6585 Y25.5387 F350.00
G01 X5.7230 Y25.6253 F350.00
G01 X5.7339 Y25.6416 F350.00
G01 X5.7892 Y25.7343 F350.00
G01 X5.8355 Y25.8318 F350.00
G01 X5.8430 Y25.8499 F350.00
G01 X5.8792 Y25.9517 F350.00
G01 X5.9057 Y26.0563 F350.00
G01 X5.9095 Y26.0756 F350.00
G01 X5.9239 Y26.1726 F350.00
G01 X5.9255 Y26.1873 F350.00
G01 X5.9309 Y26.3000 F350.00
G01 X5.9308 Y27.3049 F350.00
G01 X5.9251 Y27.4176 F350.00
G01 X5.9087 Y27.5293 F350.00
G01 X5.9057 Y27.5437 F350.00
G01 X5.8818 Y27.6389 F350.00
G01 X5.8761 Y27.6577 F350.00
G01 X5.8395 Y27.7592 F350.00
G01 X5.7892 Y27.8657 F350.00
G01 X5.7339 Y27.9584 F350.00
G01 X5.7230 Y27.9747 F350.00
G01 X5.6585 Y28.0613 F350.00
G01 X5.5794 Y28.1485 F350.00
G01 X5.4921 Y28.2276 F350.00
G01 X5.3975 Y28.2978 F350.00
G01 X5.2965 Y28.3583 F350.00
G01 X5.1901 Y28.4087 F350.00
G01 X5.0792 Y28.4483 F350.00
G01 X4.9650 Y28.4769 F350.00
G01 X4.8485 Y28.4942 F350.00
G01 X4.7407 Y28.4998 F350.00
G01 X4.7210 Y28.4998 F350.00
G01 X4.6132 Y28.4942 F350.00
G01 X4.4968 Y28.4769 F350.00
G01 X4.3825 Y28.4483 F350.00
G01 X4.2808 Y28.4122 F350.00
G01 X4.2627 Y28.4047 F350.00
G01 X4.1652 Y28.3583 F350.00
G01 X4.0725 Y28.3030 F350.00
G01 X4.0562 Y28.2921 F350.00
G01 X3.9773 Y28.2337 F350.00
G01 X3.9658 Y28.2245 F350.00
G01 X3.9538 Y28.2136 F350.00
G01 X1.6810 Y30.4864 F350.00
G01 X1.6810 Y37.8777 F350.00
G01 X1.8142 Y37.8582 F350.00
G01 X1.9710 Y37.8502 F350.00
G01 X1.9907 Y37.8502 F350.00
G01 X2.1377 Y37.8575 F350.00
G01 X2.1572 Y37.8594 F350.00
G01 X2.3125 Y37.8827 F350.00
G01 X2.4649 Y37.9206 F350.00
G01 X2.4837 Y37.9263 F350.00
G01 X2.6314 Y37.9794 F350.00
G01 X2.7822 Y38.0507 F350.00
G01 X2.9253 Y38.1365 F350.00
G01 X3.0593 Y38.2359 F350.00
G01 X3.1829 Y38.3479 F350.00
G01 X3.2950 Y38.4715 F350.00
G01 X3.3944 Y38.6055 F350.00
G01 X3.4753 Y38.7401 F350.00
G01 X3.4845 Y38.7574 F350.00
G01 X3.5515 Y38.8994 F350.00
G01 X3.6046 Y39.0472 F350.00
G01 X3.6103 Y39.0660 F350.00
G01 X3.6460 Y39.2088 F350.00
G01 X3.6499 Y39.2280 F350.00
G01 X3.6727 Y39.3834 F350.00
G01 X3.6806 Y39.5402 F350.00
G01 X3.6806 Y39.5598 F350.00
G01 X3.6727 Y39.7166 F350.00
G01 X3.6482 Y39.8817 F350.00
G01 X3.6077 Y40.0435 F350.00
G01 X3.5550 Y40.1914 F350.00
G01 X3.5475 Y40.2095 F350.00
G01 X3.4845 Y40.3426 F350.00
G01 X3.4753 Y40.3599 F350.00
G01 X3.3944 Y40.4945 F350.00
G01 X3.3010 Y40.6207 F350.00
G01 X3.2886 Y40.6359 F350.00
G01 X3.1829 Y40.7521 F350.00
G01 X3.0593 Y40.8641 F350.00
G01 X2.9253 Y40.9635 F350.00
G01 X2.7822 Y41.0493 F350.00
G01 X2.6314 Y41.1206 F350.00
G01 X2.4743 Y41.1768 F350.00
G01 X2.3125 Y41.2173 F350.00
G01 X2.1572 Y41.2406 F350.00
G01 X2.1426 Y41.2422 F350.00
G01 X1.9809 Y41.2500 F350.00
G01 X1.8142 Y41.2418 F350.00
G01 X1.6492 Y41.2173 F350.00
G01 X1.4874 Y41.1768 F350.00
G01 X1.3303 Y41.1206 F350.00
G01 X1.1795 Y41.0493 F350.00
G01 X1.0364 Y40.9635 F350.00
G01 X0.9024 Y40.8641 F350.00
G01 X0.7788 Y40.7521 F350.00
G01 X0.6667 Y40.6285 F350.00
G01 X0.5674 Y40.4945 F350.00
G01 X0.4816 Y40.3514 F350.00
G01 X0.4103 Y40.2006 F350.00
G01 X0.3541 Y40.0435 F350.00
G01 X0.3135 Y39.8817 F350.00
G01 X0.2896 Y39.7215 F350.00
G01 X0.2883 Y39.7068 F350.00
G01 X0.2809 Y39.5500 F350.00
G01 X0.2890 Y39.3834 F350.00
G01 X0.3135 Y39.2183 F350.00
G01 X0.3514 Y39.0660 F350.00
G01 X0.3571 Y39.0472 F350.00
G01 X0.4067 Y38.9086 F350.00
G01 X0.4142 Y38.8905 F350.00
G01 X0.4816 Y38.7486 F350.00
G01 X0.5621 Y38.6138 F350.00
G01 X0.5730 Y38.5975 F350.00
G01 X0.6667 Y38.4715 F350.00
G01 X0.7720 Y38.3550 F350.00
G01 X0.7807 Y38.3460 F350.00
G01 X0.7807 Y30.3000 F350.00
G01 X0.7829 Y30.2559 F350.00
G01 X0.7894 Y30.2122 F350.00
G01 X0.7975 Y30.1788 F350.00
G01 X0.8016 Y30.1647 F350.00
G01 X0.8115 Y30.1369 F350.00
G01 X0.8190 Y30.1188 F350.00
G01 X0.8339 Y30.0878 F350.00
G01 X0.8566 Y30.0499 F350.00
G01 X0.8829 Y30.0144 F350.00
G01 X0.9091 Y29.9852 F350.00
G01 X3.5336 Y27.3607 F350.00
G01 X3.5309 Y27.3000 F350.00
G01 X3.5309 Y26.3000 F350.00
G01 X3.5336 Y26.2393 F350.00
G01 X0.6226 Y23.3283 F350.00
G01 X0.5961 Y23.2993 F350.00
G01 X0.5869 Y23.2878 F350.00
G01 X0.5666 Y23.2601 F350.00
G01 X0.5463 Y23.2265 F350.00
G01 X0.5395 Y23.2134 F350.00
G01 X0.5250 Y23.1823 F350.00
G01 X0.5116 Y23.1453 F350.00
G01 X0.5075 Y23.1312 F350.00
G01 X0.4994 Y23.0978 F350.00
G01 X0.4941 Y23.0639 F350.00
G01 X0.4925 Y23.0492 F350.00
G01 X0.4908 Y23.0149 F350.00
G01 X0.4907 Y20.9122 F350.00
G00 Z0.5000
G00 X0.2107 Y21.0865
G01 F250.00
G01 Z-0.0500
G01 F350.00
G01 X0.2109 Y23.0218 F350.00
G01 X0.2132 Y23.0698 F350.00
G01 X0.2156 Y23.0933 F350.00
G01 X0.2226 Y23.1409 F350.00
G01 X0.2272 Y23.1640 F350.00
G01 X0.2299 Y23.1754 F350.00
G01 X0.2359 Y23.1992 F350.00
G01 X0.2422 Y23.2219 F350.00
G01 X0.2496 Y23.2443 F350.00
G01 X0.2578 Y23.2674 F350.00
G01 X0.2619 Y23.2785 F350.00
G01 X0.2710 Y23.3002 F350.00
G01 X0.2915 Y23.3437 F350.00
G01 X0.3026 Y23.3645 F350.00
G01 X0.3212 Y23.3957 F350.00
G01 X0.3338 Y23.4156 F350.00
G01 X0.3474 Y23.4349 F350.00
G01 X0.3691 Y23.4640 F350.00
G01 X0.3841 Y23.4822 F350.00
G01 X0.4083 Y23.5092 F350.00
G01 X0.4246 Y23.5263 F350.00
G01 X3.2509 Y26.3526 F350.00
G01 X3.2509 Y27.2474 F350.00
G01 X0.7064 Y29.7922 F350.00
G01 X0.6741 Y29.8278 F350.00
G01 X0.6591 Y29.8460 F350.00
G01 X0.6520 Y29.8554 F350.00
G01 X0.6374 Y29.8751 F350.00
G01 X0.6238 Y29.8944 F350.00
G01 X0.6112 Y29.9143 F350.00
G01 X0.5926 Y29.9455 F350.00
G01 X0.5815 Y29.9663 F350.00
G01 X0.5764 Y29.9769 F350.00
G01 X0.5659 Y29.9991 F350.00
G01 X0.5563 Y30.0206 F350.00
G01 X0.5478 Y30.0426 F350.00
G01 X0.5357 Y30.0768 F350.00
G01 X0.5322 Y30.0881 F350.00
G01 X0.5259 Y30.1108 F350.00
G01 X0.5199 Y30.1346 F350.00
G01 X0.5148 Y30.1576 F350.00
G01 X0.5107 Y30.1808 F350.00
G01 X0.5056 Y30.2167 F350.00
G01 X0.5043 Y30.2284 F350.00
G01 X0.5025 Y30.2519 F350.00
G01 X0.5013 Y30.2764 F350.00
G01 X0.5007 Y30.3000 F350.00
G01 X0.5007 Y38.2374 F350.00
G01 X0.4579 Y38.2849 F350.00
G01 X0.4429 Y38.3031 F350.00
G01 X0.3412 Y38.4403 F350.00
G01 X0.3281 Y38.4598 F350.00
G01 X0.3219 Y38.4699 F350.00
G01 X0.2403 Y38.6063 F350.00
G01 X0.2347 Y38.6166 F350.00
G01 X0.2241 Y38.6377 F350.00
G01 X0.1611 Y38.7707 F350.00
G01 X0.1516 Y38.7923 F350.00
G01 X0.1431 Y38.8143 F350.00
G01 X0.0897 Y38.9640 F350.00
G01 X0.0828 Y38.9866 F350.00
G01 X0.0798 Y38.9979 F350.00
G01 X0.0441 Y39.1407 F350.00
G01 X0.0389 Y39.1637 F350.00
G01 X0.0349 Y39.1869 F350.00
G01 X0.0133 Y39.3325 F350.00
G01 X0.0104 Y39.3559 F350.00
G01 X0.0087 Y39.3794 F350.00
G01 X0.0014 Y39.5264 F350.00
G01 X0.0009 Y39.5500 F350.00
G01 X0.0014 Y39.5736 F350.00
G01 X0.0091 Y39.7277 F350.00
G01 X-0.0790 Y39.6396 F350.00
G01 X-0.0790 Y20.8714 F350.00
G01 X-0.0071 Y20.9365 F350.00
G01 X0.0112 Y20.9514 F350.00
G01 X0.0205 Y20.9585 F350.00
G01 X0.0994 Y21.0170 F350.00
G01 X0.1186 Y21.0306 F350.00
G01 X0.1385 Y21.0432 F350.00
G01 X0.2107 Y21.0865 F350.00
G00 Z0.5000
G00 X0.2010 Y23.6974
G01 F250.00
G01 Z-0.0500
G01 F350.00
G01 X0.2266 Y23.7243 F350.00
G01 X2.9709 Y26.4685 F350.00
G01 X2.9709 Y27.1315 F350.00
G01 X0.5036 Y29.5991 F350.00
G01 X0.4620 Y29.6449 F350.00
G01 X0.4500 Y29.6592 F350.00
G01 X0.4271 Y29.6886 F350.00
G01 X0.4015 Y29.7234 F350.00
G01 X0.3910 Y29.7388 F350.00
G01 X0.3710 Y29.7703 F350.00
G01 X0.3490 Y29.8075 F350.00
G01 X0.3400 Y29.8238 F350.00
G01 X0.3232 Y29.8572 F350.00
G01 X0.3050 Y29.8963 F350.00
G01 X0.2976 Y29.9134 F350.00
G01 X0.2842 Y29.9482 F350.00
G01 X0.2699 Y29.9890 F350.00
G01 X0.2642 Y30.0068 F350.00
G01 X0.2543 Y30.0427 F350.00
G01 X0.2440 Y30.0847 F350.00
G01 X0.2401 Y30.1029 F350.00
G01 X0.2338 Y30.1397 F350.00
G01 X0.2277 Y30.1825 F350.00
G01 X0.2256 Y30.2010 F350.00
G01 X0.2229 Y30.2382 F350.00
G01 X0.2210 Y30.2813 F350.00
G01 X0.2207 Y30.3000 F350.00
G01 X0.2207 Y38.1328 F350.00
G01 X0.2010 Y38.1591 F350.00
G01 X0.2010 Y23.6974 F350.00
G00 Z0.5000
G00 X8.7407 Y20.9966
G01 F250.00
G01 Z-0.0500
G01 F350.00
G01 X8.7080 Y20.9949 F350.00
G01 X8.6934 Y20.9937 F350.00
G01 X8.5866 Y20.9778 F350.00
G01 X8.5722 Y20.9748 F350.00
G01 X8.4770 Y20.9509 F350.00
G01 X8.4628 Y20.9468 F350.00
G01 X8.3658 Y20.9122 F350.00
G01 X8.3477 Y20.9047 F350.00
G01 X8.2502 Y20.8583 F350.00
G01 X8.1533 Y20.8004 F350.00
G01 X8.1412 Y20.7921 F350.00
G01 X8.0546 Y20.7276 F350.00
G01 X7.9744 Y20.6553 F350.00
G01 X7.9606 Y20.6414 F350.00
G01 X7.8882 Y20.5613 F350.00
G01 X7.8237 Y20.4747 F350.00
G01 X7.8128 Y20.4584 F350.00
G01 X7.7624 Y20.3742 F350.00
G01 X7.7553 Y20.3613 F350.00
G01 X7.7072 Y20.2592 F350.00
G01 X7.6675 Y20.1483 F350.00
G01 X7.6389 Y20.0341 F350.00
G01 X7.6216 Y19.9176 F350.00
G01 X7.6159 Y19.8000 F350.00
G01 X7.6159 Y18.7951 F350.00
G01 X7.6216 Y18.6824 F350.00
G01 X7.6389 Y18.5659 F350.00
G01 X7.6675 Y18.4517 F350.00
G01 X7.7072 Y18.3408 F350.00
G01 X7.7576 Y18.2343 F350.00
G01 X7.8181 Y18.1333 F350.00
G01 X7.8882 Y18.0387 F350.00
G01 X7.9673 Y17.9515 F350.00
G01 X8.0546 Y17.8724 F350.00
G01 X8.1492 Y17.8022 F350.00
G01 X8.2502 Y17.7417 F350.00
G01 X8.3566 Y17.6913 F350.00
G01 X8.4675 Y17.6517 F350.00
G01 X8.5818 Y17.6231 F350.00
G01 X8.6982 Y17.6058 F350.00
G01 X8.8060 Y17.6002 F350.00
G01 X8.8208 Y17.6001 F350.00
G01 X8.9335 Y17.6058 F350.00
G01 X9.0500 Y17.6231 F350.00
G01 X9.1642 Y17.6517 F350.00
G01 X9.2659 Y17.6878 F350.00
G01 X9.2841 Y17.6953 F350.00
G01 X9.3728 Y17.7373 F350.00
G01 X9.3901 Y17.7465 F350.00
G01 X9.4825 Y17.8022 F350.00
G01 X9.5694 Y17.8663 F350.00
G01 X9.5846 Y17.8788 F350.00
G01 X9.6644 Y17.9515 F350.00
G01 X9.7435 Y18.0387 F350.00
G01 X9.8136 Y18.1333 F350.00
G01 X9.8742 Y18.2343 F350.00
G01 X9.9245 Y18.3408 F350.00
G01 X9.9642 Y18.4517 F350.00
G01 X9.9928 Y18.5659 F350.00
G01 X10.0095 Y18.6775 F350.00
G01 X10.0108 Y18.6922 F350.00
G01 X10.0159 Y18.8000 F350.00
G01 X10.0159 Y19.8000 F350.00
G01 X10.0101 Y19.9176 F350.00
G01 X9.9937 Y20.0293 F350.00
G01 X9.9907 Y20.0437 F350.00
G01 X9.9668 Y20.1389 F350.00
G01 X9.9611 Y20.1577 F350.00
G01 X9.9245 Y20.2592 F350.00
G01 X9.8786 Y20.3569 F350.00
G01 X9.8718 Y20.3700 F350.00
G01 X9.8136 Y20.4667 F350.00
G01 X9.7465 Y20.5574 F350.00
G01 X9.7371 Y20.5687 F350.00
G01 X9.6678 Y20.6450 F350.00
G01 X9.6609 Y20.6520 F350.00
G01 X9.6410 Y20.6701 F350.00
G01 X9.6410 Y24.3236 F350.00
G01 X10.8282 Y25.5108 F350.00
G01 X10.8823 Y25.4515 F350.00
G01 X10.9622 Y25.3788 F350.00
G01 X10.9773 Y25.3663 F350.00
G01 X11.0562 Y25.3079 F350.00
G01 X11.0725 Y25.2970 F350.00
G01 X11.1652 Y25.2417 F350.00
G01 X11.2671 Y25.1933 F350.00
G01 X11.2808 Y25.1878 F350.00
G01 X11.3825 Y25.1517 F350.00
G01 X11.4968 Y25.1231 F350.00
G01 X11.6132 Y25.1058 F350.00
G01 X11.7260 Y25.1001 F350.00
G01 X11.7407 Y25.1002 F350.00
G01 X11.8485 Y25.1058 F350.00
G01 X11.9650 Y25.1231 F350.00
G01 X12.0792 Y25.1517 F350.00
G01 X12.1901 Y25.1913 F350.00
G01 X12.2965 Y25.2417 F350.00
G01 X12.3975 Y25.3022 F350.00
G01 X12.4921 Y25.3724 F350.00
G01 X12.5794 Y25.4515 F350.00
G01 X12.6585 Y25.5387 F350.00
G01 X12.7230 Y25.6253 F350.00
G01 X12.7339 Y25.6416 F350.00
G01 X12.7892 Y25.7343 F350.00
G01 X12.8395 Y25.8408 F350.00
G01 X12.8761 Y25.9423 F350.00
G01 X12.8818 Y25.9611 F350.00
G01 X12.9057 Y26.0563 F350.00
G01 X12.9095 Y26.0756 F350.00
G01 X12.9251 Y26.1824 F350.00
G01 X12.9308 Y26.2951 F350.00
G01 X12.9309 Y27.3000 F350.00
G01 X12.9258 Y27.4078 F350.00
G01 X12.9245 Y27.4225 F350.00
G01 X12.9087 Y27.5293 F350.00
G01 X12.9057 Y27.5437 F350.00
G01 X12.8967 Y27.5793 F350.00
G01 X14.8026 Y29.4852 F350.00
G01 X14.8288 Y29.5144 F350.00
G01 X14.8495 Y29.5419 F350.00
G01 X14.8578 Y29.5540 F350.00
G01 X14.8755 Y29.5835 F350.00
G01 X14.8822 Y29.5966 F350.00
G01 X14.8967 Y29.6277 F350.00
G01 X14.9101 Y29.6647 F350.00
G01 X14.9142 Y29.6788 F350.00
G01 X14.9223 Y29.7122 F350.00
G01 X14.9276 Y29.7461 F350.00
G01 X14.9292 Y29.7608 F350.00
G01 X14.9310 Y29.8000 F350.00
G01 X14.9310 Y37.9522 F350.00
G01 X14.9973 Y37.9759 F350.00
G01 X15.0109 Y37.9813 F350.00
G01 X15.1485 Y38.0463 F350.00
G01 X15.1615 Y38.0531 F350.00
G01 X15.3003 Y38.1365 F350.00
G01 X15.4305 Y38.2328 F350.00
G01 X15.4418 Y38.2423 F350.00
G01 X15.5508 Y38.3411 F350.00
G01 X15.5647 Y38.3550 F350.00
G01 X15.6700 Y38.4715 F350.00
G01 X15.7666 Y38.6015 F350.00
G01 X15.7746 Y38.6138 F350.00
G01 X15.8503 Y38.7401 F350.00
G01 X15.8595 Y38.7574 F350.00
G01 X15.9265 Y38.8994 F350.00
G01 X15.9827 Y39.0565 F350.00
G01 X16.0232 Y39.2183 F350.00
G01 X16.0465 Y39.3736 F350.00
G01 X16.0484 Y39.3932 F350.00
G01 X16.0559 Y39.5500 F350.00
G01 X16.0477 Y39.7166 F350.00
G01 X16.0249 Y39.8720 F350.00
G01 X16.0210 Y39.8912 F350.00
G01 X15.9853 Y40.0340 F350.00
G01 X15.9796 Y40.0528 F350.00
G01 X15.9265 Y40.2006 F350.00
G01 X15.8551 Y40.3514 F350.00
G01 X15.7694 Y40.4945 F350.00
G01 X15.6760 Y40.6207 F350.00
G01 X15.6636 Y40.6359 F350.00
G01 X15.5647 Y40.7450 F350.00
G01 X15.5508 Y40.7589 F350.00
G01 X15.4343 Y40.8641 F350.00
G01 X15.3003 Y40.9635 F350.00
G01 X15.1658 Y41.0444 F350.00
G01 X15.1485 Y41.0537 F350.00
G01 X15.0064 Y41.1206 F350.00
G01 X14.8493 Y41.1768 F350.00
G01 X14.6875 Y41.2173 F350.00
G01 X14.5225 Y41.2418 F350.00
G01 X14.3559 Y41.2500 F350.00
G01 X14.1990 Y41.2425 F350.00
G01 X14.1795 Y41.2406 F350.00
G01 X14.0242 Y41.2173 F350.00
G01 X13.8718 Y41.1794 F350.00
G01 X13.8531 Y41.1737 F350.00
G01 X13.7145 Y41.1241 F350.00
G01 X13.6963 Y41.1166 F350.00
G01 X13.5545 Y41.0493 F350.00
G01 X13.4114 Y40.9635 F350.00
G01 X13.2774 Y40.8641 F350.00
G01 X13.1609 Y40.7589 F350.00
G01 X13.1470 Y40.7450 F350.00
G01 X13.0417 Y40.6285 F350.00
G01 X12.9480 Y40.5025 F350.00
G01 X12.9371 Y40.4862 F350.00
G01 X12.8614 Y40.3599 F350.00
G01 X12.8522 Y40.3426 F350.00
G01 X12.7853 Y40.2006 F350.00
G01 X12.7291 Y40.0435 F350.00
G01 X12.6885 Y39.8817 F350.00
G01 X12.6652 Y39.7264 F350.00
G01 X12.6636 Y39.7117 F350.00
G01 X12.6559 Y39.5500 F350.00
G01 X12.6640 Y39.3834 F350.00
G01 X12.6885 Y39.2183 F350.00
G01 X12.7291 Y39.0565 F350.00
G01 X12.7853 Y38.8994 F350.00
G01 X12.8566 Y38.7486 F350.00
G01 X12.9424 Y38.6055 F350.00
G01 X13.0357 Y38.4793 F350.00
G01 X13.0482 Y38.4641 F350.00
G01 X13.1538 Y38.3479 F350.00
G01 X13.2700 Y38.2423 F350.00
G01 X13.2851 Y38.2298 F350.00
G01 X13.4034 Y38.1422 F350.00
G01 X13.4197 Y38.1312 F350.00
G01 X13.5545 Y38.0507 F350.00
G01 X13.7053 Y37.9794 F350.00
G01 X13.8624 Y37.9232 F350.00
G01 X14.0146 Y37.8848 F350.00
G01 X14.0307 Y37.8815 F350.00
G01 X14.0307 Y29.9864 F350.00
G01 X12.3630 Y28.3187 F350.00
G01 X12.3051 Y28.3535 F350.00
G01 X12.2922 Y28.3606 F350.00
G01 X12.1991 Y28.4047 F350.00
G01 X12.1855 Y28.4105 F350.00
G01 X12.0792 Y28.4483 F350.00
G01 X11.9698 Y28.4759 F350.00
G01 X11.9553 Y28.4786 F350.00
G01 X11.8582 Y28.4930 F350.00
G01 X11.8387 Y28.4949 F350.00
G01 X11.7309 Y28.5000 F350.00
G01 X11.6230 Y28.4949 F350.00
G01 X11.6084 Y28.4937 F350.00
G01 X11.4968 Y28.4769 F350.00
G01 X11.3825 Y28.4483 F350.00
G01 X11.2716 Y28.4087 F350.00
G01 X11.1740 Y28.3627 F350.00
G01 X11.1566 Y28.3535 F350.00
G01 X11.0725 Y28.3030 F350.00
G01 X11.0562 Y28.2921 F350.00
G01 X10.9696 Y28.2276 F350.00
G01 X10.8823 Y28.1485 F350.00
G01 X10.8032 Y28.0613 F350.00
G01 X10.7387 Y27.9747 F350.00
G01 X10.7278 Y27.9584 F350.00
G01 X10.6726 Y27.8657 F350.00
G01 X10.6222 Y27.7592 F350.00
G01 X10.5856 Y27.6577 F350.00
G01 X10.5799 Y27.6389 F350.00
G01 X10.5539 Y27.5341 F350.00
G01 X10.5366 Y27.4176 F350.00
G01 X10.5309 Y27.3049 F350.00
G01 X10.5309 Y26.4866 F350.00
G01 X8.8726 Y24.8283 F350.00
G01 X8.8461 Y24.7993 F350.00
G01 X8.8369 Y24.7878 F350.00
G01 X8.8166 Y24.7601 F350.00
G01 X8.7987 Y24.7307 F350.00
G01 X8.7916 Y24.7178 F350.00
G01 X8.7750 Y24.6823 F350.00
G01 X8.7632 Y24.6500 F350.00
G01 X8.7588 Y24.6359 F350.00
G01 X8.7494 Y24.5978 F350.00
G01 X8.7441 Y24.5639 F350.00
G01 X8.7425 Y24.5492 F350.00
G01 X8.7408 Y24.5149 F350.00
G01 X8.7407 Y20.9966 F350.00
G00 Z0.5000
G00 X10.9057 Y20.9122
G01 F250.00
G01 Z-0.0500
G01 F350.00
G01 X10.8877 Y20.9047 F350.00
G01 X10.7902 Y20.8583 F350.00
G01 X10.6892 Y20.7978 F350.00
G01 X10.5946 Y20.7276 F350.00
G01 X10.5144 Y20.6553 F350.00
G01 X10.5006 Y20.6414 F350.00
G01 X10.4282 Y20.5613 F350.00
G01 X10.3637 Y20.4747 F350.00
G01 X10.3528 Y20.4584 F350.00
G01 X10.3024 Y20.3742 F350.00
G01 X10.2931 Y20.3569 F350.00
G01 X10.2472 Y20.2592 F350.00
G01 X10.2075 Y20.1483 F350.00
G01 X10.1811 Y20.0437 F350.00
G01 X10.1772 Y20.0244 F350.00
G01 X10.1616 Y19.9176 F350.00
G01 X10.1559 Y19.8049 F350.00
G01 X10.1559 Y18.7951 F350.00
G01 X10.1616 Y18.6824 F350.00
G01 X10.1789 Y18.5659 F350.00
G01 X10.2075 Y18.4517 F350.00
G01 X10.2472 Y18.3408 F350.00
G01 X10.2976 Y18.2343 F350.00
G01 X10.3581 Y18.1333 F350.00
G01 X10.4282 Y18.0387 F350.00
G01 X10.5073 Y17.9515 F350.00
G01 X10.5946 Y17.8724 F350.00
G01 X10.6892 Y17.8022 F350.00
G01 X10.7902 Y17.7417 F350.00
G01 X10.8966 Y17.6913 F350.00
G01 X11.0075 Y17.6517 F350.00
G01 X11.1218 Y17.6231 F350.00
G01 X11.2382 Y17.6058 F350.00
G01 X11.3559 Y17.6000 F350.00
G01 X11.4735 Y17.6058 F350.00
G01 X11.5900 Y17.6231 F350.00
G01 X11.7042 Y17.6517 F350.00
G01 X11.8059 Y17.6878 F350.00
G01 X11.8241 Y17.6953 F350.00
G01 X11.9128 Y17.7373 F350.00
G01 X11.9301 Y17.7465 F350.00
G01 X12.0225 Y17.8022 F350.00
G01 X12.1171 Y17.8724 F350.00
G01 X12.2044 Y17.9515 F350.00
G01 X12.2835 Y18.0387 F350.00
G01 X12.3536 Y18.1333 F350.00
G01 X12.4093 Y18.2258 F350.00
G01 X12.4186 Y18.2431 F350.00
G01 X12.4605 Y18.3318 F350.00
G01 X12.4680 Y18.3499 F350.00
G01 X12.5042 Y18.4517 F350.00
G01 X12.5328 Y18.5659 F350.00
G01 X12.5501 Y18.6824 F350.00
G01 X12.5556 Y18.7902 F350.00
G01 X12.5556 Y19.8098 F350.00
G01 X12.5501 Y19.9176 F350.00
G01 X12.5345 Y20.0244 F350.00
G01 X12.5307 Y20.0437 F350.00
G01 X12.5068 Y20.1389 F350.00
G01 X12.5011 Y20.1577 F350.00
G01 X12.4645 Y20.2592 F350.00
G01 X12.4186 Y20.3569 F350.00
G01 X12.4093 Y20.3742 F350.00
G01 X12.3589 Y20.4584 F350.00
G01 X12.3480 Y20.4747 F350.00
G01 X12.2835 Y20.5613 F350.00
G01 X12.2112 Y20.6414 F350.00
G01 X12.1973 Y20.6553 F350.00
G01 X12.1171 Y20.7276 F350.00
G01 X12.0225 Y20.7978 F350.00
G01 X11.9215 Y20.8583 F350.00
G01 X11.8241 Y20.9047 F350.00
G01 X11.8060 Y20.9122 F350.00
G01 X11.8060 Y23.2637 F350.00
G01 X16.9241 Y28.3818 F350.00
G01 X16.9538 Y28.4146 F350.00
G01 X16.9773 Y28.4460 F350.00
G01 X16.9854 Y28.4583 F350.00
G01 X17.0028 Y28.4879 F350.00
G01 X17.0177 Y28.5189 F350.00
G01 X17.0235 Y28.5324 F350.00
G01 X17.0366 Y28.5695 F350.00
G01 X17.0473 Y28.6123 F350.00
G01 X17.0526 Y28.6463 F350.00
G01 X17.0542 Y28.6609 F350.00
G01 X17.0560 Y28.7001 F350.00
G01 X17.0560 Y40.4820 F350.00
G01 X17.0538 Y40.5261 F350.00
G01 X17.0473 Y40.5698 F350.00
G01 X17.0366 Y40.6126 F350.00
G01 X17.0235 Y40.6497 F350.00
G01 X17.0177 Y40.6632 F350.00
G01 X17.0028 Y40.6942 F350.00
G01 X16.9801 Y40.7321 F350.00
G01 X16.9538 Y40.7675 F350.00
G01 X16.9276 Y40.7968 F350.00
G01 X15.6026 Y42.1217 F350.00
G01 X15.5734 Y42.1480 F350.00
G01 X15.5379 Y42.1743 F350.00
G01 X15.5000 Y42.1970 F350.00
G01 X15.4691 Y42.2119 F350.00
G01 X15.4555 Y42.2177 F350.00
G01 X15.4278 Y42.2277 F350.00
G01 X15.4090 Y42.2334 F350.00
G01 X15.3757 Y42.2415 F350.00
G01 X15.3320 Y42.2480 F350.00
G01 X15.2878 Y42.2501 F350.00
G01 X1.0489 Y42.2501 F350.00
G01 X1.0048 Y42.2480 F350.00
G01 X0.9611 Y42.2415 F350.00
G01 X0.9182 Y42.2307 F350.00
G01 X0.8812 Y42.2177 F350.00
G01 X0.8677 Y42.2119 F350.00
G01 X0.8367 Y42.1970 F350.00
G01 X0.7988 Y42.1743 F350.00
G01 X0.7633 Y42.1480 F350.00
G01 X0.7306 Y42.1183 F350.00
G01 X-1.1309 Y40.2568 F350.00
G01 X-1.1571 Y40.2275 F350.00
G01 X-1.1834 Y40.1921 F350.00
G01 X-1.2061 Y40.1542 F350.00
G01 X-1.2210 Y40.1232 F350.00
G01 X-1.2285 Y40.1051 F350.00
G01 X-1.2384 Y40.0773 F350.00
G01 X-1.2425 Y40.0632 F350.00
G01 X-1.2496 Y40.0346 F350.00
G01 X-1.2515 Y40.0250 F350.00
G01 X-1.2559 Y39.9958 F350.00
G01 X-1.2575 Y39.9812 F350.00
G01 X-1.2593 Y39.9420 F350.00
G01 X-1.2593 Y17.1758 F350.00
G01 X-1.2575 Y17.1366 F350.00
G01 X-1.2559 Y17.1219 F350.00
G01 X-1.2506 Y17.0880 F350.00
G01 X-1.2399 Y17.0451 F350.00
G01 X-1.2250 Y17.0035 F350.00
G01 X-1.2105 Y16.9724 F350.00
G01 X-1.2013 Y16.9551 F350.00
G01 X-1.1861 Y16.9298 F350.00
G01 X-1.1806 Y16.9217 F350.00
G01 X-1.1571 Y16.8902 F350.00
G01 X-1.1274 Y16.8575 F350.00
G01 X2.7484 Y12.9817 F350.00
G01 X2.7773 Y12.9552 F350.00
G01 X2.7888 Y12.9460 F350.00
G01 X2.8166 Y12.9257 F350.00
G01 X2.8545 Y12.9030 F350.00
G01 X2.8944 Y12.8841 F350.00
G01 X2.9267 Y12.8723 F350.00
G01 X2.9454 Y12.8666 F350.00
G01 X2.9740 Y12.8595 F350.00
G01 X2.9837 Y12.8576 F350.00
G01 X3.0225 Y12.8520 F350.00
G01 X3.0666 Y12.8499 F350.00
G01 X21.5216 Y12.8499 F350.00
G01 X21.5657 Y12.8520 F350.00
G01 X21.6094 Y12.8585 F350.00
G01 X21.6428 Y12.8666 F350.00
G01 X21.6570 Y12.8707 F350.00
G01 X21.6847 Y12.8806 F350.00
G01 X21.7029 Y12.8881 F350.00
G01 X21.7338 Y12.9030 F350.00
G01 X21.7717 Y12.9257 F350.00
G01 X21.8072 Y12.9520 F350.00
G01 X21.8364 Y12.9783 F350.00
G01 X25.7991 Y16.9410 F350.00
G01 X25.8257 Y16.9699 F350.00
G01 X25.8349 Y16.9814 F350.00
G01 X25.8551 Y17.0092 F350.00
G01 X25.8755 Y17.0428 F350.00
G01 X25.8822 Y17.0558 F350.00
G01 X25.8967 Y17.0870 F350.00
G01 X25.9101 Y17.1239 F350.00
G01 X25.9142 Y17.1380 F350.00
G01 X25.9223 Y17.1714 F350.00
G01 X25.9276 Y17.2054 F350.00
G01 X25.9292 Y17.2200 F350.00
G01 X25.9309 Y17.2543 F350.00
G01 X25.9310 Y20.6993 F350.00
G01 X44.9241 Y39.6925 F350.00
G01 X44.9538 Y39.7252 F350.00
G01 X44.9801 Y39.7607 F350.00
G01 X45.0005 Y39.7943 F350.00
G01 X45.0072 Y39.8074 F350.00
G01 X45.0217 Y39.8385 F350.00
G01 X45.0366 Y39.8801 F350.00
G01 X45.0473 Y39.9230 F350.00
G01 X45.0526 Y39.9569 F350.00
G01 X45.0542 Y39.9716 F350.00
G01 X45.0560 Y40.0108 F350.00
G01 X45.0560 Y48.5999 F350.00
G01 X77.0387 Y48.5999 F350.00
G01 X77.0462 Y48.5818 F350.00
G01 X77.0881 Y48.4931 F350.00
G01 X77.0974 Y48.4758 F350.00
G01 X77.1531 Y48.3833 F350.00
G01 X77.2232 Y48.2887 F350.00
G01 X77.2956 Y48.2086 F350.00
G01 X77.3094 Y48.1947 F350.00
G01 X77.3896 Y48.1224 F350.00
G01 X77.4842 Y48.0522 F350.00
G01 X77.5766 Y47.9965 F350.00
G01 X77.5940 Y47.9873 F350.00
G01 X77.6916 Y47.9413 F350.00
G01 X77.8025 Y47.9017 F350.00
G01 X77.9168 Y47.8731 F350.00
G01 X78.0235 Y47.8570 F350.00
G01 X78.0430 Y47.8551 F350.00
G01 X78.1410 Y47.8502 F350.00
G01 X78.1558 Y47.8501 F350.00
G01 X78.2587 Y47.8551 F350.00
G01 X78.2782 Y47.8570 F350.00
G01 X78.3850 Y47.8731 F350.00
G01 X78.4897 Y47.8991 F350.00
G01 X78.5085 Y47.9048 F350.00
G01 X78.6101 Y47.9413 F350.00
G01 X78.7165 Y47.9917 F350.00
G01 X78.8175 Y48.0522 F350.00
G01 X78.9044 Y48.1163 F350.00
G01 X78.9196 Y48.1288 F350.00
G01 X78.9994 Y48.2015 F350.00
G01 X79.0721 Y48.2813 F350.00
G01 X79.0845 Y48.2965 F350.00
G01 X79.1486 Y48.3833 F350.00
G01 X79.2092 Y48.4843 F350.00
G01 X79.2555 Y48.5818 F350.00
G01 X79.2630 Y48.5999 F350.00
G01 X79.2992 Y48.7017 F350.00
G01 X79.3257 Y48.8063 F350.00
G01 X79.3295 Y48.8256 F350.00
G01 X79.3451 Y48.9324 F350.00
G01 X79.3509 Y49.0500 F350.00
G01 X79.3458 Y49.1578 F350.00
G01 X79.3439 Y49.1774 F350.00
G01 X79.3278 Y49.2841 F350.00
G01 X79.3018 Y49.3889 F350.00
G01 X79.2961 Y49.4077 F350.00
G01 X79.2595 Y49.5092 F350.00
G01 X79.2092 Y49.6157 F350.00
G01 X79.1539 Y49.7084 F350.00
G01 X79.1430 Y49.7247 F350.00
G01 X79.0785 Y49.8113 F350.00
G01 X79.0062 Y49.8914 F350.00
G01 X78.9923 Y49.9053 F350.00
G01 X78.9121 Y49.9776 F350.00
G01 X78.8175 Y50.0478 F350.00
G01 X78.7251 Y50.1035 F350.00
G01 X78.7078 Y50.1127 F350.00
G01 X78.6101 Y50.1587 F350.00
G01 X78.4992 Y50.1983 F350.00
G01 X78.3945 Y50.2248 F350.00
G01 X78.3753 Y50.2286 F350.00
G01 X78.2685 Y50.2442 F350.00
G01 X78.1509 Y50.2500 F350.00
G01 X78.0430 Y50.2449 F350.00
G01 X78.0235 Y50.2430 F350.00
G01 X77.9168 Y50.2269 F350.00
G01 X77.8025 Y50.1983 F350.00
G01 X77.7008 Y50.1622 F350.00
G01 X77.6827 Y50.1547 F350.00
G01 X77.5852 Y50.1083 F350.00
G01 X77.4842 Y50.0478 F350.00
G01 X77.3896 Y49.9776 F350.00
G01 X77.3094 Y49.9053 F350.00
G01 X77.2956 Y49.8914 F350.00
G01 X77.2232 Y49.8113 F350.00
G01 X77.1531 Y49.7167 F350.00
G01 X77.0974 Y49.6242 F350.00
G01 X77.0881 Y49.6069 F350.00
G01 X77.0462 Y49.5182 F350.00
G01 X77.0387 Y49.5001 F350.00
G01 X45.1673 Y49.5001 F350.00
G01 X38.0491 Y56.6183 F350.00
G01 X38.0239 Y56.6415 F350.00
G01 X38.0126 Y56.6510 F350.00
G01 X37.9850 Y56.6715 F350.00
G01 X37.9726 Y56.6795 F350.00
G01 X37.9430 Y56.6970 F350.00
G01 X37.9121 Y56.7119 F350.00
G01 X37.8986 Y56.7177 F350.00
G01 X37.8615 Y56.7307 F350.00
G01 X37.8187 Y56.7415 F350.00
G01 X37.7750 Y56.7480 F350.00
G01 X37.7358 Y56.7501 F350.00
G01 X37.5130 Y56.7501 F350.00
G01 X37.5055 Y56.7682 F350.00
G01 X37.4592 Y56.8657 F350.00
G01 X37.4039 Y56.9584 F350.00
G01 X37.3930 Y56.9747 F350.00
G01 X37.3285 Y57.0613 F350.00
G01 X37.2562 Y57.1414 F350.00
G01 X37.2423 Y57.1553 F350.00
G01 X37.1621 Y57.2276 F350.00
G01 X37.0675 Y57.2978 F350.00
G01 X36.9751 Y57.3535 F350.00
G01 X36.9578 Y57.3627 F350.00
G01 X36.8601 Y57.4087 F350.00
G01 X36.7585 Y57.4452 F350.00
G01 X36.7397 Y57.4509 F350.00
G01 X36.6445 Y57.4748 F350.00
G01 X36.6253 Y57.4786 F350.00
G01 X36.5185 Y57.4942 F350.00
G01 X36.4058 Y57.4999 F350.00
G01 X35.3910 Y57.4998 F350.00
G01 X35.2832 Y57.4942 F350.00
G01 X35.1668 Y57.4769 F350.00
G01 X35.0525 Y57.4483 F350.00
G01 X34.9416 Y57.4087 F350.00
G01 X34.8352 Y57.3583 F350.00
G01 X34.7425 Y57.3030 F350.00
G01 X34.7262 Y57.2921 F350.00
G01 X34.6396 Y57.2276 F350.00
G01 X34.5594 Y57.1553 F350.00
G01 X34.5456 Y57.1414 F350.00
G01 X34.4732 Y57.0613 F350.00
G01 X34.4087 Y56.9747 F350.00
G01 X34.3978 Y56.9584 F350.00
G01 X34.3426 Y56.8657 F350.00
G01 X34.2962 Y56.7682 F350.00
G01 X34.2887 Y56.7501 F350.00
G01 X34.2525 Y56.6483 F350.00
G01 X34.2261 Y56.5437 F350.00
G01 X34.2222 Y56.5244 F350.00
G01 X34.2066 Y56.4176 F350.00
G01 X34.2011 Y56.3098 F350.00
G01 X34.2011 Y56.2902 F350.00
G01 X34.2059 Y56.1922 F350.00
G01 X34.2078 Y56.1726 F350.00
G01 X34.2239 Y56.0659 F350.00
G01 X34.2499 Y55.9611 F350.00
G01 X34.2556 Y55.9423 F350.00
G01 X34.2922 Y55.8408 F350.00
G01 X34.3381 Y55.7431 F350.00
G01 X34.3474 Y55.7258 F350.00
G01 X34.4031 Y55.6333 F350.00
G01 X34.4672 Y55.5465 F350.00
G01 X34.4797 Y55.5313 F350.00
G01 X34.5523 Y55.4515 F350.00
G01 X34.6322 Y55.3788 F350.00
G01 X34.6473 Y55.3663 F350.00
G01 X34.7262 Y55.3079 F350.00
G01 X34.7425 Y55.2970 F350.00
G01 X34.8352 Y55.2417 F350.00
G01 X34.9416 Y55.1913 F350.00
G01 X35.0432 Y55.1548 F350.00
G01 X35.0620 Y55.1491 F350.00
G01 X35.1668 Y55.1231 F350.00
G01 X35.2784 Y55.1063 F350.00
G01 X35.2930 Y55.1051 F350.00
G01 X35.4009 Y55.1000 F350.00
G01 X36.4009 Y55.1000 F350.00
G01 X36.5185 Y55.1058 F350.00
G01 X36.6301 Y55.1222 F350.00
G01 X36.6445 Y55.1252 F350.00
G01 X36.7492 Y55.1517 F350.00
G01 X36.8509 Y55.1878 F350.00
G01 X36.8691 Y55.1953 F350.00
G01 X36.9665 Y55.2417 F350.00
G01 X37.0593 Y55.2970 F350.00
G01 X37.0756 Y55.3079 F350.00
G01 X37.1583 Y55.3693 F350.00
G01 X37.1696 Y55.3788 F350.00
G01 X37.2494 Y55.4515 F350.00
G01 X37.3285 Y55.5387 F350.00
G01 X37.3986 Y55.6333 F350.00
G01 X37.4543 Y55.7258 F350.00
G01 X37.4636 Y55.7431 F350.00
G01 X37.5055 Y55.8318 F350.00
G01 X37.5130 Y55.8499 F350.00
G01 X37.5444 Y55.8499 F350.00
G01 X44.1557 Y49.2386 F350.00
G01 X44.1557 Y40.1972 F350.00
G01 X25.1626 Y21.2041 F350.00
G01 X25.1361 Y21.1751 F350.00
G01 X25.1269 Y21.1636 F350.00
G01 X25.1094 Y21.1399 F350.00
G01 X25.1039 Y21.1317 F350.00
G01 X25.0887 Y21.1065 F350.00
G01 X25.0795 Y21.0892 F350.00
G01 X25.0669 Y21.0626 F350.00
G01 X25.0615 Y21.0489 F350.00
G01 X25.0501 Y21.0165 F350.00
G01 X25.0394 Y20.9736 F350.00
G01 X25.0329 Y20.9299 F350.00
G01 X25.0308 Y20.8907 F350.00
G01 X25.0307 Y17.4457 F350.00
G01 X21.3352 Y13.7501 F350.00
G01 X3.2531 Y13.7501 F350.00
G01 X-0.3590 Y17.3622 F350.00
G01 X-0.3590 Y39.7555 F350.00
G01 X1.2353 Y41.3499 F350.00
G01 X15.1014 Y41.3499 F350.00
G01 X16.1557 Y40.2955 F350.00
G01 X16.1557 Y28.8866 F350.00
G01 X11.0376 Y23.7684 F350.00
G01 X11.0079 Y23.7357 F350.00
G01 X10.9816 Y23.7002 F350.00
G01 X10.9613 Y23.6666 F350.00
G01 X10.9545 Y23.6535 F350.00
G01 X10.9400 Y23.6224 F350.00
G01 X10.9251 Y23.5808 F350.00
G01 X10.9154 Y23.5427 F350.00
G01 X10.9127 Y23.5283 F350.00
G01 X10.9079 Y23.4942 F350.00
G01 X10.9058 Y23.4550 F350.00
G01 X10.9057 Y20.9122 F350.00
G00 Z0.5000
G00 X11.1257 Y24.6485
G01 F250.00
G01 Z-0.0500
G01 F350.00
G01 X11.0747 Y24.6670 F350.00
G01 X11.0402 Y24.6813 F350.00
G01 X10.9178 Y24.7392 F350.00
G01 X10.9012 Y24.7478 F350.00
G01 X10.8731 Y24.7637 F350.00
G01 X10.2010 Y24.0916 F350.00
G01 X10.2010 Y21.1270 F350.00
G01 X10.2251 Y21.1485 F350.00
G01 X10.2539 Y21.1722 F350.00
G01 X10.3457 Y21.2406 F350.00
G01 X10.3460 Y23.4688 F350.00
G01 X10.3490 Y23.5306 F350.00
G01 X10.3527 Y23.5677 F350.00
G01 X10.3552 Y23.5862 F350.00
G01 X10.3617 Y23.6289 F350.00
G01 X10.3651 Y23.6472 F350.00
G01 X10.3690 Y23.6654 F350.00
G01 X10.3793 Y23.7074 F350.00
G01 X10.3892 Y23.7433 F350.00
G01 X10.3949 Y23.7611 F350.00
G01 X10.4157 Y23.8194 F350.00
G01 X10.4300 Y23.8538 F350.00
G01 X10.4564 Y23.9097 F350.00
G01 X10.4740 Y23.9426 F350.00
G01 X10.5058 Y23.9957 F350.00
G01 X10.5265 Y24.0267 F350.00
G01 X10.5634 Y24.0764 F350.00
G01 X10.5750 Y24.0909 F350.00
G01 X10.5994 Y24.1192 F350.00
G01 X10.6286 Y24.1510 F350.00
G01 X10.6416 Y24.1644 F350.00
G01 X11.1257 Y24.6485 F350.00
G00 Z0.5000
G00 X11.6944 Y24.8212
G01 F250.00
G01 Z-0.0500
G01 F350.00
G01 X11.6093 Y24.8254 F350.00
G01 X11.5858 Y24.8271 F350.00
G01 X11.5624 Y24.8300 F350.00
G01 X11.4537 Y24.8463 F350.00
G01 X11.4306 Y24.8509 F350.00
G01 X11.4191 Y24.8536 F350.00
G01 X11.3239 Y24.8774 F350.00
G01 X11.3012 Y24.8837 F350.00
G01 X11.2789 Y24.8911 F350.00
G01 X11.1865 Y24.9242 F350.00
G01 X11.1645 Y24.9327 F350.00
G01 X11.1430 Y24.9422 F350.00
G01 X11.0542 Y24.9842 F350.00
G01 X11.0332 Y24.9948 F350.00
G01 X11.0127 Y25.0064 F350.00
G01 X10.9185 Y25.0630 F350.00
G01 X10.8989 Y25.0761 F350.00
G01 X10.8360 Y25.1226 F350.00
G01 X9.9210 Y24.2076 F350.00
G01 X9.9210 Y20.7827 F350.00
G01 X9.9523 Y20.7479 F350.00
G01 X9.9673 Y20.7297 F350.00
G01 X10.0329 Y20.6415 F350.00
G01 X10.0464 Y20.6222 F350.00
G01 X10.0529 Y20.6124 F350.00
G01 X10.0859 Y20.5576 F350.00
G01 X10.1189 Y20.6124 F350.00
G01 X10.1320 Y20.6320 F350.00
G01 X10.2044 Y20.7297 F350.00
G01 X10.2194 Y20.7479 F350.00
G01 X10.2272 Y20.7567 F350.00
G01 X10.2931 Y20.8295 F350.00
G01 X10.3093 Y20.8465 F350.00
G01 X10.3264 Y20.8628 F350.00
G01 X10.3991 Y20.9287 F350.00
G01 X10.4170 Y20.9441 F350.00
G01 X10.4355 Y20.9585 F350.00
G01 X10.5144 Y21.0170 F350.00
G01 X10.5336 Y21.0306 F350.00
G01 X10.5535 Y21.0432 F350.00
G01 X10.6257 Y21.0865 F350.00
G01 X10.6259 Y23.4619 F350.00
G01 X10.6275 Y23.4982 F350.00
G01 X10.6293 Y23.5217 F350.00
G01 X10.6321 Y23.5451 F350.00
G01 X10.6357 Y23.5694 F350.00
G01 X10.6398 Y23.5926 F350.00
G01 X10.6449 Y23.6156 F350.00
G01 X10.6509 Y23.6394 F350.00
G01 X10.6572 Y23.6621 F350.00
G01 X10.6646 Y23.6844 F350.00
G01 X10.6769 Y23.7186 F350.00
G01 X10.6860 Y23.7404 F350.00
G01 X10.7065 Y23.7838 F350.00
G01 X10.7176 Y23.8046 F350.00
G01 X10.7424 Y23.8459 F350.00
G01 X10.7554 Y23.8655 F350.00
G01 X10.7841 Y23.9041 F350.00
G01 X10.7991 Y23.9223 F350.00
G01 X10.8233 Y23.9493 F350.00
G01 X10.8396 Y23.9664 F350.00
G01 X11.6944 Y24.8212 F350.00
G00 Z0.5000
G00 X16.2407 Y20.9122
G01 F250.00
G01 Z-0.0500
G01 F350.00
G01 X16.2227 Y20.9047 F350.00
G01 X16.1252 Y20.8583 F350.00
G01 X16.0242 Y20.7978 F350.00
G01 X15.9296 Y20.7276 F350.00
G01 X15.8494 Y20.6553 F350.00
G01 X15.8356 Y20.6414 F350.00
G01 X15.7632 Y20.5613 F350.00
G01 X15.6987 Y20.4747 F350.00
G01 X15.6878 Y20.4584 F350.00
G01 X15.6374 Y20.3742 F350.00
G01 X15.6281 Y20.3569 F350.00
G01 X15.5822 Y20.2592 F350.00
G01 X15.5425 Y20.1483 F350.00
G01 X15.5161 Y20.0437 F350.00
G01 X15.5122 Y20.0244 F350.00
G01 X15.4966 Y19.9176 F350.00
G01 X15.4909 Y19.8049 F350.00
G01 X15.4909 Y18.7951 F350.00
G01 X15.4966 Y18.6824 F350.00
G01 X15.5139 Y18.5659 F350.00
G01 X15.5425 Y18.4517 F350.00
G01 X15.5822 Y18.3408 F350.00
G01 X15.6326 Y18.2343 F350.00
G01 X15.6931 Y18.1333 F350.00
G01 X15.7632 Y18.0387 F350.00
G01 X15.8423 Y17.9515 F350.00
G01 X15.9296 Y17.8724 F350.00
G01 X16.0242 Y17.8022 F350.00
G01 X16.1252 Y17.7417 F350.00
G01 X16.2316 Y17.6913 F350.00
G01 X16.3425 Y17.6517 F350.00
G01 X16.4568 Y17.6231 F350.00
G01 X16.5732 Y17.6058 F350.00
G01 X16.6909 Y17.6000 F350.00
G01 X16.8085 Y17.6058 F350.00
G01 X16.9250 Y17.6231 F350.00
G01 X17.0392 Y17.6517 F350.00
G01 X17.1409 Y17.6878 F350.00
G01 X17.1591 Y17.6953 F350.00
G01 X17.2478 Y17.7373 F350.00
G01 X17.2651 Y17.7465 F350.00
G01 X17.3575 Y17.8022 F350.00
G01 X17.4521 Y17.8724 F350.00
G01 X17.5394 Y17.9515 F350.00
G01 X17.6185 Y18.0387 F350.00
G01 X17.6886 Y18.1333 F350.00
G01 X17.7443 Y18.2258 F350.00
G01 X17.7536 Y18.2431 F350.00
G01 X17.7955 Y18.3318 F350.00
G01 X17.8030 Y18.3499 F350.00
G01 X17.8392 Y18.4517 F350.00
G01 X17.8678 Y18.5659 F350.00
G01 X17.8851 Y18.6824 F350.00
G01 X17.8908 Y18.7951 F350.00
G01 X17.8906 Y19.8098 F350.00
G01 X17.8851 Y19.9176 F350.00
G01 X17.8695 Y20.0244 F350.00
G01 X17.8657 Y20.0437 F350.00
G01 X17.8418 Y20.1389 F350.00
G01 X17.8361 Y20.1577 F350.00
G01 X17.7995 Y20.2592 F350.00
G01 X17.7536 Y20.3569 F350.00
G01 X17.7443 Y20.3742 F350.00
G01 X17.6939 Y20.4584 F350.00
G01 X17.6830 Y20.4747 F350.00
G01 X17.6185 Y20.5613 F350.00
G01 X17.5462 Y20.6414 F350.00
G01 X17.5323 Y20.6553 F350.00
G01 X17.4521 Y20.7276 F350.00
G01 X17.3575 Y20.7978 F350.00
G01 X17.2565 Y20.8583 F350.00
G01 X17.1591 Y20.9047 F350.00
G01 X17.1410 Y20.9122 F350.00
G01 X17.1410 Y24.3236 F350.00
G01 X18.4708 Y25.6534 F350.00
G01 X18.4804 Y25.6374 F350.00
G01 X18.4859 Y25.6293 F350.00
G01 X18.5502 Y25.5426 F350.00
G01 X18.5597 Y25.5313 F350.00
G01 X18.6323 Y25.4515 F350.00
G01 X18.7196 Y25.3724 F350.00
G01 X18.8062 Y25.3079 F350.00
G01 X18.8225 Y25.2970 F350.00
G01 X18.9066 Y25.2465 F350.00
G01 X18.9240 Y25.2373 F350.00
G01 X19.0216 Y25.1913 F350.00
G01 X19.1232 Y25.1548 F350.00
G01 X19.1420 Y25.1491 F350.00
G01 X19.2468 Y25.1231 F350.00
G01 X19.3632 Y25.1058 F350.00
G01 X19.4809 Y25.1000 F350.00
G01 X19.5985 Y25.1058 F350.00
G01 X19.7150 Y25.1231 F350.00
G01 X19.8197 Y25.1491 F350.00
G01 X19.8385 Y25.1548 F350.00
G01 X19.9309 Y25.1878 F350.00
G01 X19.9491 Y25.1953 F350.00
G01 X20.0465 Y25.2417 F350.00
G01 X20.1393 Y25.2970 F350.00
G01 X20.1556 Y25.3079 F350.00
G01 X20.2421 Y25.3724 F350.00
G01 X20.3294 Y25.4515 F350.00
G01 X20.4085 Y25.5387 F350.00
G01 X20.4786 Y25.6333 F350.00
G01 X20.5392 Y25.7343 F350.00
G01 X20.5855 Y25.8318 F350.00
G01 X20.5930 Y25.8499 F350.00
G01 X20.6261 Y25.9423 F350.00
G01 X20.6318 Y25.9611 F350.00
G01 X20.6578 Y26.0659 F350.00
G01 X20.6751 Y26.1824 F350.00
G01 X20.6809 Y26.3000 F350.00
G01 X20.6809 Y27.3000 F350.00
G01 X20.6758 Y27.4078 F350.00
G01 X20.6739 Y27.4274 F350.00
G01 X20.6595 Y27.5244 F350.00
G01 X20.6557 Y27.5437 F350.00
G01 X20.6292 Y27.6483 F350.00
G01 X20.5930 Y27.7501 F350.00
G01 X20.5856 Y27.7681 F350.00
G01 X23.7991 Y30.9817 F350.00
G01 X23.8288 Y31.0144 F350.00
G01 X23.8495 Y31.0419 F350.00
G01 X23.8578 Y31.0540 F350.00
G01 X23.8778 Y31.0878 F350.00
G01 X23.8927 Y31.1188 F350.00
G01 X23.8985 Y31.1323 F350.00
G01 X23.9116 Y31.1693 F350.00
G01 X23.9213 Y31.2074 F350.00
G01 X23.9240 Y31.2219 F350.00
G01 X23.9288 Y31.2559 F350.00
G01 X23.9309 Y31.2951 F350.00
G01 X23.9310 Y33.5136 F350.00
G01 X27.0491 Y36.6317 F350.00
G01 X27.0788 Y36.6644 F350.00
G01 X27.1051 Y36.6999 F350.00
G01 X27.1230 Y36.7293 F350.00
G01 X27.1301 Y36.7422 F350.00
G01 X27.1467 Y36.7777 F350.00
G01 X27.1616 Y36.8193 F350.00
G01 X27.1702 Y36.8526 F350.00
G01 X27.1740 Y36.8719 F350.00
G01 X27.1783 Y36.9010 F350.00
G01 X27.1792 Y36.9108 F350.00
G01 X27.1810 Y36.9500 F350.00
G01 X27.1810 Y37.9121 F350.00
G01 X27.2149 Y37.9206 F350.00
G01 X27.2290 Y37.9247 F350.00
G01 X27.3769 Y37.9776 F350.00
G01 X27.3904 Y37.9834 F350.00
G01 X27.5322 Y38.0507 F350.00
G01 X27.6753 Y38.1365 F350.00
G01 X27.8016 Y38.2298 F350.00
G01 X27.8168 Y38.2423 F350.00
G01 X27.9258 Y38.3411 F350.00
G01 X27.9397 Y38.3550 F350.00
G01 X28.0450 Y38.4715 F350.00
G01 X28.1387 Y38.5975 F350.00
G01 X28.1496 Y38.6138 F350.00
G01 X28.2301 Y38.7486 F350.00
G01 X28.2975 Y38.8905 F350.00
G01 X28.3050 Y38.9086 F350.00
G01 X28.3577 Y39.0565 F350.00
G01 X28.3982 Y39.2183 F350.00
G01 X28.4227 Y39.3834 F350.00
G01 X28.4309 Y39.5500 F350.00
G01 X28.4227 Y39.7166 F350.00
G01 X28.3982 Y39.8817 F350.00
G01 X28.3577 Y40.0435 F350.00
G01 X28.3050 Y40.1914 F350.00
G01 X28.2975 Y40.2095 F350.00
G01 X28.2301 Y40.3514 F350.00
G01 X28.1496 Y40.4862 F350.00
G01 X28.1387 Y40.5025 F350.00
G01 X28.0510 Y40.6207 F350.00
G01 X28.0386 Y40.6359 F350.00
G01 X27.9329 Y40.7521 F350.00
G01 X27.8093 Y40.8641 F350.00
G01 X27.6753 Y40.9635 F350.00
G01 X27.5365 Y41.0469 F350.00
G01 X27.5235 Y41.0537 F350.00
G01 X27.3814 Y41.1206 F350.00
G01 X27.2243 Y41.1768 F350.00
G01 X27.0625 Y41.2173 F350.00
G01 X26.8975 Y41.2418 F350.00
G01 X26.7309 Y41.2500 F350.00
G01 X26.5642 Y41.2418 F350.00
G01 X26.3992 Y41.2173 F350.00
G01 X26.2468 Y41.1794 F350.00
G01 X26.2281 Y41.1737 F350.00
G01 X26.0803 Y41.1206 F350.00
G01 X25.9383 Y41.0537 F350.00
G01 X25.9209 Y41.0444 F350.00
G01 X25.7947 Y40.9688 F350.00
G01 X25.7784 Y40.9578 F350.00
G01 X25.6524 Y40.8641 F350.00
G01 X25.5359 Y40.7589 F350.00
G01 X25.5220 Y40.7450 F350.00
G01 X25.4167 Y40.6285 F350.00
G01 X25.3174 Y40.4945 F350.00
G01 X25.2316 Y40.3514 F350.00
G01 X25.1642 Y40.2095 F350.00
G01 X25.1567 Y40.1914 F350.00
G01 X25.1041 Y40.0435 F350.00
G01 X25.0635 Y39.8817 F350.00
G01 X25.0390 Y39.7166 F350.00
G01 X25.0309 Y39.5500 F350.00
G01 X25.0390 Y39.3834 F350.00
G01 X25.0635 Y39.2183 F350.00
G01 X25.1041 Y39.0565 F350.00
G01 X25.1567 Y38.9086 F350.00
G01 X25.1642 Y38.8905 F350.00
G01 X25.2316 Y38.7486 F350.00
G01 X25.3121 Y38.6138 F350.00
G01 X25.3230 Y38.5975 F350.00
G01 X25.4107 Y38.4793 F350.00
G01 X25.4232 Y38.4641 F350.00
G01 X25.5288 Y38.3479 F350.00
G01 X25.6450 Y38.2423 F350.00
G01 X25.6601 Y38.2298 F350.00
G01 X25.7864 Y38.1365 F350.00
G01 X25.9295 Y38.0507 F350.00
G01 X26.0713 Y37.9834 F350.00
G01 X26.0849 Y37.9776 F350.00
G01 X26.2327 Y37.9247 F350.00
G01 X26.2468 Y37.9206 F350.00
G01 X26.2807 Y37.9121 F350.00
G01 X26.2807 Y37.1364 F350.00
G01 X23.1626 Y34.0183 F350.00
G01 X23.1361 Y33.9893 F350.00
G01 X23.1269 Y33.9778 F350.00
G01 X23.1066 Y33.9501 F350.00
G01 X23.0863 Y33.9165 F350.00
G01 X23.0795 Y33.9034 F350.00
G01 X23.0650 Y33.8723 F350.00
G01 X23.0516 Y33.8353 F350.00
G01 X23.0475 Y33.8212 F350.00
G01 X23.0394 Y33.7878 F350.00
G01 X23.0341 Y33.7539 F350.00
G01 X23.0325 Y33.7392 F350.00
G01 X23.0308 Y33.7049 F350.00
G01 X23.0307 Y31.4864 F350.00
G01 X19.9490 Y28.4047 F350.00
G01 X19.9309 Y28.4122 F350.00
G01 X19.8385 Y28.4452 F350.00
G01 X19.8197 Y28.4509 F350.00
G01 X19.7150 Y28.4769 F350.00
G01 X19.5985 Y28.4942 F350.00
G01 X19.4907 Y28.4998 F350.00
G01 X19.4710 Y28.4998 F350.00
G01 X19.3632 Y28.4942 F350.00
G01 X19.2468 Y28.4769 F350.00
G01 X19.1325 Y28.4483 F350.00
G01 X19.0308 Y28.4122 F350.00
G01 X19.0127 Y28.4047 F350.00
G01 X18.9152 Y28.3583 F350.00
G01 X18.8142 Y28.2978 F350.00
G01 X18.7273 Y28.2337 F350.00
G01 X18.7122 Y28.2212 F350.00
G01 X18.6323 Y28.1485 F350.00
G01 X18.5532 Y28.0613 F350.00
G01 X18.4887 Y27.9747 F350.00
G01 X18.4778 Y27.9584 F350.00
G01 X18.4226 Y27.8657 F350.00
G01 X18.3762 Y27.7682 F350.00
G01 X18.3687 Y27.7501 F350.00
G01 X18.3325 Y27.6483 F350.00
G01 X18.3061 Y27.5437 F350.00
G01 X18.3022 Y27.5244 F350.00
G01 X18.2866 Y27.4176 F350.00
G01 X18.2809 Y27.3049 F350.00
G01 X18.2809 Y26.7366 F350.00
G01 X16.3726 Y24.8283 F350.00
G01 X16.3461 Y24.7993 F350.00
G01 X16.3369 Y24.7878 F350.00
G01 X16.3166 Y24.7601 F350.00
G01 X16.2963 Y24.7265 F350.00
G01 X16.2895 Y24.7134 F350.00
G01 X16.2750 Y24.6823 F350.00
G01 X16.2616 Y24.6453 F350.00
G01 X16.2575 Y24.6312 F350.00
G01 X16.2494 Y24.5978 F350.00
G01 X16.2441 Y24.5639 F350.00
G01 X16.2425 Y24.5492 F350.00
G01 X16.2408 Y24.5149 F350.00
G01 X16.2407 Y20.9122 F350.00
G00 Z0.5000
G00 X18.7807 Y20.9122
G01 F250.00
G01 Z-0.0500
G01 F350.00
G01 X18.7627 Y20.9047 F350.00
G01 X18.6652 Y20.8583 F350.00
G01 X18.5642 Y20.7978 F350.00
G01 X18.4696 Y20.7276 F350.00
G01 X18.3894 Y20.6553 F350.00
G01 X18.3756 Y20.6414 F350.00
G01 X18.3032 Y20.5613 F350.00
G01 X18.2387 Y20.4747 F350.00
G01 X18.2278 Y20.4584 F350.00
G01 X18.1774 Y20.3742 F350.00
G01 X18.1681 Y20.3569 F350.00
G01 X18.1222 Y20.2592 F350.00
G01 X18.0825 Y20.1483 F350.00
G01 X18.0561 Y20.0437 F350.00
G01 X18.0522 Y20.0244 F350.00
G01 X18.0366 Y19.9176 F350.00
G01 X18.0309 Y19.8049 F350.00
G01 X18.0309 Y18.7951 F350.00
G01 X18.0366 Y18.6824 F350.00
G01 X18.0539 Y18.5659 F350.00
G01 X18.0825 Y18.4517 F350.00
G01 X18.1222 Y18.3408 F350.00
G01 X18.1726 Y18.2343 F350.00
G01 X18.2331 Y18.1333 F350.00
G01 X18.3032 Y18.0387 F350.00
G01 X18.3823 Y17.9515 F350.00
G01 X18.4696 Y17.8724 F350.00
G01 X18.5642 Y17.8022 F350.00
G01 X18.6652 Y17.7417 F350.00
G01 X18.7716 Y17.6913 F350.00
G01 X18.8825 Y17.6517 F350.00
G01 X18.9968 Y17.6231 F350.00
G01 X19.1132 Y17.6058 F350.00
G01 X19.2309 Y17.6000 F350.00
G01 X19.3485 Y17.6058 F350.00
G01 X19.4650 Y17.6231 F350.00
G01 X19.5792 Y17.6517 F350.00
G01 X19.6809 Y17.6878 F350.00
G01 X19.6991 Y17.6953 F350.00
G01 X19.7878 Y17.7373 F350.00
G01 X19.8051 Y17.7465 F350.00
G01 X19.8975 Y17.8022 F350.00
G01 X19.9921 Y17.8724 F350.00
G01 X20.0794 Y17.9515 F350.00
G01 X20.1521 Y18.0313 F350.00
G01 X20.1645 Y18.0465 F350.00
G01 X20.2230 Y18.1253 F350.00
G01 X20.2339 Y18.1416 F350.00
G01 X20.2892 Y18.2343 F350.00
G01 X20.3395 Y18.3408 F350.00
G01 X20.3792 Y18.4517 F350.00
G01 X20.4057 Y18.5563 F350.00
G01 X20.4095 Y18.5756 F350.00
G01 X20.4239 Y18.6726 F350.00
G01 X20.4255 Y18.6873 F350.00
G01 X20.4309 Y18.8000 F350.00
G01 X20.4308 Y19.8049 F350.00
G01 X20.4251 Y19.9176 F350.00
G01 X20.4095 Y20.0244 F350.00
G01 X20.4057 Y20.0437 F350.00
G01 X20.3818 Y20.1389 F350.00
G01 X20.3777 Y20.1530 F350.00
G01 X20.3395 Y20.2592 F350.00
G01 X20.2892 Y20.3657 F350.00
G01 X20.2286 Y20.4667 F350.00
G01 X20.1645 Y20.5535 F350.00
G01 X20.1553 Y20.5650 F350.00
G01 X20.0862 Y20.6414 F350.00
G01 X20.0723 Y20.6553 F350.00
G01 X19.9921 Y20.7276 F350.00
G01 X19.9056 Y20.7921 F350.00
G01 X19.8893 Y20.8030 F350.00
G01 X19.7965 Y20.8583 F350.00
G01 X19.6991 Y20.9047 F350.00
G01 X19.6810 Y20.9122 F350.00
G01 X19.6810 Y20.9636 F350.00
G01 X35.0734 Y36.3559 F350.00
G01 X35.0999 Y36.3849 F350.00
G01 X35.1091 Y36.3964 F350.00
G01 X35.1293 Y36.4241 F350.00
G01 X35.1520 Y36.4620 F350.00
G01 X35.1709 Y36.5020 F350.00
G01 X35.1827 Y36.5342 F350.00
G01 X35.1884 Y36.5530 F350.00
G01 X35.1955 Y36.5816 F350.00
G01 X35.1974 Y36.5912 F350.00
G01 X35.2030 Y36.6301 F350.00
G01 X35.2052 Y36.6742 F350.00
G01 X35.2052 Y49.0500 F350.00
G01 X35.2030 Y49.0941 F350.00
G01 X35.1982 Y49.1281 F350.00
G01 X35.1955 Y49.1426 F350.00
G01 X35.1884 Y49.1712 F350.00
G01 X35.1827 Y49.1900 F350.00
G01 X35.1709 Y49.2223 F350.00
G01 X35.1520 Y49.2622 F350.00
G01 X35.1293 Y49.3001 F350.00
G01 X35.1030 Y49.3356 F350.00
G01 X35.0734 Y49.3683 F350.00
G01 X35.0406 Y49.3980 F350.00
G01 X35.0052 Y49.4243 F350.00
G01 X34.9716 Y49.4446 F350.00
G01 X34.9585 Y49.4514 F350.00
G01 X34.9273 Y49.4659 F350.00
G01 X34.8951 Y49.4777 F350.00
G01 X34.8810 Y49.4821 F350.00
G01 X34.8525 Y49.4893 F350.00
G01 X34.8381 Y49.4924 F350.00
G01 X34.8041 Y49.4974 F350.00
G01 X34.7894 Y49.4987 F350.00
G01 X34.7600 Y49.5001 F350.00
G01 X24.9173 Y49.5001 F350.00
G01 X21.6810 Y52.7364 F350.00
G01 X21.6810 Y62.6136 F350.00
G01 X26.3173 Y67.2499 F350.00
G01 X68.5307 Y67.2499 F350.00
G01 X68.5307 Y63.6751 F350.00
G01 X59.9923 Y63.6751 F350.00
G01 X57.6456 Y66.0217 F350.00
G01 X57.6164 Y66.0480 F350.00
G01 X57.5809 Y66.0743 F350.00
G01 X57.5430 Y66.0970 F350.00
G01 X57.5121 Y66.1119 F350.00
G01 X57.4986 Y66.1177 F350.00
G01 X57.4708 Y66.1277 F350.00
G01 X57.4521 Y66.1334 F350.00
G01 X57.4235 Y66.1405 F350.00
G01 X57.4139 Y66.1424 F350.00
G01 X57.3847 Y66.1468 F350.00
G01 X57.3701 Y66.1484 F350.00
G01 X57.3309 Y66.1501 F350.00
G01 X35.9009 Y66.1501 F350.00
G01 X35.8567 Y66.1480 F350.00
G01 X35.8227 Y66.1432 F350.00
G01 X35.8082 Y66.1405 F350.00
G01 X35.7702 Y66.1307 F350.00
G01 X35.7332 Y66.1177 F350.00
G01 X35.7241 Y66.1139 F350.00
G01 X35.6974 Y66.1014 F350.00
G01 X35.6801 Y66.0921 F350.00
G01 X35.6508 Y66.0743 F350.00
G01 X35.6153 Y66.0480 F350.00
G01 X35.5826 Y66.0183 F350.00
G01 X35.5593 Y65.9930 F350.00
G01 X35.5498 Y65.9817 F350.00
G01 X35.5322 Y65.9581 F350.00
G01 X35.5213 Y65.9418 F350.00
G01 X35.5039 Y65.9122 F350.00
G01 X35.4850 Y65.8723 F350.00
G01 X35.4701 Y65.8307 F350.00
G01 X35.4615 Y65.7974 F350.00
G01 X35.4577 Y65.7781 F350.00
G01 X35.4534 Y65.7490 F350.00
G01 X35.4525 Y65.7392 F350.00
G01 X35.4507 Y65.7000 F350.00
G01 X35.4507 Y61.2500 F350.00
G01 X35.3960 Y61.2499 F350.00
G01 X35.2881 Y61.2446 F350.00
G01 X35.2735 Y61.2430 F350.00
G01 X35.1716 Y61.2278 F350.00
G01 X35.1572 Y61.2248 F350.00
G01 X35.0525 Y61.1983 F350.00
G01 X34.9462 Y61.1605 F350.00
G01 X34.9327 Y61.1547 F350.00
G01 X34.8352 Y61.1083 F350.00
G01 X34.7342 Y61.0478 F350.00
G01 X34.6396 Y60.9776 F350.00
G01 X34.5594 Y60.9053 F350.00
G01 X34.5489 Y60.8950 F350.00
G01 X34.4732 Y60.8113 F350.00
G01 X34.4087 Y60.7247 F350.00
G01 X34.3978 Y60.7084 F350.00
G01 X34.3474 Y60.6242 F350.00
G01 X34.3381 Y60.6069 F350.00
G01 X34.2922 Y60.5092 F350.00
G01 X34.2556 Y60.4077 F350.00
G01 X34.2499 Y60.3889 F350.00
G01 X34.2239 Y60.2841 F350.00
G01 X34.2066 Y60.1676 F350.00
G01 X34.2009 Y60.0500 F350.00
G01 X34.2059 Y59.9422 F350.00
G01 X34.2072 Y59.9275 F350.00
G01 X34.2222 Y59.8256 F350.00
G01 X34.2261 Y59.8063 F350.00
G01 X34.2525 Y59.7017 F350.00
G01 X34.2887 Y59.5999 F350.00
G01 X34.2962 Y59.5818 F350.00
G01 X34.3426 Y59.4843 F350.00
G01 X34.4031 Y59.3833 F350.00
G01 X34.4672 Y59.2965 F350.00
G01 X34.4797 Y59.2813 F350.00
G01 X34.5523 Y59.2015 F350.00
G01 X34.6322 Y59.1288 F350.00
G01 X34.6473 Y59.1163 F350.00
G01 X34.7342 Y59.0522 F350.00
G01 X34.8266 Y58.9965 F350.00
G01 X34.8440 Y58.9873 F350.00
G01 X34.9416 Y58.9413 F350.00
G01 X35.0525 Y58.9017 F350.00
G01 X35.1668 Y58.8731 F350.00
G01 X35.2735 Y58.8570 F350.00
G01 X35.2881 Y58.8554 F350.00
G01 X35.4009 Y58.8500 F350.00
G01 X36.4009 Y58.8500 F350.00
G01 X36.4615 Y58.8527 F350.00
G01 X39.3361 Y55.9783 F350.00
G01 X39.3653 Y55.9520 F350.00
G01 X39.3928 Y55.9314 F350.00
G01 X39.4049 Y55.9231 F350.00
G01 X39.4387 Y55.9030 F350.00
G01 X39.4786 Y55.8841 F350.00
G01 X39.5109 Y55.8723 F350.00
G01 X39.5297 Y55.8666 F350.00
G01 X39.5582 Y55.8595 F350.00
G01 X39.5679 Y55.8576 F350.00
G01 X39.6067 Y55.8520 F350.00
G01 X39.6509 Y55.8499 F350.00
G01 X68.5444 Y55.8499 F350.00
G01 X68.8762 Y55.5181 F350.00
G01 X68.8687 Y55.5001 F350.00
G01 X68.8356 Y55.4077 F350.00
G01 X68.8299 Y55.3889 F350.00
G01 X68.8039 Y55.2841 F350.00
G01 X68.7878 Y55.1774 F350.00
G01 X68.7859 Y55.1578 F350.00
G01 X68.7809 Y55.0500 F350.00
G01 X68.7859 Y54.9422 F350.00
G01 X68.7878 Y54.9226 F350.00
G01 X68.8039 Y54.8159 F350.00
G01 X68.8299 Y54.7111 F350.00
G01 X68.8356 Y54.6923 F350.00
G01 X68.8722 Y54.5908 F350.00
G01 X68.9181 Y54.4931 F350.00
G01 X68.9274 Y54.4758 F350.00
G01 X68.9831 Y54.3833 F350.00
G01 X69.0502 Y54.2926 F350.00
G01 X69.0597 Y54.2813 F350.00
G01 X69.1323 Y54.2015 F350.00
G01 X69.2122 Y54.1288 F350.00
G01 X69.2273 Y54.1163 F350.00
G01 X69.3142 Y54.0522 F350.00
G01 X69.4066 Y53.9965 F350.00
G01 X69.4240 Y53.9873 F350.00
G01 X69.5216 Y53.9413 F350.00
G01 X69.6325 Y53.9017 F350.00
G01 X69.7372 Y53.8752 F350.00
G01 X69.7564 Y53.8714 F350.00
G01 X69.8535 Y53.8570 F350.00
G01 X69.8730 Y53.8551 F350.00
G01 X69.9809 Y53.8500 F350.00
G01 X70.0887 Y53.8551 F350.00
G01 X70.1082 Y53.8570 F350.00
G01 X70.2150 Y53.8731 F350.00
G01 X70.3292 Y53.9017 F350.00
G01 X70.4401 Y53.9413 F350.00
G01 X70.5378 Y53.9873 F350.00
G01 X70.5551 Y53.9965 F350.00
G01 X70.6393 Y54.0470 F350.00
G01 X70.6556 Y54.0579 F350.00
G01 X70.7421 Y54.1224 F350.00
G01 X70.8223 Y54.1947 F350.00
G01 X70.8362 Y54.2086 F350.00
G01 X70.9085 Y54.2887 F350.00
G01 X70.9730 Y54.3753 F350.00
G01 X70.9839 Y54.3916 F350.00
G01 X71.0343 Y54.4758 F350.00
G01 X71.0436 Y54.4931 F350.00
G01 X71.0895 Y54.5908 F350.00
G01 X71.1261 Y54.6923 F350.00
G01 X71.1318 Y54.7111 F350.00
G01 X71.1578 Y54.8159 F350.00
G01 X71.1751 Y54.9324 F350.00
G01 X71.1806 Y55.0402 F350.00
G01 X71.1806 Y55.0598 F350.00
G01 X71.1751 Y55.1676 F350.00
G01 X71.1595 Y55.2744 F350.00
G01 X71.1557 Y55.2937 F350.00
G01 X71.1292 Y55.3983 F350.00
G01 X71.0930 Y55.5001 F350.00
G01 X71.0876 Y55.5137 F350.00
G01 X71.0392 Y55.6157 F350.00
G01 X70.9786 Y55.7167 F350.00
G01 X70.9085 Y55.8113 F350.00
G01 X70.8362 Y55.8914 F350.00
G01 X70.8223 Y55.9053 F350.00
G01 X70.7496 Y55.9712 F350.00
G01 X70.7344 Y55.9837 F350.00
G01 X70.6475 Y56.0478 F350.00
G01 X70.5465 Y56.1083 F350.00
