(G-CODE GENERATED BY FLATCAM v8.994 - www.flatcam.org - Version Date: 2020/11/7)

(Name: BACK_NCC_0.4mm_cnc)
(Type: G-code from Geometry)
(Units: MM)

(Created on Friday, 26 June 2026 at 06:02)

(This preprocessor is used with a motion controller loaded with GRBL firmware.)
(It is configured to be compatible with almost any version of GRBL firmware.)

(TOOL DIAMETER: 0.4 mm)
(Feedrate_XY: 350.0 mm/min)
(Feedrate_Z: 250.0 mm/min)
(Feedrate rapids 1500.0 mm/min)

(Z_Cut: -0.05 mm)
(Z_Move: 0.5 mm)
(Z Start: None mm)
(Z End: 40.0 mm)
(X,Y End: None mm)
(Steps per circle: 64)
(Steps per circle: 64)
(Preprocessor Geometry: grbl_11)

(X range:   -1.6193 ...  128.6909  mm)
(Y range:   -2.7700 ...   70.0102  mm)

(Spindle Speed: 0.0 RPM)
G21
G90
G17
G94


G01 F350.00

M5             
G00 Z40.0000
G00 X0.0000 Y0.0000                
T1
M6
(MSG, Change to Tool Dia = 0.4000)
M0
G00 Z40.0000

M03
G01 F350.00
G00 X3.0307 Y17.6878
G01 F250.00
G01 Z-0.0500
G01 F350.00
G01 X3.0307 Y14.3000 F350.00
G01 X3.0329 Y14.2559 F350.00
G01 X3.0385 Y14.2170 F350.00
G01 X3.0415 Y14.2026 F350.00
G01 X3.0501 Y14.1693 F350.00
G01 X3.0650 Y14.1277 F350.00
G01 X3.0839 Y14.0878 F350.00
G01 X3.1013 Y14.0582 F350.00
G01 X3.1122 Y14.0419 F350.00
G01 X3.1298 Y14.0183 F350.00
G01 X3.1393 Y14.0070 F350.00
G01 X3.1626 Y13.9817 F350.00
G01 X3.1953 Y13.9520 F350.00
G01 X3.2308 Y13.9257 F350.00
G01 X3.2601 Y13.9079 F350.00
G01 X3.2730 Y13.9008 F350.00
G01 X3.2996 Y13.8881 F350.00
G01 X3.3178 Y13.8806 F350.00
G01 X3.3502 Y13.8693 F350.00
G01 X3.3930 Y13.8585 F350.00
G01 X3.4367 Y13.8520 F350.00
G01 X3.4809 Y13.8499 F350.00
G01 X21.1074 Y13.8499 F350.00
G01 X21.1515 Y13.8520 F350.00
G01 X21.1904 Y13.8576 F350.00
G01 X21.2048 Y13.8607 F350.00
G01 X21.2381 Y13.8693 F350.00
G01 X21.2705 Y13.8806 F350.00
G01 X21.2842 Y13.8861 F350.00
G01 X21.3196 Y13.9030 F350.00
G01 X21.3575 Y13.9257 F350.00
G01 X21.3852 Y13.9460 F350.00
G01 X21.3967 Y13.9552 F350.00
G01 X21.4257 Y13.9817 F350.00
G01 X24.0991 Y16.6552 F350.00
G01 X24.1288 Y16.6879 F350.00
G01 X24.1551 Y16.7234 F350.00
G01 X24.1778 Y16.7613 F350.00
G01 X24.1948 Y16.7967 F350.00
G01 X24.2003 Y16.8104 F350.00
G01 X24.2116 Y16.8428 F350.00
G01 X24.2223 Y16.8856 F350.00
G01 X24.2288 Y16.9293 F350.00
G01 X24.2310 Y16.9735 F350.00
G01 X24.2310 Y21.8636 F350.00
G01 X40.5491 Y38.1817 F350.00
G01 X40.5788 Y38.2144 F350.00
G01 X40.5995 Y38.2419 F350.00
G01 X40.6104 Y38.2582 F350.00
G01 X40.6255 Y38.2835 F350.00
G01 X40.6301 Y38.2922 F350.00
G01 X40.6448 Y38.3232 F350.00
G01 X40.6503 Y38.3369 F350.00
G01 X40.6616 Y38.3693 F350.00
G01 X40.6702 Y38.4026 F350.00
G01 X40.6732 Y38.4170 F350.00
G01 X40.6788 Y38.4559 F350.00
G01 X40.6810 Y38.5000 F350.00
G01 X40.6810 Y46.5500 F350.00
G01 X40.6788 Y46.5941 F350.00
G01 X40.6740 Y46.6281 F350.00
G01 X40.6713 Y46.6426 F350.00
G01 X40.6616 Y46.6807 F350.00
G01 X40.6503 Y46.7131 F350.00
G01 X40.6448 Y46.7268 F350.00
G01 X40.6278 Y46.7622 F350.00
G01 X40.6078 Y46.7960 F350.00
G01 X40.5995 Y46.8081 F350.00
G01 X40.5788 Y46.8356 F350.00
G01 X40.5526 Y46.8648 F350.00
G01 X36.5883 Y50.8291 F350.00
G01 X36.5911 Y50.8900 F350.00
G01 X36.5911 Y51.3678 F350.00
G01 X36.6201 Y51.3722 F350.00
G01 X36.6298 Y51.3741 F350.00
G01 X36.7297 Y51.3991 F350.00
G01 X36.7439 Y51.4032 F350.00
G01 X36.8501 Y51.4413 F350.00
G01 X36.9522 Y51.4894 F350.00
G01 X36.9651 Y51.4965 F350.00
G01 X37.0493 Y51.5470 F350.00
G01 X37.0656 Y51.5579 F350.00
G01 X37.1521 Y51.6224 F350.00
G01 X37.2359 Y51.6980 F350.00
G01 X37.2462 Y51.7086 F350.00
G01 X37.3121 Y51.7813 F350.00
G01 X37.3245 Y51.7965 F350.00
G01 X37.3886 Y51.8833 F350.00
G01 X37.4492 Y51.9843 F350.00
G01 X37.4955 Y52.0818 F350.00
G01 X37.5030 Y52.0999 F350.00
G01 X37.5392 Y52.2017 F350.00
G01 X37.5668 Y52.3111 F350.00
G01 X37.5695 Y52.3256 F350.00
G01 X37.5839 Y52.4226 F350.00
G01 X37.5858 Y52.4422 F350.00
G01 X37.5909 Y52.5500 F350.00
G01 X37.5858 Y52.6578 F350.00
G01 X37.5839 Y52.6774 F350.00
G01 X37.5678 Y52.7841 F350.00
G01 X37.5418 Y52.8889 F350.00
G01 X37.5361 Y52.9077 F350.00
G01 X37.4995 Y53.0092 F350.00
G01 X37.4536 Y53.1069 F350.00
G01 X37.4443 Y53.1242 F350.00
G01 X37.3886 Y53.2167 F350.00
G01 X37.3185 Y53.3113 F350.00
G01 X37.2462 Y53.3914 F350.00
G01 X37.2323 Y53.4053 F350.00
G01 X37.1521 Y53.4776 F350.00
G01 X37.0575 Y53.5478 F350.00
G01 X36.9651 Y53.6035 F350.00
G01 X36.9478 Y53.6127 F350.00
G01 X36.8501 Y53.6587 F350.00
G01 X36.7485 Y53.6952 F350.00
G01 X36.7297 Y53.7009 F350.00
G01 X36.6250 Y53.7269 F350.00
G01 X36.5182 Y53.7430 F350.00
G01 X36.4987 Y53.7449 F350.00
G01 X36.3909 Y53.7500 F350.00
G01 X35.3909 Y53.7500 F350.00
G01 X35.2781 Y53.7446 F350.00
G01 X35.2635 Y53.7430 F350.00
G01 X35.1568 Y53.7269 F350.00
G01 X35.0425 Y53.6983 F350.00
G01 X34.9316 Y53.6587 F350.00
G01 X34.8252 Y53.6083 F350.00
G01 X34.7242 Y53.5478 F350.00
G01 X34.6296 Y53.4776 F350.00
G01 X34.5423 Y53.3985 F350.00
G01 X34.4632 Y53.3113 F350.00
G01 X34.3987 Y53.2247 F350.00
G01 X34.3878 Y53.2084 F350.00
G01 X34.3326 Y53.1157 F350.00
G01 X34.2862 Y53.0182 F350.00
G01 X34.2787 Y53.0001 F350.00
G01 X34.2425 Y52.8983 F350.00
G01 X34.2139 Y52.7841 F350.00
G01 X34.1978 Y52.6774 F350.00
G01 X34.1959 Y52.6578 F350.00
G01 X34.1909 Y52.5500 F350.00
G01 X34.1959 Y52.4422 F350.00
G01 X34.1978 Y52.4226 F350.00
G01 X34.2139 Y52.3159 F350.00
G01 X34.2399 Y52.2111 F350.00
G01 X34.2440 Y52.1970 F350.00
G01 X34.2822 Y52.0908 F350.00
G01 X34.3281 Y51.9931 F350.00
G01 X34.3374 Y51.9758 F350.00
G01 X34.3931 Y51.8833 F350.00
G01 X34.4572 Y51.7965 F350.00
G01 X34.4697 Y51.7813 F350.00
G01 X34.5423 Y51.7015 F350.00
G01 X34.6258 Y51.6255 F350.00
G01 X34.6373 Y51.6163 F350.00
G01 X34.7162 Y51.5579 F350.00
G01 X34.7325 Y51.5470 F350.00
G01 X34.8252 Y51.4917 F350.00
G01 X34.9271 Y51.4433 F350.00
G01 X34.9408 Y51.4378 F350.00
G01 X35.0332 Y51.4048 F350.00
G01 X35.0472 Y51.4003 F350.00
G01 X35.1520 Y51.3741 F350.00
G01 X35.1616 Y51.3722 F350.00
G01 X35.1906 Y51.3678 F350.00
G01 X35.1906 Y51.0501 F350.00
G01 X24.7815 Y51.0501 F350.00
G01 X22.9310 Y52.9007 F350.00
G01 X22.9310 Y61.1136 F350.00
G01 X28.0673 Y66.2499 F350.00
G01 X60.1944 Y66.2499 F350.00
G01 X60.7126 Y65.7317 F350.00
G01 X60.7415 Y65.7052 F350.00
G01 X60.7530 Y65.6960 F350.00
G01 X60.7808 Y65.6757 F350.00
G01 X60.8144 Y65.6554 F350.00
G01 X60.8274 Y65.6486 F350.00
G01 X60.8586 Y65.6341 F350.00
G01 X60.8909 Y65.6223 F350.00
G01 X60.9049 Y65.6179 F350.00
G01 X60.9382 Y65.6095 F350.00
G01 X60.9527 Y65.6068 F350.00
G01 X60.9867 Y65.6020 F350.00
G01 X61.0309 Y65.5999 F350.00
G01 X63.0986 Y65.5999 F350.00
G01 X63.0866 Y65.5176 F350.00
G01 X63.0811 Y65.4098 F350.00
G01 X63.0811 Y65.3902 F350.00
G01 X63.0859 Y65.2922 F350.00
G01 X63.0878 Y65.2726 F350.00
G01 X63.1039 Y65.1659 F350.00
G01 X63.1312 Y65.0564 F350.00
G01 X63.1356 Y65.0423 F350.00
G01 X63.1722 Y64.9408 F350.00
G01 X63.2226 Y64.8343 F350.00
G01 X63.2831 Y64.7333 F350.00
G01 X63.3472 Y64.6465 F350.00
G01 X63.3564 Y64.6350 F350.00
G01 X63.4323 Y64.5515 F350.00
G01 X63.5122 Y64.4788 F350.00
G01 X63.5273 Y64.4663 F350.00
G01 X63.6142 Y64.4022 F350.00
G01 X63.7066 Y64.3465 F350.00
G01 X63.7240 Y64.3373 F350.00
G01 X63.8127 Y64.2953 F350.00
G01 X63.8308 Y64.2878 F350.00
G01 X63.9325 Y64.2517 F350.00
G01 X64.0468 Y64.2231 F350.00
G01 X64.1632 Y64.2058 F350.00
G01 X64.2809 Y64.2000 F350.00
G01 X65.2858 Y64.2001 F350.00
G01 X65.3985 Y64.2058 F350.00
G01 X65.5150 Y64.2231 F350.00
G01 X65.6292 Y64.2517 F350.00
G01 X65.7309 Y64.2878 F350.00
G01 X65.7491 Y64.2953 F350.00
G01 X65.8465 Y64.3417 F350.00
G01 X65.9475 Y64.4022 F350.00
G01 X66.0344 Y64.4663 F350.00
G01 X66.0496 Y64.4788 F350.00
G01 X66.1294 Y64.5515 F350.00
G01 X66.2085 Y64.6387 F350.00
G01 X66.2786 Y64.7333 F350.00
G01 X66.3392 Y64.8343 F350.00
G01 X66.3855 Y64.9318 F350.00
G01 X66.3930 Y64.9499 F350.00
G01 X66.4261 Y65.0423 F350.00
G01 X66.4318 Y65.0611 F350.00
G01 X66.4578 Y65.1659 F350.00
G01 X66.4739 Y65.2726 F350.00
G01 X66.4758 Y65.2922 F350.00
G01 X66.4809 Y65.4000 F350.00
G01 X66.4751 Y65.5176 F350.00
G01 X66.4578 Y65.6341 F350.00
G01 X66.4292 Y65.7483 F350.00
G01 X66.3895 Y65.8592 F350.00
G01 X66.3392 Y65.9657 F350.00
G01 X66.2786 Y66.0667 F350.00
G01 X66.2115 Y66.1574 F350.00
G01 X66.2021 Y66.1687 F350.00
G01 X66.1294 Y66.2485 F350.00
G01 X66.0421 Y66.3276 F350.00
G01 X65.9475 Y66.3978 F350.00
G01 X65.8465 Y66.4583 F350.00
G01 X65.7401 Y66.5087 F350.00
G01 X65.6292 Y66.5483 F350.00
G01 X65.5150 Y66.5769 F350.00
G01 X65.4082 Y66.5930 F350.00
G01 X65.3936 Y66.5946 F350.00
G01 X65.2809 Y66.6000 F350.00
G01 X64.2809 Y66.6000 F350.00
G01 X64.1730 Y66.5949 F350.00
G01 X64.1535 Y66.5930 F350.00
G01 X64.0468 Y66.5769 F350.00
G01 X63.9420 Y66.5509 F350.00
G01 X63.9232 Y66.5452 F350.00
G01 X63.8308 Y66.5122 F350.00
G01 X63.8171 Y66.5067 F350.00
G01 X63.8030 Y66.5001 F350.00
G01 X61.2173 Y66.5001 F350.00
G01 X60.6991 Y67.0183 F350.00
G01 X60.6739 Y67.0415 F350.00
G01 X60.6626 Y67.0510 F350.00
G01 X60.6309 Y67.0743 F350.00
G01 X60.5973 Y67.0946 F350.00
G01 X60.5887 Y67.0992 F350.00
G01 X60.5621 Y67.1119 F350.00
G01 X60.5440 Y67.1194 F350.00
G01 X60.5115 Y67.1307 F350.00
G01 X60.4687 Y67.1415 F350.00
G01 X60.4250 Y67.1480 F350.00
G01 X60.3858 Y67.1501 F350.00
G01 X27.8809 Y67.1501 F350.00
G01 X27.8367 Y67.1480 F350.00
G01 X27.8027 Y67.1432 F350.00
G01 X27.7835 Y67.1393 F350.00
G01 X27.7549 Y67.1321 F350.00
G01 X27.7409 Y67.1277 F350.00
G01 X27.7086 Y67.1159 F350.00
G01 X27.6687 Y67.0970 F350.00
G01 X27.6308 Y67.0743 F350.00
G01 X27.5991 Y67.0510 F350.00
G01 X27.5879 Y67.0415 F350.00
G01 X27.5626 Y67.0183 F350.00
G01 X22.1626 Y61.6183 F350.00
G01 X22.1329 Y61.5856 F350.00
G01 X22.1066 Y61.5501 F350.00
G01 X22.0839 Y61.5122 F350.00
G01 X22.0690 Y61.4812 F350.00
G01 X22.0632 Y61.4677 F350.00
G01 X22.0501 Y61.4307 F350.00
G01 X22.0394 Y61.3878 F350.00
G01 X22.0329 Y61.3441 F350.00
G01 X22.0307 Y61.3000 F350.00
G01 X22.0307 Y52.7142 F350.00
G01 X22.0329 Y52.6701 F350.00
G01 X22.0394 Y52.6264 F350.00
G01 X22.0501 Y52.5835 F350.00
G01 X22.0615 Y52.5511 F350.00
G01 X22.0669 Y52.5374 F350.00
G01 X22.0839 Y52.5020 F350.00
G01 X22.1066 Y52.4641 F350.00
G01 X22.1329 Y52.4287 F350.00
G01 X22.1626 Y52.3959 F350.00
G01 X24.2803 Y50.2783 F350.00
G01 X24.3095 Y50.2520 F350.00
G01 X24.3370 Y50.2314 F350.00
G01 X24.3491 Y50.2231 F350.00
G01 X24.3829 Y50.2030 F350.00
G01 X24.4228 Y50.1841 F350.00
G01 X24.4551 Y50.1723 F350.00
G01 X24.4739 Y50.1666 F350.00
G01 X24.5025 Y50.1595 F350.00
G01 X24.5121 Y50.1576 F350.00
G01 X24.5510 Y50.1520 F350.00
G01 X24.5951 Y50.1499 F350.00
G01 X35.8909 Y50.1499 F350.00
G01 X35.9350 Y50.1520 F350.00
G01 X35.9690 Y50.1568 F350.00
G01 X35.9845 Y50.1598 F350.00
G01 X39.7807 Y46.3636 F350.00
G01 X39.7807 Y38.6864 F350.00
G01 X23.4626 Y22.3683 F350.00
G01 X23.4393 Y22.3430 F350.00
G01 X23.4298 Y22.3317 F350.00
G01 X23.4066 Y22.3001 F350.00
G01 X23.3863 Y22.2665 F350.00
G01 X23.3816 Y22.2578 F350.00
G01 X23.3690 Y22.2312 F350.00
G01 X23.3615 Y22.2131 F350.00
G01 X23.3501 Y22.1807 F350.00
G01 X23.3394 Y22.1378 F350.00
G01 X23.3329 Y22.0941 F350.00
G01 X23.3308 Y22.0549 F350.00
G01 X23.3307 Y17.1599 F350.00
G01 X20.9210 Y14.7501 F350.00
G01 X3.9310 Y14.7501 F350.00
G01 X3.9310 Y17.6878 F350.00
G01 X3.9491 Y17.6953 F350.00
G01 X4.0465 Y17.7417 F350.00
G01 X4.1475 Y17.8022 F350.00
G01 X4.2421 Y17.8724 F350.00
G01 X4.3223 Y17.9447 F350.00
G01 X4.3362 Y17.9586 F350.00
G01 X4.4085 Y18.0387 F350.00
G01 X4.4730 Y18.1253 F350.00
G01 X4.4839 Y18.1416 F350.00
G01 X4.5343 Y18.2258 F350.00
G01 X4.5436 Y18.2431 F350.00
G01 X4.5895 Y18.3408 F350.00
G01 X4.6261 Y18.4423 F350.00
G01 X4.6318 Y18.4611 F350.00
G01 X4.6557 Y18.5563 F350.00
G01 X4.6595 Y18.5756 F350.00
G01 X4.6751 Y18.6824 F350.00
G01 X4.6806 Y18.7902 F350.00
G01 X4.6808 Y19.8049 F350.00
G01 X4.6751 Y19.9176 F350.00
G01 X4.6578 Y20.0341 F350.00
G01 X4.6292 Y20.1483 F350.00
G01 X4.5930 Y20.2501 F350.00
G01 X4.5855 Y20.2682 F350.00
G01 X4.5436 Y20.3569 F350.00
G01 X4.5343 Y20.3742 F350.00
G01 X4.4786 Y20.4667 F350.00
G01 X4.4085 Y20.5613 F350.00
G01 X4.3294 Y20.6485 F350.00
G01 X4.2421 Y20.7276 F350.00
G01 X4.1475 Y20.7978 F350.00
G01 X4.0551 Y20.8535 F350.00
G01 X4.0378 Y20.8627 F350.00
G01 X3.9491 Y20.9047 F350.00
G01 X3.9309 Y20.9122 F350.00
G01 X3.8292 Y20.9483 F350.00
G01 X3.7245 Y20.9748 F350.00
G01 X3.7101 Y20.9778 F350.00
G01 X3.5985 Y20.9942 F350.00
G01 X3.4809 Y21.0000 F350.00
G01 X3.3632 Y20.9942 F350.00
G01 X3.2468 Y20.9769 F350.00
G01 X3.1325 Y20.9483 F350.00
G01 X3.0216 Y20.9087 F350.00
G01 X2.9152 Y20.8583 F350.00
G01 X2.8142 Y20.7978 F350.00
G01 X2.7196 Y20.7276 F350.00
G01 X2.6323 Y20.6485 F350.00
G01 X2.5532 Y20.5613 F350.00
G01 X2.4831 Y20.4667 F350.00
G01 X2.4226 Y20.3657 F350.00
G01 X2.3722 Y20.2592 F350.00
G01 X2.3325 Y20.1483 F350.00
G01 X2.3039 Y20.0341 F350.00
G01 X2.2866 Y19.9176 F350.00
G01 X2.2809 Y19.8049 F350.00
G01 X2.2809 Y18.7951 F350.00
G01 X2.2866 Y18.6824 F350.00
G01 X2.3022 Y18.5756 F350.00
G01 X2.3061 Y18.5563 F350.00
G01 X2.3325 Y18.4517 F350.00
G01 X2.3722 Y18.3408 F350.00
G01 X2.4181 Y18.2431 F350.00
G01 X2.4274 Y18.2258 F350.00
G01 X2.4778 Y18.1416 F350.00
G01 X2.4887 Y18.1253 F350.00
G01 X2.5532 Y18.0387 F350.00
G01 X2.6256 Y17.9586 F350.00
G01 X2.6394 Y17.9447 F350.00
G01 X2.7196 Y17.8724 F350.00
G01 X2.8142 Y17.8022 F350.00
G01 X2.9152 Y17.7417 F350.00
G01 X3.0127 Y17.6953 F350.00
G01 X3.0307 Y17.6878 F350.00
G00 Z0.5000
G00 X2.2109 Y17.8956
G01 F250.00
G01 Z-0.0500
G01 F350.00
G01 X2.1553 Y17.8211 F350.00
G01 X2.1379 Y17.7998 F350.00
G01 X2.0629 Y17.7168 F350.00
G01 X2.0535 Y17.7068 F350.00
G01 X2.0341 Y17.6873 F350.00
G01 X1.9513 Y17.6121 F350.00
G01 X1.9305 Y17.5941 F350.00
G01 X1.9088 Y17.5772 F350.00
G01 X1.8300 Y17.5187 F350.00
G01 X1.8076 Y17.5029 F350.00
G01 X1.7960 Y17.4954 F350.00
G01 X1.7002 Y17.4378 F350.00
G01 X1.6762 Y17.4242 F350.00
G01 X1.6517 Y17.4118 F350.00
G01 X1.5630 Y17.3699 F350.00
G01 X1.5378 Y17.3587 F350.00
G01 X1.5251 Y17.3536 F350.00
G01 X1.4198 Y17.3158 F350.00
G01 X1.3937 Y17.3072 F350.00
G01 X1.3805 Y17.3033 F350.00
G01 X1.2586 Y17.2728 F350.00
G01 X1.2452 Y17.2700 F350.00
G01 X1.2181 Y17.2653 F350.00
G01 X1.1210 Y17.2509 F350.00
G01 X1.0938 Y17.2475 F350.00
G01 X1.0664 Y17.2455 F350.00
G01 X0.9683 Y17.2407 F350.00
G01 X0.9546 Y17.2402 F350.00
G01 X0.9271 Y17.2402 F350.00
G01 X0.8154 Y17.2455 F350.00
G01 X0.7880 Y17.2475 F350.00
G01 X0.7743 Y17.2490 F350.00
G01 X0.6500 Y17.2675 F350.00
G01 X0.6365 Y17.2700 F350.00
G01 X0.6097 Y17.2760 F350.00
G01 X0.5145 Y17.2998 F350.00
G01 X0.5012 Y17.3033 F350.00
G01 X0.4749 Y17.3113 F350.00
G01 X0.3566 Y17.3536 F350.00
G01 X0.3312 Y17.3642 F350.00
G01 X0.3187 Y17.3699 F350.00
G01 X0.2177 Y17.4179 F350.00
G01 X0.1934 Y17.4308 F350.00
G01 X0.1816 Y17.4378 F350.00
G01 X0.0974 Y17.4882 F350.00
G01 X0.0742 Y17.5029 F350.00
G01 X0.0517 Y17.5187 F350.00
G01 X0.0010 Y17.5563 F350.00
G01 X0.0010 Y16.0256 F350.00
G01 X2.2164 Y13.8101 F350.00
G01 X2.8359 Y13.8101 F350.00
G01 X2.8150 Y13.8386 F350.00
G01 X2.7998 Y13.8614 F350.00
G01 X2.7799 Y13.8942 F350.00
G01 X2.7664 Y13.9181 F350.00
G01 X2.7540 Y13.9427 F350.00
G01 X2.7378 Y13.9773 F350.00
G01 X2.7273 Y14.0027 F350.00
G01 X2.7142 Y14.0387 F350.00
G01 X2.7056 Y14.0648 F350.00
G01 X2.6983 Y14.0913 F350.00
G01 X2.6891 Y14.1285 F350.00
G01 X2.6838 Y14.1555 F350.00
G01 X2.6780 Y14.1933 F350.00
G01 X2.6746 Y14.2206 F350.00
G01 X2.6735 Y14.2343 F350.00
G01 X2.6714 Y14.2725 F350.00
G01 X2.6707 Y14.3000 F350.00
G01 X2.6707 Y17.4682 F350.00
G01 X2.6257 Y17.4954 F350.00
G01 X2.6028 Y17.5107 F350.00
G01 X2.5019 Y17.5855 F350.00
G01 X2.4912 Y17.5941 F350.00
G01 X2.4704 Y17.6121 F350.00
G01 X2.3876 Y17.6873 F350.00
G01 X2.3778 Y17.6969 F350.00
G01 X2.3588 Y17.7168 F350.00
G01 X2.2838 Y17.7998 F350.00
G01 X2.2664 Y17.8211 F350.00
G01 X2.2109 Y17.8956 F350.00
G00 Z0.5000
G00 X0.2406 Y20.7732
G01 F250.00
G01 Z-0.0500
G01 F350.00
G01 X0.1873 Y20.7337 F350.00
G01 X0.1758 Y20.7245 F350.00
G01 X0.0994 Y20.6553 F350.00
G01 X0.0889 Y20.6450 F350.00
G01 X0.0132 Y20.5613 F350.00
G01 X-0.0513 Y20.4747 F350.00
G01 X-0.0596 Y20.4626 F350.00
G01 X-0.1174 Y20.3657 F350.00
G01 X-0.1678 Y20.2592 F350.00
G01 X-0.2075 Y20.1483 F350.00
G01 X-0.2361 Y20.0341 F350.00
G01 X-0.2534 Y19.9176 F350.00
G01 X-0.2591 Y19.8049 F350.00
G01 X-0.2591 Y18.7951 F350.00
G01 X-0.2534 Y18.6824 F350.00
G01 X-0.2378 Y18.5756 F350.00
G01 X-0.2339 Y18.5563 F350.00
G01 X-0.2101 Y18.4611 F350.00
G01 X-0.2060 Y18.4470 F350.00
G01 X-0.1678 Y18.3408 F350.00
G01 X-0.1174 Y18.2343 F350.00
G01 X-0.0569 Y18.1333 F350.00
G01 X0.0132 Y18.0387 F350.00
G01 X0.0923 Y17.9515 F350.00
G01 X0.1796 Y17.8724 F350.00
G01 X0.2742 Y17.8022 F350.00
G01 X0.3752 Y17.7417 F350.00
G01 X0.4816 Y17.6913 F350.00
G01 X0.5925 Y17.6517 F350.00
G01 X0.7068 Y17.6231 F350.00
G01 X0.8232 Y17.6058 F350.00
G01 X0.9409 Y17.6000 F350.00
G01 X1.0585 Y17.6058 F350.00
G01 X1.1750 Y17.6231 F350.00
G01 X1.2797 Y17.6491 F350.00
G01 X1.2939 Y17.6532 F350.00
G01 X1.4001 Y17.6913 F350.00
G01 X1.4978 Y17.7373 F350.00
G01 X1.5151 Y17.7465 F350.00
G01 X1.6075 Y17.8022 F350.00
G01 X1.7021 Y17.8724 F350.00
G01 X1.7823 Y17.9447 F350.00
G01 X1.7962 Y17.9586 F350.00
G01 X1.8685 Y18.0387 F350.00
G01 X1.9386 Y18.1333 F350.00
G01 X1.9943 Y18.2258 F350.00
G01 X2.0036 Y18.2431 F350.00
G01 X2.0495 Y18.3408 F350.00
G01 X2.0892 Y18.4517 F350.00
G01 X2.1157 Y18.5563 F350.00
G01 X2.1195 Y18.5756 F350.00
G01 X2.1339 Y18.6726 F350.00
G01 X2.1355 Y18.6873 F350.00
G01 X2.1409 Y18.8000 F350.00
G01 X2.1408 Y19.8049 F350.00
G01 X2.1351 Y19.9176 F350.00
G01 X2.1195 Y20.0244 F350.00
G01 X2.1168 Y20.0389 F350.00
G01 X2.0892 Y20.1483 F350.00
G01 X2.0495 Y20.2592 F350.00
G01 X1.9992 Y20.3657 F350.00
G01 X1.9413 Y20.4626 F350.00
G01 X1.9330 Y20.4747 F350.00
G01 X1.8685 Y20.5613 F350.00
G01 X1.7928 Y20.6450 F350.00
G01 X1.7823 Y20.6553 F350.00
G01 X1.7059 Y20.7245 F350.00
G01 X1.6944 Y20.7337 F350.00
G01 X1.6411 Y20.7732 F350.00
G01 X1.6411 Y22.7199 F350.00
G01 X4.1637 Y25.2425 F350.00
G01 X4.1740 Y25.2373 F350.00
G01 X4.2716 Y25.1913 F350.00
G01 X4.3732 Y25.1548 F350.00
G01 X4.3920 Y25.1491 F350.00
G01 X4.4968 Y25.1231 F350.00
G01 X4.6035 Y25.1070 F350.00
G01 X4.6230 Y25.1051 F350.00
G01 X4.7309 Y25.1000 F350.00
G01 X4.8387 Y25.1051 F350.00
G01 X4.8582 Y25.1070 F350.00
G01 X4.9650 Y25.1231 F350.00
G01 X5.0697 Y25.1491 F350.00
G01 X5.0885 Y25.1548 F350.00
G01 X5.1901 Y25.1913 F350.00
G01 X5.2965 Y25.2417 F350.00
G01 X5.3893 Y25.2970 F350.00
G01 X5.4056 Y25.3079 F350.00
G01 X5.4921 Y25.3724 F350.00
G01 X5.5723 Y25.4447 F350.00
G01 X5.5862 Y25.4586 F350.00
G01 X5.6585 Y25.5387 F350.00
G01 X5.7286 Y25.6333 F350.00
G01 X5.7892 Y25.7343 F350.00
G01 X5.8355 Y25.8318 F350.00
G01 X5.8430 Y25.8499 F350.00
G01 X5.8792 Y25.9517 F350.00
G01 X5.9057 Y26.0563 F350.00
G01 X5.9095 Y26.0756 F350.00
G01 X5.9251 Y26.1824 F350.00
G01 X5.9309 Y26.3000 F350.00
G01 X5.9309 Y27.3000 F350.00
G01 X5.9258 Y27.4078 F350.00
G01 X5.9239 Y27.4274 F350.00
G01 X5.9078 Y27.5341 F350.00
G01 X5.8818 Y27.6389 F350.00
G01 X5.8761 Y27.6577 F350.00
G01 X5.8395 Y27.7592 F350.00
G01 X5.7892 Y27.8657 F350.00
G01 X5.7339 Y27.9584 F350.00
G01 X5.7230 Y27.9747 F350.00
G01 X5.6645 Y28.0535 F350.00
G01 X5.6521 Y28.0687 F350.00
G01 X5.5794 Y28.1485 F350.00
G01 X5.4921 Y28.2276 F350.00
G01 X5.3975 Y28.2978 F350.00
G01 X5.3051 Y28.3535 F350.00
G01 X5.2878 Y28.3627 F350.00
G01 X5.1991 Y28.4047 F350.00
G01 X5.1809 Y28.4122 F350.00
G01 X5.0792 Y28.4483 F350.00
G01 X4.9650 Y28.4769 F350.00
G01 X4.8485 Y28.4942 F350.00
G01 X4.7309 Y28.5000 F350.00
G01 X4.6132 Y28.4942 F350.00
G01 X4.5064 Y28.4786 F350.00
G01 X4.4872 Y28.4748 F350.00
G01 X4.3920 Y28.4509 F350.00
G01 X4.3732 Y28.4452 F350.00
G01 X4.2716 Y28.4087 F350.00
G01 X4.1740 Y28.3627 F350.00
G01 X4.1637 Y28.3575 F350.00
G01 X1.9311 Y30.5901 F350.00
G01 X1.9311 Y37.8522 F350.00
G01 X1.9710 Y37.8502 F350.00
G01 X1.9858 Y37.8501 F350.00
G01 X2.1426 Y37.8578 F350.00
G01 X2.1572 Y37.8594 F350.00
G01 X2.3077 Y37.8818 F350.00
G01 X2.3221 Y37.8848 F350.00
G01 X2.4743 Y37.9232 F350.00
G01 X2.6269 Y37.9776 F350.00
G01 X2.6404 Y37.9834 F350.00
G01 X2.7822 Y38.0507 F350.00
G01 X2.9253 Y38.1365 F350.00
G01 X3.0593 Y38.2359 F350.00
G01 X3.1794 Y38.3445 F350.00
G01 X3.1897 Y38.3550 F350.00
G01 X3.2950 Y38.4715 F350.00
G01 X3.3944 Y38.6055 F350.00
G01 X3.4801 Y38.7486 F350.00
G01 X3.5515 Y38.8994 F350.00
G01 X3.6077 Y39.0565 F350.00
G01 X3.6482 Y39.2183 F350.00
G01 X3.6727 Y39.3834 F350.00
G01 X3.6808 Y39.5451 F350.00
G01 X3.6806 Y39.5598 F350.00
G01 X3.6727 Y39.7166 F350.00
G01 X3.6482 Y39.8817 F350.00
G01 X3.6077 Y40.0435 F350.00
G01 X3.5550 Y40.1914 F350.00
G01 X3.5475 Y40.2095 F350.00
G01 X3.4845 Y40.3426 F350.00
G01 X3.4753 Y40.3599 F350.00
G01 X3.3944 Y40.4945 F350.00
G01 X3.3010 Y40.6207 F350.00
G01 X3.2886 Y40.6359 F350.00
G01 X3.1829 Y40.7521 F350.00
G01 X3.0593 Y40.8641 F350.00
G01 X2.9253 Y40.9635 F350.00
G01 X2.7822 Y41.0493 F350.00
G01 X2.6314 Y41.1206 F350.00
G01 X2.4743 Y41.1768 F350.00
G01 X2.3125 Y41.2173 F350.00
G01 X2.1475 Y41.2418 F350.00
G01 X1.9809 Y41.2500 F350.00
G01 X1.8142 Y41.2418 F350.00
G01 X1.6492 Y41.2173 F350.00
G01 X1.4874 Y41.1768 F350.00
G01 X1.3303 Y41.1206 F350.00
G01 X1.1795 Y41.0493 F350.00
G01 X1.0364 Y40.9635 F350.00
G01 X0.9024 Y40.8641 F350.00
G01 X0.7788 Y40.7521 F350.00
G01 X0.6667 Y40.6285 F350.00
G01 X0.5674 Y40.4945 F350.00
G01 X0.4816 Y40.3514 F350.00
G01 X0.4103 Y40.2006 F350.00
G01 X0.3541 Y40.0435 F350.00
G01 X0.3135 Y39.8817 F350.00
G01 X0.2902 Y39.7264 F350.00
G01 X0.2883 Y39.7068 F350.00
G01 X0.2811 Y39.5598 F350.00
G01 X0.2811 Y39.5402 F350.00
G01 X0.2890 Y39.3834 F350.00
G01 X0.3118 Y39.2280 F350.00
G01 X0.3145 Y39.2135 F350.00
G01 X0.3541 Y39.0565 F350.00
G01 X0.4084 Y38.9040 F350.00
G01 X0.4142 Y38.8905 F350.00
G01 X0.4793 Y38.7530 F350.00
G01 X0.4864 Y38.7401 F350.00
G01 X0.5306 Y38.6664 F350.00
G01 X0.5306 Y30.3000 F350.00
G01 X0.5340 Y30.2314 F350.00
G01 X0.5441 Y30.1634 F350.00
G01 X0.5581 Y30.1062 F350.00
G01 X0.5638 Y30.0874 F350.00
G01 X0.5821 Y30.0366 F350.00
G01 X0.5879 Y30.0231 F350.00
G01 X0.6133 Y29.9699 F350.00
G01 X0.6486 Y29.9110 F350.00
G01 X0.6896 Y29.8558 F350.00
G01 X0.7323 Y29.8084 F350.00
G01 X3.5309 Y27.0097 F350.00
G01 X3.5309 Y26.5903 F350.00
G01 X0.4457 Y23.5052 F350.00
G01 X0.4060 Y23.4617 F350.00
G01 X0.3935 Y23.4465 F350.00
G01 X0.3586 Y23.3990 F350.00
G01 X0.3257 Y23.3444 F350.00
G01 X0.3189 Y23.3313 F350.00
G01 X0.2939 Y23.2780 F350.00
G01 X0.2738 Y23.2226 F350.00
G01 X0.2681 Y23.2038 F350.00
G01 X0.2541 Y23.1466 F350.00
G01 X0.2452 Y23.0884 F350.00
G01 X0.2433 Y23.0688 F350.00
G01 X0.2407 Y23.0149 F350.00
G01 X0.2406 Y20.7732 F350.00
G00 Z0.5000
G00 X0.0010 Y23.5005
G01 F250.00
G01 Z-0.0500
G01 F350.00
G01 X0.0124 Y23.5218 F350.00
G01 X0.0446 Y23.5758 F350.00
G01 X0.0593 Y23.5990 F350.00
G01 X0.0751 Y23.6215 F350.00
G01 X0.1044 Y23.6609 F350.00
G01 X0.1213 Y23.6826 F350.00
G01 X0.1392 Y23.7034 F350.00
G01 X0.1722 Y23.7398 F350.00
G01 X0.1912 Y23.7597 F350.00
G01 X3.1709 Y26.7394 F350.00
G01 X3.1709 Y26.8606 F350.00
G01 X0.4812 Y29.5503 F350.00
G01 X0.4622 Y29.5702 F350.00
G01 X0.4292 Y29.6066 F350.00
G01 X0.4113 Y29.6274 F350.00
G01 X0.4027 Y29.6381 F350.00
G01 X0.3571 Y29.6996 F350.00
G01 X0.3418 Y29.7225 F350.00
G01 X0.3346 Y29.7342 F350.00
G01 X0.3094 Y29.7763 F350.00
G01 X0.2958 Y29.8002 F350.00
G01 X0.2834 Y29.8248 F350.00
G01 X0.2625 Y29.8691 F350.00
G01 X0.2567 Y29.8816 F350.00
G01 X0.2462 Y29.9070 F350.00
G01 X0.2204 Y29.9791 F350.00
G01 X0.2163 Y29.9922 F350.00
G01 X0.2089 Y30.0187 F350.00
G01 X0.1970 Y30.0663 F350.00
G01 X0.1910 Y30.0932 F350.00
G01 X0.1863 Y30.1202 F350.00
G01 X0.1791 Y30.1688 F350.00
G01 X0.1772 Y30.1824 F350.00
G01 X0.1745 Y30.2098 F350.00
G01 X0.1713 Y30.2725 F350.00
G01 X0.1706 Y30.3000 F350.00
G01 X0.1706 Y38.5671 F350.00
G01 X0.1578 Y38.5911 F350.00
G01 X0.1517 Y38.6035 F350.00
G01 X0.0888 Y38.7365 F350.00
G01 X0.0777 Y38.7617 F350.00
G01 X0.0678 Y38.7873 F350.00
G01 X0.0182 Y38.9259 F350.00
G01 X0.0096 Y38.9520 F350.00
G01 X0.0010 Y38.9835 F350.00
G01 X0.0010 Y23.5005 F350.00
G00 Z0.5000
G00 X4.4929 Y20.9865
G01 F250.00
G01 Z-0.0500
G01 F350.00
G01 X4.5035 Y21.0143 F350.00
G01 X4.5089 Y21.0269 F350.00
G01 X4.5207 Y21.0518 F350.00
G01 X4.5336 Y21.0760 F350.00
G01 X4.5405 Y21.0879 F350.00
G01 X4.5477 Y21.0996 F350.00
G01 X4.5630 Y21.1225 F350.00
G01 X4.5794 Y21.1445 F350.00
G01 X4.5880 Y21.1553 F350.00
G01 X4.6059 Y21.1761 F350.00
G01 X4.6249 Y21.1960 F350.00
G01 X4.6347 Y21.2056 F350.00
G01 X4.6551 Y21.2240 F350.00
G01 X4.6656 Y21.2329 F350.00
G01 X4.6763 Y21.2415 F350.00
G01 X4.6984 Y21.2578 F350.00
G01 X4.7097 Y21.2656 F350.00
G01 X4.7330 Y21.2803 F350.00
G01 X4.7569 Y21.2939 F350.00
G01 X4.7691 Y21.3002 F350.00
G01 X4.7939 Y21.3120 F350.00
G01 X4.8066 Y21.3174 F350.00
G01 X4.8322 Y21.3273 F350.00
G01 X4.8583 Y21.3359 F350.00
G01 X4.8715 Y21.3397 F350.00
G01 X4.8982 Y21.3464 F350.00
G01 X4.9116 Y21.3492 F350.00
G01 X4.9387 Y21.3539 F350.00
G01 X4.9523 Y21.3558 F350.00
G01 X4.9797 Y21.3585 F350.00
G01 X4.9934 Y21.3593 F350.00
G01 X5.0209 Y21.3600 F350.00
G01 X7.0209 Y21.3600 F350.00
G01 X7.0346 Y21.3598 F350.00
G01 X7.0621 Y21.3585 F350.00
G01 X7.0894 Y21.3558 F350.00
G01 X7.1166 Y21.3518 F350.00
G01 X7.1436 Y21.3464 F350.00
G01 X7.1702 Y21.3397 F350.00
G01 X7.1965 Y21.3317 F350.00
G01 X7.2224 Y21.3225 F350.00
G01 X7.2478 Y21.3120 F350.00
G01 X7.2726 Y21.3002 F350.00
G01 X7.2969 Y21.2872 F350.00
G01 X7.3205 Y21.2731 F350.00
G01 X7.3433 Y21.2578 F350.00
G01 X7.3654 Y21.2415 F350.00
G01 X7.3866 Y21.2240 F350.00
G01 X7.4070 Y21.2056 F350.00
G01 X7.4264 Y21.1861 F350.00
G01 X7.4449 Y21.1658 F350.00
G01 X7.4623 Y21.1445 F350.00
G01 X7.4787 Y21.1225 F350.00
G01 X7.4940 Y21.0996 F350.00
G01 X7.5081 Y21.0760 F350.00
G01 X7.5211 Y21.0518 F350.00
G01 X7.5328 Y21.0269 F350.00
G01 X7.5433 Y21.0015 F350.00
G01 X7.5526 Y20.9757 F350.00
G01 X7.5606 Y20.9494 F350.00
G01 X7.5673 Y20.9227 F350.00
G01 X7.5726 Y20.8957 F350.00
G01 X7.5766 Y20.8685 F350.00
G01 X7.5793 Y20.8412 F350.00
G01 X7.5807 Y20.8137 F350.00
G01 X7.5809 Y20.7515 F350.00
G01 X7.6014 Y20.7789 F350.00
G01 X7.6188 Y20.8002 F350.00
G01 X7.7032 Y20.8932 F350.00
G01 X7.7128 Y20.9031 F350.00
G01 X7.7327 Y20.9220 F350.00
G01 X7.8054 Y20.9879 F350.00
G01 X7.8262 Y21.0059 F350.00
G01 X7.8479 Y21.0228 F350.00
G01 X7.9267 Y21.0813 F350.00
G01 X7.9378 Y21.0893 F350.00
G01 X7.9607 Y21.1046 F350.00
G01 X8.0684 Y21.1692 F350.00
G01 X8.0927 Y21.1821 F350.00
G01 X8.1306 Y21.2003 F350.00
G01 X8.1308 Y24.5237 F350.00
G01 X8.1345 Y24.6002 F350.00
G01 X8.1372 Y24.6276 F350.00
G01 X8.1391 Y24.6412 F350.00
G01 X8.1463 Y24.6898 F350.00
G01 X8.1510 Y24.7168 F350.00
G01 X8.1570 Y24.7437 F350.00
G01 X8.1724 Y24.8046 F350.00
G01 X8.1763 Y24.8178 F350.00
G01 X8.1849 Y24.8439 F350.00
G01 X8.2014 Y24.8901 F350.00
G01 X8.2113 Y24.9157 F350.00
G01 X8.2225 Y24.9409 F350.00
G01 X8.2495 Y24.9976 F350.00
G01 X8.2624 Y25.0218 F350.00
G01 X8.2694 Y25.0337 F350.00
G01 X8.2946 Y25.0758 F350.00
G01 X8.3093 Y25.0990 F350.00
G01 X8.3251 Y25.1215 F350.00
G01 X8.3544 Y25.1609 F350.00
G01 X8.3713 Y25.1826 F350.00
G01 X8.3801 Y25.1931 F350.00
G01 X8.4316 Y25.2499 F350.00
G01 X10.1709 Y26.9894 F350.00
G01 X10.1710 Y27.3137 F350.00
G01 X10.1764 Y27.4255 F350.00
G01 X10.1784 Y27.4529 F350.00
G01 X10.1817 Y27.4802 F350.00
G01 X10.1961 Y27.5773 F350.00
G01 X10.2008 Y27.6043 F350.00
G01 X10.2069 Y27.6312 F350.00
G01 X10.2307 Y27.7264 F350.00
G01 X10.2380 Y27.7528 F350.00
G01 X10.2422 Y27.7659 F350.00
G01 X10.2845 Y27.8842 F350.00
G01 X10.2950 Y27.9096 F350.00
G01 X10.3007 Y27.9221 F350.00
G01 X10.3427 Y28.0108 F350.00
G01 X10.3551 Y28.0354 F350.00
G01 X10.3686 Y28.0593 F350.00
G01 X10.4191 Y28.1435 F350.00
G01 X10.4338 Y28.1667 F350.00
G01 X10.4496 Y28.1892 F350.00
G01 X10.5081 Y28.2680 F350.00
G01 X10.5250 Y28.2897 F350.00
G01 X10.5429 Y28.3105 F350.00
G01 X10.6088 Y28.3832 F350.00
G01 X10.6278 Y28.4031 F350.00
G01 X10.6477 Y28.4220 F350.00
G01 X10.7204 Y28.4879 F350.00
G01 X10.7412 Y28.5059 F350.00
G01 X10.7629 Y28.5228 F350.00
G01 X10.8417 Y28.5813 F350.00
G01 X10.8642 Y28.5971 F350.00
G01 X10.8874 Y28.6118 F350.00
G01 X10.9716 Y28.6622 F350.00
G01 X10.9955 Y28.6758 F350.00
G01 X11.0200 Y28.6882 F350.00
G01 X11.1087 Y28.7301 F350.00
G01 X11.1339 Y28.7413 F350.00
G01 X11.1595 Y28.7511 F350.00
G01 X11.2519 Y28.7842 F350.00
G01 X11.2780 Y28.7928 F350.00
G01 X11.3045 Y28.8002 F350.00
G01 X11.3997 Y28.8240 F350.00
G01 X11.4265 Y28.8300 F350.00
G01 X11.4536 Y28.8347 F350.00
G01 X11.5507 Y28.8491 F350.00
G01 X11.5780 Y28.8525 F350.00
G01 X11.6054 Y28.8545 F350.00
G01 X11.7034 Y28.8593 F350.00
G01 X11.7309 Y28.8600 F350.00
G01 X11.7583 Y28.8593 F350.00
G01 X11.8564 Y28.8545 F350.00
G01 X11.8838 Y28.8525 F350.00
G01 X11.8974 Y28.8510 F350.00
G01 X12.0151 Y28.8336 F350.00
G01 X13.4206 Y30.2392 F350.00
G01 X13.4206 Y33.6233 F350.00
G01 X13.3402 Y33.5148 F350.00
G01 X13.3233 Y33.4931 F350.00
G01 X13.3053 Y33.4723 F350.00
G01 X13.2065 Y33.3633 F350.00
G01 X13.1875 Y33.3434 F350.00
G01 X13.1676 Y33.3244 F350.00
G01 X13.0585 Y33.2256 F350.00
G01 X13.0377 Y33.2076 F350.00
G01 X13.0160 Y33.1907 F350.00
G01 X12.8978 Y33.1030 F350.00
G01 X12.8867 Y33.0949 F350.00
G01 X12.8638 Y33.0797 F350.00
G01 X12.7259 Y32.9968 F350.00
G01 X12.7019 Y32.9832 F350.00
G01 X12.6774 Y32.9709 F350.00
G01 X12.5443 Y32.9079 F350.00
G01 X12.5192 Y32.8968 F350.00
G01 X12.4935 Y32.8869 F350.00
G01 X12.3549 Y32.8373 F350.00
G01 X12.3288 Y32.8287 F350.00
G01 X12.3024 Y32.8214 F350.00
G01 X12.1596 Y32.7856 F350.00
G01 X12.1327 Y32.7796 F350.00
G01 X12.1057 Y32.7749 F350.00
G01 X11.9601 Y32.7533 F350.00
G01 X11.9328 Y32.7499 F350.00
G01 X11.9054 Y32.7479 F350.00
G01 X11.7583 Y32.7407 F350.00
G01 X11.7309 Y32.7400 F350.00
G01 X11.7034 Y32.7407 F350.00
G01 X11.5564 Y32.7479 F350.00
G01 X11.5426 Y32.7487 F350.00
G01 X11.5153 Y32.7514 F350.00
G01 X11.3561 Y32.7749 F350.00
G01 X11.3290 Y32.7796 F350.00
G01 X11.3022 Y32.7856 F350.00
G01 X11.1594 Y32.8214 F350.00
G01 X11.1329 Y32.8287 F350.00
G01 X11.1068 Y32.8373 F350.00
G01 X10.9682 Y32.8869 F350.00
G01 X10.9425 Y32.8968 F350.00
G01 X10.9174 Y32.9079 F350.00
G01 X10.7843 Y32.9709 F350.00
G01 X10.7598 Y32.9832 F350.00
G01 X10.7359 Y32.9968 F350.00
G01 X10.6096 Y33.0725 F350.00
G01 X10.5864 Y33.0872 F350.00
G01 X10.5639 Y33.1030 F350.00
G01 X10.4457 Y33.1907 F350.00
G01 X10.4240 Y33.2076 F350.00
G01 X10.4032 Y33.2256 F350.00
G01 X10.2941 Y33.3244 F350.00
G01 X10.2742 Y33.3434 F350.00
G01 X10.2553 Y33.3633 F350.00
G01 X10.1473 Y33.4826 F350.00
G01 X10.1299 Y33.5039 F350.00
G01 X10.1215 Y33.5148 F350.00
G01 X10.0339 Y33.6331 F350.00
G01 X10.0180 Y33.6555 F350.00
G01 X10.0033 Y33.6787 F350.00
G01 X9.9277 Y33.8050 F350.00
G01 X9.9141 Y33.8289 F350.00
G01 X9.9017 Y33.8535 F350.00
G01 X9.8388 Y33.9865 F350.00
G01 X9.8277 Y34.0117 F350.00
G01 X9.8178 Y34.0373 F350.00
G01 X9.7682 Y34.1759 F350.00
G01 X9.7596 Y34.2020 F350.00
G01 X9.7557 Y34.2152 F350.00
G01 X9.7165 Y34.3713 F350.00
G01 X9.7104 Y34.3981 F350.00
G01 X9.7057 Y34.4252 F350.00
G01 X9.6841 Y34.5708 F350.00
G01 X9.6808 Y34.5981 F350.00
G01 X9.6788 Y34.6255 F350.00
G01 X9.6715 Y34.7725 F350.00
G01 X9.6709 Y34.8000 F350.00
G01 X9.6715 Y34.8275 F350.00
G01 X9.6788 Y34.9745 F350.00
G01 X9.6808 Y35.0019 F350.00
G01 X9.6841 Y35.0292 F350.00
G01 X9.7057 Y35.1748 F350.00
G01 X9.7104 Y35.2019 F350.00
G01 X9.7165 Y35.2287 F350.00
G01 X9.7522 Y35.3715 F350.00
G01 X9.7596 Y35.3980 F350.00
G01 X9.7682 Y35.4241 F350.00
G01 X9.8178 Y35.5627 F350.00
G01 X9.8277 Y35.5883 F350.00
G01 X9.8388 Y35.6135 F350.00
G01 X9.9017 Y35.7465 F350.00
G01 X9.9141 Y35.7711 F350.00
G01 X9.9277 Y35.7950 F350.00
G01 X10.0033 Y35.9213 F350.00
G01 X10.0180 Y35.9445 F350.00
G01 X10.0339 Y35.9669 F350.00
G01 X10.1215 Y36.0852 F350.00
G01 X10.1385 Y36.1069 F350.00
G01 X10.1564 Y36.1277 F350.00
G01 X10.2553 Y36.2367 F350.00
G01 X10.2742 Y36.2566 F350.00
G01 X10.2941 Y36.2756 F350.00
G01 X10.4032 Y36.3744 F350.00
G01 X10.4240 Y36.3924 F350.00
G01 X10.4457 Y36.4093 F350.00
G01 X10.5639 Y36.4970 F350.00
G01 X10.5864 Y36.5128 F350.00
G01 X10.6096 Y36.5275 F350.00
G01 X10.7359 Y36.6032 F350.00
G01 X10.7598 Y36.6168 F350.00
G01 X10.7843 Y36.6291 F350.00
G01 X10.9174 Y36.6921 F350.00
G01 X10.9425 Y36.7032 F350.00
G01 X10.9682 Y36.7131 F350.00
G01 X11.1068 Y36.7627 F350.00
G01 X11.1329 Y36.7713 F350.00
G01 X11.1594 Y36.7786 F350.00
G01 X11.3022 Y36.8144 F350.00
G01 X11.3290 Y36.8204 F350.00
G01 X11.3561 Y36.8251 F350.00
G01 X11.5017 Y36.8467 F350.00
G01 X11.5289 Y36.8501 F350.00
G01 X11.5564 Y36.8521 F350.00
G01 X11.7034 Y36.8593 F350.00
G01 X11.7309 Y36.8600 F350.00
G01 X11.7583 Y36.8593 F350.00
G01 X11.9054 Y36.8521 F350.00
G01 X11.9328 Y36.8501 F350.00
G01 X11.9601 Y36.8467 F350.00
G01 X12.1057 Y36.8251 F350.00
G01 X12.1327 Y36.8204 F350.00
G01 X12.1596 Y36.8144 F350.00
G01 X12.3024 Y36.7786 F350.00
G01 X12.3288 Y36.7713 F350.00
G01 X12.3549 Y36.7627 F350.00
G01 X12.4935 Y36.7131 F350.00
G01 X12.5192 Y36.7032 F350.00
G01 X12.5443 Y36.6921 F350.00
G01 X12.6774 Y36.6291 F350.00
G01 X12.7019 Y36.6168 F350.00
G01 X12.7259 Y36.6032 F350.00
G01 X12.8521 Y36.5275 F350.00
G01 X12.8753 Y36.5128 F350.00
G01 X12.8978 Y36.4970 F350.00
G01 X13.0160 Y36.4093 F350.00
G01 X13.0377 Y36.3924 F350.00
G01 X13.0585 Y36.3744 F350.00
G01 X13.1676 Y36.2756 F350.00
G01 X13.1875 Y36.2566 F350.00
G01 X13.2065 Y36.2367 F350.00
G01 X13.3053 Y36.1277 F350.00
G01 X13.3233 Y36.1069 F350.00
G01 X13.3402 Y36.0852 F350.00
G01 X13.4206 Y35.9767 F350.00
G01 X13.4206 Y37.7156 F350.00
G01 X13.3970 Y37.7269 F350.00
G01 X13.3848 Y37.7332 F350.00
G01 X13.3609 Y37.7468 F350.00
G01 X13.2229 Y37.8297 F350.00
G01 X13.2001 Y37.8449 F350.00
G01 X13.1889 Y37.8530 F350.00
G01 X13.0707 Y37.9407 F350.00
G01 X13.0597 Y37.9490 F350.00
G01 X13.0385 Y37.9664 F350.00
G01 X12.9191 Y38.0744 F350.00
G01 X12.8992 Y38.0934 F350.00
G01 X12.8803 Y38.1133 F350.00
G01 X12.7814 Y38.2223 F350.00
G01 X12.7635 Y38.2431 F350.00
G01 X12.7465 Y38.2648 F350.00
G01 X12.6589 Y38.3831 F350.00
G01 X12.6430 Y38.4055 F350.00
G01 X12.6283 Y38.4287 F350.00
G01 X12.5527 Y38.5550 F350.00
G01 X12.5391 Y38.5789 F350.00
G01 X12.5267 Y38.6035 F350.00
G01 X12.4638 Y38.7365 F350.00
G01 X12.4527 Y38.7617 F350.00
G01 X12.4476 Y38.7744 F350.00
G01 X12.3932 Y38.9259 F350.00
G01 X12.3846 Y38.9520 F350.00
G01 X12.3772 Y38.9785 F350.00
G01 X12.3415 Y39.1213 F350.00
G01 X12.3354 Y39.1481 F350.00
G01 X12.3307 Y39.1752 F350.00
G01 X12.3091 Y39.3208 F350.00
G01 X12.3058 Y39.3481 F350.00
G01 X12.3038 Y39.3755 F350.00
G01 X12.2965 Y39.5225 F350.00
G01 X12.2959 Y39.5500 F350.00
G01 X12.2965 Y39.5775 F350.00
G01 X12.3038 Y39.7245 F350.00
G01 X12.3058 Y39.7519 F350.00
G01 X12.3091 Y39.7792 F350.00
G01 X12.3307 Y39.9248 F350.00
G01 X12.3354 Y39.9519 F350.00
G01 X12.3415 Y39.9787 F350.00
G01 X12.3772 Y40.1215 F350.00
G01 X12.3846 Y40.1480 F350.00
G01 X12.3932 Y40.1741 F350.00
G01 X12.4476 Y40.3256 F350.00
G01 X12.4527 Y40.3383 F350.00
G01 X12.4638 Y40.3635 F350.00
G01 X12.5267 Y40.4965 F350.00
G01 X12.5391 Y40.5211 F350.00
G01 X12.5527 Y40.5450 F350.00
G01 X12.6283 Y40.6713 F350.00
G01 X12.6430 Y40.6945 F350.00
G01 X12.6589 Y40.7169 F350.00
G01 X12.7465 Y40.8352 F350.00
G01 X12.7635 Y40.8569 F350.00
G01 X12.7814 Y40.8777 F350.00
G01 X12.8803 Y40.9867 F350.00
G01 X12.8992 Y41.0066 F350.00
G01 X12.9191 Y41.0256 F350.00
G01 X13.0282 Y41.1244 F350.00
G01 X13.0490 Y41.1424 F350.00
G01 X13.0707 Y41.1593 F350.00
G01 X13.1889 Y41.2470 F350.00
G01 X13.2114 Y41.2628 F350.00
G01 X13.2346 Y41.2775 F350.00
G01 X13.3609 Y41.3532 F350.00
G01 X13.3848 Y41.3668 F350.00
G01 X13.4093 Y41.3791 F350.00
G01 X13.5424 Y41.4421 F350.00
G01 X13.5675 Y41.4532 F350.00
G01 X13.5932 Y41.4631 F350.00
G01 X13.7318 Y41.5127 F350.00
G01 X13.7579 Y41.5213 F350.00
G01 X13.7844 Y41.5286 F350.00
G01 X13.9272 Y41.5644 F350.00
G01 X13.9540 Y41.5704 F350.00
G01 X13.9811 Y41.5751 F350.00
G01 X14.1267 Y41.5967 F350.00
G01 X14.1539 Y41.6001 F350.00
G01 X14.1814 Y41.6021 F350.00
G01 X14.3284 Y41.6093 F350.00
G01 X14.3559 Y41.6100 F350.00
G01 X14.3833 Y41.6093 F350.00
G01 X14.5304 Y41.6021 F350.00
G01 X14.5578 Y41.6001 F350.00
G01 X14.5851 Y41.5967 F350.00
G01 X14.7307 Y41.5751 F350.00
G01 X14.7577 Y41.5704 F350.00
G01 X14.7846 Y41.5644 F350.00
G01 X14.9274 Y41.5286 F350.00
G01 X14.9538 Y41.5213 F350.00
G01 X14.9799 Y41.5127 F350.00
G01 X15.1185 Y41.4631 F350.00
G01 X15.1442 Y41.4532 F350.00
G01 X15.1693 Y41.4421 F350.00
G01 X15.3024 Y41.3791 F350.00
G01 X15.3269 Y41.3668 F350.00
G01 X15.3509 Y41.3532 F350.00
G01 X15.4771 Y41.2775 F350.00
G01 X15.5003 Y41.2628 F350.00
G01 X15.5228 Y41.2470 F350.00
G01 X15.6410 Y41.1593 F350.00
G01 X15.6520 Y41.1510 F350.00
G01 X15.6732 Y41.1336 F350.00
G01 X15.7957 Y41.0227 F350.00
G01 X15.7957 Y42.2899 F350.00
G01 X0.0010 Y42.2899 F350.00
G01 X0.0010 Y40.1165 F350.00
G01 X0.0096 Y40.1480 F350.00
G01 X0.0182 Y40.1741 F350.00
G01 X0.0726 Y40.3256 F350.00
G01 X0.0831 Y40.3510 F350.00
G01 X0.0888 Y40.3635 F350.00
G01 X0.1517 Y40.4965 F350.00
G01 X0.1641 Y40.5211 F350.00
G01 X0.1777 Y40.5450 F350.00
G01 X0.2533 Y40.6713 F350.00
G01 X0.2680 Y40.6945 F350.00
G01 X0.2839 Y40.7169 F350.00
G01 X0.3715 Y40.8352 F350.00
G01 X0.3885 Y40.8569 F350.00
G01 X0.4064 Y40.8777 F350.00
G01 X0.5053 Y40.9867 F350.00
G01 X0.5242 Y41.0066 F350.00
G01 X0.5441 Y41.0256 F350.00
G01 X0.6635 Y41.1336 F350.00
G01 X0.6847 Y41.1510 F350.00
G01 X0.6957 Y41.1593 F350.00
G01 X0.8139 Y41.2470 F350.00
G01 X0.8364 Y41.2628 F350.00
G01 X0.8596 Y41.2775 F350.00
G01 X0.9859 Y41.3532 F350.00
G01 X1.0098 Y41.3668 F350.00
G01 X1.0343 Y41.3791 F350.00
G01 X1.1674 Y41.4421 F350.00
G01 X1.1925 Y41.4532 F350.00
G01 X1.2182 Y41.4631 F350.00
G01 X1.3698 Y41.5171 F350.00
G01 X1.3961 Y41.5251 F350.00
G01 X1.4094 Y41.5286 F350.00
G01 X1.5522 Y41.5644 F350.00
G01 X1.5790 Y41.5704 F350.00
G01 X1.6061 Y41.5751 F350.00
G01 X1.7517 Y41.5967 F350.00
G01 X1.7789 Y41.6001 F350.00
G01 X1.7926 Y41.6013 F350.00
G01 X1.9534 Y41.6093 F350.00
G01 X1.9809 Y41.6100 F350.00
G01 X2.0083 Y41.6093 F350.00
G01 X2.1554 Y41.6021 F350.00
G01 X2.1828 Y41.6001 F350.00
G01 X2.2101 Y41.5967 F350.00
G01 X2.3557 Y41.5751 F350.00
G01 X2.3827 Y41.5704 F350.00
G01 X2.4096 Y41.5644 F350.00
G01 X2.5524 Y41.5286 F350.00
G01 X2.5788 Y41.5213 F350.00
G01 X2.6049 Y41.5127 F350.00
G01 X2.7435 Y41.4631 F350.00
G01 X2.7564 Y41.4583 F350.00
G01 X2.7818 Y41.4478 F350.00
G01 X2.9274 Y41.3791 F350.00
G01 X2.9519 Y41.3668 F350.00
G01 X2.9759 Y41.3532 F350.00
G01 X3.1021 Y41.2775 F350.00
G01 X3.1253 Y41.2628 F350.00
G01 X3.1478 Y41.2470 F350.00
G01 X3.2660 Y41.1593 F350.00
G01 X3.2877 Y41.1424 F350.00
G01 X3.3085 Y41.1244 F350.00
G01 X3.4176 Y41.0256 F350.00
G01 X3.4375 Y41.0066 F350.00
G01 X3.4565 Y40.9867 F350.00
G01 X3.5553 Y40.8777 F350.00
G01 X3.5733 Y40.8569 F350.00
G01 X3.5902 Y40.8352 F350.00
G01 X3.6779 Y40.7169 F350.00
G01 X3.6937 Y40.6945 F350.00
G01 X3.7084 Y40.6713 F350.00
G01 X3.7841 Y40.5450 F350.00
G01 X3.7976 Y40.5211 F350.00
G01 X3.8100 Y40.4965 F350.00
G01 X3.8786 Y40.3510 F350.00
G01 X3.8892 Y40.3256 F350.00
G01 X3.8939 Y40.3127 F350.00
G01 X3.9435 Y40.1741 F350.00
G01 X3.9522 Y40.1480 F350.00
G01 X3.9595 Y40.1215 F350.00
G01 X3.9953 Y39.9787 F350.00
G01 X4.0013 Y39.9519 F350.00
G01 X4.0060 Y39.9248 F350.00
G01 X4.0276 Y39.7792 F350.00
G01 X4.0309 Y39.7519 F350.00
G01 X4.0330 Y39.7245 F350.00
G01 X4.0402 Y39.5775 F350.00
G01 X4.0409 Y39.5500 F350.00
G01 X4.0402 Y39.5225 F350.00
G01 X4.0330 Y39.3755 F350.00
G01 X4.0309 Y39.3481 F350.00
G01 X4.0276 Y39.3208 F350.00
G01 X4.0060 Y39.1752 F350.00
G01 X4.0013 Y39.1481 F350.00
G01 X3.9953 Y39.1213 F350.00
G01 X3.9595 Y38.9785 F350.00
G01 X3.9522 Y38.9520 F350.00
G01 X3.9435 Y38.9259 F350.00
G01 X3.8939 Y38.7873 F350.00
G01 X3.8841 Y38.7617 F350.00
G01 X3.8729 Y38.7365 F350.00
G01 X3.8100 Y38.6035 F350.00
G01 X3.7976 Y38.5789 F350.00
G01 X3.7841 Y38.5550 F350.00
G01 X3.7084 Y38.4287 F350.00
G01 X3.6937 Y38.4055 F350.00
G01 X3.6859 Y38.3942 F350.00
G01 X3.5902 Y38.2648 F350.00
G01 X3.5733 Y38.2431 F350.00
G01 X3.5553 Y38.2223 F350.00
G01 X3.4565 Y38.1133 F350.00
G01 X3.4375 Y38.0934 F350.00
G01 X3.4176 Y38.0744 F350.00
G01 X3.3085 Y37.9756 F350.00
G01 X3.2877 Y37.9576 F350.00
G01 X3.2660 Y37.9407 F350.00
G01 X3.1478 Y37.8530 F350.00
G01 X3.1367 Y37.8449 F350.00
G01 X3.1138 Y37.8297 F350.00
G01 X2.9759 Y37.7468 F350.00
G01 X2.9519 Y37.7332 F350.00
G01 X2.9274 Y37.7209 F350.00
G01 X2.7943 Y37.6579 F350.00
G01 X2.7818 Y37.6522 F350.00
G01 X2.7564 Y37.6417 F350.00
G01 X2.6049 Y37.5873 F350.00
G01 X2.5919 Y37.5829 F350.00
G01 X2.5656 Y37.5749 F350.00
G01 X2.3962 Y37.5324 F350.00
G01 X2.3692 Y37.5271 F350.00
G01 X2.2911 Y37.5153 F350.00
G01 X2.2911 Y30.7392 F350.00
G01 X4.2476 Y28.7827 F350.00
G01 X4.2780 Y28.7928 F350.00
G01 X4.3045 Y28.8002 F350.00
G01 X4.3997 Y28.8240 F350.00
G01 X4.4131 Y28.8272 F350.00
G01 X4.4400 Y28.8325 F350.00
G01 X4.5507 Y28.8491 F350.00
G01 X4.5780 Y28.8525 F350.00
G01 X4.6054 Y28.8545 F350.00
G01 X4.7171 Y28.8598 F350.00
G01 X4.7446 Y28.8598 F350.00
G01 X4.7583 Y28.8593 F350.00
G01 X4.8564 Y28.8545 F350.00
G01 X4.8838 Y28.8525 F350.00
G01 X4.9110 Y28.8491 F350.00
G01 X5.0081 Y28.8347 F350.00
G01 X5.0352 Y28.8300 F350.00
G01 X5.0620 Y28.8240 F350.00
G01 X5.1705 Y28.7967 F350.00
G01 X5.1837 Y28.7928 F350.00
G01 X5.2098 Y28.7842 F350.00
G01 X5.3022 Y28.7511 F350.00
G01 X5.3278 Y28.7413 F350.00
G01 X5.3530 Y28.7301 F350.00
G01 X5.4417 Y28.6882 F350.00
G01 X5.4662 Y28.6758 F350.00
G01 X5.4902 Y28.6622 F350.00
G01 X5.5743 Y28.6118 F350.00
G01 X5.5976 Y28.5971 F350.00
G01 X5.6200 Y28.5813 F350.00
G01 X5.6988 Y28.5228 F350.00
G01 X5.7205 Y28.5059 F350.00
G01 X5.7413 Y28.4879 F350.00
G01 X5.8140 Y28.4220 F350.00
G01 X5.8339 Y28.4031 F350.00
G01 X5.8529 Y28.3832 F350.00
G01 X5.9279 Y28.3002 F350.00
G01 X5.9368 Y28.2897 F350.00
G01 X5.9537 Y28.2680 F350.00
G01 X6.0121 Y28.1892 F350.00
G01 X6.0202 Y28.1780 F350.00
G01 X6.0354 Y28.1552 F350.00
G01 X6.0931 Y28.0593 F350.00
G01 X6.1067 Y28.0354 F350.00
G01 X6.1190 Y28.0108 F350.00
G01 X6.1610 Y27.9221 F350.00
G01 X6.1721 Y27.8970 F350.00
G01 X6.1820 Y27.8713 F350.00
G01 X6.2151 Y27.7789 F350.00
G01 X6.2237 Y27.7528 F350.00
G01 X6.2310 Y27.7264 F350.00
G01 X6.2549 Y27.6312 F350.00
G01 X6.2580 Y27.6178 F350.00
G01 X6.2634 Y27.5908 F350.00
G01 X6.2800 Y27.4802 F350.00
G01 X6.2833 Y27.4529 F350.00
G01 X6.2854 Y27.4255 F350.00
G01 X6.2907 Y27.3137 F350.00
G01 X6.2909 Y26.3000 F350.00
G01 X6.2902 Y26.2725 F350.00
G01 X6.2854 Y26.1745 F350.00
G01 X6.2833 Y26.1471 F350.00
G01 X6.2800 Y26.1198 F350.00
G01 X6.2656 Y26.0227 F350.00
G01 X6.2609 Y25.9957 F350.00
G01 X6.2549 Y25.9688 F350.00
G01 X6.2310 Y25.8736 F350.00
G01 X6.2237 Y25.8472 F350.00
G01 X6.2151 Y25.8211 F350.00
G01 X6.1820 Y25.7287 F350.00
G01 X6.1721 Y25.7030 F350.00
G01 X6.1610 Y25.6779 F350.00
G01 X6.1190 Y25.5892 F350.00
G01 X6.1067 Y25.5646 F350.00
G01 X6.0931 Y25.5407 F350.00
G01 X6.0427 Y25.4565 F350.00
G01 X6.0280 Y25.4333 F350.00
G01 X6.0121 Y25.4108 F350.00
G01 X5.9537 Y25.3320 F350.00
G01 X5.9368 Y25.3103 F350.00
G01 X5.9188 Y25.2895 F350.00
G01 X5.8529 Y25.2168 F350.00
G01 X5.8339 Y25.1969 F350.00
G01 X5.8140 Y25.1780 F350.00
G01 X5.7413 Y25.1121 F350.00
G01 X5.7205 Y25.0941 F350.00
G01 X5.6988 Y25.0772 F350.00
G01 X5.6200 Y25.0187 F350.00
G01 X5.5976 Y25.0029 F350.00
G01 X5.5743 Y24.9882 F350.00
G01 X5.4902 Y24.9378 F350.00
G01 X5.4662 Y24.9242 F350.00
G01 X5.4417 Y24.9118 F350.00
G01 X5.3530 Y24.8699 F350.00
G01 X5.3278 Y24.8587 F350.00
G01 X5.3022 Y24.8489 F350.00
G01 X5.2098 Y24.8158 F350.00
G01 X5.1837 Y24.8072 F350.00
G01 X5.1572 Y24.7998 F350.00
G01 X5.0620 Y24.7760 F350.00
G01 X5.0352 Y24.7700 F350.00
G01 X5.0081 Y24.7653 F350.00
G01 X4.9110 Y24.7509 F350.00
G01 X4.8838 Y24.7475 F350.00
G01 X4.8564 Y24.7455 F350.00
G01 X4.7583 Y24.7407 F350.00
G01 X4.7309 Y24.7400 F350.00
G01 X4.7034 Y24.7407 F350.00
G01 X4.6054 Y24.7455 F350.00
G01 X4.5780 Y24.7475 F350.00
G01 X4.5507 Y24.7509 F350.00
G01 X4.4536 Y24.7653 F350.00
G01 X4.4265 Y24.7700 F350.00
G01 X4.3997 Y24.7760 F350.00
G01 X4.2912 Y24.8033 F350.00
G01 X4.2649 Y24.8113 F350.00
G01 X4.2476 Y24.8173 F350.00
G01 X2.0011 Y22.5708 F350.00
G01 X2.0011 Y20.9428 F350.00
G01 X2.0341 Y20.9127 F350.00
G01 X2.0535 Y20.8932 F350.00
G01 X2.1379 Y20.8002 F350.00
G01 X2.1553 Y20.7789 F350.00
G01 X2.2109 Y20.7044 F350.00
G01 X2.2581 Y20.7680 F350.00
G01 X2.2750 Y20.7897 F350.00
G01 X2.2929 Y20.8105 F350.00
G01 X2.3588 Y20.8832 F350.00
G01 X2.3682 Y20.8932 F350.00
G01 X2.3876 Y20.9127 F350.00
G01 X2.4807 Y20.9970 F350.00
G01 X2.4912 Y21.0059 F350.00
G01 X2.5129 Y21.0228 F350.00
G01 X2.5917 Y21.0813 F350.00
G01 X2.6142 Y21.0971 F350.00
G01 X2.6374 Y21.1118 F350.00
G01 X2.7216 Y21.1622 F350.00
G01 X2.7455 Y21.1758 F350.00
G01 X2.7700 Y21.1882 F350.00
G01 X2.8587 Y21.2301 F350.00
G01 X2.8839 Y21.2413 F350.00
G01 X2.9095 Y21.2511 F350.00
G01 X3.0019 Y21.2842 F350.00
G01 X3.0280 Y21.2928 F350.00
G01 X3.0545 Y21.3002 F350.00
G01 X3.1497 Y21.3240 F350.00
G01 X3.1765 Y21.3300 F350.00
G01 X3.2036 Y21.3347 F350.00
G01 X3.3007 Y21.3491 F350.00
G01 X3.3280 Y21.3525 F350.00
G01 X3.3416 Y21.3537 F350.00
G01 X3.4671 Y21.3598 F350.00
G01 X3.4946 Y21.3598 F350.00
G01 X3.5083 Y21.3593 F350.00
G01 X3.6064 Y21.3545 F350.00
G01 X3.6338 Y21.3525 F350.00
G01 X3.6610 Y21.3491 F350.00
G01 X3.7717 Y21.3325 F350.00
G01 X3.7986 Y21.3272 F350.00
G01 X3.8120 Y21.3240 F350.00
G01 X3.9072 Y21.3002 F350.00
G01 X3.9337 Y21.2928 F350.00
G01 X3.9598 Y21.2842 F350.00
G01 X4.0522 Y21.2511 F350.00
G01 X4.0651 Y21.2464 F350.00
G01 X4.0905 Y21.2358 F350.00
G01 X4.2040 Y21.1821 F350.00
G01 X4.2283 Y21.1692 F350.00
G01 X4.2402 Y21.1622 F350.00
G01 X4.3243 Y21.1118 F350.00
G01 X4.3360 Y21.1046 F350.00
G01 X4.3589 Y21.0893 F350.00
G01 X4.4488 Y21.0228 F350.00
G01 X4.4705 Y21.0059 F350.00
G01 X4.4929 Y20.9865 F350.00
G00 Z0.5000
G00 X8.4906 Y20.9544
G01 F250.00
G01 Z-0.0500
G01 F350.00
G01 X8.4722 Y20.9497 F350.00
G01 X8.4628 Y20.9468 F350.00
G01 X8.3566 Y20.9087 F350.00
G01 X8.2590 Y20.8627 F350.00
G01 X8.2459 Y20.8559 F350.00
G01 X8.1492 Y20.7978 F350.00
G01 X8.0623 Y20.7337 F350.00
G01 X8.0472 Y20.7212 F350.00
G01 X7.9708 Y20.6520 F350.00
G01 X7.9606 Y20.6414 F350.00
G01 X7.8882 Y20.5613 F350.00
G01 X7.8237 Y20.4747 F350.00
G01 X7.8128 Y20.4584 F350.00
G01 X7.7576 Y20.3657 F350.00
G01 X7.7112 Y20.2682 F350.00
G01 X7.7037 Y20.2501 F350.00
G01 X7.6706 Y20.1577 F350.00
G01 X7.6649 Y20.1389 F350.00
G01 X7.6411 Y20.0437 F350.00
G01 X7.6372 Y20.0244 F350.00
G01 X7.6216 Y19.9176 F350.00
G01 X7.6159 Y19.8049 F350.00
G01 X7.6159 Y18.7951 F350.00
G01 X7.6216 Y18.6824 F350.00
G01 X7.6380 Y18.5707 F350.00
G01 X7.6411 Y18.5563 F350.00
G01 X7.6675 Y18.4517 F350.00
G01 X7.7072 Y18.3408 F350.00
G01 X7.7576 Y18.2343 F350.00
G01 X7.8181 Y18.1333 F350.00
G01 X7.8882 Y18.0387 F350.00
G01 X7.9673 Y17.9515 F350.00
G01 X8.0546 Y17.8724 F350.00
G01 X8.1492 Y17.8022 F350.00
G01 X8.2502 Y17.7417 F350.00
G01 X8.3566 Y17.6913 F350.00
G01 X8.4675 Y17.6517 F350.00
G01 X8.5818 Y17.6231 F350.00
G01 X8.6982 Y17.6058 F350.00
G01 X8.8159 Y17.6000 F350.00
G01 X8.9335 Y17.6058 F350.00
G01 X9.0451 Y17.6222 F350.00
G01 X9.0595 Y17.6252 F350.00
G01 X9.1547 Y17.6491 F350.00
G01 X9.1735 Y17.6548 F350.00
G01 X9.2751 Y17.6913 F350.00
G01 X9.3815 Y17.7417 F350.00
G01 X9.4825 Y17.8022 F350.00
G01 X9.5694 Y17.8663 F350.00
G01 X9.5846 Y17.8788 F350.00
G01 X9.6573 Y17.9447 F350.00
G01 X9.6712 Y17.9586 F350.00
G01 X9.7435 Y18.0387 F350.00
G01 X9.8136 Y18.1333 F350.00
G01 X9.8742 Y18.2343 F350.00
G01 X9.9205 Y18.3318 F350.00
G01 X9.9280 Y18.3499 F350.00
G01 X9.9611 Y18.4423 F350.00
G01 X9.9668 Y18.4611 F350.00
G01 X9.9928 Y18.5659 F350.00
G01 X10.0095 Y18.6775 F350.00
G01 X10.0108 Y18.6922 F350.00
G01 X10.0159 Y18.8000 F350.00
G01 X10.0159 Y19.8000 F350.00
G01 X10.0105 Y19.9127 F350.00
G01 X10.0089 Y19.9274 F350.00
G01 X9.9928 Y20.0341 F350.00
G01 X9.9656 Y20.1436 F350.00
G01 X9.9611 Y20.1577 F350.00
G01 X9.9263 Y20.2547 F350.00
G01 X9.9205 Y20.2682 F350.00
G01 X9.8911 Y20.3304 F350.00
G01 X9.8911 Y24.2199 F350.00
G01 X11.0119 Y25.3407 F350.00
G01 X11.0562 Y25.3079 F350.00
G01 X11.0683 Y25.2996 F350.00
G01 X11.1566 Y25.2465 F350.00
G01 X11.1695 Y25.2394 F350.00
G01 X11.2716 Y25.1913 F350.00
G01 X11.3732 Y25.1548 F350.00
G01 X11.3872 Y25.1503 F350.00
G01 X11.4968 Y25.1231 F350.00
G01 X11.6132 Y25.1058 F350.00
G01 X11.7309 Y25.1000 F350.00
G01 X11.8436 Y25.1054 F350.00
G01 X11.8582 Y25.1070 F350.00
G01 X11.9650 Y25.1231 F350.00
G01 X12.0697 Y25.1491 F350.00
G01 X12.0885 Y25.1548 F350.00
G01 X12.1809 Y25.1878 F350.00
G01 X12.1991 Y25.1953 F350.00
G01 X12.2965 Y25.2417 F350.00
G01 X12.3975 Y25.3022 F350.00
G01 X12.4921 Y25.3724 F350.00
G01 X12.5794 Y25.4515 F350.00
G01 X12.6521 Y25.5313 F350.00
G01 X12.6645 Y25.5465 F350.00
G01 X12.7286 Y25.6333 F350.00
G01 X12.7892 Y25.7343 F350.00
G01 X12.8355 Y25.8318 F350.00
G01 X12.8430 Y25.8499 F350.00
G01 X12.8792 Y25.9517 F350.00
G01 X12.9078 Y26.0659 F350.00
G01 X12.9251 Y26.1824 F350.00
G01 X12.9308 Y26.2951 F350.00
G01 X12.9309 Y27.2597 F350.00
G01 X14.9794 Y29.3084 F350.00
G01 X15.0157 Y29.3483 F350.00
G01 X15.0282 Y29.3635 F350.00
G01 X15.0631 Y29.4110 F350.00
G01 X15.0936 Y29.4614 F350.00
G01 X15.1028 Y29.4787 F350.00
G01 X15.1278 Y29.5320 F350.00
G01 X15.1510 Y29.5967 F350.00
G01 X15.1677 Y29.6634 F350.00
G01 X15.1765 Y29.7216 F350.00
G01 X15.1785 Y29.7412 F350.00
G01 X15.1811 Y29.8000 F350.00
G01 X15.1811 Y38.0648 F350.00
G01 X15.3003 Y38.1365 F350.00
G01 X15.4266 Y38.2298 F350.00
G01 X15.4418 Y38.2423 F350.00
G01 X15.5579 Y38.3479 F350.00
G01 X15.6636 Y38.4641 F350.00
G01 X15.6760 Y38.4793 F350.00
G01 X15.7694 Y38.6055 F350.00
G01 X15.8503 Y38.7401 F350.00
G01 X15.8595 Y38.7574 F350.00
G01 X15.9265 Y38.8994 F350.00
G01 X15.9796 Y39.0472 F350.00
G01 X15.9853 Y39.0660 F350.00
G01 X16.0232 Y39.2183 F350.00
G01 X16.0465 Y39.3736 F350.00
G01 X16.0484 Y39.3932 F350.00
G01 X16.0556 Y39.5402 F350.00
G01 X16.0558 Y39.5549 F350.00
G01 X16.0477 Y39.7166 F350.00
G01 X16.0249 Y39.8720 F350.00
G01 X16.0210 Y39.8912 F350.00
G01 X15.9853 Y40.0340 F350.00
G01 X15.9796 Y40.0528 F350.00
G01 X15.9265 Y40.2006 F350.00
G01 X15.8551 Y40.3514 F350.00
G01 X15.7694 Y40.4945 F350.00
G01 X15.6760 Y40.6207 F350.00
G01 X15.6636 Y40.6359 F350.00
G01 X15.5647 Y40.7450 F350.00
G01 X15.5508 Y40.7589 F350.00
G01 X15.4343 Y40.8641 F350.00
G01 X15.3003 Y40.9635 F350.00
G01 X15.1572 Y41.0493 F350.00
G01 X15.0154 Y41.1166 F350.00
G01 X14.9973 Y41.1241 F350.00
G01 X14.8493 Y41.1768 F350.00
G01 X14.6875 Y41.2173 F350.00
G01 X14.5322 Y41.2406 F350.00
G01 X14.5127 Y41.2425 F350.00
G01 X14.3657 Y41.2498 F350.00
G01 X14.3460 Y41.2498 F350.00
G01 X14.1892 Y41.2418 F350.00
G01 X14.0339 Y41.2190 F350.00
G01 X14.0146 Y41.2152 F350.00
G01 X13.8624 Y41.1768 F350.00
G01 X13.7053 Y41.1206 F350.00
G01 X13.5545 Y41.0493 F350.00
G01 X13.4114 Y40.9635 F350.00
G01 X13.2774 Y40.8641 F350.00
G01 X13.1609 Y40.7589 F350.00
G01 X13.1470 Y40.7450 F350.00
G01 X13.0417 Y40.6285 F350.00
G01 X12.9480 Y40.5025 F350.00
G01 X12.9371 Y40.4862 F350.00
G01 X12.8614 Y40.3599 F350.00
G01 X12.8522 Y40.3426 F350.00
G01 X12.7853 Y40.2006 F350.00
G01 X12.7291 Y40.0435 F350.00
G01 X12.6885 Y39.8817 F350.00
G01 X12.6640 Y39.7166 F350.00
G01 X12.6559 Y39.5500 F350.00
G01 X12.6633 Y39.3932 F350.00
G01 X12.6652 Y39.3736 F350.00
G01 X12.6868 Y39.2280 F350.00
G01 X12.6907 Y39.2088 F350.00
G01 X12.7291 Y39.0565 F350.00
G01 X12.7853 Y38.8994 F350.00
G01 X12.8566 Y38.7486 F350.00
G01 X12.9397 Y38.6096 F350.00
G01 X12.9480 Y38.5975 F350.00
G01 X13.0417 Y38.4715 F350.00
G01 X13.1470 Y38.3550 F350.00
G01 X13.1609 Y38.3411 F350.00
G01 X13.2700 Y38.2423 F350.00
G01 X13.2812 Y38.2328 F350.00
G01 X13.4114 Y38.1365 F350.00
G01 X13.5502 Y38.0531 F350.00
G01 X13.5633 Y38.0463 F350.00
G01 X13.7008 Y37.9813 F350.00
G01 X13.7145 Y37.9759 F350.00
G01 X13.7806 Y37.9522 F350.00
G01 X13.7806 Y30.0901 F350.00
G01 X12.1233 Y28.4328 F350.00
G01 X12.0885 Y28.4452 F350.00
G01 X12.0745 Y28.4497 F350.00
G01 X11.9698 Y28.4759 F350.00
G01 X11.9553 Y28.4786 F350.00
G01 X11.8582 Y28.4930 F350.00
G01 X11.8436 Y28.4946 F350.00
G01 X11.7309 Y28.5000 F350.00
G01 X11.6230 Y28.4949 F350.00
G01 X11.6035 Y28.4930 F350.00
G01 X11.5064 Y28.4786 F350.00
G01 X11.4920 Y28.4759 F350.00
G01 X11.3825 Y28.4483 F350.00
G01 X11.2808 Y28.4122 F350.00
G01 X11.2627 Y28.4047 F350.00
G01 X11.1652 Y28.3583 F350.00
G01 X11.0642 Y28.2978 F350.00
G01 X10.9773 Y28.2337 F350.00
G01 X10.9622 Y28.2212 F350.00
G01 X10.8823 Y28.1485 F350.00
G01 X10.8097 Y28.0687 F350.00
G01 X10.7972 Y28.0535 F350.00
G01 X10.7331 Y27.9667 F350.00
G01 X10.6774 Y27.8742 F350.00
G01 X10.6681 Y27.8569 F350.00
G01 X10.6222 Y27.7592 F350.00
G01 X10.5856 Y27.6577 F350.00
G01 X10.5812 Y27.6436 F350.00
G01 X10.5539 Y27.5341 F350.00
G01 X10.5378 Y27.4274 F350.00
G01 X10.5362 Y27.4127 F350.00
G01 X10.5309 Y27.3000 F350.00
G01 X10.5309 Y26.8403 F350.00
G01 X8.6957 Y25.0052 F350.00
G01 X8.6560 Y24.9617 F350.00
G01 X8.6435 Y24.9465 F350.00
G01 X8.6086 Y24.8990 F350.00
G01 X8.5757 Y24.8444 F350.00
G01 X8.5689 Y24.8313 F350.00
G01 X8.5439 Y24.7780 F350.00
G01 X8.5238 Y24.7226 F350.00
G01 X8.5181 Y24.7038 F350.00
G01 X8.5041 Y24.6466 F350.00
G01 X8.4952 Y24.5884 F350.00
G01 X8.4933 Y24.5688 F350.00
G01 X8.4907 Y24.5149 F350.00
G01 X8.4906 Y20.9544 F350.00
G00 Z0.5000
G00 X10.9057 Y20.9122
G01 F250.00
G01 Z-0.0500
G01 F350.00
G01 X10.8877 Y20.9047 F350.00
G01 X10.7902 Y20.8583 F350.00
G01 X10.6892 Y20.7978 F350.00
G01 X10.5946 Y20.7276 F350.00
G01 X10.5144 Y20.6553 F350.00
G01 X10.5006 Y20.6414 F350.00
G01 X10.4282 Y20.5613 F350.00
G01 X10.3637 Y20.4747 F350.00
G01 X10.3528 Y20.4584 F350.00
G01 X10.3024 Y20.3742 F350.00
G01 X10.2931 Y20.3569 F350.00
G01 X10.2472 Y20.2592 F350.00
G01 X10.2075 Y20.1483 F350.00
G01 X10.1811 Y20.0437 F350.00
G01 X10.1772 Y20.0244 F350.00
G01 X10.1616 Y19.9176 F350.00
G01 X10.1559 Y19.8049 F350.00
G01 X10.1559 Y18.7951 F350.00
G01 X10.1616 Y18.6824 F350.00
G01 X10.1789 Y18.5659 F350.00
G01 X10.2075 Y18.4517 F350.00
G01 X10.2472 Y18.3408 F350.00
G01 X10.2976 Y18.2343 F350.00
G01 X10.3581 Y18.1333 F350.00
G01 X10.4282 Y18.0387 F350.00
G01 X10.5073 Y17.9515 F350.00
G01 X10.5946 Y17.8724 F350.00
G01 X10.6892 Y17.8022 F350.00
G01 X10.7902 Y17.7417 F350.00
G01 X10.8966 Y17.6913 F350.00
G01 X11.0075 Y17.6517 F350.00
G01 X11.1218 Y17.6231 F350.00
G01 X11.2382 Y17.6058 F350.00
G01 X11.3559 Y17.6000 F350.00
G01 X11.4735 Y17.6058 F350.00
G01 X11.5900 Y17.6231 F350.00
G01 X11.7042 Y17.6517 F350.00
G01 X11.8059 Y17.6878 F350.00
G01 X11.8241 Y17.6953 F350.00
G01 X11.9128 Y17.7373 F350.00
G01 X11.9301 Y17.7465 F350.00
G01 X12.0225 Y17.8022 F350.00
G01 X12.1171 Y17.8724 F350.00
G01 X12.2044 Y17.9515 F350.00
G01 X12.2771 Y18.0313 F350.00
G01 X12.2895 Y18.0465 F350.00
G01 X12.3480 Y18.1253 F350.00
G01 X12.3589 Y18.1416 F350.00
G01 X12.4142 Y18.2343 F350.00
G01 X12.4645 Y18.3408 F350.00
G01 X12.5042 Y18.4517 F350.00
G01 X12.5307 Y18.5563 F350.00
G01 X12.5345 Y18.5756 F350.00
G01 X12.5489 Y18.6726 F350.00
G01 X12.5508 Y18.6922 F350.00
G01 X12.5559 Y18.8000 F350.00
G01 X12.5558 Y19.8049 F350.00
G01 X12.5501 Y19.9176 F350.00
G01 X12.5345 Y20.0244 F350.00
G01 X12.5307 Y20.0437 F350.00
G01 X12.5042 Y20.1483 F350.00
G01 X12.4680 Y20.2501 F350.00
G01 X12.4605 Y20.2682 F350.00
G01 X12.4186 Y20.3569 F350.00
G01 X12.4093 Y20.3742 F350.00
G01 X12.3536 Y20.4667 F350.00
G01 X12.2835 Y20.5613 F350.00
G01 X12.2112 Y20.6414 F350.00
G01 X12.1973 Y20.6553 F350.00
G01 X12.1171 Y20.7276 F350.00
G01 X12.0306 Y20.7921 F350.00
G01 X12.0143 Y20.8030 F350.00
G01 X11.9215 Y20.8583 F350.00
G01 X11.8241 Y20.9047 F350.00
G01 X11.8060 Y20.9122 F350.00
G01 X11.8060 Y21.7886 F350.00
G01 X16.9241 Y26.9067 F350.00
G01 X16.9507 Y26.9357 F350.00
G01 X16.9599 Y26.9472 F350.00
G01 X16.9801 Y26.9749 F350.00
G01 X16.9980 Y27.0043 F350.00
G01 X17.0051 Y27.0172 F350.00
G01 X17.0217 Y27.0527 F350.00
G01 X17.0335 Y27.0850 F350.00
G01 X17.0380 Y27.0991 F350.00
G01 X17.0473 Y27.1372 F350.00
G01 X17.0526 Y27.1711 F350.00
G01 X17.0542 Y27.1858 F350.00
G01 X17.0560 Y27.2250 F350.00
G01 X17.0560 Y43.1000 F350.00
G01 X17.0538 Y43.1441 F350.00
G01 X17.0482 Y43.1830 F350.00
G01 X17.0452 Y43.1974 F350.00
G01 X17.0366 Y43.2307 F350.00
G01 X17.0253 Y43.2631 F350.00
G01 X17.0198 Y43.2768 F350.00
G01 X17.0028 Y43.3122 F350.00
G01 X16.9828 Y43.3460 F350.00
G01 X16.9745 Y43.3581 F350.00
G01 X16.9538 Y43.3856 F350.00
G01 X16.9309 Y43.4112 F350.00
G01 X16.9206 Y43.4217 F350.00
G01 X16.8914 Y43.4480 F350.00
G01 X16.8600 Y43.4715 F350.00
G01 X16.8476 Y43.4795 F350.00
G01 X16.8180 Y43.4970 F350.00
G01 X16.7871 Y43.5119 F350.00
G01 X16.7736 Y43.5177 F350.00
G01 X16.7365 Y43.5307 F350.00
G01 X16.6985 Y43.5405 F350.00
G01 X16.6840 Y43.5432 F350.00
G01 X16.6500 Y43.5480 F350.00
G01 X16.6059 Y43.5501 F350.00
G01 X-0.8091 Y43.5501 F350.00
G01 X-0.8533 Y43.5480 F350.00
G01 X-0.8921 Y43.5424 F350.00
G01 X-0.9065 Y43.5393 F350.00
G01 X-0.9398 Y43.5307 F350.00
G01 X-0.9722 Y43.5194 F350.00
G01 X-0.9859 Y43.5139 F350.00
G01 X-1.0213 Y43.4970 F350.00
G01 X-1.0551 Y43.4769 F350.00
G01 X-1.0672 Y43.4686 F350.00
G01 X-1.0947 Y43.4480 F350.00
G01 X-1.1203 Y43.4251 F350.00
G01 X-1.1309 Y43.4148 F350.00
G01 X-1.1571 Y43.3856 F350.00
G01 X-1.1806 Y43.3541 F350.00
G01 X-1.1887 Y43.3418 F350.00
G01 X-1.2061 Y43.3122 F350.00
G01 X-1.2210 Y43.2812 F350.00
G01 X-1.2268 Y43.2677 F350.00
G01 X-1.2399 Y43.2307 F350.00
G01 X-1.2496 Y43.1926 F350.00
G01 X-1.2523 Y43.1781 F350.00
G01 X-1.2571 Y43.1441 F350.00
G01 X-1.2593 Y43.1000 F350.00
G01 X-1.2593 Y15.6900 F350.00
G01 X-1.2571 Y15.6459 F350.00
G01 X-1.2523 Y15.6119 F350.00
G01 X-1.2485 Y15.5926 F350.00
G01 X-1.2412 Y15.5641 F350.00
G01 X-1.2368 Y15.5500 F350.00
G01 X-1.2250 Y15.5177 F350.00
G01 X-1.2061 Y15.4778 F350.00
G01 X-1.1834 Y15.4399 F350.00
G01 X-1.1602 Y15.4083 F350.00
G01 X-1.1507 Y15.3970 F350.00
G01 X-1.1274 Y15.3717 F350.00
G01 X1.5661 Y12.6783 F350.00
G01 X1.5953 Y12.6520 F350.00
G01 X1.6308 Y12.6257 F350.00
G01 X1.6687 Y12.6030 F350.00
G01 X1.6996 Y12.5881 F350.00
G01 X1.7178 Y12.5806 F350.00
G01 X1.7455 Y12.5707 F350.00
G01 X1.7549 Y12.5679 F350.00
G01 X1.7930 Y12.5585 F350.00
G01 X1.8319 Y12.5526 F350.00
G01 X1.8465 Y12.5513 F350.00
G01 X1.8809 Y12.5499 F350.00
G01 X23.3809 Y12.5499 F350.00
G01 X23.4201 Y12.5516 F350.00
G01 X23.4347 Y12.5532 F350.00
G01 X23.4639 Y12.5576 F350.00
G01 X23.4735 Y12.5595 F350.00
G01 X23.5021 Y12.5666 F350.00
G01 X23.5162 Y12.5707 F350.00
G01 X23.5440 Y12.5806 F350.00
G01 X23.5621 Y12.5881 F350.00
G01 X23.5930 Y12.6030 F350.00
G01 X23.6309 Y12.6257 F350.00
G01 X23.6664 Y12.6520 F350.00
G01 X23.6956 Y12.6783 F350.00
G01 X25.8026 Y14.7852 F350.00
G01 X25.8257 Y14.8107 F350.00
G01 X25.8349 Y14.8222 F350.00
G01 X25.8551 Y14.8499 F350.00
G01 X25.8730 Y14.8793 F350.00
G01 X25.8801 Y14.8922 F350.00
G01 X25.8967 Y14.9277 F350.00
G01 X25.9116 Y14.9693 F350.00
G01 X25.9213 Y15.0074 F350.00
G01 X25.9240 Y15.0219 F350.00
G01 X25.9288 Y15.0559 F350.00
G01 X25.9310 Y15.1000 F350.00
G01 X25.9310 Y20.6993 F350.00
G01 X44.9241 Y39.6925 F350.00
G01 X44.9538 Y39.7252 F350.00
G01 X44.9773 Y39.7567 F350.00
G01 X44.9854 Y39.7690 F350.00
G01 X45.0028 Y39.7986 F350.00
G01 X45.0177 Y39.8296 F350.00
G01 X45.0235 Y39.8431 F350.00
G01 X45.0366 Y39.8801 F350.00
G01 X45.0463 Y39.9182 F350.00
G01 X45.0490 Y39.9326 F350.00
G01 X45.0538 Y39.9667 F350.00
G01 X45.0560 Y40.0108 F350.00
G01 X45.0560 Y48.5999 F350.00
G01 X77.0387 Y48.5999 F350.00
G01 X77.0462 Y48.5818 F350.00
G01 X77.0881 Y48.4931 F350.00
G01 X77.0974 Y48.4758 F350.00
G01 X77.1531 Y48.3833 F350.00
G01 X77.2232 Y48.2887 F350.00
G01 X77.2956 Y48.2086 F350.00
G01 X77.3094 Y48.1947 F350.00
G01 X77.3896 Y48.1224 F350.00
G01 X77.4842 Y48.0522 F350.00
G01 X77.5852 Y47.9917 F350.00
G01 X77.6827 Y47.9453 F350.00
G01 X77.7008 Y47.9378 F350.00
G01 X77.8025 Y47.9017 F350.00
G01 X77.9168 Y47.8731 F350.00
G01 X78.0235 Y47.8570 F350.00
G01 X78.0430 Y47.8551 F350.00
G01 X78.1410 Y47.8502 F350.00
G01 X78.1558 Y47.8501 F350.00
G01 X78.2587 Y47.8551 F350.00
G01 X78.2782 Y47.8570 F350.00
G01 X78.3850 Y47.8731 F350.00
G01 X78.4897 Y47.8991 F350.00
G01 X78.5085 Y47.9048 F350.00
G01 X78.6101 Y47.9413 F350.00
G01 X78.7165 Y47.9917 F350.00
G01 X78.8093 Y48.0470 F350.00
G01 X78.8256 Y48.0579 F350.00
G01 X78.9121 Y48.1224 F350.00
G01 X78.9923 Y48.1947 F350.00
G01 X79.0062 Y48.2086 F350.00
G01 X79.0785 Y48.2887 F350.00
G01 X79.1486 Y48.3833 F350.00
G01 X79.2092 Y48.4843 F350.00
G01 X79.2555 Y48.5818 F350.00
G01 X79.2630 Y48.5999 F350.00
G01 X79.2992 Y48.7017 F350.00
G01 X79.3257 Y48.8063 F350.00
G01 X79.3295 Y48.8256 F350.00
G01 X79.3451 Y48.9324 F350.00
G01 X79.3509 Y49.0500 F350.00
G01 X79.3458 Y49.1578 F350.00
G01 X79.3439 Y49.1774 F350.00
G01 X79.3278 Y49.2841 F350.00
G01 X79.3018 Y49.3889 F350.00
G01 X79.2961 Y49.4077 F350.00
G01 X79.2595 Y49.5092 F350.00
G01 X79.2092 Y49.6157 F350.00
G01 X79.1539 Y49.7084 F350.00
G01 X79.1430 Y49.7247 F350.00
G01 X79.0785 Y49.8113 F350.00
G01 X79.0062 Y49.8914 F350.00
G01 X78.9923 Y49.9053 F350.00
G01 X78.9121 Y49.9776 F350.00
G01 X78.8175 Y50.0478 F350.00
G01 X78.7165 Y50.1083 F350.00
G01 X78.6191 Y50.1547 F350.00
G01 X78.6009 Y50.1622 F350.00
G01 X78.4992 Y50.1983 F350.00
G01 X78.3850 Y50.2269 F350.00
G01 X78.2782 Y50.2430 F350.00
G01 X78.2587 Y50.2449 F350.00
G01 X78.1509 Y50.2500 F350.00
G01 X78.0430 Y50.2449 F350.00
G01 X78.0235 Y50.2430 F350.00
G01 X77.9168 Y50.2269 F350.00
G01 X77.8025 Y50.1983 F350.00
G01 X77.7008 Y50.1622 F350.00
G01 X77.6827 Y50.1547 F350.00
G01 X77.5852 Y50.1083 F350.00
G01 X77.4842 Y50.0478 F350.00
G01 X77.3896 Y49.9776 F350.00
G01 X77.3094 Y49.9053 F350.00
G01 X77.2956 Y49.8914 F350.00
G01 X77.2232 Y49.8113 F350.00
G01 X77.1531 Y49.7167 F350.00
G01 X77.0974 Y49.6242 F350.00
G01 X77.0881 Y49.6069 F350.00
G01 X77.0462 Y49.5182 F350.00
G01 X77.0387 Y49.5001 F350.00
G01 X45.1673 Y49.5001 F350.00
G01 X38.0491 Y56.6183 F350.00
G01 X38.0202 Y56.6448 F350.00
G01 X38.0087 Y56.6540 F350.00
G01 X37.9850 Y56.6715 F350.00
G01 X37.9726 Y56.6795 F350.00
G01 X37.9430 Y56.6970 F350.00
G01 X37.9121 Y56.7119 F350.00
G01 X37.8986 Y56.7177 F350.00
G01 X37.8615 Y56.7307 F350.00
G01 X37.8187 Y56.7415 F350.00
G01 X37.7750 Y56.7480 F350.00
G01 X37.7358 Y56.7501 F350.00
G01 X37.5130 Y56.7501 F350.00
G01 X37.5055 Y56.7682 F350.00
G01 X37.4592 Y56.8657 F350.00
G01 X37.4039 Y56.9584 F350.00
G01 X37.3930 Y56.9747 F350.00
G01 X37.3285 Y57.0613 F350.00
G01 X37.2562 Y57.1414 F350.00
G01 X37.2423 Y57.1553 F350.00
G01 X37.1621 Y57.2276 F350.00
G01 X37.0756 Y57.2921 F350.00
G01 X37.0593 Y57.3030 F350.00
G01 X36.9665 Y57.3583 F350.00
G01 X36.8691 Y57.4047 F350.00
G01 X36.8509 Y57.4122 F350.00
G01 X36.7492 Y57.4483 F350.00
G01 X36.6350 Y57.4769 F350.00
G01 X36.5185 Y57.4942 F350.00
G01 X36.4058 Y57.4999 F350.00
G01 X35.4009 Y57.5000 F350.00
G01 X35.2832 Y57.4942 F350.00
G01 X35.1668 Y57.4769 F350.00
G01 X35.0620 Y57.4509 F350.00
G01 X35.0432 Y57.4452 F350.00
G01 X34.9416 Y57.4087 F350.00
G01 X34.8440 Y57.3627 F350.00
G01 X34.8266 Y57.3535 F350.00
G01 X34.7383 Y57.3004 F350.00
G01 X34.7262 Y57.2921 F350.00
G01 X34.6396 Y57.2276 F350.00
G01 X34.5594 Y57.1553 F350.00
G01 X34.5456 Y57.1414 F350.00
G01 X34.4732 Y57.0613 F350.00
G01 X34.4087 Y56.9747 F350.00
G01 X34.3978 Y56.9584 F350.00
G01 X34.3474 Y56.8742 F350.00
G01 X34.3381 Y56.8569 F350.00
G01 X34.2922 Y56.7592 F350.00
G01 X34.2525 Y56.6483 F350.00
G01 X34.2239 Y56.5341 F350.00
G01 X34.2078 Y56.4274 F350.00
G01 X34.2059 Y56.4078 F350.00
G01 X34.2009 Y56.3000 F350.00
G01 X34.2059 Y56.1922 F350.00
G01 X34.2078 Y56.1726 F350.00
G01 X34.2222 Y56.0756 F350.00
G01 X34.2261 Y56.0563 F350.00
G01 X34.2525 Y55.9517 F350.00
G01 X34.2922 Y55.8408 F350.00
G01 X34.3426 Y55.7343 F350.00
G01 X34.3978 Y55.6416 F350.00
G01 X34.4087 Y55.6253 F350.00
G01 X34.4732 Y55.5387 F350.00
G01 X34.5456 Y55.4586 F350.00
G01 X34.5594 Y55.4447 F350.00
G01 X34.6358 Y55.3755 F350.00
G01 X34.6473 Y55.3663 F350.00
G01 X34.7262 Y55.3079 F350.00
G01 X34.7425 Y55.2970 F350.00
G01 X34.8352 Y55.2417 F350.00
G01 X34.9416 Y55.1913 F350.00
G01 X35.0432 Y55.1548 F350.00
G01 X35.0620 Y55.1491 F350.00
G01 X35.1668 Y55.1231 F350.00
G01 X35.2784 Y55.1063 F350.00
G01 X35.2930 Y55.1051 F350.00
G01 X35.4009 Y55.1000 F350.00
G01 X36.4009 Y55.1000 F350.00
G01 X36.5185 Y55.1058 F350.00
G01 X36.6301 Y55.1222 F350.00
G01 X36.6445 Y55.1252 F350.00
G01 X36.7492 Y55.1517 F350.00
G01 X36.8509 Y55.1878 F350.00
G01 X36.8691 Y55.1953 F350.00
G01 X36.9665 Y55.2417 F350.00
G01 X37.0593 Y55.2970 F350.00
G01 X37.0756 Y55.3079 F350.00
G01 X37.1583 Y55.3693 F350.00
G01 X37.1696 Y55.3788 F350.00
G01 X37.2494 Y55.4515 F350.00
G01 X37.3285 Y55.5387 F350.00
G01 X37.3986 Y55.6333 F350.00
G01 X37.4543 Y55.7258 F350.00
G01 X37.4636 Y55.7431 F350.00
G01 X37.5055 Y55.8318 F350.00
G01 X37.5130 Y55.8499 F350.00
G01 X37.5444 Y55.8499 F350.00
G01 X44.1557 Y49.2386 F350.00
G01 X44.1557 Y40.1972 F350.00
G01 X25.1626 Y21.2041 F350.00
G01 X25.1393 Y21.1788 F350.00
G01 X25.1298 Y21.1675 F350.00
G01 X25.1066 Y21.1359 F350.00
G01 X25.0863 Y21.1023 F350.00
G01 X25.0816 Y21.0936 F350.00
G01 X25.0690 Y21.0670 F350.00
G01 X25.0615 Y21.0489 F350.00
G01 X25.0501 Y21.0165 F350.00
G01 X25.0394 Y20.9736 F350.00
G01 X25.0329 Y20.9299 F350.00
G01 X25.0308 Y20.8907 F350.00
G01 X25.0307 Y15.2864 F350.00
G01 X23.1944 Y13.4501 F350.00
G01 X2.0673 Y13.4501 F350.00
G01 X-0.3590 Y15.8764 F350.00
G01 X-0.3590 Y42.6499 F350.00
G01 X16.1557 Y42.6499 F350.00
G01 X16.1557 Y27.4114 F350.00
G01 X11.0376 Y22.2933 F350.00
G01 X11.0079 Y22.2606 F350.00
G01 X10.9844 Y22.2291 F350.00
G01 X10.9763 Y22.2168 F350.00
G01 X10.9589 Y22.1872 F350.00
G01 X10.9400 Y22.1473 F350.00
G01 X10.9251 Y22.1057 F350.00
G01 X10.9165 Y22.0724 F350.00
G01 X10.9127 Y22.0531 F350.00
G01 X10.9084 Y22.0240 F350.00
G01 X10.9075 Y22.0142 F350.00
G01 X10.9057 Y21.9750 F350.00
G01 X10.9057 Y20.9122 F350.00
G00 Z0.5000
G00 X15.9906 Y20.7732
G01 F250.00
G01 Z-0.0500
G01 F350.00
G01 X15.9373 Y20.7337 F350.00
G01 X15.9258 Y20.7245 F350.00
G01 X15.8494 Y20.6553 F350.00
G01 X15.8389 Y20.6450 F350.00
G01 X15.7632 Y20.5613 F350.00
G01 X15.6987 Y20.4747 F350.00
G01 X15.6904 Y20.4626 F350.00
G01 X15.6326 Y20.3657 F350.00
G01 X15.5822 Y20.2592 F350.00
G01 X15.5425 Y20.1483 F350.00
G01 X15.5139 Y20.0341 F350.00
G01 X15.4966 Y19.9176 F350.00
G01 X15.4909 Y19.8049 F350.00
G01 X15.4909 Y18.7951 F350.00
G01 X15.4966 Y18.6824 F350.00
G01 X15.5122 Y18.5756 F350.00
G01 X15.5161 Y18.5563 F350.00
G01 X15.5399 Y18.4611 F350.00
G01 X15.5440 Y18.4470 F350.00
G01 X15.5822 Y18.3408 F350.00
G01 X15.6326 Y18.2343 F350.00
G01 X15.6931 Y18.1333 F350.00
G01 X15.7632 Y18.0387 F350.00
G01 X15.8423 Y17.9515 F350.00
G01 X15.9296 Y17.8724 F350.00
G01 X16.0242 Y17.8022 F350.00
G01 X16.1252 Y17.7417 F350.00
G01 X16.2316 Y17.6913 F350.00
G01 X16.3425 Y17.6517 F350.00
G01 X16.4568 Y17.6231 F350.00
G01 X16.5732 Y17.6058 F350.00
G01 X16.6909 Y17.6000 F350.00
G01 X16.8085 Y17.6058 F350.00
G01 X16.9250 Y17.6231 F350.00
G01 X17.0297 Y17.6491 F350.00
G01 X17.0439 Y17.6532 F350.00
G01 X17.1501 Y17.6913 F350.00
G01 X17.2478 Y17.7373 F350.00
G01 X17.2651 Y17.7465 F350.00
G01 X17.3575 Y17.8022 F350.00
G01 X17.4521 Y17.8724 F350.00
G01 X17.5323 Y17.9447 F350.00
G01 X17.5462 Y17.9586 F350.00
G01 X17.6185 Y18.0387 F350.00
G01 X17.6886 Y18.1333 F350.00
G01 X17.7443 Y18.2258 F350.00
G01 X17.7536 Y18.2431 F350.00
G01 X17.7995 Y18.3408 F350.00
G01 X17.8392 Y18.4517 F350.00
G01 X17.8657 Y18.5563 F350.00
G01 X17.8695 Y18.5756 F350.00
G01 X17.8839 Y18.6726 F350.00
G01 X17.8858 Y18.6922 F350.00
G01 X17.8909 Y18.8000 F350.00
G01 X17.8908 Y19.8049 F350.00
G01 X17.8851 Y19.9176 F350.00
G01 X17.8695 Y20.0244 F350.00
G01 X17.8657 Y20.0437 F350.00
G01 X17.8392 Y20.1483 F350.00
G01 X17.7995 Y20.2592 F350.00
G01 X17.7492 Y20.3657 F350.00
G01 X17.6913 Y20.4626 F350.00
G01 X17.6830 Y20.4747 F350.00
G01 X17.6185 Y20.5613 F350.00
G01 X17.5428 Y20.6450 F350.00
G01 X17.5323 Y20.6553 F350.00
G01 X17.4559 Y20.7245 F350.00
G01 X17.4444 Y20.7337 F350.00
G01 X17.3911 Y20.7732 F350.00
G01 X17.3911 Y24.2199 F350.00
G01 X18.6276 Y25.4564 F350.00
G01 X18.6394 Y25.4447 F350.00
G01 X18.7196 Y25.3724 F350.00
G01 X18.8142 Y25.3022 F350.00
G01 X18.9152 Y25.2417 F350.00
G01 X19.0216 Y25.1913 F350.00
G01 X19.1325 Y25.1517 F350.00
G01 X19.2468 Y25.1231 F350.00
G01 X19.3632 Y25.1058 F350.00
G01 X19.4809 Y25.1000 F350.00
G01 X19.5985 Y25.1058 F350.00
G01 X19.7150 Y25.1231 F350.00
G01 X19.8292 Y25.1517 F350.00
G01 X19.9401 Y25.1913 F350.00
G01 X20.0465 Y25.2417 F350.00
G01 X20.1475 Y25.3022 F350.00
G01 X20.2421 Y25.3724 F350.00
G01 X20.3294 Y25.4515 F350.00
G01 X20.4021 Y25.5313 F350.00
G01 X20.4145 Y25.5465 F350.00
G01 X20.4786 Y25.6333 F350.00
G01 X20.5392 Y25.7343 F350.00
G01 X20.5895 Y25.8408 F350.00
G01 X20.6261 Y25.9423 F350.00
G01 X20.6318 Y25.9611 F350.00
G01 X20.6557 Y26.0563 F350.00
G01 X20.6587 Y26.0707 F350.00
G01 X20.6751 Y26.1824 F350.00
G01 X20.6809 Y26.3000 F350.00
G01 X20.6808 Y27.3049 F350.00
G01 X20.6751 Y27.4176 F350.00
G01 X20.6641 Y27.4930 F350.00
G01 X23.9760 Y30.8048 F350.00
G01 X24.0222 Y30.8558 F350.00
G01 X24.0574 Y30.9029 F350.00
G01 X24.0683 Y30.9193 F350.00
G01 X24.0984 Y30.9699 F350.00
G01 X24.1238 Y31.0231 F350.00
G01 X24.1313 Y31.0412 F350.00
G01 X24.1510 Y31.0967 F350.00
G01 X24.1655 Y31.1538 F350.00
G01 X24.1693 Y31.1731 F350.00
G01 X24.1777 Y31.2314 F350.00
G01 X24.1809 Y31.2902 F350.00
G01 X24.1811 Y33.4099 F350.00
G01 X27.2260 Y36.4548 F350.00
G01 X27.2722 Y36.5058 F350.00
G01 X27.3074 Y36.5529 F350.00
G01 X27.3183 Y36.5693 F350.00
G01 X27.3484 Y36.6199 F350.00
G01 X27.3738 Y36.6731 F350.00
G01 X27.3813 Y36.6912 F350.00
G01 X27.4010 Y36.7467 F350.00
G01 X27.4155 Y36.8038 F350.00
G01 X27.4193 Y36.8231 F350.00
G01 X27.4265 Y36.8716 F350.00
G01 X27.4282 Y36.8863 F350.00
G01 X27.4311 Y36.9500 F350.00
G01 X27.4311 Y38.0026 F350.00
G01 X27.5322 Y38.0507 F350.00
G01 X27.6670 Y38.1312 F350.00
G01 X27.6834 Y38.1422 F350.00
G01 X27.8055 Y38.2328 F350.00
G01 X27.8168 Y38.2423 F350.00
G01 X27.9329 Y38.3479 F350.00
G01 X28.0418 Y38.4678 F350.00
G01 X28.0510 Y38.4793 F350.00
G01 X28.1444 Y38.6055 F350.00
G01 X28.2301 Y38.7486 F350.00
G01 X28.3015 Y38.8994 F350.00
G01 X28.3562 Y39.0518 F350.00
G01 X28.3603 Y39.0660 F350.00
G01 X28.3982 Y39.2183 F350.00
G01 X28.4215 Y39.3736 F350.00
G01 X28.4234 Y39.3932 F350.00
G01 X28.4306 Y39.5402 F350.00
G01 X28.4306 Y39.5598 F350.00
G01 X28.4227 Y39.7166 F350.00
G01 X28.3982 Y39.8817 F350.00
G01 X28.3577 Y40.0435 F350.00
G01 X28.3015 Y40.2006 F350.00
G01 X28.2301 Y40.3514 F350.00
G01 X28.1496 Y40.4862 F350.00
G01 X28.1387 Y40.5025 F350.00
G01 X28.0510 Y40.6207 F350.00
G01 X28.0386 Y40.6359 F350.00
G01 X27.9329 Y40.7521 F350.00
G01 X27.8093 Y40.8641 F350.00
G01 X27.6753 Y40.9635 F350.00
G01 X27.5365 Y41.0469 F350.00
G01 X27.5235 Y41.0537 F350.00
G01 X27.3814 Y41.1206 F350.00
G01 X27.2243 Y41.1768 F350.00
G01 X27.0625 Y41.2173 F350.00
G01 X26.8975 Y41.2418 F350.00
G01 X26.7309 Y41.2500 F350.00
G01 X26.5642 Y41.2418 F350.00
G01 X26.3992 Y41.2173 F350.00
G01 X26.2374 Y41.1768 F350.00
G01 X26.0803 Y41.1206 F350.00
G01 X25.9295 Y41.0493 F350.00
G01 X25.7864 Y40.9635 F350.00
G01 X25.6524 Y40.8641 F350.00
G01 X25.5288 Y40.7521 F350.00
G01 X25.4167 Y40.6285 F350.00
G01 X25.3174 Y40.4945 F350.00
G01 X25.2364 Y40.3599 F350.00
G01 X25.2293 Y40.3470 F350.00
G01 X25.1603 Y40.2006 F350.00
G01 X25.1041 Y40.0435 F350.00
G01 X25.0635 Y39.8817 F350.00
G01 X25.0390 Y39.7166 F350.00
G01 X25.0309 Y39.5500 F350.00
G01 X25.0390 Y39.3834 F350.00
G01 X25.0635 Y39.2183 F350.00
G01 X25.1014 Y39.0660 F350.00
G01 X25.1071 Y39.0472 F350.00
G01 X25.1603 Y38.8994 F350.00
G01 X25.2316 Y38.7486 F350.00
G01 X25.3174 Y38.6055 F350.00
G01 X25.4107 Y38.4793 F350.00
G01 X25.4199 Y38.4678 F350.00
G01 X25.5288 Y38.3479 F350.00
G01 X25.6450 Y38.2423 F350.00
G01 X25.6562 Y38.2328 F350.00
G01 X25.7784 Y38.1422 F350.00
G01 X25.7947 Y38.1312 F350.00
G01 X25.9295 Y38.0507 F350.00
G01 X26.0306 Y38.0026 F350.00
G01 X26.0306 Y37.2401 F350.00
G01 X22.9857 Y34.1952 F350.00
G01 X22.9460 Y34.1517 F350.00
G01 X22.9335 Y34.1365 F350.00
G01 X22.8986 Y34.0890 F350.00
G01 X22.8657 Y34.0344 F350.00
G01 X22.8589 Y34.0213 F350.00
G01 X22.8339 Y33.9680 F350.00
G01 X22.8138 Y33.9126 F350.00
G01 X22.8081 Y33.8938 F350.00
G01 X22.7941 Y33.8366 F350.00
G01 X22.7852 Y33.7784 F350.00
G01 X22.7833 Y33.7588 F350.00
G01 X22.7807 Y33.7049 F350.00
G01 X22.7806 Y31.5901 F350.00
G01 X19.6738 Y28.4833 F350.00
G01 X19.5985 Y28.4942 F350.00
G01 X19.4907 Y28.4998 F350.00
G01 X19.4710 Y28.4998 F350.00
G01 X19.3681 Y28.4946 F350.00
G01 X19.3535 Y28.4930 F350.00
G01 X19.2468 Y28.4769 F350.00
G01 X19.1420 Y28.4509 F350.00
G01 X19.1278 Y28.4468 F350.00
G01 X19.0308 Y28.4122 F350.00
G01 X19.0127 Y28.4047 F350.00
G01 X18.9152 Y28.3583 F350.00
G01 X18.8225 Y28.3030 F350.00
G01 X18.8062 Y28.2921 F350.00
G01 X18.7196 Y28.2276 F350.00
G01 X18.6323 Y28.1485 F350.00
G01 X18.5532 Y28.0613 F350.00
G01 X18.4887 Y27.9747 F350.00
G01 X18.4778 Y27.9584 F350.00
G01 X18.4226 Y27.8657 F350.00
G01 X18.3762 Y27.7682 F350.00
G01 X18.3687 Y27.7501 F350.00
G01 X18.3340 Y27.6530 F350.00
G01 X18.3299 Y27.6389 F350.00
G01 X18.3039 Y27.5341 F350.00
G01 X18.2866 Y27.4176 F350.00
G01 X18.2809 Y27.3049 F350.00
G01 X18.2809 Y27.0903 F350.00
G01 X16.1957 Y25.0052 F350.00
G01 X16.1560 Y24.9617 F350.00
G01 X16.1435 Y24.9465 F350.00
G01 X16.1086 Y24.8990 F350.00
G01 X16.0757 Y24.8444 F350.00
G01 X16.0689 Y24.8313 F350.00
G01 X16.0439 Y24.7780 F350.00
G01 X16.0238 Y24.7226 F350.00
G01 X16.0181 Y24.7038 F350.00
G01 X16.0041 Y24.6466 F350.00
G01 X15.9952 Y24.5884 F350.00
G01 X15.9933 Y24.5688 F350.00
G01 X15.9907 Y24.5149 F350.00
G01 X15.9906 Y20.7732 F350.00
G00 Z0.5000
G00 X14.8959 Y17.6000
G01 F250.00
G01 Z-0.0500
G01 F350.00
G01 X14.9155 Y17.6010 F350.00
G01 X14.9349 Y17.6038 F350.00
G01 X14.9539 Y17.6086 F350.00
G01 X14.9724 Y17.6152 F350.00
G01 X14.9901 Y17.6236 F350.00
G01 X15.0070 Y17.6337 F350.00
G01 X15.0189 Y17.6423 F350.00
G01 X15.0338 Y17.6552 F350.00
G01 X15.0473 Y17.6694 F350.00
G01 X15.0594 Y17.6848 F350.00
G01 X15.0699 Y17.7014 F350.00
G01 X15.0767 Y17.7145 F350.00
G01 X15.0842 Y17.7326 F350.00
G01 X15.0899 Y17.7514 F350.00
G01 X15.0937 Y17.7707 F350.00
G01 X15.0956 Y17.7902 F350.00
G01 X15.0959 Y20.8000 F350.00
G01 X15.0953 Y20.8147 F350.00
G01 X15.0937 Y20.8293 F350.00
G01 X15.0910 Y20.8438 F350.00
G01 X15.0872 Y20.8581 F350.00
G01 X15.0842 Y20.8674 F350.00
G01 X15.0787 Y20.8810 F350.00
G01 X15.0722 Y20.8943 F350.00
G01 X15.0648 Y20.9070 F350.00
G01 X15.0565 Y20.9191 F350.00
G01 X15.0505 Y20.9269 F350.00
G01 X15.0441 Y20.9343 F350.00
G01 X15.0338 Y20.9448 F350.00
G01 X15.0227 Y20.9546 F350.00
G01 X15.0150 Y20.9606 F350.00
G01 X15.0029 Y20.9690 F350.00
G01 X14.9944 Y20.9740 F350.00
G01 X14.9814 Y20.9808 F350.00
G01 X14.9724 Y20.9848 F350.00
G01 X14.9632 Y20.9883 F350.00
G01 X14.9492 Y20.9928 F350.00
G01 X14.9349 Y20.9962 F350.00
G01 X14.9252 Y20.9978 F350.00
G01 X14.9155 Y20.9990 F350.00
G01 X14.9008 Y20.9999 F350.00
G01 X12.8910 Y20.9999 F350.00
G01 X12.8763 Y20.9990 F350.00
G01 X12.8617 Y20.9971 F350.00
G01 X12.8473 Y20.9940 F350.00
G01 X12.8378 Y20.9914 F350.00
G01 X12.8239 Y20.9866 F350.00
G01 X12.8148 Y20.9828 F350.00
G01 X12.8016 Y20.9764 F350.00
G01 X12.7889 Y20.9690 F350.00
G01 X12.7807 Y20.9635 F350.00
G01 X12.7690 Y20.9546 F350.00
G01 X12.7580 Y20.9448 F350.00
G01 X12.7510 Y20.9379 F350.00
G01 X12.7444 Y20.9306 F350.00
G01 X12.7352 Y20.9191 F350.00
G01 X12.7269 Y20.9070 F350.00
G01 X12.7218 Y20.8986 F350.00
G01 X12.7151 Y20.8855 F350.00
G01 X12.7111 Y20.8765 F350.00
G01 X12.7076 Y20.8674 F350.00
G01 X12.7031 Y20.8533 F350.00
G01 X12.7007 Y20.8438 F350.00
G01 X12.6980 Y20.8293 F350.00
G01 X12.6968 Y20.8196 F350.00
G01 X12.6959 Y20.8049 F350.00
G01 X12.6959 Y17.8000 F350.00
G01 X12.6961 Y17.7902 F350.00
G01 X12.6974 Y17.7755 F350.00
G01 X12.6997 Y17.7610 F350.00
G01 X12.7031 Y17.7467 F350.00
G01 X12.7076 Y17.7326 F350.00
G01 X12.7130 Y17.7190 F350.00
G01 X12.7195 Y17.7057 F350.00
G01 X12.7269 Y17.6930 F350.00
G01 X12.7323 Y17.6848 F350.00
G01 X12.7413 Y17.6731 F350.00
G01 X12.7477 Y17.6657 F350.00
G01 X12.7580 Y17.6552 F350.00
G01 X12.7652 Y17.6486 F350.00
G01 X12.7767 Y17.6394 F350.00
G01 X12.7889 Y17.6310 F350.00
G01 X12.7973 Y17.6260 F350.00
G01 X12.8104 Y17.6192 F350.00
G01 X12.8193 Y17.6152 F350.00
G01 X12.8285 Y17.6117 F350.00
G01 X12.8425 Y17.6072 F350.00
G01 X12.8568 Y17.6038 F350.00
G01 X12.8665 Y17.6022 F350.00
G01 X12.8860 Y17.6002 F350.00
G01 X14.8959 Y17.6000 F350.00
G00 Z0.5000
G00 X20.2429 Y20.9865
G01 F250.00
G01 Z-0.0500
G01 F350.00
G01 X20.2535 Y21.0143 F350.00
G01 X20.2635 Y21.0369 F350.00
G01 X20.2270 Y21.0004 F350.00
G01 X20.2429 Y20.9865 F350.00
G00 Z0.5000
G00 X20.5339 Y21.3074
G01 F250.00
G01 Z-0.0500
G01 F350.00
G01 X20.5566 Y21.3174 F350.00
G01 X20.5693 Y21.3225 F350.00
G01 X20.5952 Y21.3317 F350.00
G01 X20.6215 Y21.3397 F350.00
G01 X20.6482 Y21.3464 F350.00
G01 X20.6751 Y21.3518 F350.00
G01 X20.7023 Y21.3558 F350.00
G01 X20.7160 Y21.3573 F350.00
G01 X20.7434 Y21.3593 F350.00
G01 X20.7709 Y21.3600 F350.00
G01 X22.7846 Y21.3598 F350.00
G01 X22.7983 Y21.3593 F350.00
G01 X22.8258 Y21.3573 F350.00
G01 X22.8530 Y21.3539 F350.00
G01 X22.8801 Y21.3492 F350.00
G01 X22.9069 Y21.3432 F350.00
G01 X22.9202 Y21.3397 F350.00
G01 X22.9465 Y21.3317 F350.00
G01 X22.9707 Y21.3231 F350.00
G01 X22.9709 Y22.0637 F350.00
G01 X22.9726 Y22.1020 F350.00
G01 X22.9746 Y22.1294 F350.00
G01 X22.9780 Y22.1567 F350.00
G01 X22.9838 Y22.1945 F350.00
G01 X22.9863 Y22.2080 F350.00
G01 X22.9923 Y22.2349 F350.00
G01 X23.0018 Y22.2720 F350.00
G01 X23.0098 Y22.2983 F350.00
G01 X23.0225 Y22.3344 F350.00
G01 X23.0324 Y22.3600 F350.00
G01 X23.0435 Y22.3851 F350.00
G01 X23.0601 Y22.4197 F350.00
G01 X23.0730 Y22.4439 F350.00
G01 X23.0926 Y22.4769 F350.00
G01 X23.0998 Y22.4886 F350.00
G01 X23.1150 Y22.5114 F350.00
G01 X23.1377 Y22.5423 F350.00
G01 X23.1546 Y22.5639 F350.00
G01 X23.1726 Y22.5848 F350.00
G01 X23.1984 Y22.6130 F350.00
G01 X39.4207 Y38.8356 F350.00
G01 X39.4207 Y46.2142 F350.00
G01 X35.8403 Y49.7899 F350.00
G01 X35.5114 Y49.7899 F350.00
G01 X35.5262 Y49.7483 F350.00
G01 X35.5341 Y49.7220 F350.00
G01 X35.5468 Y49.6715 F350.00
G01 X35.5521 Y49.6445 F350.00
G01 X35.5579 Y49.6067 F350.00
G01 X35.5613 Y49.5794 F350.00
G01 X35.5625 Y49.5657 F350.00
G01 X35.5645 Y49.5275 F350.00
G01 X35.5652 Y49.5000 F350.00
G01 X35.5652 Y36.6742 F350.00
G01 X35.5650 Y36.6605 F350.00
G01 X35.5633 Y36.6222 F350.00
G01 X35.5625 Y36.6085 F350.00
G01 X35.5598 Y36.5811 F350.00
G01 X35.5521 Y36.5297 F350.00
G01 X35.5496 Y36.5162 F350.00
G01 X35.5436 Y36.4893 F350.00
G01 X35.5341 Y36.4522 F350.00
G01 X35.5303 Y36.4390 F350.00
G01 X35.5217 Y36.4129 F350.00
G01 X35.5086 Y36.3770 F350.00
G01 X35.5035 Y36.3642 F350.00
G01 X35.4924 Y36.3391 F350.00
G01 X35.4759 Y36.3045 F350.00
G01 X35.4695 Y36.2923 F350.00
G01 X35.4560 Y36.2684 F350.00
G01 X35.4362 Y36.2357 F350.00
G01 X35.4287 Y36.2241 F350.00
G01 X35.4128 Y36.2017 F350.00
G01 X35.3899 Y36.1710 F350.00
G01 X35.3725 Y36.1498 F350.00
G01 X35.3469 Y36.1213 F350.00
G01 X35.3279 Y36.1014 F350.00
G01 X20.5339 Y21.3074 F350.00
G00 Z0.5000
G00 X22.7709 Y17.6000
G01 F250.00
G01 Z-0.0500
G01 F350.00
G01 X22.7905 Y17.6010 F350.00
G01 X22.8099 Y17.6038 F350.00
G01 X22.8289 Y17.6086 F350.00
G01 X22.8474 Y17.6152 F350.00
G01 X22.8651 Y17.6236 F350.00
G01 X22.8820 Y17.6337 F350.00
G01 X22.8939 Y17.6423 F350.00
G01 X22.9088 Y17.6552 F350.00
G01 X22.9223 Y17.6694 F350.00
G01 X22.9344 Y17.6848 F350.00
G01 X22.9449 Y17.7014 F350.00
G01 X22.9517 Y17.7145 F350.00
G01 X22.9592 Y17.7326 F350.00
G01 X22.9649 Y17.7514 F350.00
G01 X22.9687 Y17.7707 F350.00
G01 X22.9706 Y17.7902 F350.00
G01 X22.9709 Y20.8000 F350.00
G01 X22.9703 Y20.8147 F350.00
G01 X22.9694 Y20.8245 F350.00
G01 X22.9670 Y20.8390 F350.00
G01 X22.9636 Y20.8533 F350.00
G01 X22.9592 Y20.8674 F350.00
G01 X22.9537 Y20.8810 F350.00
G01 X22.9472 Y20.8943 F350.00
G01 X22.9398 Y20.9070 F350.00
G01 X22.9315 Y20.9191 F350.00
G01 X22.9255 Y20.9269 F350.00
G01 X22.9157 Y20.9379 F350.00
G01 X22.9088 Y20.9448 F350.00
G01 X22.8977 Y20.9546 F350.00
G01 X22.8900 Y20.9606 F350.00
G01 X22.8779 Y20.9690 F350.00
G01 X22.8694 Y20.9740 F350.00
G01 X22.8564 Y20.9808 F350.00
G01 X22.8474 Y20.9848 F350.00
G01 X22.8382 Y20.9883 F350.00
G01 X22.8242 Y20.9928 F350.00
G01 X22.8099 Y20.9962 F350.00
G01 X22.8002 Y20.9978 F350.00
G01 X22.7905 Y20.9990 F350.00
G01 X22.7758 Y20.9999 F350.00
G01 X20.7660 Y20.9999 F350.00
G01 X20.7513 Y20.9990 F350.00
G01 X20.7367 Y20.9971 F350.00
G01 X20.7223 Y20.9940 F350.00
G01 X20.7128 Y20.9914 F350.00
G01 X20.6989 Y20.9866 F350.00
G01 X20.6898 Y20.9828 F350.00
G01 X20.6766 Y20.9764 F350.00
G01 X20.6639 Y20.9690 F350.00
G01 X20.6557 Y20.9635 F350.00
G01 X20.6440 Y20.9546 F350.00
G01 X20.6330 Y20.9448 F350.00
G01 X20.6260 Y20.9379 F350.00
G01 X20.6163 Y20.9269 F350.00
G01 X20.6102 Y20.9191 F350.00
G01 X20.6046 Y20.9111 F350.00
G01 X20.5968 Y20.8986 F350.00
G01 X20.5922 Y20.8899 F350.00
G01 X20.5861 Y20.8765 F350.00
G01 X20.5826 Y20.8674 F350.00
G01 X20.5781 Y20.8533 F350.00
G01 X20.5757 Y20.8438 F350.00
G01 X20.5730 Y20.8293 F350.00
G01 X20.5714 Y20.8147 F350.00
G01 X20.5709 Y20.8049 F350.00
G01 X20.5709 Y17.8000 F350.00
G01 X20.5714 Y17.7853 F350.00
G01 X20.5730 Y17.7707 F350.00
G01 X20.5757 Y17.7562 F350.00
G01 X20.5795 Y17.7419 F350.00
G01 X20.5826 Y17.7326 F350.00
G01 X20.5880 Y17.7190 F350.00
G01 X20.5945 Y17.7057 F350.00
G01 X20.6019 Y17.6930 F350.00
G01 X20.6073 Y17.6848 F350.00
G01 X20.6163 Y17.6731 F350.00
G01 X20.6227 Y17.6657 F350.00
G01 X20.6330 Y17.6552 F350.00
G01 X20.6402 Y17.6486 F350.00
G01 X20.6517 Y17.6394 F350.00
G01 X20.6639 Y17.6310 F350.00
G01 X20.6723 Y17.6260 F350.00
G01 X20.6854 Y17.6192 F350.00
G01 X20.6943 Y17.6152 F350.00
G01 X20.7035 Y17.6117 F350.00
G01 X20.7175 Y17.6072 F350.00
G01 X20.7318 Y17.6038 F350.00
G01 X20.7415 Y17.6022 F350.00
G01 X20.7610 Y17.6002 F350.00
G01 X22.7709 Y17.6000 F350.00
G00 Z0.5000
G00 X21.7632 Y13.8101
G01 F250.00
G01 Z-0.0500
G01 F350.00
G01 X23.0453 Y13.8101 F350.00
G01 X24.6707 Y15.4356 F350.00
G01 X24.6709 Y20.8995 F350.00
G01 X24.6726 Y20.9378 F350.00
G01 X24.6746 Y20.9652 F350.00
G01 X24.6762 Y20.9789 F350.00
G01 X24.6816 Y21.0168 F350.00
G01 X24.6863 Y21.0438 F350.00
G01 X24.6923 Y21.0707 F350.00
G01 X24.7018 Y21.1078 F350.00
G01 X24.7098 Y21.1341 F350.00
G01 X24.7225 Y21.1702 F350.00
G01 X24.7324 Y21.1958 F350.00
G01 X24.7435 Y21.2209 F350.00
G01 X24.7601 Y21.2555 F350.00
G01 X24.7730 Y21.2797 F350.00
G01 X24.7926 Y21.3126 F350.00
G01 X24.8073 Y21.3359 F350.00
G01 X24.8231 Y21.3583 F350.00
G01 X24.8460 Y21.3890 F350.00
G01 X24.8546 Y21.3997 F350.00
G01 X24.8635 Y21.4102 F350.00
G01 X24.8891 Y21.4387 F350.00
G01 X24.9080 Y21.4586 F350.00
G01 X43.7957 Y40.3464 F350.00
G01 X43.7957 Y49.0894 F350.00
G01 X37.5920 Y55.2932 F350.00
G01 X37.5229 Y55.2168 F350.00
G01 X37.5039 Y55.1969 F350.00
G01 X37.4840 Y55.1780 F350.00
G01 X37.4113 Y55.1121 F350.00
G01 X37.3905 Y55.0941 F350.00
G01 X37.3688 Y55.0772 F350.00
G01 X37.2900 Y55.0187 F350.00
G01 X37.2676 Y55.0029 F350.00
G01 X37.2443 Y54.9882 F350.00
G01 X37.1602 Y54.9378 F350.00
G01 X37.1362 Y54.9242 F350.00
G01 X37.1117 Y54.9118 F350.00
G01 X37.0230 Y54.8699 F350.00
G01 X37.0105 Y54.8642 F350.00
G01 X36.9851 Y54.8536 F350.00
G01 X36.8798 Y54.8158 F350.00
G01 X36.8537 Y54.8072 F350.00
G01 X36.8272 Y54.7998 F350.00
G01 X36.7186 Y54.7728 F350.00
G01 X36.6917 Y54.7675 F350.00
G01 X36.6781 Y54.7653 F350.00
G01 X36.5810 Y54.7509 F350.00
G01 X36.5538 Y54.7475 F350.00
G01 X36.5264 Y54.7455 F350.00
G01 X36.4146 Y54.7402 F350.00
G01 X35.4009 Y54.7400 F350.00
G01 X35.3734 Y54.7407 F350.00
G01 X35.2754 Y54.7455 F350.00
G01 X35.2480 Y54.7475 F350.00
G01 X35.2207 Y54.7509 F350.00
G01 X35.1236 Y54.7653 F350.00
G01 X35.0965 Y54.7700 F350.00
G01 X35.0697 Y54.7760 F350.00
G01 X34.9745 Y54.7998 F350.00
G01 X34.9480 Y54.8072 F350.00
G01 X34.9219 Y54.8158 F350.00
G01 X34.8295 Y54.8489 F350.00
G01 X34.8039 Y54.8587 F350.00
G01 X34.7787 Y54.8699 F350.00
G01 X34.6900 Y54.9118 F350.00
G01 X34.6655 Y54.9242 F350.00
G01 X34.6416 Y54.9378 F350.00
G01 X34.5574 Y54.9882 F350.00
G01 X34.5342 Y55.0029 F350.00
G01 X34.5117 Y55.0187 F350.00
G01 X34.4329 Y55.0772 F350.00
G01 X34.4112 Y55.0941 F350.00
G01 X34.3904 Y55.1121 F350.00
G01 X34.3177 Y55.1780 F350.00
G01 X34.2978 Y55.1969 F350.00
G01 X34.2788 Y55.2168 F350.00
G01 X34.2129 Y55.2895 F350.00
G01 X34.1950 Y55.3103 F350.00
G01 X34.1781 Y55.3320 F350.00
G01 X34.1196 Y55.4108 F350.00
G01 X34.1038 Y55.4333 F350.00
G01 X34.0891 Y55.4565 F350.00
G01 X34.0386 Y55.5407 F350.00
G01 X34.0251 Y55.5646 F350.00
G01 X34.0127 Y55.5892 F350.00
G01 X33.9707 Y55.6779 F350.00
G01 X33.9596 Y55.7030 F350.00
G01 X33.9497 Y55.7287 F350.00
G01 X33.9122 Y55.8341 F350.00
G01 X33.9080 Y55.8472 F350.00
G01 X33.9007 Y55.8736 F350.00
G01 X33.8769 Y55.9688 F350.00
G01 X33.8708 Y55.9957 F350.00
G01 X33.8661 Y56.0227 F350.00
G01 X33.8517 Y56.1198 F350.00
G01 X33.8484 Y56.1471 F350.00
G01 X33.8464 Y56.1745 F350.00
G01 X33.8410 Y56.2863 F350.00
G01 X33.8410 Y56.3137 F350.00
G01 X33.8415 Y56.3275 F350.00
G01 X33.8464 Y56.4255 F350.00
G01 X33.8484 Y56.4529 F350.00
G01 X33.8517 Y56.4802 F350.00
G01 X33.8661 Y56.5773 F350.00
G01 X33.8708 Y56.6043 F350.00
G01 X33.8769 Y56.6312 F350.00
G01 X33.9007 Y56.7264 F350.00
G01 X33.9080 Y56.7528 F350.00
G01 X33.9167 Y56.7789 F350.00
G01 X33.9497 Y56.8713 F350.00
G01 X33.9596 Y56.8970 F350.00
G01 X33.9707 Y56.9221 F350.00
G01 X34.0127 Y57.0108 F350.00
G01 X34.0251 Y57.0354 F350.00
G01 X34.0386 Y57.0593 F350.00
G01 X34.0891 Y57.1435 F350.00
G01 X34.1038 Y57.1667 F350.00
G01 X34.1196 Y57.1892 F350.00
G01 X34.1864 Y57.2789 F350.00
G01 X34.2038 Y57.3002 F350.00
G01 X34.2129 Y57.3105 F350.00
G01 X34.2788 Y57.3832 F350.00
G01 X34.2978 Y57.4031 F350.00
G01 X34.3177 Y57.4220 F350.00
G01 X34.3904 Y57.4879 F350.00
G01 X34.4112 Y57.5059 F350.00
G01 X34.4329 Y57.5228 F350.00
G01 X34.5117 Y57.5813 F350.00
G01 X34.5342 Y57.5971 F350.00
G01 X34.5574 Y57.6118 F350.00
G01 X34.6534 Y57.6692 F350.00
G01 X34.6655 Y57.6758 F350.00
G01 X34.6900 Y57.6882 F350.00
G01 X34.7787 Y57.7301 F350.00
G01 X34.8039 Y57.7413 F350.00
G01 X34.8295 Y57.7511 F350.00
G01 X34.9219 Y57.7842 F350.00
G01 X34.9480 Y57.7928 F350.00
G01 X34.9745 Y57.8002 F350.00
G01 X35.0697 Y57.8240 F350.00
G01 X35.0965 Y57.8300 F350.00
G01 X35.1236 Y57.8347 F350.00
G01 X35.2207 Y57.8491 F350.00
G01 X35.2480 Y57.8525 F350.00
G01 X35.2754 Y57.8545 F350.00
G01 X35.3734 Y57.8593 F350.00
G01 X35.4009 Y57.8600 F350.00
G01 X36.4009 Y57.8600 F350.00
G01 X36.4283 Y57.8593 F350.00
G01 X36.5264 Y57.8545 F350.00
G01 X36.5538 Y57.8525 F350.00
G01 X36.5810 Y57.8491 F350.00
G01 X36.6781 Y57.8347 F350.00
G01 X36.7052 Y57.8300 F350.00
G01 X36.7320 Y57.8240 F350.00
G01 X36.8272 Y57.8002 F350.00
G01 X36.8537 Y57.7928 F350.00
G01 X36.8798 Y57.7842 F350.00
G01 X36.9722 Y57.7511 F350.00
G01 X36.9978 Y57.7413 F350.00
G01 X37.0230 Y57.7301 F350.00
G01 X37.1221 Y57.6831 F350.00
G01 X36.3152 Y58.4900 F350.00
G01 X35.4009 Y58.4900 F350.00
G01 X35.3734 Y58.4907 F350.00
G01 X35.2754 Y58.4955 F350.00
G01 X35.2480 Y58.4975 F350.00
G01 X35.2207 Y58.5009 F350.00
G01 X35.1236 Y58.5153 F350.00
G01 X35.0965 Y58.5200 F350.00
G01 X35.0697 Y58.5260 F350.00
G01 X34.9745 Y58.5498 F350.00
G01 X34.9480 Y58.5572 F350.00
G01 X34.9349 Y58.5613 F350.00
G01 X34.8295 Y58.5989 F350.00
G01 X34.8039 Y58.6087 F350.00
G01 X34.7912 Y58.6142 F350.00
G01 X34.6777 Y58.6679 F350.00
G01 X34.6655 Y58.6742 F350.00
G01 X34.6416 Y58.6878 F350.00
G01 X34.5457 Y58.7454 F350.00
G01 X34.5228 Y58.7607 F350.00
G01 X34.5117 Y58.7687 F350.00
G01 X34.4329 Y58.8272 F350.00
G01 X34.4112 Y58.8441 F350.00
G01 X34.3904 Y58.8621 F350.00
G01 X34.3177 Y58.9280 F350.00
G01 X34.2978 Y58.9469 F350.00
G01 X34.2788 Y58.9668 F350.00
G01 X34.2129 Y59.0395 F350.00
G01 X34.1950 Y59.0603 F350.00
G01 X34.1781 Y59.0820 F350.00
G01 X34.1115 Y59.1720 F350.00
G01 X34.0963 Y59.1948 F350.00
G01 X34.0891 Y59.2065 F350.00
G01 X34.0386 Y59.2907 F350.00
G01 X34.0251 Y59.3146 F350.00
G01 X34.0127 Y59.3392 F350.00
G01 X33.9650 Y59.4404 F350.00
G01 X33.9545 Y59.4658 F350.00
G01 X33.9497 Y59.4787 F350.00
G01 X33.9167 Y59.5711 F350.00
G01 X33.9080 Y59.5972 F350.00
G01 X33.9007 Y59.6236 F350.00
G01 X33.8769 Y59.7188 F350.00
G01 X33.8708 Y59.7457 F350.00
G01 X33.8661 Y59.7727 F350.00
G01 X33.8517 Y59.8698 F350.00
G01 X33.8484 Y59.8971 F350.00
G01 X33.8464 Y59.9245 F350.00
G01 X33.8415 Y60.0225 F350.00
G01 X33.8409 Y60.0500 F350.00
G01 X33.8415 Y60.0775 F350.00
G01 X33.8464 Y60.1755 F350.00
G01 X33.8484 Y60.2029 F350.00
G01 X33.8517 Y60.2302 F350.00
G01 X33.8661 Y60.3273 F350.00
G01 X33.8708 Y60.3543 F350.00
G01 X33.8769 Y60.3812 F350.00
G01 X33.9007 Y60.4764 F350.00
G01 X33.9080 Y60.5028 F350.00
G01 X33.9167 Y60.5289 F350.00
G01 X33.9497 Y60.6213 F350.00
G01 X33.9596 Y60.6470 F350.00
G01 X33.9707 Y60.6721 F350.00
G01 X34.0127 Y60.7608 F350.00
G01 X34.0251 Y60.7854 F350.00
G01 X34.0386 Y60.8093 F350.00
G01 X34.0891 Y60.8935 F350.00
G01 X34.1038 Y60.9167 F350.00
G01 X34.1196 Y60.9392 F350.00
G01 X34.1781 Y61.0180 F350.00
G01 X34.1950 Y61.0397 F350.00
G01 X34.2129 Y61.0605 F350.00
G01 X34.2788 Y61.1332 F350.00
G01 X34.2978 Y61.1531 F350.00
G01 X34.3177 Y61.1720 F350.00
G01 X34.3904 Y61.2379 F350.00
G01 X34.4112 Y61.2559 F350.00
G01 X34.4329 Y61.2728 F350.00
G01 X34.5117 Y61.3313 F350.00
G01 X34.5342 Y61.3471 F350.00
G01 X34.5574 Y61.3618 F350.00
G01 X34.6416 Y61.4122 F350.00
G01 X34.6655 Y61.4258 F350.00
G01 X34.6900 Y61.4382 F350.00
G01 X34.7787 Y61.4801 F350.00
G01 X34.8039 Y61.4913 F350.00
G01 X34.8295 Y61.5011 F350.00
G01 X34.9219 Y61.5342 F350.00
G01 X34.9480 Y61.5428 F350.00
G01 X34.9745 Y61.5502 F350.00
G01 X35.0697 Y61.5740 F350.00
G01 X35.0907 Y61.5788 F350.00
G01 X35.0907 Y65.7000 F350.00
G01 X35.0909 Y65.7137 F350.00
G01 X35.0926 Y65.7520 F350.00
G01 X35.0935 Y65.7657 F350.00
G01 X35.0962 Y65.7931 F350.00
G01 X35.1038 Y65.8445 F350.00
G01 X35.1091 Y65.8715 F350.00
G01 X35.1136 Y65.8899 F350.00
G01 X28.2164 Y65.8899 F350.00
G01 X23.2910 Y60.9644 F350.00
G01 X23.2910 Y53.0498 F350.00
G01 X23.6758 Y52.6649 F350.00
G01 X23.6772 Y52.6892 F350.00
G01 X23.6799 Y52.7166 F350.00
G01 X23.6961 Y52.8273 F350.00
G01 X23.7008 Y52.8543 F350.00
G01 X23.7069 Y52.8812 F350.00
G01 X23.7307 Y52.9764 F350.00
G01 X23.7380 Y53.0028 F350.00
G01 X23.7422 Y53.0159 F350.00
G01 X23.7845 Y53.1342 F350.00
G01 X23.7896 Y53.1470 F350.00
G01 X23.8007 Y53.1721 F350.00
G01 X23.8427 Y53.2608 F350.00
G01 X23.8551 Y53.2854 F350.00
G01 X23.8686 Y53.3093 F350.00
G01 X23.9191 Y53.3935 F350.00
G01 X23.9338 Y53.4167 F350.00
G01 X23.9496 Y53.4392 F350.00
G01 X24.0081 Y53.5180 F350.00
G01 X24.0250 Y53.5397 F350.00
G01 X24.0429 Y53.5605 F350.00
G01 X24.1088 Y53.6332 F350.00
G01 X24.1182 Y53.6432 F350.00
G01 X24.1376 Y53.6627 F350.00
G01 X24.2204 Y53.7379 F350.00
G01 X24.2307 Y53.7470 F350.00
G01 X24.2519 Y53.7645 F350.00
G01 X24.3528 Y53.8393 F350.00
G01 X24.3757 Y53.8546 F350.00
G01 X24.4205 Y53.8816 F350.00
G01 X24.4205 Y54.9744 F350.00
G01 X24.3857 Y54.9954 F350.00
G01 X24.3628 Y55.0107 F350.00
G01 X24.2619 Y55.0855 F350.00
G01 X24.2512 Y55.0941 F350.00
G01 X24.2304 Y55.1121 F350.00
G01 X24.1577 Y55.1780 F350.00
G01 X24.1378 Y55.1969 F350.00
G01 X24.1282 Y55.2068 F350.00
G01 X24.0438 Y55.2998 F350.00
G01 X24.0264 Y55.3211 F350.00
G01 X24.0181 Y55.3320 F350.00
G01 X23.9596 Y55.4108 F350.00
G01 X23.9438 Y55.4333 F350.00
G01 X23.9291 Y55.4565 F350.00
G01 X23.8717 Y55.5526 F350.00
G01 X23.8651 Y55.5646 F350.00
G01 X23.8527 Y55.5892 F350.00
G01 X23.8107 Y55.6779 F350.00
G01 X23.7996 Y55.7030 F350.00
G01 X23.7897 Y55.7287 F350.00
G01 X23.7567 Y55.8211 F350.00
G01 X23.7480 Y55.8472 F350.00
G01 X23.7407 Y55.8736 F350.00
G01 X23.7169 Y55.9688 F350.00
G01 X23.7108 Y55.9957 F350.00
G01 X23.7061 Y56.0227 F350.00
G01 X23.6917 Y56.1198 F350.00
G01 X23.6884 Y56.1471 F350.00
G01 X23.6864 Y56.1745 F350.00
G01 X23.6815 Y56.2725 F350.00
G01 X23.6809 Y56.3000 F350.00
G01 X23.6815 Y56.3275 F350.00
G01 X23.6864 Y56.4255 F350.00
G01 X23.6884 Y56.4529 F350.00
G01 X23.6917 Y56.4802 F350.00
G01 X23.7061 Y56.5773 F350.00
G01 X23.7108 Y56.6043 F350.00
G01 X23.7169 Y56.6312 F350.00
G01 X23.7407 Y56.7264 F350.00
G01 X23.7480 Y56.7528 F350.00
G01 X23.7567 Y56.7789 F350.00
G01 X23.7897 Y56.8713 F350.00
G01 X23.7996 Y56.8970 F350.00
G01 X23.8107 Y56.9221 F350.00
G01 X23.8527 Y57.0108 F350.00
G01 X23.8587 Y57.0232 F350.00
G01 X23.8717 Y57.0474 F350.00
G01 X23.9363 Y57.1552 F350.00
G01 X23.9515 Y57.1780 F350.00
G01 X23.9596 Y57.1892 F350.00
G01 X24.0181 Y57.2680 F350.00
G01 X24.0350 Y57.2897 F350.00
G01 X24.0529 Y57.3105 F350.00
G01 X24.1282 Y57.3932 F350.00
G01 X24.1476 Y57.4127 F350.00
G01 X24.1577 Y57.4220 F350.00
G01 X24.2304 Y57.4879 F350.00
G01 X24.2512 Y57.5059 F350.00
G01 X24.2619 Y57.5145 F350.00
G01 X24.3628 Y57.5893 F350.00
G01 X24.3857 Y57.6046 F350.00
G01 X24.4205 Y57.6256 F350.00
G01 X24.4205 Y58.7244 F350.00
G01 X24.3857 Y58.7454 F350.00
G01 X24.3628 Y58.7607 F350.00
G01 X24.2729 Y58.8272 F350.00
G01 X24.2512 Y58.8441 F350.00
G01 X24.2407 Y58.8530 F350.00
G01 X24.1577 Y58.9280 F350.00
G01 X24.1378 Y58.9469 F350.00
G01 X24.1188 Y58.9668 F350.00
G01 X24.0438 Y59.0498 F350.00
G01 X24.0264 Y59.0711 F350.00
G01 X24.0181 Y59.0820 F350.00
G01 X23.9596 Y59.1608 F350.00
G01 X23.9438 Y59.1833 F350.00
G01 X23.9291 Y59.2065 F350.00
G01 X23.8786 Y59.2907 F350.00
G01 X23.8651 Y59.3146 F350.00
G01 X23.8527 Y59.3392 F350.00
G01 X23.8050 Y59.4404 F350.00
G01 X23.7996 Y59.4530 F350.00
G01 X23.7897 Y59.4787 F350.00
G01 X23.7567 Y59.5711 F350.00
G01 X23.7480 Y59.5972 F350.00
G01 X23.7407 Y59.6236 F350.00
G01 X23.7169 Y59.7188 F350.00
G01 X23.7108 Y59.7457 F350.00
G01 X23.7061 Y59.7727 F350.00
G01 X23.6917 Y59.8698 F350.00
G01 X23.6884 Y59.8971 F350.00
G01 X23.6864 Y59.9245 F350.00
G01 X23.6815 Y60.0225 F350.00
G01 X23.6809 Y60.0500 F350.00
G01 X23.6815 Y60.0775 F350.00
G01 X23.6864 Y60.1755 F350.00
G01 X23.6884 Y60.2029 F350.00
G01 X23.6917 Y60.2302 F350.00
G01 X23.7061 Y60.3273 F350.00
G01 X23.7083 Y60.3408 F350.00
G01 X23.7137 Y60.3678 F350.00
G01 X23.7407 Y60.4764 F350.00
G01 X23.7480 Y60.5028 F350.00
G01 X23.7567 Y60.5289 F350.00
G01 X23.7945 Y60.6342 F350.00
G01 X23.8050 Y60.6596 F350.00
G01 X23.8107 Y60.6721 F350.00
G01 X23.8527 Y60.7608 F350.00
G01 X23.8651 Y60.7854 F350.00
G01 X23.8786 Y60.8093 F350.00
G01 X23.9291 Y60.8935 F350.00
G01 X23.9438 Y60.9167 F350.00
G01 X23.9596 Y60.9392 F350.00
G01 X24.0181 Y61.0180 F350.00
G01 X24.0350 Y61.0397 F350.00
G01 X24.0529 Y61.0605 F350.00
G01 X24.1188 Y61.1332 F350.00
G01 X24.1378 Y61.1531 F350.00
G01 X24.1577 Y61.1720 F350.00
G01 X24.2407 Y61.2470 F350.00
G01 X24.2512 Y61.2559 F350.00
G01 X24.2729 Y61.2728 F350.00
G01 X24.3517 Y61.3313 F350.00
G01 X24.3742 Y61.3471 F350.00
G01 X24.3974 Y61.3618 F350.00
G01 X24.4816 Y61.4122 F350.00
G01 X24.5055 Y61.4258 F350.00
G01 X24.5300 Y61.4382 F350.00
G01 X24.6187 Y61.4801 F350.00
G01 X24.6439 Y61.4913 F350.00
G01 X24.6695 Y61.5011 F350.00
G01 X24.7619 Y61.5342 F350.00
G01 X24.7880 Y61.5428 F350.00
G01 X24.8145 Y61.5502 F350.00
G01 X24.9097 Y61.5740 F350.00
G01 X24.9365 Y61.5800 F350.00
G01 X24.9500 Y61.5825 F350.00
G01 X25.0607 Y61.5991 F350.00
G01 X25.0880 Y61.6025 F350.00
G01 X25.1154 Y61.6045 F350.00
G01 X25.2134 Y61.6093 F350.00
G01 X25.2409 Y61.6100 F350.00
G01 X26.2409 Y61.6100 F350.00
G01 X26.2683 Y61.6093 F350.00
G01 X26.3801 Y61.6037 F350.00
G01 X26.3938 Y61.6025 F350.00
G01 X26.4210 Y61.5991 F350.00
G01 X26.5181 Y61.5847 F350.00
G01 X26.5452 Y61.5800 F350.00
G01 X26.5720 Y61.5740 F350.00
G01 X26.6672 Y61.5502 F350.00
G01 X26.6805 Y61.5467 F350.00
G01 X26.7068 Y61.5387 F350.00
G01 X26.8122 Y61.5011 F350.00
G01 X26.8378 Y61.4913 F350.00
G01 X26.8630 Y61.4801 F350.00
G01 X26.9517 Y61.4382 F350.00
G01 X26.9762 Y61.4258 F350.00
G01 X27.0002 Y61.4122 F350.00
G01 X27.0843 Y61.3618 F350.00
G01 X27.1076 Y61.3471 F350.00
G01 X27.1189 Y61.3393 F350.00
G01 X27.2088 Y61.2728 F350.00
G01 X27.2305 Y61.2559 F350.00
G01 X27.2513 Y61.2379 F350.00
G01 X27.3240 Y61.1720 F350.00
G01 X27.3439 Y61.1531 F350.00
G01 X27.3629 Y61.1332 F350.00
G01 X27.4288 Y61.0605 F350.00
G01 X27.4468 Y61.0397 F350.00
G01 X27.4637 Y61.0180 F350.00
G01 X27.5221 Y60.9392 F350.00
G01 X27.5380 Y60.9167 F350.00
G01 X27.5527 Y60.8935 F350.00
G01 X27.6031 Y60.8093 F350.00
G01 X27.6167 Y60.7854 F350.00
G01 X27.6290 Y60.7608 F350.00
G01 X27.6710 Y60.6721 F350.00
G01 X27.6821 Y60.6470 F350.00
G01 X27.6920 Y60.6213 F350.00
G01 X27.7251 Y60.5289 F350.00
G01 X27.7337 Y60.5028 F350.00
G01 X27.7375 Y60.4896 F350.00
G01 X27.7680 Y60.3678 F350.00
G01 X27.7709 Y60.3543 F350.00
G01 X27.7756 Y60.3273 F350.00
G01 X27.7900 Y60.2302 F350.00
G01 X27.7933 Y60.2029 F350.00
G01 X27.7954 Y60.1755 F350.00
G01 X27.8002 Y60.0775 F350.00
G01 X27.8009 Y60.0500 F350.00
G01 X27.8002 Y60.0225 F350.00
G01 X27.7954 Y59.9245 F350.00
G01 X27.7933 Y59.8971 F350.00
G01 X27.7900 Y59.8698 F350.00
G01 X27.7756 Y59.7727 F350.00
G01 X27.7709 Y59.7457 F350.00
G01 X27.7649 Y59.7188 F350.00
G01 X27.7410 Y59.6236 F350.00
G01 X27.7337 Y59.5972 F350.00
G01 X27.7251 Y59.5711 F350.00
G01 X27.6920 Y59.4787 F350.00
G01 X27.6821 Y59.4530 F350.00
G01 X27.6767 Y59.4404 F350.00
G01 X27.6290 Y59.3392 F350.00
G01 X27.6167 Y59.3146 F350.00
G01 X27.6031 Y59.2907 F350.00
G01 X27.5527 Y59.2065 F350.00
G01 X27.5380 Y59.1833 F350.00
G01 X27.5221 Y59.1608 F350.00
G01 X27.4637 Y59.0820 F350.00
G01 X27.4468 Y59.0603 F350.00
G01 X27.4379 Y59.0498 F350.00
G01 X27.3629 Y58.9668 F350.00
G01 X27.3439 Y58.9469 F350.00
G01 X27.3240 Y58.9280 F350.00
G01 X27.2410 Y58.8530 F350.00
G01 X27.2198 Y58.8355 F350.00
G01 X27.2088 Y58.8272 F350.00
G01 X27.1189 Y58.7607 F350.00
G01 X27.0960 Y58.7454 F350.00
G01 X27.0412 Y58.7124 F350.00
G01 X27.0412 Y57.6376 F350.00
G01 X27.0960 Y57.6046 F350.00
G01 X27.1189 Y57.5893 F350.00
G01 X27.2198 Y57.5145 F350.00
G01 X27.2410 Y57.4970 F350.00
G01 X27.2513 Y57.4879 F350.00
G01 X27.3240 Y57.4220 F350.00
G01 X27.3341 Y57.4127 F350.00
G01 X27.3535 Y57.3932 F350.00
G01 X27.4379 Y57.3002 F350.00
G01 X27.4468 Y57.2897 F350.00
G01 X27.4637 Y57.2680 F350.00
G01 X27.5221 Y57.1892 F350.00
G01 X27.5380 Y57.1667 F350.00
G01 X27.5527 Y57.1435 F350.00
G01 X27.6100 Y57.0474 F350.00
G01 X27.6167 Y57.0354 F350.00
G01 X27.6290 Y57.0108 F350.00
G01 X27.6710 Y56.9221 F350.00
G01 X27.6821 Y56.8970 F350.00
G01 X27.6920 Y56.8713 F350.00
G01 X27.7251 Y56.7789 F350.00
G01 X27.7337 Y56.7528 F350.00
G01 X27.7410 Y56.7264 F350.00
G01 X27.7649 Y56.6312 F350.00
G01 X27.7709 Y56.6043 F350.00
G01 X27.7756 Y56.5773 F350.00
G01 X27.7900 Y56.4802 F350.00
G01 X27.7918 Y56.4666 F350.00
G01 X27.7945 Y56.4392 F350.00
G01 X27.8007 Y56.3137 F350.00
G01 X27.8007 Y56.2863 F350.00
G01 X27.8002 Y56.2725 F350.00
G01 X27.7954 Y56.1745 F350.00
G01 X27.7945 Y56.1608 F350.00
G01 X27.7918 Y56.1334 F350.00
G01 X27.7756 Y56.0227 F350.00
G01 X27.7709 Y55.9957 F350.00
G01 X27.7649 Y55.9688 F350.00
G01 X27.7410 Y55.8736 F350.00
G01 X27.7337 Y55.8472 F350.00
G01 X27.7251 Y55.8211 F350.00
G01 X27.6920 Y55.7287 F350.00
G01 X27.6821 Y55.7030 F350.00
G01 X27.6710 Y55.6779 F350.00
G01 X27.6290 Y55.5892 F350.00
G01 X27.6230 Y55.5768 F350.00
G01 X27.6100 Y55.5526 F350.00
G01 X27.5454 Y55.4448 F350.00
G01 X27.5380 Y55.4333 F350.00
G01 X27.5221 Y55.4108 F350.00
G01 X27.4637 Y55.3320 F350.00
G01 X27.4468 Y55.3103 F350.00
G01 X27.4288 Y55.2895 F350.00
G01 X27.3535 Y55.2068 F350.00
G01 X27.3341 Y55.1873 F350.00
G01 X27.3240 Y55.1780 F350.00
G01 X27.2513 Y55.1121 F350.00
G01 X27.2410 Y55.1030 F350.00
G01 X27.2198 Y55.0855 F350.00
G01 X27.1189 Y55.0107 F350.00
G01 X27.0960 Y54.9954 F350.00
G01 X27.0412 Y54.9624 F350.00
G01 X27.0412 Y53.8816 F350.00
G01 X27.0860 Y53.8546 F350.00
G01 X27.1089 Y53.8393 F350.00
G01 X27.2098 Y53.7645 F350.00
G01 X27.2205 Y53.7559 F350.00
G01 X27.2413 Y53.7379 F350.00
G01 X27.3241 Y53.6627 F350.00
G01 X27.3435 Y53.6432 F350.00
G01 X27.3529 Y53.6332 F350.00
G01 X27.4188 Y53.5605 F350.00
G01 X27.4368 Y53.5397 F350.00
G01 X27.4537 Y53.5180 F350.00
G01 X27.5121 Y53.4392 F350.00
G01 X27.5280 Y53.4167 F350.00
G01 X27.5354 Y53.4052 F350.00
G01 X27.6000 Y53.2974 F350.00
G01 X27.6067 Y53.2854 F350.00
G01 X27.6190 Y53.2608 F350.00
G01 X27.6610 Y53.1721 F350.00
G01 X27.6721 Y53.1470 F350.00
G01 X27.6820 Y53.1213 F350.00
G01 X27.7151 Y53.0289 F350.00
G01 X27.7237 Y53.0028 F350.00
G01 X27.7310 Y52.9764 F350.00
G01 X27.7549 Y52.8812 F350.00
G01 X27.7609 Y52.8543 F350.00
G01 X27.7656 Y52.8273 F350.00
G01 X27.7800 Y52.7302 F350.00
G01 X27.7818 Y52.7166 F350.00
G01 X27.7845 Y52.6892 F350.00
G01 X27.7902 Y52.5775 F350.00
G01 X27.7907 Y52.5637 F350.00
G01 X27.7907 Y52.5363 F350.00
G01 X27.7845 Y52.4108 F350.00
G01 X27.7818 Y52.3834 F350.00
G01 X27.7800 Y52.3698 F350.00
G01 X27.7656 Y52.2727 F350.00
G01 X27.7609 Y52.2457 F350.00
G01 X27.7549 Y52.2188 F350.00
G01 X27.7310 Y52.1236 F350.00
G01 X27.7237 Y52.0972 F350.00
G01 X27.7195 Y52.0841 F350.00
G01 X27.6772 Y51.9658 F350.00
G01 X27.6667 Y51.9404 F350.00
