(G-CODE GENERATED BY FLATCAM v8.994 - www.flatcam.org - Version Date: 2020/11/7)

(Name: CORNER_HOLES_cnc)
(Type: G-code from Geometry)
(Units: MM)

(Created on Friday, 26 June 2026 at 04:54)

(This preprocessor is used with a motion controller loaded with GRBL firmware.)
(It is configured to be compatible with almost any version of GRBL firmware.)


(TOOLS DIAMETER: )
(Tool: 1 -> Dia: 3.175)

(FEEDRATE Z: )
(Tool: 1 -> Feedrate: 300)

(FEEDRATE RAPIDS: )
(Tool: 1 -> Feedrate Rapids: 1500)

(Z_CUT: )
(Tool: 1 -> Z_Cut: -9.0)

(Tools Offset: )
(Tool: 1 -> Offset Z: 0.0)

(Z_MOVE: )
(Tool: 1 -> Z_Move: 2)

(Z Toolchange: 40.0 mm)
(X,Y Toolchange: 0.0000, 0.0000 mm)
(Z Start: None mm)
(Z End: 40.0 mm)
(X,Y End: None mm)
(Steps per circle: 64)
(Steps per circle: 64)
(Preprocessor Excellon: grbl_11)

(X range:   -1.5876 ...  133.0684  mm)
(Y range:   -1.5875 ...   67.3875  mm)

(Spindle Speed: 0 RPM)
G21
G90
G17
G94


G01 F300.00

M5             
G00 Z40.0000
G00 X0.0000 Y0.0000                
T1
M6
(MSG, Change to Tool Dia = 3.1750 ||| Total drills for tool T1 = 4)
M0
G00 Z40.0000

G01 F300.00
M03
G00 X131.4809 Y65.8000
G01 Z-9.0000
G01 Z0
G00 Z2.0000
G00 X131.4809 Y0.0000
G01 Z-9.0000
G01 Z0
G00 Z2.0000
G00 X-0.0001 Y0.0000
G01 Z-9.0000
G01 Z0
G00 Z2.0000
G00 X-0.0001 Y65.8000
G01 Z-9.0000
G01 Z0
G00 Z2.0000
M05
G00 Z40.00


