(G-CODE GENERATED BY FLATCAM v8.994 - www.flatcam.org - Version Date: 2020/11/7)

(Name: Buzzer PCB-F_Cu.gbr_ncc_cnc)
(Type: G-code from Geometry)
(Units: MM)

(Created on Thursday, 25 June 2026 at 18:53)


G01 F350.00

M5             
G00 Z40.0000
G00 X0.0000 Y0.0000                
T1
M6
(MSG, Change to Tool Dia = 2.0000)
M0
G00 Z40.0000

M03
G01 F350.00
G00 X2.0205 Y1.4003
G01 F250.00
G01 Z-0.0500
G01 F350.00
G01 X2.6342 Y1.4003 F350.00
G00 Z0.5000
G00 X2.5890 Y1.6649
G01 F250.00
G01 Z-0.0500
G01 F350.00
G01 X2.5917 Y1.6405 F350.00
G01 X2.5950 Y1.6162 F350.00
G01 X2.6104 Y1.5143 F350.00
G01 X2.6226 Y1.4516 F350.00
G01 X2.6277 Y1.4276 F350.00
G01 X2.6333 Y1.4038 F350.00
G01 X2.6587 Y1.3039 F350.00
G01 X2.6769 Y1.2427 F350.00
G01 X2.6843 Y1.2193 F350.00
G01 X2.6923 Y1.1961 F350.00
G01 X2.7273 Y1.0992 F350.00
G01 X2.7514 Y1.0401 F350.00
G01 X2.7611 Y1.0176 F350.00
G01 X2.7713 Y0.9953 F350.00
G01 X2.8156 Y0.9022 F350.00
G01 X2.8455 Y0.8458 F350.00
G01 X2.8573 Y0.8243 F350.00
G01 X2.8696 Y0.8031 F350.00
G01 X2.9229 Y0.7149 F350.00
G01 X2.9581 Y0.6617 F350.00
G01 X2.9720 Y0.6415 F350.00
G01 X2.9863 Y0.6216 F350.00
G01 X3.0480 Y0.5390 F350.00
G01 X3.0882 Y0.4895 F350.00
G01 X3.1040 Y0.4707 F350.00
G01 X3.1203 Y0.4523 F350.00
G01 X3.1897 Y0.3762 F350.00
G01 X3.2346 Y0.3308 F350.00
G01 X3.2522 Y0.3137 F350.00
G01 X3.2701 Y0.2970 F350.00
G01 X3.3467 Y0.2280 F350.00
G01 X3.3958 Y0.1873 F350.00
G01 X3.4150 Y0.1720 F350.00
G01 X3.4345 Y0.1571 F350.00
G01 X3.5175 Y0.0960 F350.00
G01 X3.5703 Y0.0603 F350.00
G01 X3.5909 Y0.0469 F350.00
G01 X3.6118 Y0.0340 F350.00
G01 X3.7003 Y-0.0187 F350.00
G01 X3.7565 Y-0.0491 F350.00
G01 X3.7782 Y-0.0604 F350.00
G01 X3.8003 Y-0.0711 F350.00
G01 X3.8713 Y-0.1047 F350.00
G01 X3.8936 Y-0.1149 F350.00
G01 X3.9161 Y-0.1246 F350.00
G01 X3.9752 Y-0.1487 F350.00
G01 X4.0721 Y-0.1837 F350.00
G01 X4.0953 Y-0.1917 F350.00
G01 X4.1187 Y-0.1991 F350.00
G01 X4.1799 Y-0.2173 F350.00
G01 X4.2798 Y-0.2427 F350.00
G01 X4.3036 Y-0.2483 F350.00
G01 X4.3276 Y-0.2534 F350.00
G01 X4.3903 Y-0.2656 F350.00
G01 X4.4922 Y-0.2810 F350.00
G01 X4.5165 Y-0.2843 F350.00
G01 X4.5409 Y-0.2870 F350.00
G01 X4.6044 Y-0.2930 F350.00
G01 X4.7073 Y-0.2983 F350.00
G01 X4.7318 Y-0.2992 F350.00
G01 X4.7564 Y-0.2995 F350.00
G01 X4.8202 Y-0.2992 F350.00
G01 X4.9231 Y-0.2945 F350.00
G01 X4.9476 Y-0.2930 F350.00
G01 X4.9721 Y-0.2909 F350.00
G01 X5.0355 Y-0.2843 F350.00
G01 X5.1375 Y-0.2695 F350.00
G01 X5.1617 Y-0.2656 F350.00
G01 X5.1859 Y-0.2611 F350.00
G01 X5.2484 Y-0.2483 F350.00
G01 X5.3484 Y-0.2236 F350.00
G01 X5.3721 Y-0.2173 F350.00
G01 X5.3957 Y-0.2105 F350.00
G01 X5.4567 Y-0.1917 F350.00
G01 X5.5538 Y-0.1573 F350.00
G01 X5.5768 Y-0.1487 F350.00
G01 X5.5996 Y-0.1396 F350.00
G01 X5.6584 Y-0.1149 F350.00
G01 X5.7517 Y-0.0711 F350.00
G01 X5.7738 Y-0.0604 F350.00
G01 X5.7955 Y-0.0491 F350.00
G01 X5.8517 Y-0.0187 F350.00
G01 X5.9402 Y0.0340 F350.00
G01 X5.9611 Y0.0469 F350.00
G01 X6.0143 Y0.0821 F350.00
G01 X6.0345 Y0.0960 F350.00
G01 X6.0544 Y0.1103 F350.00
G01 X6.1370 Y0.1720 F350.00
G01 X6.1865 Y0.2122 F350.00
G01 X6.2053 Y0.2280 F350.00
G01 X6.2819 Y0.2970 F350.00
G01 X6.2998 Y0.3137 F350.00
G01 X6.3174 Y0.3308 F350.00
G01 X6.3623 Y0.3762 F350.00
G01 X6.3790 Y0.3941 F350.00
G01 X6.4480 Y0.4707 F350.00
G01 X6.4638 Y0.4895 F350.00
G01 X6.5040 Y0.5390 F350.00
G01 X6.5657 Y0.6216 F350.00
G01 X6.5800 Y0.6415 F350.00
G01 X6.6157 Y0.6943 F350.00
G01 X6.6291 Y0.7149 F350.00
G01 X6.6824 Y0.8031 F350.00
G01 X6.6947 Y0.8243 F350.00
G01 X6.7065 Y0.8458 F350.00
G01 X6.7364 Y0.9022 F350.00
G01 X6.7807 Y0.9953 F350.00
G01 X6.7909 Y1.0176 F350.00
G01 X6.8156 Y1.0764 F350.00
G01 X6.8247 Y1.0992 F350.00
G01 X6.8333 Y1.1222 F350.00
G01 X6.8597 Y1.1961 F350.00
G01 X6.8677 Y1.2193 F350.00
G01 X6.8865 Y1.2803 F350.00
G01 X6.8933 Y1.3039 F350.00
G01 X6.8996 Y1.3276 F350.00
G01 X6.9243 Y1.4276 F350.00
G01 X6.9294 Y1.4516 F350.00
G01 X6.9416 Y1.5143 F350.00
G01 X6.9570 Y1.6162 F350.00
G01 X6.9603 Y1.6405 F350.00
G01 X6.9630 Y1.6649 F350.00
G01 X6.9690 Y1.7284 F350.00
G01 X6.9743 Y1.8313 F350.00
G01 X6.9757 Y1.8755 F350.00
G01 X6.9760 Y1.9000 F350.00
G01 X6.9760 Y3.3000 F350.00
G01 X6.9757 Y3.3245 F350.00
G01 X6.9743 Y3.3687 F350.00
G01 X6.9690 Y3.4716 F350.00
G01 X6.9630 Y3.5351 F350.00
G01 X6.9603 Y3.5595 F350.00
G01 X6.9455 Y3.6615 F350.00
G01 X6.9416 Y3.6857 F350.00
G01 X6.9371 Y3.7099 F350.00
G01 X6.9243 Y3.7724 F350.00
G01 X6.8996 Y3.8724 F350.00
G01 X6.8933 Y3.8961 F350.00
G01 X6.8865 Y3.9197 F350.00
G01 X6.8677 Y3.9807 F350.00
G01 X6.8333 Y4.0778 F350.00
G01 X6.8247 Y4.1008 F350.00
G01 X6.8156 Y4.1236 F350.00
G01 X6.7909 Y4.1824 F350.00
G01 X6.7471 Y4.2757 F350.00
G01 X6.7364 Y4.2978 F350.00
G01 X6.7251 Y4.3195 F350.00
G01 X6.6947 Y4.3757 F350.00
G01 X6.6420 Y4.4642 F350.00
G01 X6.6291 Y4.4851 F350.00
G01 X6.6157 Y4.5057 F350.00
G01 X6.5800 Y4.5585 F350.00
G01 X6.5657 Y4.5784 F350.00
G01 X6.5040 Y4.6610 F350.00
G01 X6.4887 Y4.6802 F350.00
G01 X6.4480 Y4.7293 F350.00
G01 X6.3790 Y4.8059 F350.00
G01 X6.3623 Y4.8238 F350.00
G01 X6.3174 Y4.8692 F350.00
G01 X6.2998 Y4.8863 F350.00
G01 X6.2819 Y4.9030 F350.00
G01 X6.2053 Y4.9720 F350.00
G01 X6.1865 Y4.9878 F350.00
G01 X6.1370 Y5.0280 F350.00
G01 X6.0544 Y5.0897 F350.00
G01 X6.0345 Y5.1040 F350.00
G01 X6.0143 Y5.1179 F350.00
G01 X5.9611 Y5.1531 F350.00
G01 X5.9402 Y5.1660 F350.00
G01 X5.8517 Y5.2187 F350.00
G01 X5.8302 Y5.2305 F350.00
G01 X5.7738 Y5.2604 F350.00
G01 X5.6807 Y5.3047 F350.00
G01 X5.6584 Y5.3149 F350.00
G01 X5.6359 Y5.3246 F350.00
G01 X5.5768 Y5.3487 F350.00
G01 X5.4799 Y5.3837 F350.00
G01 X5.4567 Y5.3917 F350.00
G01 X5.3957 Y5.4105 F350.00
G01 X5.3721 Y5.4173 F350.00
G01 X5.3484 Y5.4236 F350.00
G01 X5.2484 Y5.4483 F350.00
G01 X5.1859 Y5.4611 F350.00
G01 X5.1617 Y5.4656 F350.00
G01 X5.1375 Y5.4695 F350.00
G01 X5.0355 Y5.4843 F350.00
G01 X4.9721 Y5.4909 F350.00
G01 X4.9476 Y5.4930 F350.00
G01 X4.8447 Y5.4983 F350.00
G01 X4.8202 Y5.4992 F350.00
G01 X4.7956 Y5.4995 F350.00
G01 X4.7318 Y5.4992 F350.00
G01 X4.7073 Y5.4983 F350.00
G01 X4.6044 Y5.4930 F350.00
G01 X4.5409 Y5.4870 F350.00
G01 X4.5165 Y5.4843 F350.00
G01 X4.4145 Y5.4695 F350.00
G01 X4.3903 Y5.4656 F350.00
G01 X4.3276 Y5.4534 F350.00
G01 X4.3036 Y5.4483 F350.00
G01 X4.2036 Y5.4236 F350.00
G01 X4.1799 Y5.4173 F350.00
G01 X4.1187 Y5.3991 F350.00
G01 X4.0953 Y5.3917 F350.00
G01 X4.0721 Y5.3837 F350.00
G01 X3.9752 Y5.3487 F350.00
G01 X3.9524 Y5.3396 F350.00
G01 X3.8936 Y5.3149 F350.00
G01 X3.8713 Y5.3047 F350.00
G01 X3.7782 Y5.2604 F350.00
G01 X3.7565 Y5.2491 F350.00
G01 X3.7003 Y5.2187 F350.00
G01 X3.6118 Y5.1660 F350.00
G01 X3.5909 Y5.1531 F350.00
G01 X3.5703 Y5.1397 F350.00
G01 X3.5175 Y5.1040 F350.00
G01 X3.4976 Y5.0897 F350.00
G01 X3.4150 Y5.0280 F350.00
G01 X3.3958 Y5.0127 F350.00
G01 X3.3467 Y4.9720 F350.00
G01 X3.2701 Y4.9030 F350.00
G01 X3.2522 Y4.8863 F350.00
G01 X3.2346 Y4.8692 F350.00
G01 X3.1897 Y4.8238 F350.00
G01 X3.1203 Y4.7477 F350.00
G01 X3.1040 Y4.7293 F350.00
G01 X3.0633 Y4.6802 F350.00
G01 X3.0480 Y4.6610 F350.00
G01 X3.0331 Y4.6415 F350.00
G01 X2.9720 Y4.5585 F350.00
G01 X2.9363 Y4.5057 F350.00
G01 X2.9229 Y4.4851 F350.00
G01 X2.9100 Y4.4642 F350.00
G01 X2.8573 Y4.3757 F350.00
G01 X2.8269 Y4.3195 F350.00
G01 X2.8156 Y4.2978 F350.00
G01 X2.8049 Y4.2757 F350.00
G01 X2.7713 Y4.2047 F350.00
G01 X2.7611 Y4.1824 F350.00
G01 X2.7514 Y4.1599 F350.00
G01 X2.7273 Y4.1008 F350.00
G01 X2.6923 Y4.0039 F350.00
G01 X2.6843 Y3.9807 F350.00
G01 X2.6769 Y3.9573 F350.00
G01 X2.6587 Y3.8961 F350.00
G01 X2.6333 Y3.7962 F350.00
G01 X2.6277 Y3.7724 F350.00
G01 X2.6226 Y3.7484 F350.00
G01 X2.6104 Y3.6857 F350.00
G01 X2.5950 Y3.5838 F350.00
G01 X2.5917 Y3.5595 F350.00
G01 X2.5890 Y3.5351 F350.00
G01 X2.5830 Y3.4716 F350.00
G01 X2.5777 Y3.3687 F350.00
G01 X2.5763 Y3.3245 F350.00
G01 X2.5760 Y3.3000 F350.00
G01 X2.5760 Y1.9000 F350.00
G01 X2.5768 Y1.8558 F350.00
G01 X2.5777 Y1.8313 F350.00
G01 X2.5815 Y1.7529 F350.00
G01 X2.5830 Y1.7284 F350.00
G01 X2.5890 Y1.6649 F350.00
G00 Z0.5000
G00 X2.5760 Y2.7003
G01 F250.00
G01 Z-0.0500
G01 F350.00
G01 X1.8436 Y2.7003 F350.00
G01 X1.6686 Y4.0003 F350.00
G01 X2.6910 Y4.0003 F350.00
G00 Z0.5000
G00 X3.8619 Y5.3003
G01 F250.00
G01 Z-0.0500
G01 F350.00
G01 X1.4936 Y5.3003 F350.00
G01 X1.3186 Y6.6003 F350.00
G01 X59.7446 Y6.6003 F350.00
G01 X61.0446 Y5.3003 F350.00
G01 X16.1381 Y5.3003 F350.00
G00 Z0.5000
G00 X17.3090 Y4.0003
G01 F250.00
G01 Z-0.0500
G01 F350.00
G01 X62.3446 Y4.0003 F350.00
G01 X63.6446 Y2.7003 F350.00
G01 X17.4240 Y2.7003 F350.00
G00 Z0.5000
G00 X17.3658 Y1.4003
G01 F250.00
G01 Z-0.0500
G01 F350.00
G01 X64.9446 Y1.4003 F350.00
G01 X66.2446 Y0.1003 F350.00
G01 X16.4885 Y0.1003 F350.00
G00 Z0.5000
G00 X13.9595 Y0.1003
G01 F250.00
G01 Z-0.0500
G01 F350.00
G01 X6.0405 Y0.1003 F350.00
G00 Z0.5000
G00 X6.9178 Y1.4003
G01 F250.00
G01 Z-0.0500
G01 F350.00
G01 X13.0822 Y1.4003 F350.00
G00 Z0.5000
G00 X13.0370 Y1.6649
G01 F250.00
G01 Z-0.0500
G01 F350.00
G01 X13.0397 Y1.6405 F350.00
G01 X13.0430 Y1.6162 F350.00
G01 X13.0584 Y1.5143 F350.00
G01 X13.0706 Y1.4516 F350.00
G01 X13.0757 Y1.4276 F350.00
G01 X13.0813 Y1.4038 F350.00
G01 X13.1067 Y1.3039 F350.00
G01 X13.1249 Y1.2427 F350.00
G01 X13.1323 Y1.2193 F350.00
G01 X13.1403 Y1.1961 F350.00
G01 X13.1753 Y1.0992 F350.00
G01 X13.1994 Y1.0401 F350.00
G01 X13.2091 Y1.0176 F350.00
G01 X13.2193 Y0.9953 F350.00
G01 X13.2636 Y0.9022 F350.00
G01 X13.2935 Y0.8458 F350.00
G01 X13.3053 Y0.8243 F350.00
G01 X13.3176 Y0.8031 F350.00
G01 X13.3709 Y0.7149 F350.00
G01 X13.4061 Y0.6617 F350.00
G01 X13.4200 Y0.6415 F350.00
G01 X13.4343 Y0.6216 F350.00
G01 X13.4960 Y0.5390 F350.00
G01 X13.5362 Y0.4895 F350.00
G01 X13.5520 Y0.4707 F350.00
G01 X13.5683 Y0.4523 F350.00
G01 X13.6377 Y0.3762 F350.00
G01 X13.6826 Y0.3308 F350.00
G01 X13.7002 Y0.3137 F350.00
G01 X13.7181 Y0.2970 F350.00
G01 X13.7947 Y0.2280 F350.00
G01 X13.8438 Y0.1873 F350.00
G01 X13.8630 Y0.1720 F350.00
G01 X13.8825 Y0.1571 F350.00
G01 X13.9655 Y0.0960 F350.00
G01 X14.0183 Y0.0603 F350.00
G01 X14.0389 Y0.0469 F350.00
G01 X14.0598 Y0.0340 F350.00
G01 X14.1483 Y-0.0187 F350.00
G01 X14.2045 Y-0.0491 F350.00
G01 X14.2262 Y-0.0604 F350.00
G01 X14.2483 Y-0.0711 F350.00
G01 X14.3193 Y-0.1047 F350.00
G01 X14.3416 Y-0.1149 F350.00
G01 X14.3641 Y-0.1246 F350.00
G01 X14.4232 Y-0.1487 F350.00
G01 X14.5201 Y-0.1837 F350.00
G01 X14.5433 Y-0.1917 F350.00
G01 X14.5667 Y-0.1991 F350.00
G01 X14.6279 Y-0.2173 F350.00
G01 X14.7278 Y-0.2427 F350.00
G01 X14.7516 Y-0.2483 F350.00
G01 X14.7756 Y-0.2534 F350.00
G01 X14.8383 Y-0.2656 F350.00
G01 X14.9402 Y-0.2810 F350.00
G01 X14.9645 Y-0.2843 F350.00
G01 X14.9889 Y-0.2870 F350.00
G01 X15.0524 Y-0.2930 F350.00
G01 X15.1553 Y-0.2983 F350.00
G01 X15.1798 Y-0.2992 F350.00
G01 X15.2044 Y-0.2995 F350.00
G01 X15.2682 Y-0.2992 F350.00
G01 X15.3711 Y-0.2945 F350.00
G01 X15.3956 Y-0.2930 F350.00
G01 X15.4201 Y-0.2909 F350.00
G01 X15.4835 Y-0.2843 F350.00
G01 X15.5855 Y-0.2695 F350.00
G01 X15.6097 Y-0.2656 F350.00
G01 X15.6339 Y-0.2611 F350.00
G01 X15.6964 Y-0.2483 F350.00
G01 X15.7964 Y-0.2236 F350.00
G01 X15.8201 Y-0.2173 F350.00
G01 X15.8437 Y-0.2105 F350.00
G01 X15.9047 Y-0.1917 F350.00
G01 X16.0018 Y-0.1573 F350.00
G01 X16.0248 Y-0.1487 F350.00
G01 X16.0476 Y-0.1396 F350.00
G01 X16.1064 Y-0.1149 F350.00
G01 X16.1997 Y-0.0711 F350.00
G01 X16.2218 Y-0.0604 F350.00
G01 X16.2435 Y-0.0491 F350.00
G01 X16.2997 Y-0.0187 F350.00
G01 X16.3882 Y0.0340 F350.00
G01 X16.4091 Y0.0469 F350.00
G01 X16.4623 Y0.0821 F350.00
G01 X16.4825 Y0.0960 F350.00
G01 X16.5024 Y0.1103 F350.00
G01 X16.5850 Y0.1720 F350.00
G01 X16.6345 Y0.2122 F350.00
G01 X16.6533 Y0.2280 F350.00
G01 X16.7299 Y0.2970 F350.00
G01 X16.7478 Y0.3137 F350.00
G01 X16.7932 Y0.3586 F350.00
G01 X16.8103 Y0.3762 F350.00
G01 X16.8270 Y0.3941 F350.00
G01 X16.8960 Y0.4707 F350.00
G01 X16.9118 Y0.4895 F350.00
G01 X16.9520 Y0.5390 F350.00
G01 X17.0137 Y0.6216 F350.00
G01 X17.0280 Y0.6415 F350.00
G01 X17.0637 Y0.6943 F350.00
G01 X17.0771 Y0.7149 F350.00
G01 X17.1304 Y0.8031 F350.00
G01 X17.1427 Y0.8243 F350.00
G01 X17.1545 Y0.8458 F350.00
G01 X17.1844 Y0.9022 F350.00
G01 X17.2287 Y0.9953 F350.00
G01 X17.2389 Y1.0176 F350.00
G01 X17.2636 Y1.0764 F350.00
G01 X17.2727 Y1.0992 F350.00
G01 X17.2813 Y1.1222 F350.00
G01 X17.3077 Y1.1961 F350.00
G01 X17.3157 Y1.2193 F350.00
G01 X17.3345 Y1.2803 F350.00
G01 X17.3413 Y1.3039 F350.00
G01 X17.3476 Y1.3276 F350.00
G01 X17.3723 Y1.4276 F350.00
G01 X17.3851 Y1.4901 F350.00
G01 X17.3896 Y1.5143 F350.00
G01 X17.4050 Y1.6162 F350.00
G01 X17.4083 Y1.6405 F350.00
G01 X17.4149 Y1.7039 F350.00
G01 X17.4170 Y1.7284 F350.00
G01 X17.4223 Y1.8313 F350.00
G01 X17.4232 Y1.8558 F350.00
G01 X17.4240 Y1.9000 F350.00
G01 X17.4240 Y3.3000 F350.00
G01 X17.4237 Y3.3245 F350.00
G01 X17.4223 Y3.3687 F350.00
G01 X17.4170 Y3.4716 F350.00
G01 X17.4110 Y3.5351 F350.00
G01 X17.4083 Y3.5595 F350.00
G01 X17.3935 Y3.6615 F350.00
G01 X17.3896 Y3.6857 F350.00
G01 X17.3851 Y3.7099 F350.00
G01 X17.3723 Y3.7724 F350.00
G01 X17.3476 Y3.8724 F350.00
G01 X17.3413 Y3.8961 F350.00
G01 X17.3345 Y3.9197 F350.00
G01 X17.3157 Y3.9807 F350.00
G01 X17.2813 Y4.0778 F350.00
G01 X17.2727 Y4.1008 F350.00
G01 X17.2636 Y4.1236 F350.00
G01 X17.2389 Y4.1824 F350.00
G01 X17.1951 Y4.2757 F350.00
G01 X17.1844 Y4.2978 F350.00
G01 X17.1731 Y4.3195 F350.00
G01 X17.1427 Y4.3757 F350.00
G01 X17.0900 Y4.4642 F350.00
G01 X17.0771 Y4.4851 F350.00
G01 X17.0637 Y4.5057 F350.00
G01 X17.0280 Y4.5585 F350.00
G01 X17.0137 Y4.5784 F350.00
G01 X16.9520 Y4.6610 F350.00
G01 X16.9367 Y4.6802 F350.00
G01 X16.8960 Y4.7293 F350.00
G01 X16.8270 Y4.8059 F350.00
G01 X16.8103 Y4.8238 F350.00
G01 X16.7932 Y4.8414 F350.00
G01 X16.7478 Y4.8863 F350.00
G01 X16.7299 Y4.9030 F350.00
G01 X16.6533 Y4.9720 F350.00
G01 X16.6345 Y4.9878 F350.00
G01 X16.5850 Y5.0280 F350.00
G01 X16.5024 Y5.0897 F350.00
G01 X16.4825 Y5.1040 F350.00
G01 X16.4297 Y5.1397 F350.00
G01 X16.4091 Y5.1531 F350.00
G01 X16.3882 Y5.1660 F350.00
G01 X16.2997 Y5.2187 F350.00
G01 X16.2782 Y5.2305 F350.00
G01 X16.2218 Y5.2604 F350.00
G01 X16.1287 Y5.3047 F350.00
G01 X16.1064 Y5.3149 F350.00
G01 X16.0839 Y5.3246 F350.00
G01 X16.0248 Y5.3487 F350.00
G01 X15.9279 Y5.3837 F350.00
G01 X15.9047 Y5.3917 F350.00
G01 X15.8813 Y5.3991 F350.00
G01 X15.8201 Y5.4173 F350.00
G01 X15.7964 Y5.4236 F350.00
G01 X15.6964 Y5.4483 F350.00
G01 X15.6339 Y5.4611 F350.00
G01 X15.6097 Y5.4656 F350.00
G01 X15.5855 Y5.4695 F350.00
G01 X15.4835 Y5.4843 F350.00
G01 X15.4201 Y5.4909 F350.00
G01 X15.3956 Y5.4930 F350.00
G01 X15.2927 Y5.4983 F350.00
G01 X15.2682 Y5.4992 F350.00
G01 X15.2436 Y5.4995 F350.00
G01 X15.1798 Y5.4992 F350.00
G01 X15.1553 Y5.4983 F350.00
G01 X15.0524 Y5.4930 F350.00
G01 X14.9889 Y5.4870 F350.00
G01 X14.9645 Y5.4843 F350.00
G01 X14.8625 Y5.4695 F350.00
G01 X14.8383 Y5.4656 F350.00
G01 X14.7756 Y5.4534 F350.00
G01 X14.7516 Y5.4483 F350.00
G01 X14.6516 Y5.4236 F350.00
G01 X14.6279 Y5.4173 F350.00
G01 X14.5667 Y5.3991 F350.00
G01 X14.5433 Y5.3917 F350.00
G01 X14.5201 Y5.3837 F350.00
G01 X14.4232 Y5.3487 F350.00
G01 X14.3641 Y5.3246 F350.00
G01 X14.3416 Y5.3149 F350.00
G01 X14.3193 Y5.3047 F350.00
G01 X14.2262 Y5.2604 F350.00
G01 X14.1698 Y5.2305 F350.00
G01 X14.1483 Y5.2187 F350.00
G01 X14.0598 Y5.1660 F350.00
G01 X14.0389 Y5.1531 F350.00
G01 X14.0183 Y5.1397 F350.00
G01 X13.9655 Y5.1040 F350.00
G01 X13.9456 Y5.0897 F350.00
G01 X13.8630 Y5.0280 F350.00
G01 X13.8135 Y4.9878 F350.00
G01 X13.7947 Y4.9720 F350.00
G01 X13.7181 Y4.9030 F350.00
G01 X13.7002 Y4.8863 F350.00
G01 X13.6548 Y4.8414 F350.00
G01 X13.6377 Y4.8238 F350.00
G01 X13.5683 Y4.7477 F350.00
G01 X13.5520 Y4.7293 F350.00
G01 X13.5113 Y4.6802 F350.00
G01 X13.4960 Y4.6610 F350.00
G01 X13.4811 Y4.6415 F350.00
G01 X13.4200 Y4.5585 F350.00
G01 X13.3843 Y4.5057 F350.00
G01 X13.3709 Y4.4851 F350.00
G01 X13.3580 Y4.4642 F350.00
G01 X13.3053 Y4.3757 F350.00
G01 X13.2749 Y4.3195 F350.00
G01 X13.2636 Y4.2978 F350.00
G01 X13.2529 Y4.2757 F350.00
G01 X13.2193 Y4.2047 F350.00
G01 X13.2091 Y4.1824 F350.00
G01 X13.1994 Y4.1599 F350.00
G01 X13.1753 Y4.1008 F350.00
G01 X13.1403 Y4.0039 F350.00
G01 X13.1323 Y3.9807 F350.00
G01 X13.1249 Y3.9573 F350.00
G01 X13.1067 Y3.8961 F350.00
G01 X13.0813 Y3.7962 F350.00
G01 X13.0757 Y3.7724 F350.00
G01 X13.0706 Y3.7484 F350.00
G01 X13.0584 Y3.6857 F350.00
G01 X13.0430 Y3.5838 F350.00
G01 X13.0397 Y3.5595 F350.00
G01 X13.0331 Y3.4961 F350.00
G01 X13.0310 Y3.4716 F350.00
G01 X13.0257 Y3.3687 F350.00
G01 X13.0243 Y3.3245 F350.00
G01 X13.0240 Y3.3000 F350.00
G01 X13.0240 Y1.9000 F350.00
G01 X13.0243 Y1.8755 F350.00
G01 X13.0257 Y1.8313 F350.00
G01 X13.0295 Y1.7529 F350.00
G01 X13.0310 Y1.7284 F350.00
G01 X13.0370 Y1.6649 F350.00
G00 Z0.5000
G00 X13.0240 Y2.7003
G01 F250.00
G01 Z-0.0500
G01 F350.00
G01 X6.9760 Y2.7003 F350.00
G00 Z0.5000
G00 X6.8610 Y4.0003
G01 F250.00
G01 Z-0.0500
G01 F350.00
G01 X13.1390 Y4.0003 F350.00
G00 Z0.5000
G00 X14.3099 Y5.3003
G01 F250.00
G01 Z-0.0500
G01 F350.00
G01 X5.6901 Y5.3003 F350.00
G01 X7.8124 Y7.9003 F350.00
G01 X1.1436 Y7.9003 F350.00
G01 X0.9687 Y9.2003 F350.00
G01 X3.3107 Y9.2003 F350.00
G00 Z0.5000
G00 X2.4533 Y10.5003
G01 F250.00
G01 Z-0.0500
G01 F350.00
G01 X0.7937 Y10.5003 F350.00
G01 X0.6187 Y11.8003 F350.00
G01 X2.3760 Y11.8003 F350.00
G00 Z0.5000
G00 X2.5955 Y13.1003
G01 F250.00
G01 Z-0.0500
G01 F350.00
G01 X0.4437 Y13.1003 F350.00
G01 X0.2688 Y14.4003 F350.00
G01 X4.0928 Y14.4003 F350.00
G01 X5.4157 Y15.7003 F350.00
G01 X0.0938 Y15.7003 F350.00
G01 X-0.0812 Y17.0003 F350.00
G01 X0.7166 Y17.0003 F350.00
G00 Z0.5000
G00 X0.4005 Y18.0058
G01 F250.00
G01 Z-0.0500
G01 F350.00
G01 X0.4038 Y17.9323 F350.00
G01 X0.4054 Y17.9078 F350.00
G01 X0.4075 Y17.8833 F350.00
G01 X0.4140 Y17.8199 F350.00
G01 X0.4173 Y17.7955 F350.00
G01 X0.4284 Y17.7228 F350.00
G01 X0.4406 Y17.6601 F350.00
G01 X0.4456 Y17.6361 F350.00
G01 X0.4632 Y17.5646 F350.00
G01 X0.4695 Y17.5409 F350.00
G01 X0.4763 Y17.5173 F350.00
G01 X0.4951 Y17.4563 F350.00
G01 X0.5197 Y17.3869 F350.00
G01 X0.5282 Y17.3639 F350.00
G01 X0.5373 Y17.3411 F350.00
G01 X0.5620 Y17.2823 F350.00
G01 X0.5932 Y17.2156 F350.00
G01 X0.6040 Y17.1936 F350.00
G01 X0.6338 Y17.1371 F350.00
G01 X0.6456 Y17.1156 F350.00
G01 X0.6832 Y17.0523 F350.00
G01 X0.6961 Y17.0314 F350.00
G01 X0.7095 Y17.0109 F350.00
G01 X0.7452 Y16.9580 F350.00
G01 X0.7888 Y16.8987 F350.00
G01 X0.8037 Y16.8791 F350.00
G01 X0.8190 Y16.8600 F350.00
G01 X0.8597 Y16.8108 F350.00
G01 X0.9089 Y16.7561 F350.00
G01 X0.9256 Y16.7381 F350.00
G01 X0.9705 Y16.6928 F350.00
G01 X0.9881 Y16.6756 F350.00
G01 X1.0061 Y16.6589 F350.00
G01 X1.0608 Y16.6097 F350.00
G01 X1.0796 Y16.5939 F350.00
G01 X1.1291 Y16.5537 F350.00
G01 X1.1881 Y16.5096 F350.00
G01 X1.2080 Y16.4952 F350.00
G01 X1.2282 Y16.4813 F350.00
G01 X1.2814 Y16.4461 F350.00
G01 X1.3023 Y16.4332 F350.00
G01 X1.3656 Y16.3956 F350.00
G01 X1.4218 Y16.3653 F350.00
G01 X1.4436 Y16.3540 F350.00
G01 X1.4656 Y16.3432 F350.00
G01 X1.5323 Y16.3120 F350.00
G01 X1.5911 Y16.2873 F350.00
G01 X1.6139 Y16.2782 F350.00
G01 X1.6369 Y16.2697 F350.00
G01 X1.6831 Y16.2531 F350.00
G01 X1.7063 Y16.2451 F350.00
G01 X1.7297 Y16.2377 F350.00
G01 X1.7909 Y16.2195 F350.00
G01 X1.8146 Y16.2132 F350.00
G01 X1.8861 Y16.1956 F350.00
G01 X1.9101 Y16.1906 F350.00
G01 X1.9728 Y16.1784 F350.00
G01 X2.0455 Y16.1673 F350.00
G01 X2.0699 Y16.1640 F350.00
G01 X2.1333 Y16.1575 F350.00
G01 X2.1578 Y16.1554 F350.00
G01 X2.2313 Y16.1514 F350.00
G01 X2.2558 Y16.1505 F350.00
G01 X2.3000 Y16.1497 F350.00
G01 X5.2129 Y16.1497 F350.00
G01 X5.4157 Y15.9469 F350.00
G01 X5.4157 Y14.4125 F350.00
G01 X5.3113 Y14.4388 F350.00
G01 X5.2874 Y14.4445 F350.00
G01 X5.2249 Y14.4572 F350.00
G01 X5.2007 Y14.4617 F350.00
G01 X5.0794 Y14.4800 F350.00
G01 X5.0551 Y14.4833 F350.00
G01 X5.0307 Y14.4860 F350.00
G01 X4.9672 Y14.4920 F350.00
G01 X4.9427 Y14.4935 F350.00
G01 X4.8202 Y14.4992 F350.00
G01 X4.7956 Y14.4995 F350.00
G01 X4.7318 Y14.4992 F350.00
G01 X4.6093 Y14.4935 F350.00
G01 X4.5848 Y14.4920 F350.00
G01 X4.5213 Y14.4860 F350.00
G01 X4.4969 Y14.4833 F350.00
G01 X4.4726 Y14.4800 F350.00
G01 X4.3513 Y14.4617 F350.00
G01 X4.3271 Y14.4572 F350.00
G01 X4.2646 Y14.4445 F350.00
G01 X4.1455 Y14.4150 F350.00
G01 X4.1218 Y14.4087 F350.00
G01 X4.0607 Y14.3905 F350.00
G01 X4.0373 Y14.3831 F350.00
G01 X3.9217 Y14.3420 F350.00
G01 X3.8987 Y14.3335 F350.00
G01 X3.8759 Y14.3244 F350.00
G01 X3.8171 Y14.2997 F350.00
G01 X3.7947 Y14.2895 F350.00
G01 X3.6840 Y14.2367 F350.00
G01 X3.6622 Y14.2254 F350.00
G01 X3.6061 Y14.1951 F350.00
G01 X3.5007 Y14.1323 F350.00
G01 X3.4798 Y14.1194 F350.00
G01 X3.4266 Y14.0842 F350.00
G01 X3.4063 Y14.0703 F350.00
G01 X3.3865 Y14.0560 F350.00
G01 X3.2881 Y13.9826 F350.00
G01 X3.2689 Y13.9673 F350.00
G01 X3.2198 Y13.9266 F350.00
G01 X3.1287 Y13.8444 F350.00
G01 X3.1107 Y13.8277 F350.00
G01 X3.0932 Y13.8106 F350.00
G01 X3.0483 Y13.7653 F350.00
G01 X3.0316 Y13.7473 F350.00
G01 X2.9494 Y13.6562 F350.00
G01 X2.9336 Y13.6374 F350.00
G01 X2.8934 Y13.5879 F350.00
G01 X2.8200 Y13.4895 F350.00
G01 X2.8057 Y13.4697 F350.00
G01 X2.7918 Y13.4494 F350.00
G01 X2.7566 Y13.3962 F350.00
G01 X2.7437 Y13.3753 F350.00
G01 X2.6809 Y13.2699 F350.00
G01 X2.6506 Y13.2138 F350.00
G01 X2.6393 Y13.1920 F350.00
G01 X2.5865 Y13.0813 F350.00
G01 X2.5763 Y13.0589 F350.00
G01 X2.5516 Y13.0001 F350.00
G01 X2.5425 Y12.9773 F350.00
G01 X2.5009 Y12.8619 F350.00
G01 X2.4929 Y12.8387 F350.00
G01 X2.4741 Y12.7778 F350.00
G01 X2.4673 Y12.7542 F350.00
G01 X2.4610 Y12.7305 F350.00
G01 X2.4315 Y12.6114 F350.00
G01 X2.4264 Y12.5874 F350.00
G01 X2.4143 Y12.5247 F350.00
G01 X2.3960 Y12.4034 F350.00
G01 X2.3927 Y12.3791 F350.00
G01 X2.3861 Y12.3157 F350.00
G01 X2.3840 Y12.2912 F350.00
G01 X2.3825 Y12.2667 F350.00
G01 X2.3777 Y12.1687 F350.00
G01 X2.3768 Y12.1442 F350.00
G01 X2.3760 Y12.1000 F350.00
G01 X2.3760 Y11.1000 F350.00
G01 X2.3768 Y11.0558 F350.00
G01 X2.3777 Y11.0313 F350.00
G01 X2.3840 Y10.9088 F350.00
G01 X2.3900 Y10.8453 F350.00
G01 X2.3927 Y10.8209 F350.00
G01 X2.3960 Y10.7966 F350.00
G01 X2.4143 Y10.6753 F350.00
G01 X2.4264 Y10.6126 F350.00
G01 X2.4315 Y10.5886 F350.00
G01 X2.4372 Y10.5647 F350.00
G01 X2.4673 Y10.4458 F350.00
G01 X2.4741 Y10.4222 F350.00
G01 X2.4929 Y10.3613 F350.00
G01 X2.5340 Y10.2457 F350.00
G01 X2.5425 Y10.2227 F350.00
G01 X2.5666 Y10.1636 F350.00
G01 X2.5763 Y10.1411 F350.00
G01 X2.6285 Y10.0300 F350.00
G01 X2.6393 Y10.0080 F350.00
G01 X2.6506 Y9.9862 F350.00
G01 X2.6809 Y9.9301 F350.00
G01 X2.7437 Y9.8247 F350.00
G01 X2.7566 Y9.8038 F350.00
G01 X2.7918 Y9.7506 F350.00
G01 X2.8057 Y9.7303 F350.00
G01 X2.8200 Y9.7105 F350.00
G01 X2.8934 Y9.6121 F350.00
G01 X2.9087 Y9.5929 F350.00
G01 X2.9494 Y9.5438 F350.00
G01 X3.0316 Y9.4527 F350.00
G01 X3.0483 Y9.4347 F350.00
G01 X3.0654 Y9.4172 F350.00
G01 X3.1107 Y9.3723 F350.00
G01 X3.1287 Y9.3556 F350.00
G01 X3.2198 Y9.2734 F350.00
G01 X3.2386 Y9.2576 F350.00
G01 X3.2881 Y9.2174 F350.00
G01 X3.3865 Y9.1440 F350.00
G01 X3.4063 Y9.1297 F350.00
G01 X3.4266 Y9.1158 F350.00
G01 X3.4798 Y9.0806 F350.00
G01 X3.5007 Y9.0677 F350.00
G01 X3.6061 Y9.0049 F350.00
G01 X3.6622 Y8.9746 F350.00
G01 X3.6840 Y8.9633 F350.00
G01 X3.7060 Y8.9525 F350.00
G01 X3.8171 Y8.9003 F350.00
G01 X3.8759 Y8.8756 F350.00
G01 X3.8987 Y8.8665 F350.00
G01 X3.9217 Y8.8580 F350.00
G01 X4.0373 Y8.8169 F350.00
G01 X4.0982 Y8.7981 F350.00
G01 X4.1218 Y8.7913 F350.00
G01 X4.1455 Y8.7850 F350.00
G01 X4.2407 Y8.7612 F350.00
G01 X4.2646 Y8.7555 F350.00
G01 X4.2886 Y8.7504 F350.00
G01 X4.3513 Y8.7383 F350.00
G01 X4.4726 Y8.7200 F350.00
G01 X4.4969 Y8.7167 F350.00
G01 X4.5213 Y8.7140 F350.00
G01 X4.5848 Y8.7080 F350.00
G01 X4.7073 Y8.7017 F350.00
G01 X4.7318 Y8.7008 F350.00
G01 X4.7564 Y8.7005 F350.00
G01 X4.8202 Y8.7008 F350.00
G01 X4.9427 Y8.7065 F350.00
G01 X4.9672 Y8.7080 F350.00
G01 X4.9917 Y8.7101 F350.00
G01 X5.0551 Y8.7167 F350.00
G01 X5.1765 Y8.7344 F350.00
G01 X5.2007 Y8.7383 F350.00
G01 X5.2249 Y8.7428 F350.00
G01 X5.2874 Y8.7555 F350.00
G01 X5.4065 Y8.7850 F350.00
G01 X5.4302 Y8.7913 F350.00
G01 X5.4913 Y8.8095 F350.00
G01 X5.5147 Y8.8169 F350.00
G01 X5.6303 Y8.8580 F350.00
G01 X5.6533 Y8.8665 F350.00
G01 X5.6761 Y8.8756 F350.00
G01 X5.7349 Y8.9003 F350.00
G01 X5.8460 Y8.9525 F350.00
G01 X5.8680 Y8.9633 F350.00
G01 X5.8898 Y8.9746 F350.00
G01 X5.9459 Y9.0049 F350.00
G01 X6.0460 Y9.0645 F350.00
G01 X6.1461 Y9.0049 F350.00
G01 X6.2022 Y8.9746 F350.00
G01 X6.2240 Y8.9633 F350.00
G01 X6.3347 Y8.9105 F350.00
G01 X6.3571 Y8.9003 F350.00
G01 X6.4159 Y8.8756 F350.00
G01 X6.4387 Y8.8665 F350.00
G01 X6.4617 Y8.8580 F350.00
G01 X6.5773 Y8.8169 F350.00
G01 X6.6382 Y8.7981 F350.00
G01 X6.6618 Y8.7913 F350.00
G01 X6.6855 Y8.7850 F350.00
G01 X6.7807 Y8.7612 F350.00
G01 X6.8046 Y8.7555 F350.00
G01 X6.8286 Y8.7504 F350.00
G01 X6.8913 Y8.7383 F350.00
G01 X6.9892 Y8.7234 F350.00
G01 X8.1563 Y7.5563 F350.00
G01 X8.1881 Y7.5256 F350.00
G01 X8.2061 Y7.5089 F350.00
G01 X8.2608 Y7.4597 F350.00
G01 X8.3100 Y7.4190 F350.00
G01 X8.3291 Y7.4037 F350.00
G01 X8.3487 Y7.3888 F350.00
G01 X8.4080 Y7.3452 F350.00
G01 X8.4609 Y7.3095 F350.00
G01 X8.4814 Y7.2961 F350.00
G01 X8.5023 Y7.2832 F350.00
G01 X8.5656 Y7.2456 F350.00
G01 X8.6218 Y7.2153 F350.00
G01 X8.6436 Y7.2040 F350.00
G01 X8.7100 Y7.1722 F350.00
G01 X8.7323 Y7.1620 F350.00
G01 X8.7549 Y7.1524 F350.00
G01 X8.8139 Y7.1282 F350.00
G01 X8.8831 Y7.1031 F350.00
G01 X8.9063 Y7.0951 F350.00
G01 X8.9297 Y7.0877 F350.00
G01 X8.9909 Y7.0695 F350.00
G01 X9.0622 Y7.0513 F350.00
G01 X9.0861 Y7.0456 F350.00
G01 X9.1101 Y7.0406 F350.00
G01 X9.1728 Y7.0284 F350.00
G01 X9.2455 Y7.0173 F350.00
G01 X9.2699 Y7.0140 F350.00
G01 X9.2943 Y7.0113 F350.00
G01 X9.3578 Y7.0054 F350.00
G01 X9.4313 Y7.0014 F350.00
G01 X9.4558 Y7.0005 F350.00
G01 X9.5000 Y6.9997 F350.00
G01 X17.6000 Y6.9997 F350.00
G01 X17.6245 Y7.0001 F350.00
G01 X17.6687 Y7.0014 F350.00
G01 X17.7422 Y7.0054 F350.00
G01 X17.7667 Y7.0075 F350.00
G01 X17.8301 Y7.0140 F350.00
G01 X17.8545 Y7.0173 F350.00
G01 X17.9272 Y7.0284 F350.00
G01 X17.9899 Y7.0406 F350.00
G01 X18.0139 Y7.0456 F350.00
G01 X18.0378 Y7.0513 F350.00
G01 X18.1091 Y7.0695 F350.00
G01 X18.1703 Y7.0877 F350.00
G01 X18.1937 Y7.0951 F350.00
G01 X18.2169 Y7.1031 F350.00
G01 X18.2631 Y7.1197 F350.00
G01 X18.2861 Y7.1282 F350.00
G01 X18.3089 Y7.1373 F350.00
G01 X18.3677 Y7.1620 F350.00
G01 X18.4344 Y7.1932 F350.00
G01 X18.4564 Y7.2040 F350.00
G01 X18.4782 Y7.2153 F350.00
G01 X18.5344 Y7.2456 F350.00
G01 X18.5977 Y7.2832 F350.00
G01 X18.6186 Y7.2961 F350.00
G01 X18.6718 Y7.3313 F350.00
G01 X18.6920 Y7.3452 F350.00
G01 X18.7119 Y7.3596 F350.00
G01 X18.7709 Y7.4037 F350.00
G01 X18.7900 Y7.4190 F350.00
G01 X18.8392 Y7.4597 F350.00
G01 X18.8939 Y7.5089 F350.00
G01 X18.9119 Y7.5256 F350.00
G01 X18.9572 Y7.5705 F350.00
G01 X18.9744 Y7.5881 F350.00
G01 X18.9911 Y7.6061 F350.00
G01 X19.0240 Y7.6425 F350.00
G01 X19.0403 Y7.6608 F350.00
G01 X19.0561 Y7.6796 F350.00
G01 X19.0963 Y7.7291 F350.00
G01 X19.1404 Y7.7881 F350.00
G01 X19.1548 Y7.8080 F350.00
G01 X19.1905 Y7.8609 F350.00
G01 X19.2039 Y7.8814 F350.00
G01 X19.2420 Y7.9444 F350.00
G01 X19.2544 Y7.9656 F350.00
G01 X19.2662 Y7.9871 F350.00
G01 X19.2960 Y8.0436 F350.00
G01 X19.3068 Y8.0656 F350.00
G01 X19.3380 Y8.1323 F350.00
G01 X19.3627 Y8.1911 F350.00
G01 X19.3718 Y8.2139 F350.00
G01 X19.3969 Y8.2831 F350.00
G01 X19.4049 Y8.3063 F350.00
G01 X19.4237 Y8.3673 F350.00
G01 X19.4305 Y8.3909 F350.00
G01 X19.4368 Y8.4146 F350.00
G01 X19.4487 Y8.4622 F350.00
G01 X19.4544 Y8.4861 F350.00
G01 X19.4594 Y8.5101 F350.00
G01 X19.4716 Y8.5728 F350.00
G01 X19.4827 Y8.6455 F350.00
G01 X19.4860 Y8.6699 F350.00
G01 X19.4925 Y8.7333 F350.00
G01 X19.4946 Y8.7578 F350.00
G01 X19.4986 Y8.8313 F350.00
G01 X19.4995 Y8.8558 F350.00
G01 X19.5003 Y8.9000 F350.00
G01 X19.5003 Y19.4500 F350.00
G01 X19.4995 Y19.4942 F350.00
G01 X19.4962 Y19.5677 F350.00
G01 X19.4946 Y19.5922 F350.00
G01 X19.4887 Y19.6557 F350.00
G01 X19.4860 Y19.6801 F350.00
G01 X19.4827 Y19.7045 F350.00
G01 X19.4755 Y19.7530 F350.00
G01 X19.4716 Y19.7772 F350.00
G01 X19.4671 Y19.8014 F350.00
G01 X19.4544 Y19.8639 F350.00
G01 X19.4368 Y19.9354 F350.00
G01 X19.4305 Y19.9591 F350.00
G01 X19.4123 Y20.0203 F350.00
G01 X19.4049 Y20.0437 F350.00
G01 X19.3969 Y20.0669 F350.00
G01 X19.3718 Y20.1361 F350.00
G01 X19.3476 Y20.1951 F350.00
G01 X19.3380 Y20.2177 F350.00
G01 X19.3068 Y20.2844 F350.00
G01 X19.2960 Y20.3064 F350.00
G01 X19.2847 Y20.3282 F350.00
G01 X19.2544 Y20.3844 F350.00
G01 X19.2168 Y20.4477 F350.00
G01 X19.2039 Y20.4686 F350.00
G01 X19.1687 Y20.5218 F350.00
G01 X19.1548 Y20.5420 F350.00
G01 X19.1404 Y20.5619 F350.00
G01 X19.0963 Y20.6209 F350.00
G01 X19.0561 Y20.6704 F350.00
G01 X19.0403 Y20.6892 F350.00
G01 X18.9911 Y20.7439 F350.00
G01 X18.9744 Y20.7619 F350.00
G01 X18.9437 Y20.7937 F350.00
G01 X15.3695 Y24.3679 F350.00
G01 X15.3878 Y24.3895 F350.00
G01 X15.4280 Y24.4390 F350.00
G01 X15.4897 Y24.5216 F350.00
G01 X15.5040 Y24.5415 F350.00
G01 X15.5179 Y24.5617 F350.00
G01 X15.5531 Y24.6149 F350.00
G01 X15.6064 Y24.7031 F350.00
G01 X15.6187 Y24.7243 F350.00
G01 X15.6305 Y24.7458 F350.00
G01 X15.6604 Y24.8022 F350.00
G01 X15.7047 Y24.8953 F350.00
G01 X15.7149 Y24.9176 F350.00
G01 X15.7396 Y24.9764 F350.00
G01 X15.7487 Y24.9992 F350.00
G01 X15.7573 Y25.0222 F350.00
G01 X15.7837 Y25.0961 F350.00
G01 X15.7917 Y25.1193 F350.00
G01 X15.7991 Y25.1427 F350.00
G01 X15.8173 Y25.2039 F350.00
G01 X15.8359 Y25.2767 F350.00
G01 X16.6563 Y24.4563 F350.00
G01 X16.6881 Y24.4256 F350.00
G01 X16.7061 Y24.4089 F350.00
G01 X16.7608 Y24.3597 F350.00
G01 X16.7796 Y24.3439 F350.00
G01 X16.8291 Y24.3037 F350.00
G01 X16.8881 Y24.2596 F350.00
G01 X16.9080 Y24.2452 F350.00
G01 X16.9609 Y24.2095 F350.00
G01 X16.9814 Y24.1961 F350.00
G01 X17.0444 Y24.1580 F350.00
G01 X17.0656 Y24.1456 F350.00
G01 X17.0871 Y24.1338 F350.00
G01 X17.1436 Y24.1040 F350.00
G01 X17.2100 Y24.0722 F350.00
G01 X17.2323 Y24.0620 F350.00
G01 X17.2549 Y24.0524 F350.00
G01 X17.3139 Y24.0282 F350.00
G01 X17.3831 Y24.0031 F350.00
G01 X17.4063 Y23.9951 F350.00
G01 X17.4297 Y23.9877 F350.00
G01 X17.4909 Y23.9695 F350.00
G01 X17.5622 Y23.9513 F350.00
G01 X17.5861 Y23.9456 F350.00
G01 X17.6101 Y23.9406 F350.00
G01 X17.6728 Y23.9284 F350.00
G01 X17.7455 Y23.9173 F350.00
G01 X17.7699 Y23.9140 F350.00
G01 X17.8333 Y23.9075 F350.00
G01 X17.8578 Y23.9054 F350.00
G01 X17.8823 Y23.9038 F350.00
G01 X17.9558 Y23.9005 F350.00
G01 X18.0000 Y23.8997 F350.00
G01 X45.6000 Y23.8997 F350.00
G01 X45.6442 Y23.9005 F350.00
G01 X45.6687 Y23.9014 F350.00
G01 X45.7422 Y23.9054 F350.00
G01 X45.8057 Y23.9113 F350.00
G01 X45.8301 Y23.9140 F350.00
G01 X45.8545 Y23.9173 F350.00
G01 X45.9272 Y23.9284 F350.00
G01 X45.9899 Y23.9406 F350.00
G01 X46.0139 Y23.9456 F350.00
G01 X46.0378 Y23.9513 F350.00
G01 X46.1091 Y23.9695 F350.00
G01 X46.1703 Y23.9877 F350.00
G01 X46.1937 Y23.9951 F350.00
G01 X46.2169 Y24.0031 F350.00
G01 X46.2861 Y24.0282 F350.00
G01 X46.3451 Y24.0524 F350.00
G01 X46.3677 Y24.0620 F350.00
G01 X46.3900 Y24.0722 F350.00
G01 X46.4564 Y24.1040 F350.00
G01 X46.5129 Y24.1338 F350.00
G01 X46.5344 Y24.1456 F350.00
G01 X46.5497 Y24.1546 F350.00
G01 X46.5497 Y20.5822 F350.00
G01 X46.5501 Y20.5577 F350.00
G01 X46.5514 Y20.5135 F350.00
G01 X46.5538 Y20.4645 F350.00
G01 X46.5554 Y20.4400 F350.00
G01 X46.5575 Y20.4156 F350.00
G01 X46.5640 Y20.3521 F350.00
G01 X46.5673 Y20.3278 F350.00
G01 X46.5784 Y20.2550 F350.00
G01 X46.5906 Y20.1924 F350.00
G01 X46.5956 Y20.1683 F350.00
G01 X46.6132 Y20.0968 F350.00
G01 X46.6195 Y20.0731 F350.00
G01 X46.6263 Y20.0495 F350.00
G01 X46.6451 Y19.9886 F350.00
G01 X46.6531 Y19.9654 F350.00
G01 X46.6782 Y19.8961 F350.00
G01 X46.7024 Y19.8371 F350.00
G01 X46.7120 Y19.8145 F350.00
G01 X46.7222 Y19.7922 F350.00
G01 X46.7432 Y19.7478 F350.00
G01 X46.7540 Y19.7258 F350.00
G01 X46.7653 Y19.7040 F350.00
G01 X46.7956 Y19.6479 F350.00
G01 X46.8332 Y19.5846 F350.00
G01 X46.8461 Y19.5637 F350.00
G01 X46.8813 Y19.5105 F350.00
G01 X46.8952 Y19.4902 F350.00
G01 X46.9096 Y19.4703 F350.00
G01 X46.9537 Y19.4114 F350.00
G01 X46.9690 Y19.3922 F350.00
G01 X47.0097 Y19.3431 F350.00
G01 X47.0589 Y19.2883 F350.00
G01 X47.0756 Y19.2703 F350.00
G01 X47.1063 Y19.2386 F350.00
G01 X70.8986 Y-4.5537 F350.00
G01 X70.9303 Y-4.5844 F350.00
G01 X70.9483 Y-4.6011 F350.00
G01 X71.0031 Y-4.6503 F350.00
G01 X71.0522 Y-4.6910 F350.00
G01 X71.0714 Y-4.7063 F350.00
G01 X71.0909 Y-4.7212 F350.00
G01 X71.1502 Y-4.7648 F350.00
G01 X71.1705 Y-4.7787 F350.00
G01 X71.2237 Y-4.8139 F350.00
G01 X71.2867 Y-4.8520 F350.00
G01 X71.3079 Y-4.8644 F350.00
G01 X71.3294 Y-4.8762 F350.00
G01 X71.3858 Y-4.9060 F350.00
G01 X71.4522 Y-4.9378 F350.00
G01 X71.4745 Y-4.9480 F350.00
G01 X71.4971 Y-4.9576 F350.00
G01 X71.5561 Y-4.9818 F350.00
G01 X71.6254 Y-5.0069 F350.00
G01 X71.6486 Y-5.0149 F350.00
G01 X71.7095 Y-5.0337 F350.00
G01 X71.7331 Y-5.0405 F350.00
G01 X71.7568 Y-5.0468 F350.00
G01 X71.8283 Y-5.0644 F350.00
G01 X71.8909 Y-5.0771 F350.00
G01 X71.9150 Y-5.0816 F350.00
G01 X71.9392 Y-5.0855 F350.00
G01 X72.0121 Y-5.0960 F350.00
G01 X72.0365 Y-5.0987 F350.00
G01 X72.1000 Y-5.1046 F350.00
G01 X72.1735 Y-5.1086 F350.00
G01 X72.2177 Y-5.1099 F350.00
G01 X72.2422 Y-5.1103 F350.00
G01 X100.0800 Y-5.1103 F350.00
G01 X100.1242 Y-5.1095 F350.00
G01 X100.1977 Y-5.1062 F350.00
G01 X100.2222 Y-5.1046 F350.00
G01 X100.2857 Y-5.0987 F350.00
G01 X100.3101 Y-5.0960 F350.00
G01 X100.3345 Y-5.0927 F350.00
G01 X100.4072 Y-5.0816 F350.00
G01 X100.4314 Y-5.0771 F350.00
G01 X100.4939 Y-5.0644 F350.00
G01 X100.5654 Y-5.0468 F350.00
G01 X100.5891 Y-5.0405 F350.00
G01 X100.6503 Y-5.0223 F350.00
G01 X100.6737 Y-5.0149 F350.00
G01 X100.6969 Y-5.0069 F350.00
G01 X100.7431 Y-4.9903 F350.00
G01 X100.7661 Y-4.9818 F350.00
G01 X100.7889 Y-4.9727 F350.00
G01 X100.8477 Y-4.9480 F350.00
G01 X100.9144 Y-4.9168 F350.00
G01 X100.9364 Y-4.9060 F350.00
G01 X100.9582 Y-4.8947 F350.00
G01 X101.0144 Y-4.8644 F350.00
G01 X101.0777 Y-4.8268 F350.00
G01 X101.0986 Y-4.8139 F350.00
G01 X101.1191 Y-4.8005 F350.00
G01 X101.1720 Y-4.7648 F350.00
G01 X101.1919 Y-4.7504 F350.00
G01 X101.2509 Y-4.7063 F350.00
G01 X101.3004 Y-4.6661 F350.00
G01 X101.3192 Y-4.6503 F350.00
G01 X101.3739 Y-4.6011 F350.00
G01 X101.3919 Y-4.5844 F350.00
G01 X101.4095 Y-4.5672 F350.00
G01 X101.4544 Y-4.5219 F350.00
G01 X101.4711 Y-4.5039 F350.00
G01 X101.5203 Y-4.4492 F350.00
G01 X101.5610 Y-4.4000 F350.00
G01 X101.5763 Y-4.3809 F350.00
G01 X101.5912 Y-4.3613 F350.00
G01 X101.6348 Y-4.3020 F350.00
G01 X101.6705 Y-4.2491 F350.00
G01 X101.6839 Y-4.2286 F350.00
G01 X101.6968 Y-4.2077 F350.00
G01 X101.7344 Y-4.1444 F350.00
G01 X101.7647 Y-4.0882 F350.00
G01 X101.7760 Y-4.0664 F350.00
G01 X101.7868 Y-4.0444 F350.00
G01 X101.8180 Y-3.9777 F350.00
G01 X101.8276 Y-3.9551 F350.00
G01 X101.8518 Y-3.8961 F350.00
G01 X101.8769 Y-3.8269 F350.00
G01 X101.8849 Y-3.8037 F350.00
G01 X101.8923 Y-3.7803 F350.00
G01 X101.9105 Y-3.7191 F350.00
G01 X101.9168 Y-3.6954 F350.00
G01 X101.9344 Y-3.6239 F350.00
G01 X101.9471 Y-3.5614 F350.00
G01 X101.9516 Y-3.5372 F350.00
G01 X101.9627 Y-3.4645 F350.00
G01 X101.9660 Y-3.4401 F350.00
G01 X101.9687 Y-3.4157 F350.00
G01 X101.9746 Y-3.3522 F350.00
G01 X101.9786 Y-3.2787 F350.00
G01 X101.9799 Y-3.2345 F350.00
G01 X101.9803 Y-3.2100 F350.00
G01 X101.9803 Y-2.6747 F350.00
G01 X102.0503 Y-2.5797 F350.00
G01 X102.0860 Y-2.5268 F350.00
G01 X102.0994 Y-2.5062 F350.00
G01 X102.1123 Y-2.4853 F350.00
G01 X102.1627 Y-2.4011 F350.00
G01 X102.1751 Y-2.3799 F350.00
G01 X102.1869 Y-2.3584 F350.00
G01 X102.2167 Y-2.3020 F350.00
G01 X102.2695 Y-2.1913 F350.00
G01 X102.2797 Y-2.1689 F350.00
G01 X102.2894 Y-2.1464 F350.00
G01 X102.3135 Y-2.0873 F350.00
G01 X102.3551 Y-1.9719 F350.00
G01 X102.3631 Y-1.9487 F350.00
G01 X102.3705 Y-1.9253 F350.00
G01 X102.3887 Y-1.8642 F350.00
G01 X102.3950 Y-1.8405 F350.00
G01 X102.4245 Y-1.7214 F350.00
G01 X102.4372 Y-1.6589 F350.00
G01 X102.4417 Y-1.6347 F350.00
G01 X102.4456 Y-1.6105 F350.00
G01 X102.4600 Y-1.5134 F350.00
G01 X102.4633 Y-1.4891 F350.00
G01 X102.4660 Y-1.4647 F350.00
G01 X102.4720 Y-1.4012 F350.00
G01 X102.4735 Y-1.3767 F350.00
G01 X102.4792 Y-1.2542 F350.00
G01 X102.4800 Y-1.2100 F350.00
G01 X102.4800 Y-0.3274 F350.00
G01 X102.9437 Y0.1363 F350.00
G01 X102.9744 Y0.1681 F350.00
G01 X102.9911 Y0.1861 F350.00
G01 X103.0403 Y0.2408 F350.00
G01 X103.0810 Y0.2900 F350.00
G01 X103.0963 Y0.3091 F350.00
G01 X103.1112 Y0.3287 F350.00
G01 X103.1548 Y0.3880 F350.00
G01 X103.1687 Y0.4082 F350.00
G01 X103.2039 Y0.4614 F350.00
G01 X103.2168 Y0.4823 F350.00
G01 X103.2544 Y0.5456 F350.00
G01 X103.2662 Y0.5671 F350.00
G01 X103.2960 Y0.6236 F350.00
G01 X103.3068 Y0.6456 F350.00
G01 X103.3380 Y0.7123 F350.00
G01 X103.3476 Y0.7349 F350.00
G01 X103.3718 Y0.7939 F350.00
G01 X103.3969 Y0.8631 F350.00
G01 X103.4049 Y0.8863 F350.00
G01 X103.4123 Y0.9097 F350.00
G01 X103.4305 Y0.9709 F350.00
G01 X103.4368 Y0.9946 F350.00
G01 X103.4544 Y1.0661 F350.00
G01 X103.4671 Y1.1286 F350.00
G01 X103.4716 Y1.1528 F350.00
G01 X103.4827 Y1.2255 F350.00
G01 X103.4860 Y1.2499 F350.00
G01 X103.4887 Y1.2743 F350.00
G01 X103.4946 Y1.3378 F350.00
G01 X103.4962 Y1.3623 F350.00
G01 X103.4995 Y1.4358 F350.00
G01 X103.5003 Y1.4800 F350.00
G01 X103.5003 Y14.3729 F350.00
G01 X104.1980 Y15.0706 F350.00
G01 X104.3147 Y15.0883 F350.00
G01 X104.3774 Y15.1004 F350.00
G01 X104.4014 Y15.1055 F350.00
G01 X104.4253 Y15.1112 F350.00
G01 X104.5442 Y15.1413 F350.00
G01 X104.6053 Y15.1595 F350.00
G01 X104.6287 Y15.1669 F350.00
G01 X104.6519 Y15.1749 F350.00
G01 X104.7673 Y15.2165 F350.00
G01 X104.8264 Y15.2406 F350.00
G01 X104.8489 Y15.2503 F350.00
G01 X104.8713 Y15.2605 F350.00
G01 X104.9600 Y15.3025 F350.00
G01 X104.9820 Y15.3133 F350.00
G01 X105.0038 Y15.3246 F350.00
G01 X105.0599 Y15.3549 F350.00
G01 X105.1653 Y15.4177 F350.00
G01 X105.1862 Y15.4306 F350.00
G01 X105.2068 Y15.4440 F350.00
G01 X105.2597 Y15.4797 F350.00
G01 X105.3584 Y15.5525 F350.00
G01 X105.3779 Y15.5674 F350.00
G01 X105.3971 Y15.5827 F350.00
G01 X105.4462 Y15.6234 F350.00
G01 X105.5373 Y15.7056 F350.00
G01 X105.5553 Y15.7223 F350.00
G01 X105.6006 Y15.7672 F350.00
G01 X105.6177 Y15.7847 F350.00
G01 X105.6344 Y15.8027 F350.00
G01 X105.7166 Y15.8938 F350.00
G01 X105.7573 Y15.9429 F350.00
G01 X105.7726 Y15.9621 F350.00
G01 X105.8460 Y16.0605 F350.00
G01 X105.8603 Y16.0803 F350.00
G01 X105.8960 Y16.1332 F350.00
G01 X105.9094 Y16.1538 F350.00
G01 X105.9223 Y16.1747 F350.00
G01 X105.9851 Y16.2801 F350.00
G01 X106.0154 Y16.3362 F350.00
G01 X106.0267 Y16.3580 F350.00
G01 X106.0375 Y16.3800 F350.00
G01 X106.0795 Y16.4687 F350.00
G01 X106.0897 Y16.4911 F350.00
G01 X106.0994 Y16.5136 F350.00
G01 X106.1235 Y16.5727 F350.00
G01 X106.1651 Y16.6881 F350.00
G01 X106.1731 Y16.7113 F350.00
G01 X106.1919 Y16.7722 F350.00
G01 X106.1987 Y16.7958 F350.00
G01 X106.2050 Y16.8195 F350.00
G01 X106.2345 Y16.9386 F350.00
G01 X106.2396 Y16.9626 F350.00
G01 X106.2517 Y17.0253 F350.00
G01 X106.2700 Y17.1466 F350.00
G01 X106.2733 Y17.1709 F350.00
G01 X106.2760 Y17.1953 F350.00
G01 X106.2820 Y17.2588 F350.00
G01 X106.2835 Y17.2833 F350.00
G01 X106.2892 Y17.4058 F350.00
G01 X106.2900 Y17.4500 F350.00
G01 X106.2900 Y19.4500 F350.00
G01 X106.2892 Y19.4942 F350.00
G01 X106.2835 Y19.6167 F350.00
G01 X106.2820 Y19.6412 F350.00
G01 X106.2799 Y19.6657 F350.00
G01 X106.2733 Y19.7291 F350.00
G01 X106.2556 Y19.8505 F350.00
G01 X106.2517 Y19.8747 F350.00
G01 X106.2472 Y19.8989 F350.00
G01 X106.2345 Y19.9614 F350.00
G01 X106.2050 Y20.0805 F350.00
G01 X106.1987 Y20.1042 F350.00
G01 X106.1906 Y20.1320 F350.00
G01 X107.3100 Y19.0126 F350.00
G01 X107.3100 Y17.8000 F350.00
G01 X107.3103 Y17.7755 F350.00
G01 X107.3112 Y17.7509 F350.00
G01 X107.3146 Y17.6872 F350.00
G01 X107.3167 Y17.6628 F350.00
G01 X107.3194 Y17.6384 F350.00
G01 X107.3227 Y17.6141 F350.00
G01 X107.3324 Y17.5510 F350.00
G01 X107.3369 Y17.5269 F350.00
G01 X107.3420 Y17.5029 F350.00
G01 X107.3477 Y17.4790 F350.00
G01 X107.3634 Y17.4172 F350.00
G01 X107.3703 Y17.3936 F350.00
G01 X107.3777 Y17.3702 F350.00
G01 X107.3857 Y17.3470 F350.00
G01 X107.4075 Y17.2870 F350.00
G01 X107.4166 Y17.2642 F350.00
G01 X107.4262 Y17.2417 F350.00
G01 X107.4532 Y17.1839 F350.00
G01 X107.4640 Y17.1618 F350.00
G01 X107.4753 Y17.1400 F350.00
G01 X107.4871 Y17.1185 F350.00
G01 X107.5197 Y17.0637 F350.00
G01 X107.5326 Y17.0428 F350.00
G01 X107.5459 Y17.0222 F350.00
G01 X107.5598 Y17.0020 F350.00
G01 X107.5742 Y16.9821 F350.00
G01 X107.6124 Y16.9310 F350.00
G01 X107.6278 Y16.9118 F350.00
G01 X107.6436 Y16.8931 F350.00
G01 X107.6598 Y16.8747 F350.00
G01 X107.7029 Y16.8276 F350.00
G01 X107.7201 Y16.8101 F350.00
G01 X107.7376 Y16.7929 F350.00
G01 X107.7847 Y16.7498 F350.00
G01 X107.8031 Y16.7336 F350.00
G01 X107.8218 Y16.7178 F350.00
G01 X107.8410 Y16.7024 F350.00
G01 X107.8605 Y16.6876 F350.00
G01 X107.9120 Y16.6498 F350.00
G01 X107.9322 Y16.6359 F350.00
G01 X107.9528 Y16.6226 F350.00
G01 X108.0073 Y16.5895 F350.00
G01 X108.0285 Y16.5771 F350.00
G01 X108.0599 Y16.5602 F350.00
G01 X108.0607 Y16.5058 F350.00
G01 X108.0628 Y16.4568 F350.00
G01 X108.0643 Y16.4323 F350.00
G01 X108.0664 Y16.4078 F350.00
G01 X108.0729 Y16.3444 F350.00
G01 X108.0798 Y16.2958 F350.00
G01 X108.0837 Y16.2715 F350.00
G01 X108.0882 Y16.2474 F350.00
G01 X108.1010 Y16.1849 F350.00
G01 X108.1066 Y16.1610 F350.00
G01 X108.1189 Y16.1135 F350.00
G01 X108.1371 Y16.0524 F350.00
G01 X108.1445 Y16.0290 F350.00
G01 X108.1608 Y15.9826 F350.00
G01 X108.1693 Y15.9596 F350.00
G01 X108.1784 Y15.9368 F350.00
G01 X108.2031 Y15.8780 F350.00
G01 X108.2238 Y15.8335 F350.00
G01 X108.2346 Y15.8115 F350.00
G01 X108.2459 Y15.7897 F350.00
G01 X108.2762 Y15.7336 F350.00
G01 X108.3012 Y15.6913 F350.00
G01 X108.3141 Y15.6704 F350.00
G01 X108.3275 Y15.6498 F350.00
G01 X108.3632 Y15.5970 F350.00
G01 X108.3922 Y15.5573 F350.00
G01 X108.4070 Y15.5378 F350.00
G01 X108.4224 Y15.5186 F350.00
G01 X108.4631 Y15.4695 F350.00
G01 X108.4958 Y15.4330 F350.00
G01 X108.5125 Y15.4150 F350.00
G01 X108.5574 Y15.3696 F350.00
G01 X108.5750 Y15.3525 F350.00
G01 X108.5930 Y15.3358 F350.00
G01 X108.6295 Y15.3031 F350.00
G01 X108.6786 Y15.2624 F350.00
G01 X108.6978 Y15.2470 F350.00
G01 X108.7371 Y15.2175 F350.00
G01 X108.7570 Y15.2032 F350.00
G01 X108.7772 Y15.1893 F350.00
G01 X108.8304 Y15.1541 F350.00
G01 X108.8513 Y15.1412 F350.00
G01 X108.8936 Y15.1162 F350.00
G01 X108.9497 Y15.0859 F350.00
G01 X108.9715 Y15.0746 F350.00
G01 X108.9935 Y15.0638 F350.00
G01 X109.0380 Y15.0431 F350.00
G01 X109.0968 Y15.0184 F350.00
G01 X109.1196 Y15.0093 F350.00
G01 X109.1657 Y14.9925 F350.00
G01 X109.1890 Y14.9845 F350.00
G01 X109.2124 Y14.9771 F350.00
G01 X109.2735 Y14.9589 F350.00
G01 X109.3210 Y14.9466 F350.00
G01 X109.3449 Y14.9410 F350.00
G01 X109.3689 Y14.9359 F350.00
G01 X109.4315 Y14.9237 F350.00
G01 X109.4801 Y14.9162 F350.00
G01 X109.5044 Y14.9129 F350.00
G01 X109.5288 Y14.9102 F350.00
G01 X109.5923 Y14.9043 F350.00
G01 X109.6168 Y14.9028 F350.00
G01 X109.6658 Y14.9007 F350.00
G01 X109.7100 Y14.8999 F350.00
G01 X125.4600 Y14.8999 F350.00
G01 X125.5042 Y14.9007 F350.00
G01 X125.5287 Y14.9016 F350.00
G01 X125.5777 Y14.9043 F350.00
G01 X125.6022 Y14.9064 F350.00
G01 X125.6656 Y14.9129 F350.00
G01 X125.7142 Y14.9198 F350.00
G01 X125.7385 Y14.9237 F350.00
G01 X125.8011 Y14.9359 F350.00
G01 X125.8251 Y14.9410 F350.00
G01 X125.8490 Y14.9466 F350.00
G01 X125.8965 Y14.9589 F350.00
G01 X125.9576 Y14.9771 F350.00
G01 X125.9810 Y14.9845 F350.00
G01 X126.0274 Y15.0008 F350.00
G01 X126.0504 Y15.0093 F350.00
G01 X126.1094 Y15.0334 F350.00
G01 X126.1320 Y15.0431 F350.00
G01 X126.1543 Y15.0533 F350.00
G01 X126.1985 Y15.0746 F350.00
G01 X126.2203 Y15.0859 F350.00
G01 X126.2764 Y15.1162 F350.00
G01 X126.3187 Y15.1412 F350.00
G01 X126.3396 Y15.1541 F350.00
G01 X126.3928 Y15.1893 F350.00
G01 X126.4130 Y15.2032 F350.00
G01 X126.4329 Y15.2175 F350.00
G01 X126.4722 Y15.2470 F350.00
G01 X126.5217 Y15.2873 F350.00
G01 X126.5405 Y15.3031 F350.00
G01 X126.5770 Y15.3358 F350.00
G01 X126.5950 Y15.3525 F350.00
G01 X126.6404 Y15.3974 F350.00
G01 X126.6575 Y15.4150 F350.00
G01 X126.6742 Y15.4330 F350.00
G01 X126.7069 Y15.4695 F350.00
G01 X126.7227 Y15.4883 F350.00
G01 X126.7630 Y15.5378 F350.00
G01 X126.7925 Y15.5771 F350.00
G01 X126.8068 Y15.5970 F350.00
G01 X126.8425 Y15.6498 F350.00
G01 X126.8559 Y15.6704 F350.00
G01 X126.8688 Y15.6913 F350.00
G01 X126.8938 Y15.7336 F350.00
G01 X126.9056 Y15.7551 F350.00
G01 X126.9354 Y15.8115 F350.00
G01 X126.9567 Y15.8557 F350.00
G01 X126.9669 Y15.8780 F350.00
G01 X126.9766 Y15.9006 F350.00
G01 X127.0007 Y15.9596 F350.00
G01 X127.0092 Y15.9826 F350.00
G01 X127.0255 Y16.0290 F350.00
G01 X127.0443 Y16.0899 F350.00
G01 X127.0511 Y16.1135 F350.00
G01 X127.0634 Y16.1610 F350.00
G01 X127.0690 Y16.1849 F350.00
G01 X127.0741 Y16.2089 F350.00
G01 X127.0863 Y16.2715 F350.00
G01 X127.0902 Y16.2958 F350.00
G01 X127.0971 Y16.3444 F350.00
G01 X127.0998 Y16.3688 F350.00
G01 X127.1057 Y16.4323 F350.00
G01 X127.1072 Y16.4568 F350.00
G01 X127.1093 Y16.5058 F350.00
G01 X127.1101 Y16.5602 F350.00
G01 X127.1224 Y16.5666 F350.00
G01 X127.1457 Y16.5580 F350.00
G01 X127.2613 Y16.5169 F350.00
G01 X127.3222 Y16.4981 F350.00
G01 X127.3458 Y16.4913 F350.00
G01 X127.3695 Y16.4850 F350.00
G01 X127.4886 Y16.4555 F350.00
G01 X127.5511 Y16.4428 F350.00
G01 X127.5753 Y16.4383 F350.00
G01 X127.5995 Y16.4344 F350.00
G01 X127.6966 Y16.4200 F350.00
G01 X127.7209 Y16.4167 F350.00
G01 X127.7453 Y16.4140 F350.00
G01 X127.8088 Y16.4080 F350.00
G01 X127.8333 Y16.4065 F350.00
G01 X127.9558 Y16.4008 F350.00
G01 X127.9804 Y16.4005 F350.00
G01 X128.0442 Y16.4008 F350.00
G01 X128.1667 Y16.4065 F350.00
G01 X128.1912 Y16.4080 F350.00
G01 X128.2157 Y16.4101 F350.00
G01 X128.2791 Y16.4167 F350.00
G01 X128.3034 Y16.4200 F350.00
G01 X128.4247 Y16.4383 F350.00
G01 X128.4874 Y16.4504 F350.00
G01 X128.5114 Y16.4555 F350.00
G01 X128.5353 Y16.4612 F350.00
G01 X128.6542 Y16.4913 F350.00
G01 X128.7153 Y16.5095 F350.00
G01 X128.7387 Y16.5169 F350.00
G01 X128.8543 Y16.5580 F350.00
G01 X128.8773 Y16.5665 F350.00
G01 X128.9364 Y16.5906 F350.00
G01 X128.9589 Y16.6003 F350.00
G01 X128.9813 Y16.6105 F350.00
G01 X129.0700 Y16.6525 F350.00
G01 X129.0920 Y16.6633 F350.00
G01 X129.1138 Y16.6746 F350.00
G01 X129.1699 Y16.7049 F350.00
G01 X129.2700 Y16.7645 F350.00
G01 X129.3701 Y16.7049 F350.00
G01 X129.3916 Y16.6931 F350.00
G01 X129.4480 Y16.6633 F350.00
G01 X129.5587 Y16.6105 F350.00
G01 X129.5811 Y16.6003 F350.00
G01 X129.6399 Y16.5756 F350.00
G01 X129.6627 Y16.5665 F350.00
G01 X129.7781 Y16.5249 F350.00
G01 X129.8013 Y16.5169 F350.00
G01 X129.8247 Y16.5095 F350.00
G01 X129.8858 Y16.4913 F350.00
G01 X129.9095 Y16.4850 F350.00
G01 X130.0286 Y16.4555 F350.00
G01 X130.0911 Y16.4428 F350.00
G01 X130.1153 Y16.4383 F350.00
G01 X130.1395 Y16.4344 F350.00
G01 X130.2366 Y16.4200 F350.00
G01 X130.2609 Y16.4167 F350.00
G01 X130.3243 Y16.4101 F350.00
G01 X130.3488 Y16.4080 F350.00
G01 X130.3733 Y16.4065 F350.00
G01 X130.4713 Y16.4017 F350.00
G01 X130.4958 Y16.4008 F350.00
G01 X130.5204 Y16.4005 F350.00
G01 X130.5842 Y16.4008 F350.00
G01 X130.7067 Y16.4065 F350.00
G01 X130.7312 Y16.4080 F350.00
G01 X130.7557 Y16.4101 F350.00
G01 X130.8191 Y16.4167 F350.00
G01 X130.8434 Y16.4200 F350.00
G01 X130.9647 Y16.4383 F350.00
G01 X131.0274 Y16.4504 F350.00
G01 X131.0514 Y16.4555 F350.00
G01 X131.1705 Y16.4850 F350.00
G01 X131.1942 Y16.4913 F350.00
G01 X131.2553 Y16.5095 F350.00
G01 X131.2787 Y16.5169 F350.00
G01 X131.3943 Y16.5580 F350.00
G01 X131.4173 Y16.5665 F350.00
G01 X131.4401 Y16.5756 F350.00
G01 X131.4989 Y16.6003 F350.00
G01 X131.5213 Y16.6105 F350.00
G01 X131.6100 Y16.6525 F350.00
G01 X131.6320 Y16.6633 F350.00
G01 X131.6538 Y16.6746 F350.00
G01 X131.7099 Y16.7049 F350.00
G01 X131.8153 Y16.7677 F350.00
G01 X131.8362 Y16.7806 F350.00
G01 X131.8894 Y16.8158 F350.00
G01 X131.9097 Y16.8297 F350.00
G01 X131.9295 Y16.8440 F350.00
G01 X132.0279 Y16.9174 F350.00
G01 X132.0471 Y16.9327 F350.00
G01 X132.0962 Y16.9734 F350.00
G01 X132.1873 Y17.0556 F350.00
G01 X132.2053 Y17.0723 F350.00
G01 X132.2506 Y17.1172 F350.00
G01 X132.2677 Y17.1347 F350.00
G01 X132.2844 Y17.1527 F350.00
G01 X132.3666 Y17.2438 F350.00
G01 X132.3824 Y17.2626 F350.00
G01 X132.4226 Y17.3121 F350.00
G01 X132.4960 Y17.4105 F350.00
G01 X132.5103 Y17.4303 F350.00
G01 X132.5460 Y17.4832 F350.00
G01 X132.5594 Y17.5038 F350.00
G01 X132.5723 Y17.5247 F350.00
G01 X132.6351 Y17.6301 F350.00
G01 X132.6469 Y17.6516 F350.00
G01 X132.6767 Y17.7080 F350.00
G01 X132.7295 Y17.8187 F350.00
G01 X132.7397 Y17.8411 F350.00
G01 X132.7644 Y17.8999 F350.00
G01 X132.7735 Y17.9227 F350.00
G01 X132.7820 Y17.9457 F350.00
G01 X132.8151 Y18.0381 F350.00
G01 X132.8231 Y18.0613 F350.00
G01 X132.8305 Y18.0847 F350.00
G01 X132.8487 Y18.1458 F350.00
G01 X132.8788 Y18.2647 F350.00
G01 X132.8845 Y18.2886 F350.00
G01 X132.8896 Y18.3126 F350.00
G01 X132.9017 Y18.3753 F350.00
G01 X132.9200 Y18.4966 F350.00
G01 X132.9233 Y18.5209 F350.00
G01 X132.9299 Y18.5843 F350.00
G01 X132.9320 Y18.6088 F350.00
G01 X132.9383 Y18.7313 F350.00
G01 X132.9397 Y18.7755 F350.00
G01 X132.9400 Y18.8000 F350.00
G01 X132.9400 Y19.8000 F350.00
G01 X132.9397 Y19.8245 F350.00
G01 X132.9383 Y19.8687 F350.00
G01 X132.9335 Y19.9667 F350.00
G01 X132.9320 Y19.9912 F350.00
G01 X132.9260 Y20.0547 F350.00
G01 X132.9233 Y20.0791 F350.00
G01 X132.9200 Y20.1034 F350.00
G01 X132.9056 Y20.2005 F350.00
G01 X132.9017 Y20.2247 F350.00
G01 X132.8972 Y20.2489 F350.00
G01 X132.8845 Y20.3114 F350.00
G01 X132.8550 Y20.4305 F350.00
G01 X132.8487 Y20.4542 F350.00
G01 X132.8305 Y20.5153 F350.00
G01 X132.8231 Y20.5387 F350.00
G01 X132.8151 Y20.5619 F350.00
G01 X132.7820 Y20.6543 F350.00
G01 X132.7735 Y20.6773 F350.00
G01 X132.7494 Y20.7364 F350.00
G01 X132.7397 Y20.7589 F350.00
G01 X132.7295 Y20.7813 F350.00
G01 X132.6767 Y20.8920 F350.00
G01 X132.6654 Y20.9138 F350.00
G01 X132.6351 Y20.9699 F350.00
G01 X132.5723 Y21.0753 F350.00
G01 X132.5594 Y21.0962 F350.00
G01 X132.5242 Y21.1494 F350.00
G01 X132.5103 Y21.1697 F350.00
G01 X132.4960 Y21.1895 F350.00
G01 X132.4375 Y21.2684 F350.00
G01 X132.4226 Y21.2879 F350.00
G01 X132.4073 Y21.3071 F350.00
G01 X132.3666 Y21.3562 F350.00
G01 X132.2844 Y21.4473 F350.00
G01 X132.2677 Y21.4653 F350.00
G01 X132.2506 Y21.4828 F350.00
G01 X132.2053 Y21.5277 F350.00
G01 X132.1146 Y21.6103 F350.00
G01 X132.0962 Y21.6266 F350.00
G01 X132.0774 Y21.6424 F350.00
G01 X132.0279 Y21.6826 F350.00
G01 X131.9295 Y21.7560 F350.00
G01 X131.9097 Y21.7703 F350.00
G01 X131.8568 Y21.8060 F350.00
G01 X131.8362 Y21.8194 F350.00
G01 X131.8153 Y21.8323 F350.00
G01 X131.7311 Y21.8827 F350.00
G01 X131.7099 Y21.8951 F350.00
G01 X131.6842 Y21.9092 F350.00
G01 X131.7301 Y21.9140 F350.00
G01 X131.8030 Y21.9245 F350.00
G01 X131.8272 Y21.9284 F350.00
G01 X131.8514 Y21.9329 F350.00
G01 X131.9139 Y21.9456 F350.00
G01 X131.9854 Y21.9632 F350.00
G01 X132.0091 Y21.9695 F350.00
G01 X132.0703 Y21.9877 F350.00
G01 X132.0937 Y21.9951 F350.00
G01 X132.1169 Y22.0031 F350.00
G01 X132.1861 Y22.0282 F350.00
G01 X132.2089 Y22.0373 F350.00
G01 X132.2677 Y22.0620 F350.00
G01 X132.3344 Y22.0932 F350.00
G01 X132.3564 Y22.1040 F350.00
G01 X132.3782 Y22.1153 F350.00
G01 X132.4344 Y22.1456 F350.00
G01 X132.4977 Y22.1832 F350.00
G01 X132.5186 Y22.1961 F350.00
G01 X132.5391 Y22.2095 F350.00
G01 X132.5920 Y22.2452 F350.00
G01 X132.6119 Y22.2596 F350.00
G01 X132.6709 Y22.3037 F350.00
G01 X132.6900 Y22.3190 F350.00
G01 X132.7392 Y22.3597 F350.00
G01 X132.7939 Y22.4089 F350.00
G01 X132.8261 Y22.4392 F350.00
G01 X132.8437 Y22.4563 F350.00
G01 X134.3437 Y23.9563 F350.00
G01 X134.3744 Y23.9881 F350.00
G01 X134.3911 Y24.0061 F350.00
G01 X134.4240 Y24.0425 F350.00
G01 X134.4403 Y24.0608 F350.00
G01 X134.4561 Y24.0796 F350.00
G01 X134.4963 Y24.1291 F350.00
G01 X134.5404 Y24.1881 F350.00
G01 X134.5548 Y24.2080 F350.00
G01 X134.5687 Y24.2282 F350.00
G01 X134.6039 Y24.2814 F350.00
G01 X134.6168 Y24.3023 F350.00
G01 X134.6544 Y24.3656 F350.00
G01 X134.6662 Y24.3871 F350.00
G01 X134.6960 Y24.4436 F350.00
G01 X134.7278 Y24.5100 F350.00
G01 X134.7380 Y24.5323 F350.00
G01 X134.7476 Y24.5549 F350.00
G01 X134.7718 Y24.6139 F350.00
G01 X134.7969 Y24.6831 F350.00
G01 X134.8049 Y24.7063 F350.00
G01 X134.8123 Y24.7297 F350.00
G01 X134.8305 Y24.7909 F350.00
G01 X134.8368 Y24.8146 F350.00
G01 X134.8544 Y24.8861 F350.00
G01 X134.8671 Y24.9486 F350.00
G01 X134.8716 Y24.9728 F350.00
G01 X134.8827 Y25.0455 F350.00
G01 X134.8860 Y25.0699 F350.00
G01 X134.8887 Y25.0943 F350.00
G01 X134.8946 Y25.1578 F350.00
G01 X134.8986 Y25.2313 F350.00
G01 X134.8999 Y25.2755 F350.00
G01 X134.9003 Y25.3000 F350.00
G01 X134.9003 Y48.0500 F350.00
G01 X134.8995 Y48.0942 F350.00
G01 X134.8962 Y48.1677 F350.00
G01 X134.8946 Y48.1922 F350.00
G01 X134.8887 Y48.2557 F350.00
G01 X134.8860 Y48.2801 F350.00
G01 X134.8827 Y48.3045 F350.00
G01 X134.8716 Y48.3772 F350.00
G01 X134.8594 Y48.4399 F350.00
G01 X134.8544 Y48.4639 F350.00
G01 X134.8368 Y48.5354 F350.00
G01 X134.8305 Y48.5591 F350.00
G01 X134.8237 Y48.5827 F350.00
G01 X134.8049 Y48.6437 F350.00
G01 X134.7803 Y48.7131 F350.00
G01 X134.7718 Y48.7361 F350.00
G01 X134.7627 Y48.7589 F350.00
G01 X134.7380 Y48.8177 F350.00
G01 X134.7068 Y48.8844 F350.00
G01 X134.6960 Y48.9064 F350.00
G01 X134.6847 Y48.9282 F350.00
G01 X134.6544 Y48.9844 F350.00
G01 X134.6168 Y49.0477 F350.00
G01 X134.6039 Y49.0686 F350.00
G01 X134.5905 Y49.0891 F350.00
G01 X134.5548 Y49.1420 F350.00
G01 X134.5112 Y49.2013 F350.00
G01 X134.4963 Y49.2209 F350.00
G01 X134.4810 Y49.2400 F350.00
G01 X134.4403 Y49.2892 F350.00
G01 X134.3911 Y49.3439 F350.00
G01 X134.3608 Y49.3761 F350.00
G01 X134.3437 Y49.3937 F350.00
G01 X129.8437 Y53.8937 F350.00
G01 X129.8261 Y53.9108 F350.00
G01 X129.7939 Y53.9411 F350.00
G01 X129.7392 Y53.9903 F350.00
G01 X129.6900 Y54.0310 F350.00
G01 X129.6709 Y54.0463 F350.00
G01 X129.6513 Y54.0612 F350.00
G01 X129.5920 Y54.1048 F350.00
G01 X129.5718 Y54.1187 F350.00
G01 X129.5186 Y54.1539 F350.00
G01 X129.4556 Y54.1920 F350.00
G01 X129.4344 Y54.2044 F350.00
G01 X129.4129 Y54.2162 F350.00
G01 X129.3564 Y54.2460 F350.00
G01 X129.2900 Y54.2778 F350.00
G01 X129.2677 Y54.2880 F350.00
G01 X129.2451 Y54.2976 F350.00
G01 X129.1861 Y54.3218 F350.00
G01 X129.1169 Y54.3469 F350.00
G01 X129.0937 Y54.3549 F350.00
G01 X129.0703 Y54.3623 F350.00
G01 X129.0091 Y54.3805 F350.00
G01 X128.9854 Y54.3868 F350.00
G01 X128.9139 Y54.4044 F350.00
G01 X128.8514 Y54.4171 F350.00
G01 X128.8272 Y54.4216 F350.00
G01 X128.7545 Y54.4327 F350.00
G01 X128.7301 Y54.4360 F350.00
G01 X128.7057 Y54.4387 F350.00
G01 X128.6422 Y54.4446 F350.00
G01 X128.6177 Y54.4462 F350.00
G01 X128.5442 Y54.4495 F350.00
G01 X128.5000 Y54.4503 F350.00
G01 X107.8914 Y54.4503 F350.00
G01 X107.8912 Y54.5592 F350.00
G01 X107.9053 Y54.5723 F350.00
G01 X107.9228 Y54.5894 F350.00
G01 X107.9677 Y54.6347 F350.00
G01 X107.9844 Y54.6527 F350.00
G01 X108.0666 Y54.7438 F350.00
G01 X108.0824 Y54.7626 F350.00
G01 X108.1226 Y54.8121 F350.00
G01 X108.1960 Y54.9105 F350.00
G01 X108.2103 Y54.9303 F350.00
G01 X108.2460 Y54.9832 F350.00
G01 X108.2594 Y55.0038 F350.00
G01 X108.2723 Y55.0247 F350.00
G01 X108.3351 Y55.1301 F350.00
G01 X108.3469 Y55.1516 F350.00
G01 X108.3767 Y55.2080 F350.00
G01 X108.4295 Y55.3187 F350.00
G01 X108.4397 Y55.3411 F350.00
G01 X108.4494 Y55.3636 F350.00
G01 X108.4735 Y55.4227 F350.00
G01 X108.5151 Y55.5381 F350.00
G01 X108.5231 Y55.5613 F350.00
G01 X108.5419 Y55.6222 F350.00
G01 X108.5487 Y55.6458 F350.00
G01 X108.5788 Y55.7647 F350.00
G01 X108.5845 Y55.7886 F350.00
G01 X108.5896 Y55.8126 F350.00
G01 X108.6017 Y55.8753 F350.00
G01 X108.6200 Y55.9966 F350.00
G01 X108.6233 Y56.0209 F350.00
G01 X108.6299 Y56.0843 F350.00
G01 X108.6320 Y56.1088 F350.00
G01 X108.6335 Y56.1333 F350.00
G01 X108.6392 Y56.2558 F350.00
G01 X108.6395 Y56.3196 F350.00
G01 X108.6392 Y56.3442 F350.00
G01 X108.6383 Y56.3687 F350.00
G01 X108.6335 Y56.4667 F350.00
G01 X108.6320 Y56.4912 F350.00
G01 X108.6299 Y56.5157 F350.00
G01 X108.6233 Y56.5791 F350.00
G01 X108.6056 Y56.7005 F350.00
G01 X108.6017 Y56.7247 F350.00
G01 X108.5972 Y56.7489 F350.00
G01 X108.5845 Y56.8114 F350.00
G01 X108.5550 Y56.9305 F350.00
G01 X108.5487 Y56.9542 F350.00
G01 X108.5305 Y57.0153 F350.00
G01 X108.5231 Y57.0387 F350.00
G01 X108.4820 Y57.1543 F350.00
G01 X108.4735 Y57.1773 F350.00
G01 X108.4644 Y57.2001 F350.00
G01 X108.4397 Y57.2589 F350.00
G01 X108.3875 Y57.3700 F350.00
G01 X108.3767 Y57.3920 F350.00
G01 X108.3654 Y57.4138 F350.00
G01 X108.3351 Y57.4699 F350.00
G01 X108.2723 Y57.5753 F350.00
G01 X108.2594 Y57.5962 F350.00
G01 X108.2242 Y57.6494 F350.00
G01 X108.2103 Y57.6697 F350.00
G01 X108.1960 Y57.6895 F350.00
G01 X108.1226 Y57.7879 F350.00
G01 X108.1073 Y57.8071 F350.00
G01 X108.0666 Y57.8562 F350.00
G01 X107.9844 Y57.9473 F350.00
G01 X107.9677 Y57.9653 F350.00
G01 X107.9228 Y58.0106 F350.00
G01 X107.9053 Y58.0277 F350.00
G01 X107.8904 Y58.0416 F350.00
G01 X107.8904 Y58.3084 F350.00
G01 X107.9053 Y58.3223 F350.00
G01 X107.9228 Y58.3394 F350.00
G01 X107.9677 Y58.3847 F350.00
G01 X108.0503 Y58.4754 F350.00
G01 X108.0666 Y58.4938 F350.00
G01 X108.0824 Y58.5126 F350.00
G01 X108.1226 Y58.5621 F350.00
G01 X108.1375 Y58.5816 F350.00
G01 X108.2103 Y58.6803 F350.00
G01 X108.2460 Y58.7332 F350.00
G01 X108.2594 Y58.7538 F350.00
G01 X108.2723 Y58.7747 F350.00
G01 X108.3351 Y58.8801 F350.00
G01 X108.3469 Y58.9016 F350.00
G01 X108.3767 Y58.9580 F350.00
G01 X108.4295 Y59.0687 F350.00
G01 X108.4397 Y59.0911 F350.00
G01 X108.4494 Y59.1136 F350.00
G01 X108.4735 Y59.1727 F350.00
G01 X108.5151 Y59.2881 F350.00
G01 X108.5231 Y59.3113 F350.00
G01 X108.5419 Y59.3722 F350.00
G01 X108.5487 Y59.3958 F350.00
G01 X108.5550 Y59.4195 F350.00
G01 X108.5788 Y59.5147 F350.00
G01 X108.5845 Y59.5386 F350.00
G01 X108.5972 Y59.6011 F350.00
G01 X108.6017 Y59.6253 F350.00
G01 X108.6056 Y59.6495 F350.00
G01 X108.6200 Y59.7466 F350.00
G01 X108.6233 Y59.7709 F350.00
G01 X108.6260 Y59.7953 F350.00
G01 X108.6320 Y59.8588 F350.00
G01 X108.6335 Y59.8833 F350.00
G01 X108.6392 Y60.0058 F350.00
G01 X108.6395 Y60.0304 F350.00
G01 X108.6392 Y60.0942 F350.00
G01 X108.6335 Y60.2167 F350.00
G01 X108.6320 Y60.2412 F350.00
G01 X108.6260 Y60.3047 F350.00
G01 X108.6233 Y60.3291 F350.00
G01 X108.6200 Y60.3534 F350.00
G01 X108.6017 Y60.4747 F350.00
G01 X108.5896 Y60.5374 F350.00
G01 X108.5845 Y60.5614 F350.00
G01 X108.5788 Y60.5853 F350.00
G01 X108.5487 Y60.7042 F350.00
G01 X108.5305 Y60.7653 F350.00
G01 X108.5231 Y60.7887 F350.00
G01 X108.4820 Y60.9043 F350.00
G01 X108.4735 Y60.9273 F350.00
G01 X108.4494 Y60.9864 F350.00
G01 X108.4397 Y61.0089 F350.00
G01 X108.4295 Y61.0313 F350.00
G01 X108.3875 Y61.1200 F350.00
G01 X108.3767 Y61.1420 F350.00
G01 X108.3654 Y61.1638 F350.00
G01 X108.3351 Y61.2199 F350.00
G01 X108.3227 Y61.2411 F350.00
G01 X108.2723 Y61.3253 F350.00
G01 X108.2594 Y61.3462 F350.00
G01 X108.2460 Y61.3668 F350.00
G01 X108.2103 Y61.4197 F350.00
G01 X108.1375 Y61.5184 F350.00
G01 X108.1226 Y61.5379 F350.00
G01 X108.1073 Y61.5571 F350.00
G01 X108.0666 Y61.6062 F350.00
G01 X107.9844 Y61.6973 F350.00
G01 X107.9677 Y61.7153 F350.00
G01 X107.9506 Y61.7328 F350.00
G01 X107.9053 Y61.7777 F350.00
G01 X107.8146 Y61.8603 F350.00
G01 X107.7962 Y61.8766 F350.00
G01 X107.7774 Y61.8924 F350.00
G01 X107.7279 Y61.9326 F350.00
G01 X107.6295 Y62.0060 F350.00
G01 X107.6097 Y62.0203 F350.00
G01 X107.5894 Y62.0342 F350.00
G01 X107.5362 Y62.0694 F350.00
G01 X107.4311 Y62.1327 F350.00
G01 X107.4099 Y62.1451 F350.00
G01 X107.3884 Y62.1569 F350.00
G01 X107.3320 Y62.1867 F350.00
G01 X107.2213 Y62.2395 F350.00
G01 X107.1989 Y62.2497 F350.00
G01 X107.1764 Y62.2594 F350.00
G01 X107.1173 Y62.2835 F350.00
G01 X107.0019 Y62.3251 F350.00
G01 X106.9787 Y62.3331 F350.00
G01 X106.9553 Y62.3405 F350.00
G01 X106.8942 Y62.3587 F350.00
G01 X106.7753 Y62.3888 F350.00
G01 X106.7514 Y62.3945 F350.00
G01 X106.7274 Y62.3996 F350.00
G01 X106.6647 Y62.4117 F350.00
G01 X106.5434 Y62.4300 F350.00
G01 X106.5191 Y62.4333 F350.00
G01 X106.4947 Y62.4360 F350.00
G01 X106.4312 Y62.4420 F350.00
G01 X106.3087 Y62.4483 F350.00
G01 X106.2645 Y62.4497 F350.00
G01 X106.2400 Y62.4500 F350.00
G01 X106.0274 Y62.4500 F350.00
G01 X98.0337 Y70.4437 F350.00
G01 X98.0161 Y70.4608 F350.00
G01 X97.9839 Y70.4911 F350.00
G01 X97.9475 Y70.5240 F350.00
G01 X97.9292 Y70.5403 F350.00
G01 X97.9104 Y70.5561 F350.00
G01 X97.8609 Y70.5963 F350.00
G01 X97.8019 Y70.6404 F350.00
G01 X97.7820 Y70.6548 F350.00
G01 X97.7618 Y70.6687 F350.00
G01 X97.7086 Y70.7039 F350.00
G01 X97.6456 Y70.7420 F350.00
G01 X97.6244 Y70.7544 F350.00
G01 X97.6029 Y70.7662 F350.00
G01 X97.5464 Y70.7960 F350.00
G01 X97.4800 Y70.8278 F350.00
G01 X97.4577 Y70.8380 F350.00
G01 X97.4351 Y70.8476 F350.00
G01 X97.3761 Y70.8718 F350.00
G01 X97.3069 Y70.8969 F350.00
G01 X97.2837 Y70.9049 F350.00
G01 X97.2603 Y70.9123 F350.00
G01 X97.1991 Y70.9305 F350.00
G01 X97.1278 Y70.9487 F350.00
G01 X97.1039 Y70.9544 F350.00
G01 X97.0799 Y70.9594 F350.00
G01 X97.0172 Y70.9716 F350.00
G01 X96.9445 Y70.9827 F350.00
G01 X96.9201 Y70.9860 F350.00
G01 X96.8567 Y70.9925 F350.00
G01 X96.8322 Y70.9946 F350.00
G01 X96.7587 Y70.9986 F350.00
G01 X96.7145 Y70.9999 F350.00
G01 X96.6900 Y71.0003 F350.00
G01 X44.5500 Y71.0003 F350.00
G01 X44.5058 Y70.9995 F350.00
G01 X44.4323 Y70.9962 F350.00
G01 X44.4078 Y70.9946 F350.00
G01 X44.3443 Y70.9887 F350.00
G01 X44.3199 Y70.9860 F350.00
G01 X44.2955 Y70.9827 F350.00
G01 X44.2228 Y70.9716 F350.00
G01 X44.1986 Y70.9671 F350.00
G01 X44.1361 Y70.9544 F350.00
G01 X44.0646 Y70.9368 F350.00
G01 X44.0409 Y70.9305 F350.00
G01 X43.9797 Y70.9123 F350.00
G01 X43.9563 Y70.9049 F350.00
G01 X43.9331 Y70.8969 F350.00
G01 X43.8639 Y70.8718 F350.00
G01 X43.8049 Y70.8476 F350.00
G01 X43.7823 Y70.8380 F350.00
G01 X43.7600 Y70.8278 F350.00
G01 X43.6936 Y70.7960 F350.00
G01 X43.6371 Y70.7662 F350.00
G01 X43.6156 Y70.7544 F350.00
G01 X43.5944 Y70.7420 F350.00
G01 X43.5314 Y70.7039 F350.00
G01 X43.4782 Y70.6687 F350.00
G01 X43.4580 Y70.6548 F350.00
G01 X43.3987 Y70.6112 F350.00
G01 X43.3791 Y70.5963 F350.00
G01 X43.3600 Y70.5810 F350.00
G01 X43.3108 Y70.5403 F350.00
G01 X43.2561 Y70.4911 F350.00
G01 X43.2381 Y70.4744 F350.00
G01 X43.2063 Y70.4437 F350.00
G01 X14.1563 Y41.3937 F350.00
G01 X14.1392 Y41.3761 F350.00
G01 X14.1089 Y41.3439 F350.00
G01 X14.0760 Y41.3075 F350.00
G01 X14.0597 Y41.2892 F350.00
G01 X14.0439 Y41.2704 F350.00
G01 X14.0037 Y41.2209 F350.00
G01 X13.9596 Y41.1619 F350.00
G01 X13.9452 Y41.1420 F350.00
G01 X13.9313 Y41.1218 F350.00
G01 X13.8961 Y41.0686 F350.00
G01 X13.8580 Y41.0056 F350.00
G01 X13.8456 Y40.9844 F350.00
G01 X13.8338 Y40.9629 F350.00
G01 X13.8040 Y40.9064 F350.00
G01 X13.7722 Y40.8400 F350.00
G01 X13.7620 Y40.8177 F350.00
G01 X13.7524 Y40.7951 F350.00
G01 X13.7282 Y40.7361 F350.00
G01 X13.7031 Y40.6669 F350.00
G01 X13.6951 Y40.6437 F350.00
G01 X13.6877 Y40.6203 F350.00
G01 X13.6695 Y40.5591 F350.00
G01 X13.6632 Y40.5354 F350.00
G01 X13.6456 Y40.4639 F350.00
G01 X13.6406 Y40.4399 F350.00
G01 X13.6284 Y40.3772 F350.00
G01 X13.6173 Y40.3045 F350.00
G01 X13.6140 Y40.2801 F350.00
G01 X13.6075 Y40.2167 F350.00
G01 X13.6054 Y40.1922 F350.00
G01 X13.6038 Y40.1677 F350.00
G01 X13.6005 Y40.0942 F350.00
G01 X13.5997 Y40.0500 F350.00
G01 X13.5997 Y39.0003 F350.00
G01 X5.6500 Y39.0003 F350.00
G01 X5.6255 Y38.9999 F350.00
G01 X5.5813 Y38.9986 F350.00
G01 X5.5078 Y38.9946 F350.00
G01 X5.4443 Y38.9887 F350.00
G01 X5.4199 Y38.9860 F350.00
G01 X5.3955 Y38.9827 F350.00
G01 X5.3228 Y38.9716 F350.00
G01 X5.2601 Y38.9594 F350.00
G01 X5.2361 Y38.9544 F350.00
G01 X5.2122 Y38.9487 F350.00
G01 X5.1646 Y38.9368 F350.00
G01 X5.1409 Y38.9305 F350.00
G01 X5.1219 Y38.9250 F350.00
G01 X4.0750 Y38.9250 F350.00
G01 X4.0308 Y38.9242 F350.00
G01 X4.0063 Y38.9233 F350.00
G01 X3.9107 Y38.9183 F350.00
G01 X3.8863 Y38.9162 F350.00
G01 X3.8228 Y38.9097 F350.00
G01 X3.7985 Y38.9064 F350.00
G01 X3.7039 Y38.8920 F350.00
G01 X3.6413 Y38.8799 F350.00
G01 X3.6173 Y38.8748 F350.00
G01 X3.5934 Y38.8691 F350.00
G01 X3.5006 Y38.8456 F350.00
G01 X3.4771 Y38.8387 F350.00
G01 X3.4161 Y38.8199 F350.00
G01 X3.3259 Y38.7880 F350.00
G01 X3.3029 Y38.7794 F350.00
G01 X3.2438 Y38.7553 F350.00
G01 X3.2213 Y38.7456 F350.00
G01 X3.1990 Y38.7354 F350.00
G01 X3.1250 Y38.7003 F350.00
G01 X2.3000 Y38.7003 F350.00
G01 X2.2558 Y38.6995 F350.00
G01 X2.1823 Y38.6962 F350.00
G01 X2.1578 Y38.6946 F350.00
G01 X2.1333 Y38.6925 F350.00
G01 X2.0699 Y38.6860 F350.00
G01 X2.0455 Y38.6827 F350.00
G01 X1.9728 Y38.6716 F350.00
G01 X1.9101 Y38.6594 F350.00
G01 X1.8861 Y38.6544 F350.00
G01 X1.8146 Y38.6368 F350.00
G01 X1.7909 Y38.6305 F350.00
G01 X1.7673 Y38.6237 F350.00
G01 X1.7063 Y38.6049 F350.00
G01 X1.6831 Y38.5969 F350.00
G01 X1.6139 Y38.5718 F350.00
G01 X1.5549 Y38.5476 F350.00
G01 X1.5323 Y38.5380 F350.00
G01 X1.5100 Y38.5278 F350.00
G01 X1.4436 Y38.4960 F350.00
G01 X1.4218 Y38.4847 F350.00
G01 X1.3656 Y38.4544 F350.00
G01 X1.3023 Y38.4168 F350.00
G01 X1.2814 Y38.4039 F350.00
G01 X1.2609 Y38.3905 F350.00
G01 X1.2080 Y38.3548 F350.00
G01 X1.1881 Y38.3404 F350.00
G01 X1.1291 Y38.2963 F350.00
G01 X1.0796 Y38.2561 F350.00
G01 X1.0608 Y38.2403 F350.00
G01 X1.0425 Y38.2240 F350.00
G01 X0.9881 Y38.1744 F350.00
G01 X0.9705 Y38.1572 F350.00
G01 X0.9256 Y38.1119 F350.00
G01 X0.8760 Y38.0575 F350.00
G01 X0.8597 Y38.0392 F350.00
G01 X0.8439 Y38.0204 F350.00
G01 X0.8037 Y37.9709 F350.00
G01 X0.7596 Y37.9119 F350.00
G01 X0.7452 Y37.8920 F350.00
G01 X0.7095 Y37.8391 F350.00
G01 X0.6961 Y37.8186 F350.00
G01 X0.6832 Y37.7977 F350.00
G01 X0.6456 Y37.7344 F350.00
G01 X0.6153 Y37.6782 F350.00
G01 X0.6040 Y37.6564 F350.00
G01 X0.5722 Y37.5900 F350.00
G01 X0.5620 Y37.5677 F350.00
G01 X0.5524 Y37.5451 F350.00
G01 X0.5282 Y37.4861 F350.00
G01 X0.5197 Y37.4631 F350.00
G01 X0.4951 Y37.3937 F350.00
G01 X0.4877 Y37.3703 F350.00
G01 X0.4695 Y37.3091 F350.00
G01 X0.4632 Y37.2854 F350.00
G01 X0.4456 Y37.2139 F350.00
G01 X0.4329 Y37.1514 F350.00
G01 X0.4284 Y37.1272 F350.00
G01 X0.4245 Y37.1030 F350.00
G01 X0.4173 Y37.0545 F350.00
G01 X0.4140 Y37.0301 F350.00
G01 X0.4113 Y37.0057 F350.00
G01 X0.4054 Y36.9422 F350.00
G01 X0.4014 Y36.8687 F350.00
G01 X0.4001 Y36.8245 F350.00
G01 X0.3997 Y36.8000 F350.00
G01 X0.3997 Y18.0500 F350.00
G01 X0.4005 Y18.0058 F350.00
G00 Z0.5000
G00 X0.3997 Y18.3003
G01 F250.00
G01 Z-0.0500
G01 F350.00
G01 X-0.2003 Y18.3003 F350.00
G01 X-0.2003 Y19.6003 F350.00
G01 X0.3997 Y19.6003 F350.00
G01 X0.3997 Y20.9003 F350.00
G01 X-0.2003 Y20.9003 F350.00
G01 X-0.2003 Y22.2003 F350.00
G01 X0.3997 Y22.2003 F350.00
G01 X0.3997 Y23.5003 F350.00
G01 X-0.2003 Y23.5003 F350.00
G01 X-0.2003 Y24.8003 F350.00
G01 X0.3997 Y24.8003 F350.00
G01 X0.3997 Y26.1003 F350.00
G01 X-0.2003 Y26.1003 F350.00
G01 X-0.2003 Y27.4003 F350.00
G01 X0.3997 Y27.4003 F350.00
G01 X0.3997 Y28.7003 F350.00
G01 X-0.2003 Y28.7003 F350.00
G01 X-0.2003 Y30.0003 F350.00
G01 X0.3997 Y30.0003 F350.00
G01 X0.3997 Y31.3003 F350.00
G01 X-0.2003 Y31.3003 F350.00
G01 X-0.2003 Y32.6003 F350.00
G01 X0.3997 Y32.6003 F350.00
G01 X0.3997 Y33.9003 F350.00
G01 X-0.2003 Y33.9003 F350.00
G01 X-0.2003 Y35.2003 F350.00
G01 X0.3997 Y35.2003 F350.00
G01 X0.3997 Y36.5003 F350.00
G01 X-0.2003 Y36.5003 F350.00
G01 X0.0080 Y37.8003 F350.00
G01 X0.6848 Y37.8003 F350.00
G00 Z0.5000
G00 X1.1926 Y39.1003
G01 F250.00
G01 Z-0.0500
G01 F350.00
G01 X13.5997 Y39.1003 F350.00
G00 Z0.5000
G00 X13.6327 Y40.4003
G01 F250.00
G01 Z-0.0500
G01 F350.00
G01 X2.8931 Y40.4003 F350.00
G01 X4.5936 Y41.7003 F350.00
G01 X14.4629 Y41.7003 F350.00
G01 X15.7629 Y43.0003 F350.00
G01 X6.2940 Y43.0003 F350.00
G01 X7.9945 Y44.3003 F350.00
G01 X17.0629 Y44.3003 F350.00
G01 X18.3629 Y45.6003 F350.00
G01 X9.6950 Y45.6003 F350.00
G01 X11.3954 Y46.9003 F350.00
G01 X19.6629 Y46.9003 F350.00
G01 X20.9629 Y48.2003 F350.00
G01 X13.0959 Y48.2003 F350.00
G01 X14.7964 Y49.5003 F350.00
G01 X22.2629 Y49.5003 F350.00
G01 X23.5629 Y50.8003 F350.00
G01 X16.4968 Y50.8003 F350.00
G01 X18.1973 Y52.1003 F350.00
G01 X24.8629 Y52.1003 F350.00
G01 X26.1629 Y53.4003 F350.00
G01 X19.8978 Y53.4003 F350.00
G01 X21.5982 Y54.7003 F350.00
G01 X27.4629 Y54.7003 F350.00
G01 X28.7629 Y56.0003 F350.00
G01 X23.2987 Y56.0003 F350.00
G01 X24.9991 Y57.3003 F350.00
G01 X30.0629 Y57.3003 F350.00
G01 X31.3629 Y58.6003 F350.00
G01 X26.6996 Y58.6003 F350.00
G01 X28.4001 Y59.9003 F350.00
G01 X32.6629 Y59.9003 F350.00
G01 X33.9629 Y61.2003 F350.00
G01 X30.1005 Y61.2003 F350.00
G01 X31.8010 Y62.5003 F350.00
G01 X35.2629 Y62.5003 F350.00
G01 X36.5629 Y63.8003 F350.00
G01 X33.5015 Y63.8003 F350.00
G01 X35.2019 Y65.1003 F350.00
G01 X37.8629 Y65.1003 F350.00
G01 X36.9024 Y66.4003 F350.00
G01 X39.1629 Y66.4003 F350.00
G01 X38.6029 Y67.7003 F350.00
G01 X40.4629 Y67.7003 F350.00
G01 X40.3033 Y69.0003 F350.00
G01 X41.7629 Y69.0003 F350.00
G01 X42.0038 Y70.3003 F350.00
G01 X43.0629 Y70.3003 F350.00
G00 Z0.5000
G00 X44.5009 Y71.6003
G01 F250.00
G01 Z-0.0500
G01 F350.00
G01 X96.7391 Y71.6003 F350.00
G00 Z0.5000
G00 X98.1771 Y70.3003
G01 F250.00
G01 Z-0.0500
G01 F350.00
G01 X99.8001 Y70.3003 F350.00
G01 X99.4771 Y69.0003 F350.00
G01 X102.2988 Y69.0003 F350.00
G01 X100.7771 Y67.7003 F350.00
G01 X104.7974 Y67.7003 F350.00
G01 X107.2961 Y66.4003 F350.00
G01 X102.0771 Y66.4003 F350.00
G01 X103.3771 Y65.1003 F350.00
G01 X109.7948 Y65.1003 F350.00
G01 X112.2935 Y63.8003 F350.00
G01 X104.6771 Y63.8003 F350.00
G01 X105.9771 Y62.5003 F350.00
G01 X114.7921 Y62.5003 F350.00
G01 X117.2908 Y61.2003 F350.00
G01 X108.3459 Y61.2003 F350.00
G00 Z0.5000
G00 X108.6343 Y59.9003
G01 F250.00
G01 Z-0.0500
G01 F350.00
G01 X119.7895 Y59.9003 F350.00
G01 X122.2881 Y58.6003 F350.00
G01 X108.1513 Y58.6003 F350.00
G01 X108.4205 Y57.3003 F350.00
G01 X124.7868 Y57.3003 F350.00
G01 X127.2855 Y56.0003 F350.00
G01 X108.6205 Y56.0003 F350.00
G00 Z0.5000
G00 X108.0275 Y54.7003
G01 F250.00
G01 Z-0.0500
G01 F350.00
G01 X129.7747 Y54.7003 F350.00
G01 X130.3371 Y53.4003 F350.00
G01 X131.1856 Y53.4003 F350.00
G01 X131.6371 Y52.1003 F350.00
G01 X132.4856 Y52.1003 F350.00
G01 X132.9371 Y50.8003 F350.00
G01 X133.7856 Y50.8003 F350.00
G01 X134.2371 Y49.5003 F350.00
G01 X135.0365 Y49.5003 F350.00
G00 Z0.5000
G00 X134.8940 Y48.2003
G01 F250.00
G01 Z-0.0500
G01 F350.00
G01 X135.4953 Y48.2003 F350.00
G01 X135.5003 Y46.9003 F350.00
G01 X134.9003 Y46.9003 F350.00
G01 X134.9003 Y45.6003 F350.00
G01 X135.5003 Y45.6003 F350.00
G01 X135.5003 Y44.3003 F350.00
G01 X134.9003 Y44.3003 F350.00
G01 X134.9003 Y43.0003 F350.00
G01 X135.5003 Y43.0003 F350.00
G01 X135.5003 Y41.7003 F350.00
G01 X134.9003 Y41.7003 F350.00
G01 X134.9003 Y40.4003 F350.00
G01 X135.5003 Y40.4003 F350.00
G01 X135.5003 Y39.1003 F350.00
G01 X134.9003 Y39.1003 F350.00
G01 X134.9003 Y37.8003 F350.00
G01 X135.5003 Y37.8003 F350.00
G01 X135.5003 Y36.5003 F350.00
G01 X134.9003 Y36.5003 F350.00
G01 X134.9003 Y35.2003 F350.00
G01 X135.5003 Y35.2003 F350.00
G01 X135.5003 Y33.9003 F350.00
G01 X134.9003 Y33.9003 F350.00
G01 X134.9003 Y32.6003 F350.00
G01 X135.5003 Y32.6003 F350.00
G01 X135.5003 Y31.3003 F350.00
G01 X134.9003 Y31.3003 F350.00
G01 X134.9003 Y30.0003 F350.00
G01 X135.5003 Y30.0003 F350.00
G01 X135.5003 Y28.7003 F350.00
G01 X134.9003 Y28.7003 F350.00
G01 X134.9003 Y27.4003 F350.00
G01 X135.5003 Y27.4003 F350.00
G01 X135.5003 Y26.1003 F350.00
G01 X134.9003 Y26.1003 F350.00
G00 Z0.5000
G00 X134.8330 Y24.8003
G01 F250.00
G01 Z-0.0500
G01 F350.00
G01 X135.4517 Y24.8003 F350.00
G01 X135.0723 Y23.5003 F350.00
G01 X133.8876 Y23.5003 F350.00
G01 X134.6846 Y22.2003 F350.00
G01 X132.5249 Y22.2003 F350.00
G00 Z0.5000
G00 X132.6725 Y20.9003
G01 F250.00
G01 Z-0.0500
G01 F350.00
G01 X134.2969 Y20.9003 F350.00
G01 X133.9092 Y19.6003 F350.00
G01 X132.9400 Y19.6003 F350.00
G00 Z0.5000
G00 X132.8870 Y18.3003
G01 F250.00
G01 Z-0.0500
G01 F350.00
G01 X133.5215 Y18.3003 F350.00
G01 X132.9387 Y17.0003 F350.00
G01 X132.1263 Y17.0003 F350.00
G01 X131.3460 Y15.7003 F350.00
G01 X126.8742 Y15.7003 F350.00
G01 X127.6452 Y13.1003 F350.00
G01 X103.5003 Y13.1003 F350.00
G01 X103.5003 Y11.8003 F350.00
G01 X125.7947 Y11.8003 F350.00
G01 X123.9443 Y10.5003 F350.00
G01 X103.5003 Y10.5003 F350.00
G01 X103.5003 Y9.2003 F350.00
G01 X122.0939 Y9.2003 F350.00
G01 X120.2435 Y7.9003 F350.00
G01 X103.5003 Y7.9003 F350.00
G01 X103.5003 Y6.6003 F350.00
G01 X118.3930 Y6.6003 F350.00
G01 X116.5426 Y5.3003 F350.00
G01 X103.5003 Y5.3003 F350.00
G01 X103.5003 Y4.0003 F350.00
G01 X114.6922 Y4.0003 F350.00
G01 X112.8418 Y2.7003 F350.00
G01 X103.5003 Y2.7003 F350.00
G00 Z0.5000
G00 X103.4980 Y1.4003
G01 F250.00
G01 Z-0.0500
G01 F350.00
G01 X110.9913 Y1.4003 F350.00
G01 X109.1409 Y0.1003 F350.00
G01 X102.9076 Y0.1003 F350.00
G01 X102.4800 Y-1.1997 F350.00
G01 X107.2905 Y-1.1997 F350.00
G01 X105.4401 Y-2.4997 F350.00
G01 X102.1034 Y-2.4997 F350.00
G00 Z0.5000
G00 X101.8861 Y-3.7997
G01 F250.00
G01 Z-0.0500
G01 F350.00
G01 X103.5897 Y-3.7997 F350.00
G01 X101.7392 Y-5.0997 F350.00
G01 X100.2750 Y-5.0997 F350.00
G00 Z0.5000
G00 X98.0903 Y3.1251
G01 F250.00
G01 Z-0.0500
G01 F350.00
G01 X98.0903 Y3.9529 F350.00
G01 X99.3903 Y3.0883 F350.00
G01 X99.3903 Y5.2529 F350.00
G00 Z0.5000
G00 X97.3165 Y3.1791
G01 F250.00
G01 Z-0.0500
G01 F350.00
G01 X99.6997 Y5.5624 F350.00
G01 X99.6997 Y3.1586 F350.00
G01 X99.6553 Y3.1517 F350.00
G01 X99.6311 Y3.1472 F350.00
G01 X99.5686 Y3.1345 F350.00
G01 X99.4495 Y3.1050 F350.00
G01 X99.4258 Y3.0987 F350.00
G01 X99.4022 Y3.0919 F350.00
G01 X99.3413 Y3.0731 F350.00
G01 X99.2257 Y3.0320 F350.00
G01 X99.2027 Y3.0235 F350.00
G01 X99.1436 Y2.9994 F350.00
G01 X99.1211 Y2.9897 F350.00
G01 X99.0987 Y2.9795 F350.00
G01 X98.9880 Y2.9267 F350.00
G01 X98.9316 Y2.8969 F350.00
G01 X98.9101 Y2.8851 F350.00
G01 X98.8100 Y2.8255 F350.00
G01 X98.7099 Y2.8851 F350.00
G01 X98.6884 Y2.8969 F350.00
G01 X98.6320 Y2.9267 F350.00
G01 X98.5213 Y2.9795 F350.00
G01 X98.4989 Y2.9897 F350.00
G01 X98.4401 Y3.0144 F350.00
G01 X98.4173 Y3.0235 F350.00
G01 X98.3943 Y3.0320 F350.00
G01 X98.3019 Y3.0651 F350.00
G01 X98.2787 Y3.0731 F350.00
G01 X98.2553 Y3.0805 F350.00
G01 X98.1942 Y3.0987 F350.00
G01 X98.1705 Y3.1050 F350.00
G01 X98.0514 Y3.1345 F350.00
G01 X97.9889 Y3.1472 F350.00
G01 X97.9647 Y3.1517 F350.00
G01 X97.8434 Y3.1700 F350.00
G01 X97.8191 Y3.1733 F350.00
G01 X97.7947 Y3.1760 F350.00
G01 X97.7312 Y3.1820 F350.00
G01 X97.7067 Y3.1835 F350.00
G01 X97.5842 Y3.1892 F350.00
G01 X97.5204 Y3.1895 F350.00
G01 X97.4958 Y3.1892 F350.00
G01 X97.4713 Y3.1883 F350.00
G01 X97.3733 Y3.1835 F350.00
G01 X97.3488 Y3.1820 F350.00
G01 X97.3165 Y3.1791 F350.00
G00 Z0.5000
G00 X93.5624 Y4.7997
G01 F250.00
G01 Z-0.0500
G01 F350.00
G01 X66.9198 Y4.7997 F350.00
G01 X65.6198 Y6.0997 F350.00
G01 X94.8624 Y6.0997 F350.00
G01 X96.1624 Y7.3997 F350.00
G01 X64.3198 Y7.3997 F350.00
G01 X63.0198 Y8.6997 F350.00
G01 X96.9094 Y8.6997 F350.00
G01 X96.9090 Y9.9997 F350.00
G01 X61.7198 Y9.9997 F350.00
G01 X60.4198 Y11.2997 F350.00
G01 X96.9086 Y11.2997 F350.00
G01 X96.9082 Y12.5997 F350.00
G01 X59.1198 Y12.5997 F350.00
G01 X57.8198 Y13.8997 F350.00
G01 X96.9078 Y13.8997 F350.00
G01 X95.4386 Y15.1997 F350.00
G01 X94.5614 Y15.1997 F350.00
G00 Z0.5000
G00 X92.9911 Y3.4997
G01 F250.00
G01 Z-0.0500
G01 F350.00
G01 X68.2198 Y3.4997 F350.00
G01 X69.5198 Y2.1997 F350.00
G01 X87.9790 Y2.1997 F350.00
G00 Z0.5000
G00 X87.5237 Y0.8997
G01 F250.00
G01 Z-0.0500
G01 F350.00
G01 X70.8198 Y0.8997 F350.00
G01 X72.1198 Y-0.4003 F350.00
G01 X87.5200 Y-0.4003 F350.00
G00 Z0.5000
G00 X87.8186 Y15.1997
G01 F250.00
G01 Z-0.0500
G01 F350.00
G01 X86.9414 Y15.1997 F350.00
G00 Z0.5000
G00 X89.4814 Y15.1997
G01 F250.00
G01 Z-0.0500
G01 F350.00
G01 X90.3586 Y15.1997 F350.00
G00 Z0.5000
G00 X92.0214 Y15.1997
G01 F250.00
G01 Z-0.0500
G01 F350.00
G01 X92.8986 Y15.1997 F350.00
G00 Z0.5000
G00 X92.8972 Y21.6997
G01 F250.00
G01 Z-0.0500
G01 F350.00
G01 X92.0228 Y21.6997 F350.00
G00 Z0.5000
G00 X94.5628 Y21.6997
G01 F250.00
G01 Z-0.0500
G01 F350.00
G01 X95.4372 Y21.6997 F350.00
G01 X95.4129 Y22.9997 F350.00
G01 X50.3503 Y22.9997 F350.00
G01 X50.3503 Y24.2997 F350.00
G01 X94.1129 Y24.2997 F350.00
G01 X92.8129 Y25.5997 F350.00
G01 X50.3503 Y25.5997 F350.00
G01 X50.3503 Y26.8997 F350.00
G01 X91.5129 Y26.8997 F350.00
G01 X90.2129 Y28.1997 F350.00
G01 X50.3503 Y28.1997 F350.00
G00 Z0.5000
G00 X50.7418 Y29.4997
G01 F250.00
G01 Z-0.0500
G01 F350.00
G01 X88.9129 Y29.4997 F350.00
G01 X87.6129 Y30.7997 F350.00
G01 X50.7500 Y30.7997 F350.00
G00 Z0.5000
G00 X50.5900 Y32.0997
G01 F250.00
G01 Z-0.0500
G01 F350.00
G01 X86.3129 Y32.0997 F350.00
G01 X96.5842 Y21.8284 F350.00
G01 X96.5491 Y21.8333 F350.00
G01 X96.5247 Y21.8360 F350.00
G01 X96.4612 Y21.8420 F350.00
G01 X96.4367 Y21.8435 F350.00
G01 X96.3142 Y21.8492 F350.00
G01 X96.2504 Y21.8495 F350.00
G01 X96.2258 Y21.8492 F350.00
G01 X96.2013 Y21.8483 F350.00
G01 X96.0788 Y21.8420 F350.00
G01 X96.0153 Y21.8360 F350.00
G01 X95.9909 Y21.8333 F350.00
G01 X95.9666 Y21.8300 F350.00
G01 X95.8453 Y21.8117 F350.00
G01 X95.8211 Y21.8072 F350.00
G01 X95.7586 Y21.7945 F350.00
G01 X95.6395 Y21.7650 F350.00
G01 X95.6158 Y21.7587 F350.00
G01 X95.5547 Y21.7405 F350.00
G01 X95.5313 Y21.7331 F350.00
G01 X95.5081 Y21.7251 F350.00
G01 X95.4157 Y21.6920 F350.00
G01 X95.3927 Y21.6835 F350.00
G01 X95.3699 Y21.6744 F350.00
G01 X95.3111 Y21.6497 F350.00
G01 X95.2887 Y21.6395 F350.00
G01 X95.1780 Y21.5867 F350.00
G01 X95.1562 Y21.5754 F350.00
G01 X95.1001 Y21.5451 F350.00
G01 X95.0000 Y21.4855 F350.00
G01 X94.8999 Y21.5451 F350.00
G01 X94.8438 Y21.5754 F350.00
G01 X94.8220 Y21.5867 F350.00
G01 X94.8000 Y21.5975 F350.00
G01 X94.6889 Y21.6497 F350.00
G01 X94.6301 Y21.6744 F350.00
G01 X94.6073 Y21.6835 F350.00
G01 X94.5843 Y21.6920 F350.00
G01 X94.4687 Y21.7331 F350.00
G01 X94.4078 Y21.7519 F350.00
G01 X94.3842 Y21.7587 F350.00
G01 X94.3605 Y21.7650 F350.00
G01 X94.2414 Y21.7945 F350.00
G01 X94.1789 Y21.8072 F350.00
G01 X94.1547 Y21.8117 F350.00
G01 X94.1305 Y21.8156 F350.00
G01 X94.0091 Y21.8333 F350.00
G01 X93.9457 Y21.8399 F350.00
G01 X93.9212 Y21.8420 F350.00
G01 X93.8967 Y21.8435 F350.00
G01 X93.7742 Y21.8492 F350.00
G01 X93.7496 Y21.8495 F350.00
G01 X93.6858 Y21.8492 F350.00
G01 X93.5633 Y21.8435 F350.00
G01 X93.5388 Y21.8420 F350.00
G01 X93.5143 Y21.8399 F350.00
G01 X93.4509 Y21.8333 F350.00
G01 X93.3295 Y21.8156 F350.00
G01 X93.3053 Y21.8117 F350.00
G01 X93.2811 Y21.8072 F350.00
G01 X93.2186 Y21.7945 F350.00
G01 X93.0995 Y21.7650 F350.00
G01 X93.0758 Y21.7587 F350.00
G01 X93.0147 Y21.7405 F350.00
G01 X92.9913 Y21.7331 F350.00
G01 X92.8757 Y21.6920 F350.00
G01 X92.8527 Y21.6835 F350.00
G01 X92.8299 Y21.6744 F350.00
G01 X92.7711 Y21.6497 F350.00
G01 X92.6600 Y21.5975 F350.00
G01 X92.6380 Y21.5867 F350.00
G01 X92.6162 Y21.5754 F350.00
G01 X92.5601 Y21.5451 F350.00
G01 X92.4600 Y21.4855 F350.00
G01 X92.3599 Y21.5451 F350.00
G01 X92.3038 Y21.5754 F350.00
G01 X92.2820 Y21.5867 F350.00
G01 X92.2600 Y21.5975 F350.00
G01 X92.1489 Y21.6497 F350.00
G01 X92.0901 Y21.6744 F350.00
G01 X92.0673 Y21.6835 F350.00
G01 X92.0443 Y21.6920 F350.00
G01 X91.9287 Y21.7331 F350.00
G01 X91.8678 Y21.7519 F350.00
G01 X91.8442 Y21.7587 F350.00
G01 X91.8205 Y21.7650 F350.00
G01 X91.7014 Y21.7945 F350.00
G01 X91.6389 Y21.8072 F350.00
G01 X91.6147 Y21.8117 F350.00
G01 X91.5905 Y21.8156 F350.00
G01 X91.4691 Y21.8333 F350.00
G01 X91.4057 Y21.8399 F350.00
G01 X91.3812 Y21.8420 F350.00
G01 X91.3567 Y21.8435 F350.00
G01 X91.2342 Y21.8492 F350.00
G01 X91.2096 Y21.8495 F350.00
G01 X91.1458 Y21.8492 F350.00
G01 X91.0233 Y21.8435 F350.00
G01 X90.9988 Y21.8420 F350.00
G01 X90.9743 Y21.8399 F350.00
G01 X90.9109 Y21.8333 F350.00
G01 X90.7895 Y21.8156 F350.00
G01 X90.7653 Y21.8117 F350.00
G01 X90.7411 Y21.8072 F350.00
G01 X90.6786 Y21.7945 F350.00
G01 X90.5595 Y21.7650 F350.00
G01 X90.5358 Y21.7587 F350.00
G01 X90.4747 Y21.7405 F350.00
G01 X90.4513 Y21.7331 F350.00
G01 X90.3357 Y21.6920 F350.00
G01 X90.3127 Y21.6835 F350.00
G01 X90.2899 Y21.6744 F350.00
G01 X90.2311 Y21.6497 F350.00
G01 X90.1200 Y21.5975 F350.00
G01 X90.0980 Y21.5867 F350.00
G01 X90.0762 Y21.5754 F350.00
G01 X90.0201 Y21.5451 F350.00
G01 X89.9200 Y21.4855 F350.00
G01 X89.8199 Y21.5451 F350.00
G01 X89.7638 Y21.5754 F350.00
G01 X89.7420 Y21.5867 F350.00
G01 X89.7200 Y21.5975 F350.00
G01 X89.6089 Y21.6497 F350.00
G01 X89.5501 Y21.6744 F350.00
G01 X89.5273 Y21.6835 F350.00
G01 X89.5043 Y21.6920 F350.00
G01 X89.3887 Y21.7331 F350.00
G01 X89.3278 Y21.7519 F350.00
G01 X89.3042 Y21.7587 F350.00
G01 X89.2805 Y21.7650 F350.00
G01 X89.1614 Y21.7945 F350.00
G01 X89.0989 Y21.8072 F350.00
G01 X89.0747 Y21.8117 F350.00
G01 X89.0505 Y21.8156 F350.00
G01 X88.9291 Y21.8333 F350.00
G01 X88.8657 Y21.8399 F350.00
G01 X88.8412 Y21.8420 F350.00
G01 X88.8167 Y21.8435 F350.00
G01 X88.6942 Y21.8492 F350.00
G01 X88.6696 Y21.8495 F350.00
G01 X88.6058 Y21.8492 F350.00
G01 X88.4833 Y21.8435 F350.00
G01 X88.4588 Y21.8420 F350.00
G01 X88.4343 Y21.8399 F350.00
G01 X88.3709 Y21.8333 F350.00
G01 X88.2495 Y21.8156 F350.00
G01 X88.2253 Y21.8117 F350.00
G01 X88.2011 Y21.8072 F350.00
G01 X88.1386 Y21.7945 F350.00
G01 X88.0195 Y21.7650 F350.00
G01 X87.9958 Y21.7587 F350.00
G01 X87.9347 Y21.7405 F350.00
G01 X87.9113 Y21.7331 F350.00
G01 X87.7957 Y21.6920 F350.00
G01 X87.7727 Y21.6835 F350.00
G01 X87.7499 Y21.6744 F350.00
G01 X87.6911 Y21.6497 F350.00
G01 X87.5800 Y21.5975 F350.00
G01 X87.5580 Y21.5867 F350.00
G01 X87.5362 Y21.5754 F350.00
G01 X87.4801 Y21.5451 F350.00
G01 X87.3800 Y21.4855 F350.00
G01 X87.2799 Y21.5451 F350.00
G01 X87.2238 Y21.5754 F350.00
G01 X87.2020 Y21.5867 F350.00
G01 X87.1800 Y21.5975 F350.00
G01 X87.0913 Y21.6395 F350.00
G01 X87.0689 Y21.6497 F350.00
G01 X87.0464 Y21.6594 F350.00
G01 X86.9873 Y21.6835 F350.00
G01 X86.8719 Y21.7251 F350.00
G01 X86.8487 Y21.7331 F350.00
G01 X86.7878 Y21.7519 F350.00
G01 X86.7642 Y21.7587 F350.00
G01 X86.7405 Y21.7650 F350.00
G01 X86.6214 Y21.7945 F350.00
G01 X86.5589 Y21.8072 F350.00
G01 X86.5347 Y21.8117 F350.00
G01 X86.5105 Y21.8156 F350.00
G01 X86.3891 Y21.8333 F350.00
G01 X86.3257 Y21.8399 F350.00
G01 X86.3012 Y21.8420 F350.00
G01 X86.1787 Y21.8483 F350.00
G01 X86.1542 Y21.8492 F350.00
G01 X86.1296 Y21.8495 F350.00
G01 X86.0658 Y21.8492 F350.00
G01 X85.9433 Y21.8435 F350.00
G01 X85.9188 Y21.8420 F350.00
G01 X85.8943 Y21.8399 F350.00
G01 X85.8309 Y21.8333 F350.00
G01 X85.8066 Y21.8300 F350.00
G01 X85.6853 Y21.8117 F350.00
G01 X85.6611 Y21.8072 F350.00
G01 X85.5986 Y21.7945 F350.00
G01 X85.4795 Y21.7650 F350.00
G01 X85.4558 Y21.7587 F350.00
G01 X85.4322 Y21.7519 F350.00
G01 X85.3713 Y21.7331 F350.00
G01 X85.2557 Y21.6920 F350.00
G01 X85.2327 Y21.6835 F350.00
G01 X85.1736 Y21.6594 F350.00
G01 X85.1511 Y21.6497 F350.00
G01 X85.1287 Y21.6395 F350.00
G01 X85.0180 Y21.5867 F350.00
G01 X84.9962 Y21.5754 F350.00
G01 X84.9401 Y21.5451 F350.00
G01 X84.8347 Y21.4823 F350.00
G01 X84.8138 Y21.4694 F350.00
G01 X84.7606 Y21.4342 F350.00
G01 X84.7403 Y21.4203 F350.00
G01 X84.7205 Y21.4060 F350.00
G01 X84.6416 Y21.3475 F350.00
G01 X84.6221 Y21.3326 F350.00
G01 X84.6029 Y21.3173 F350.00
G01 X84.5538 Y21.2766 F350.00
G01 X84.4627 Y21.1944 F350.00
G01 X84.4447 Y21.1777 F350.00
G01 X84.4272 Y21.1606 F350.00
G01 X84.3823 Y21.1153 F350.00
G01 X84.2997 Y21.0246 F350.00
G01 X84.2834 Y21.0062 F350.00
G01 X84.2676 Y20.9874 F350.00
G01 X84.2274 Y20.9379 F350.00
G01 X84.1540 Y20.8395 F350.00
G01 X84.1397 Y20.8197 F350.00
G01 X84.1040 Y20.7668 F350.00
G01 X84.0906 Y20.7462 F350.00
G01 X84.0777 Y20.7253 F350.00
G01 X84.0149 Y20.6199 F350.00
G01 X83.9846 Y20.5638 F350.00
G01 X83.9733 Y20.5420 F350.00
G01 X83.9205 Y20.4313 F350.00
G01 X83.9103 Y20.4089 F350.00
G01 X83.8856 Y20.3501 F350.00
G01 X83.8765 Y20.3273 F350.00
G01 X83.8680 Y20.3043 F350.00
G01 X83.8349 Y20.2119 F350.00
G01 X83.8269 Y20.1887 F350.00
G01 X83.8195 Y20.1653 F350.00
G01 X83.8013 Y20.1042 F350.00
G01 X83.7712 Y19.9853 F350.00
G01 X83.7655 Y19.9614 F350.00
G01 X83.7604 Y19.9374 F350.00
G01 X83.7483 Y19.8747 F350.00
G01 X83.7300 Y19.7534 F350.00
G01 X83.7267 Y19.7291 F350.00
G01 X83.7240 Y19.7047 F350.00
G01 X83.7180 Y19.6412 F350.00
G01 X83.7117 Y19.5187 F350.00
G01 X83.7103 Y19.4745 F350.00
G01 X83.7100 Y19.4500 F350.00
G01 X83.7100 Y17.4500 F350.00
G01 X83.7103 Y17.4255 F350.00
G01 X83.7117 Y17.3813 F350.00
G01 X83.7180 Y17.2588 F350.00
G01 X83.7240 Y17.1953 F350.00
G01 X83.7267 Y17.1709 F350.00
G01 X83.7300 Y17.1466 F350.00
G01 X83.7483 Y17.0253 F350.00
G01 X83.7604 Y16.9626 F350.00
G01 X83.7655 Y16.9386 F350.00
G01 X83.7950 Y16.8195 F350.00
G01 X83.8013 Y16.7958 F350.00
G01 X83.8081 Y16.7722 F350.00
G01 X83.8269 Y16.7113 F350.00
G01 X83.8680 Y16.5957 F350.00
G01 X83.8765 Y16.5727 F350.00
G01 X83.8856 Y16.5499 F350.00
G01 X83.9103 Y16.4911 F350.00
G01 X83.9625 Y16.3800 F350.00
G01 X83.9733 Y16.3580 F350.00
G01 X83.9846 Y16.3362 F350.00
G01 X84.0149 Y16.2801 F350.00
G01 X84.0777 Y16.1747 F350.00
G01 X84.0906 Y16.1538 F350.00
G01 X84.1040 Y16.1332 F350.00
G01 X84.1397 Y16.0803 F350.00
G01 X84.2125 Y15.9816 F350.00
G01 X84.2274 Y15.9621 F350.00
G01 X84.2427 Y15.9429 F350.00
G01 X84.2834 Y15.8938 F350.00
G01 X84.3656 Y15.8027 F350.00
G01 X84.3823 Y15.7847 F350.00
G01 X84.3994 Y15.7672 F350.00
G01 X84.4447 Y15.7223 F350.00
G01 X84.5354 Y15.6397 F350.00
G01 X84.5538 Y15.6234 F350.00
G01 X84.5726 Y15.6076 F350.00
G01 X84.6221 Y15.5674 F350.00
G01 X84.7205 Y15.4940 F350.00
G01 X84.7403 Y15.4797 F350.00
G01 X84.7606 Y15.4658 F350.00
G01 X84.8138 Y15.4306 F350.00
G01 X84.9189 Y15.3673 F350.00
G01 X84.9401 Y15.3549 F350.00
G01 X84.9616 Y15.3431 F350.00
G01 X85.0180 Y15.3133 F350.00
G01 X85.1287 Y15.2605 F350.00
G01 X85.1511 Y15.2503 F350.00
G01 X85.1736 Y15.2406 F350.00
G01 X85.2327 Y15.2165 F350.00
G01 X85.3481 Y15.1749 F350.00
G01 X85.3713 Y15.1669 F350.00
G01 X85.3947 Y15.1595 F350.00
G01 X85.4558 Y15.1413 F350.00
G01 X85.5747 Y15.1112 F350.00
G01 X85.5986 Y15.1055 F350.00
G01 X85.6226 Y15.1004 F350.00
G01 X85.6853 Y15.0883 F350.00
G01 X85.8066 Y15.0700 F350.00
G01 X85.8309 Y15.0667 F350.00
G01 X85.8553 Y15.0640 F350.00
G01 X85.9188 Y15.0580 F350.00
G01 X85.9433 Y15.0565 F350.00
G01 X86.0658 Y15.0508 F350.00
G01 X86.0904 Y15.0505 F350.00
G01 X86.1542 Y15.0508 F350.00
G01 X86.2767 Y15.0565 F350.00
G01 X86.3012 Y15.0580 F350.00
G01 X86.3647 Y15.0640 F350.00
G01 X86.3891 Y15.0667 F350.00
G01 X86.4134 Y15.0700 F350.00
G01 X86.5347 Y15.0883 F350.00
G01 X86.5974 Y15.1004 F350.00
G01 X86.6214 Y15.1055 F350.00
G01 X86.7405 Y15.1350 F350.00
G01 X86.7642 Y15.1413 F350.00
G01 X86.8253 Y15.1595 F350.00
G01 X86.8487 Y15.1669 F350.00
G01 X86.8719 Y15.1749 F350.00
G01 X86.9643 Y15.2080 F350.00
G01 X86.9873 Y15.2165 F350.00
G01 X87.0101 Y15.2256 F350.00
G01 X87.0689 Y15.2503 F350.00
G01 X87.0913 Y15.2605 F350.00
G01 X87.2020 Y15.3133 F350.00
G01 X87.2238 Y15.3246 F350.00
G01 X87.2799 Y15.3549 F350.00
G01 X87.3800 Y15.4145 F350.00
G01 X87.4801 Y15.3549 F350.00
G01 X87.5362 Y15.3246 F350.00
G01 X87.5580 Y15.3133 F350.00
G01 X87.5800 Y15.3025 F350.00
G01 X87.6911 Y15.2503 F350.00
G01 X87.7499 Y15.2256 F350.00
G01 X87.7727 Y15.2165 F350.00
G01 X87.7957 Y15.2080 F350.00
G01 X87.9113 Y15.1669 F350.00
G01 X87.9722 Y15.1481 F350.00
G01 X87.9958 Y15.1413 F350.00
G01 X88.0195 Y15.1350 F350.00
G01 X88.1386 Y15.1055 F350.00
G01 X88.2011 Y15.0928 F350.00
G01 X88.2253 Y15.0883 F350.00
G01 X88.2495 Y15.0844 F350.00
G01 X88.3709 Y15.0667 F350.00
G01 X88.4343 Y15.0601 F350.00
G01 X88.4588 Y15.0580 F350.00
G01 X88.4833 Y15.0565 F350.00
G01 X88.6058 Y15.0508 F350.00
G01 X88.6304 Y15.0505 F350.00
G01 X88.6942 Y15.0508 F350.00
G01 X88.8167 Y15.0565 F350.00
G01 X88.8412 Y15.0580 F350.00
G01 X88.8657 Y15.0601 F350.00
G01 X88.9291 Y15.0667 F350.00
G01 X89.0505 Y15.0844 F350.00
G01 X89.0747 Y15.0883 F350.00
G01 X89.0989 Y15.0928 F350.00
G01 X89.1614 Y15.1055 F350.00
G01 X89.2805 Y15.1350 F350.00
G01 X89.3042 Y15.1413 F350.00
G01 X89.3653 Y15.1595 F350.00
G01 X89.3887 Y15.1669 F350.00
G01 X89.5043 Y15.2080 F350.00
G01 X89.5273 Y15.2165 F350.00
G01 X89.5501 Y15.2256 F350.00
G01 X89.6089 Y15.2503 F350.00
G01 X89.7200 Y15.3025 F350.00
G01 X89.7420 Y15.3133 F350.00
G01 X89.7638 Y15.3246 F350.00
G01 X89.8199 Y15.3549 F350.00
G01 X89.9200 Y15.4145 F350.00
G01 X90.0201 Y15.3549 F350.00
G01 X90.0762 Y15.3246 F350.00
G01 X90.0980 Y15.3133 F350.00
G01 X90.1200 Y15.3025 F350.00
G01 X90.2311 Y15.2503 F350.00
G01 X90.2899 Y15.2256 F350.00
G01 X90.3127 Y15.2165 F350.00
G01 X90.3357 Y15.2080 F350.00
G01 X90.4513 Y15.1669 F350.00
G01 X90.5122 Y15.1481 F350.00
G01 X90.5358 Y15.1413 F350.00
G01 X90.5595 Y15.1350 F350.00
G01 X90.6786 Y15.1055 F350.00
G01 X90.7411 Y15.0928 F350.00
G01 X90.7653 Y15.0883 F350.00
G01 X90.7895 Y15.0844 F350.00
G01 X90.8866 Y15.0700 F350.00
G01 X90.9109 Y15.0667 F350.00
G01 X90.9353 Y15.0640 F350.00
G01 X90.9988 Y15.0580 F350.00
G01 X91.1213 Y15.0517 F350.00
G01 X91.1458 Y15.0508 F350.00
G01 X91.1704 Y15.0505 F350.00
G01 X91.2342 Y15.0508 F350.00
G01 X91.2587 Y15.0517 F350.00
G01 X91.3812 Y15.0580 F350.00
G01 X91.4057 Y15.0601 F350.00
G01 X91.4691 Y15.0667 F350.00
G01 X91.5905 Y15.0844 F350.00
G01 X91.6147 Y15.0883 F350.00
G01 X91.6389 Y15.0928 F350.00
G01 X91.7014 Y15.1055 F350.00
G01 X91.8205 Y15.1350 F350.00
G01 X91.8442 Y15.1413 F350.00
G01 X91.9053 Y15.1595 F350.00
G01 X91.9287 Y15.1669 F350.00
G01 X92.0443 Y15.2080 F350.00
G01 X92.0673 Y15.2165 F350.00
G01 X92.0901 Y15.2256 F350.00
G01 X92.1489 Y15.2503 F350.00
G01 X92.2600 Y15.3025 F350.00
G01 X92.2820 Y15.3133 F350.00
G01 X92.3038 Y15.3246 F350.00
G01 X92.3599 Y15.3549 F350.00
G01 X92.4600 Y15.4145 F350.00
G01 X92.5601 Y15.3549 F350.00
G01 X92.6162 Y15.3246 F350.00
G01 X92.6380 Y15.3133 F350.00
G01 X92.6600 Y15.3025 F350.00
G01 X92.7487 Y15.2605 F350.00
G01 X92.7711 Y15.2503 F350.00
G01 X92.7936 Y15.2406 F350.00
G01 X92.8527 Y15.2165 F350.00
G01 X92.9681 Y15.1749 F350.00
G01 X92.9913 Y15.1669 F350.00
G01 X93.0522 Y15.1481 F350.00
G01 X93.0758 Y15.1413 F350.00
G01 X93.0995 Y15.1350 F350.00
G01 X93.2186 Y15.1055 F350.00
G01 X93.2811 Y15.0928 F350.00
G01 X93.3053 Y15.0883 F350.00
G01 X93.3295 Y15.0844 F350.00
G01 X93.4509 Y15.0667 F350.00
G01 X93.4753 Y15.0640 F350.00
G01 X93.5388 Y15.0580 F350.00
G01 X93.5633 Y15.0565 F350.00
G01 X93.6858 Y15.0508 F350.00
G01 X93.7496 Y15.0505 F350.00
G01 X93.7742 Y15.0508 F350.00
G01 X93.7987 Y15.0517 F350.00
G01 X93.9212 Y15.0580 F350.00
G01 X93.9457 Y15.0601 F350.00
G01 X94.0091 Y15.0667 F350.00
G01 X94.1305 Y15.0844 F350.00
G01 X94.1547 Y15.0883 F350.00
G01 X94.1789 Y15.0928 F350.00
G01 X94.2414 Y15.1055 F350.00
G01 X94.2653 Y15.1112 F350.00
G01 X94.3842 Y15.1413 F350.00
G01 X94.4453 Y15.1595 F350.00
G01 X94.4687 Y15.1669 F350.00
G01 X94.4919 Y15.1749 F350.00
G01 X94.5843 Y15.2080 F350.00
G01 X94.6073 Y15.2165 F350.00
G01 X94.6301 Y15.2256 F350.00
G01 X94.6889 Y15.2503 F350.00
G01 X94.7113 Y15.2605 F350.00
G01 X94.8220 Y15.3133 F350.00
G01 X94.8438 Y15.3246 F350.00
G01 X94.8999 Y15.3549 F350.00
G01 X95.0000 Y15.4145 F350.00
G01 X95.1001 Y15.3549 F350.00
G01 X95.1562 Y15.3246 F350.00
G01 X95.1780 Y15.3133 F350.00
G01 X95.2000 Y15.3025 F350.00
G01 X95.2887 Y15.2605 F350.00
G01 X95.3111 Y15.2503 F350.00
G01 X95.3336 Y15.2406 F350.00
G01 X95.3927 Y15.2165 F350.00
G01 X95.5081 Y15.1749 F350.00
G01 X95.5313 Y15.1669 F350.00
G01 X95.5547 Y15.1595 F350.00
G01 X95.6158 Y15.1413 F350.00
G01 X95.6395 Y15.1350 F350.00
G01 X95.7586 Y15.1055 F350.00
G01 X95.7826 Y15.1004 F350.00
G01 X95.8453 Y15.0883 F350.00
G01 X95.9666 Y15.0700 F350.00
G01 X95.9909 Y15.0667 F350.00
G01 X96.0153 Y15.0640 F350.00
G01 X96.0788 Y15.0580 F350.00
G01 X96.1033 Y15.0565 F350.00
G01 X96.2258 Y15.0508 F350.00
G01 X96.2504 Y15.0505 F350.00
G01 X96.3142 Y15.0508 F350.00
G01 X96.4367 Y15.0565 F350.00
G01 X96.4612 Y15.0580 F350.00
G01 X96.4857 Y15.0601 F350.00
G01 X96.5491 Y15.0667 F350.00
G01 X96.5734 Y15.0700 F350.00
G01 X96.6947 Y15.0883 F350.00
G01 X96.7574 Y15.1004 F350.00
G01 X96.7814 Y15.1055 F350.00
G01 X96.8053 Y15.1112 F350.00
G01 X96.9074 Y15.1368 F350.00
G01 X96.9096 Y8.1470 F350.00
G01 X93.5463 Y4.7837 F350.00
G01 X93.5292 Y4.7661 F350.00
G01 X93.4989 Y4.7339 F350.00
G01 X93.4497 Y4.6792 F350.00
G01 X93.4090 Y4.6300 F350.00
G01 X93.3937 Y4.6109 F350.00
G01 X93.3496 Y4.5519 F350.00
G01 X93.3352 Y4.5320 F350.00
G01 X93.2995 Y4.4791 F350.00
G01 X93.2861 Y4.4586 F350.00
G01 X93.2732 Y4.4377 F350.00
G01 X93.2356 Y4.3744 F350.00
G01 X93.2053 Y4.3182 F350.00
G01 X93.1940 Y4.2964 F350.00
G01 X93.1832 Y4.2744 F350.00
G01 X93.1520 Y4.2077 F350.00
G01 X93.1424 Y4.1851 F350.00
G01 X93.1182 Y4.1261 F350.00
G01 X93.0931 Y4.0569 F350.00
G01 X93.0851 Y4.0337 F350.00
G01 X93.0777 Y4.0103 F350.00
G01 X93.0595 Y3.9491 F350.00
G01 X93.0532 Y3.9254 F350.00
G01 X93.0356 Y3.8539 F350.00
G01 X93.0229 Y3.7914 F350.00
G01 X93.0184 Y3.7672 F350.00
G01 X93.0073 Y3.6945 F350.00
G01 X93.0040 Y3.6701 F350.00
G01 X93.0013 Y3.6457 F350.00
G01 X92.9954 Y3.5822 F350.00
G01 X92.9914 Y3.5087 F350.00
G01 X92.9901 Y3.4645 F350.00
G01 X92.9897 Y3.4400 F350.00
G01 X92.9897 Y3.1301 F350.00
G01 X92.9714 Y3.1345 F350.00
G01 X92.9474 Y3.1396 F350.00
G01 X92.8847 Y3.1517 F350.00
G01 X92.7634 Y3.1700 F350.00
G01 X92.7391 Y3.1733 F350.00
G01 X92.6757 Y3.1799 F350.00
G01 X92.6512 Y3.1820 F350.00
G01 X92.6267 Y3.1835 F350.00
G01 X92.5042 Y3.1892 F350.00
G01 X92.4796 Y3.1895 F350.00
G01 X92.4158 Y3.1892 F350.00
G01 X92.2933 Y3.1835 F350.00
G01 X92.2688 Y3.1820 F350.00
G01 X92.2443 Y3.1799 F350.00
G01 X92.1809 Y3.1733 F350.00
G01 X92.1566 Y3.1700 F350.00
G01 X92.0353 Y3.1517 F350.00
G01 X92.0111 Y3.1472 F350.00
G01 X91.9486 Y3.1345 F350.00
G01 X91.8295 Y3.1050 F350.00
G01 X91.8058 Y3.0987 F350.00
G01 X91.7447 Y3.0805 F350.00
G01 X91.7213 Y3.0731 F350.00
G01 X91.6057 Y3.0320 F350.00
G01 X91.5827 Y3.0235 F350.00
G01 X91.5599 Y3.0144 F350.00
G01 X91.5011 Y2.9897 F350.00
G01 X91.4787 Y2.9795 F350.00
G01 X91.3680 Y2.9267 F350.00
G01 X91.3462 Y2.9154 F350.00
G01 X91.2901 Y2.8851 F350.00
G01 X91.1900 Y2.8255 F350.00
G01 X91.0899 Y2.8851 F350.00
G01 X91.0338 Y2.9154 F350.00
G01 X91.0120 Y2.9267 F350.00
G01 X90.9013 Y2.9795 F350.00
G01 X90.8789 Y2.9897 F350.00
G01 X90.8201 Y3.0144 F350.00
G01 X90.7973 Y3.0235 F350.00
G01 X90.7743 Y3.0320 F350.00
G01 X90.6819 Y3.0651 F350.00
G01 X90.6587 Y3.0731 F350.00
G01 X90.6353 Y3.0805 F350.00
G01 X90.5742 Y3.0987 F350.00
G01 X90.5505 Y3.1050 F350.00
G01 X90.4314 Y3.1345 F350.00
G01 X90.4074 Y3.1396 F350.00
G01 X90.3447 Y3.1517 F350.00
G01 X90.2234 Y3.1700 F350.00
G01 X90.1991 Y3.1733 F350.00
G01 X90.1747 Y3.1760 F350.00
G01 X90.1112 Y3.1820 F350.00
G01 X89.9887 Y3.1883 F350.00
G01 X89.9642 Y3.1892 F350.00
G01 X89.9396 Y3.1895 F350.00
G01 X89.8758 Y3.1892 F350.00
G01 X89.7533 Y3.1835 F350.00
G01 X89.7288 Y3.1820 F350.00
G01 X89.6653 Y3.1760 F350.00
G01 X89.6409 Y3.1733 F350.00
G01 X89.6166 Y3.1700 F350.00
G01 X89.4953 Y3.1517 F350.00
G01 X89.4711 Y3.1472 F350.00
G01 X89.4086 Y3.1345 F350.00
G01 X89.2895 Y3.1050 F350.00
G01 X89.2658 Y3.0987 F350.00
G01 X89.2047 Y3.0805 F350.00
G01 X89.1813 Y3.0731 F350.00
G01 X89.1581 Y3.0651 F350.00
G01 X89.0657 Y3.0320 F350.00
G01 X89.0427 Y3.0235 F350.00
G01 X89.0199 Y3.0144 F350.00
G01 X88.9611 Y2.9897 F350.00
G01 X88.9387 Y2.9795 F350.00
G01 X88.8280 Y2.9267 F350.00
G01 X88.8062 Y2.9154 F350.00
G01 X88.7501 Y2.8851 F350.00
G01 X88.6447 Y2.8223 F350.00
G01 X88.6238 Y2.8094 F350.00
G01 X88.5706 Y2.7742 F350.00
G01 X88.5503 Y2.7603 F350.00
G01 X88.5305 Y2.7460 F350.00
G01 X88.4321 Y2.6726 F350.00
G01 X88.3826 Y2.6324 F350.00
G01 X88.3638 Y2.6166 F350.00
G01 X88.2727 Y2.5344 F350.00
G01 X88.2547 Y2.5177 F350.00
G01 X88.2094 Y2.4728 F350.00
G01 X88.1923 Y2.4553 F350.00
G01 X88.1756 Y2.4373 F350.00
G01 X88.1097 Y2.3646 F350.00
G01 X88.0934 Y2.3462 F350.00
G01 X88.0776 Y2.3274 F350.00
G01 X88.0374 Y2.2779 F350.00
G01 X87.9640 Y2.1795 F350.00
G01 X87.9497 Y2.1597 F350.00
G01 X87.9140 Y2.1068 F350.00
G01 X87.9006 Y2.0862 F350.00
G01 X87.8877 Y2.0653 F350.00
G01 X87.8249 Y1.9599 F350.00
G01 X87.8131 Y1.9384 F350.00
G01 X87.7833 Y1.8820 F350.00
G01 X87.7305 Y1.7713 F350.00
G01 X87.7203 Y1.7489 F350.00
G01 X87.6956 Y1.6901 F350.00
G01 X87.6865 Y1.6673 F350.00
G01 X87.6780 Y1.6443 F350.00
G01 X87.6369 Y1.5287 F350.00
G01 X87.6181 Y1.4678 F350.00
G01 X87.6113 Y1.4442 F350.00
G01 X87.6050 Y1.4205 F350.00
G01 X87.5755 Y1.3014 F350.00
G01 X87.5628 Y1.2389 F350.00
G01 X87.5583 Y1.2147 F350.00
G01 X87.5400 Y1.0934 F350.00
G01 X87.5367 Y1.0691 F350.00
G01 X87.5301 Y1.0057 F350.00
G01 X87.5280 Y0.9812 F350.00
G01 X87.5265 Y0.9567 F350.00
G01 X87.5217 Y0.8587 F350.00
G01 X87.5203 Y0.8145 F350.00
G01 X87.5200 Y0.7900 F350.00
G01 X87.5200 Y-1.2100 F350.00
G01 X87.5208 Y-1.2542 F350.00
G01 X87.5232 Y-1.3097 F350.00
G01 X73.0293 Y-1.3097 F350.00
G01 X50.3503 Y21.3693 F350.00
G01 X50.3503 Y28.6706 F350.00
G01 X50.3738 Y28.6956 F350.00
G01 X50.4002 Y28.7247 F350.00
G01 X50.4164 Y28.7431 F350.00
G01 X50.4322 Y28.7618 F350.00
G01 X50.4476 Y28.7810 F350.00
G01 X50.4624 Y28.8005 F350.00
G01 X50.5002 Y28.8520 F350.00
G01 X50.5141 Y28.8722 F350.00
G01 X50.5274 Y28.8928 F350.00
G01 X50.5605 Y28.9473 F350.00
G01 X50.5729 Y28.9685 F350.00
G01 X50.5847 Y28.9900 F350.00
G01 X50.5960 Y29.0118 F350.00
G01 X50.6068 Y29.0339 F350.00
G01 X50.6338 Y29.0917 F350.00
G01 X50.6434 Y29.1142 F350.00
G01 X50.6525 Y29.1370 F350.00
G01 X50.6743 Y29.1970 F350.00
G01 X50.6823 Y29.2202 F350.00
G01 X50.6897 Y29.2436 F350.00
G01 X50.6966 Y29.2672 F350.00
G01 X50.7028 Y29.2909 F350.00
G01 X50.7180 Y29.3529 F350.00
G01 X50.7231 Y29.3769 F350.00
G01 X50.7276 Y29.4010 F350.00
G01 X50.7315 Y29.4252 F350.00
G01 X50.7406 Y29.4884 F350.00
G01 X50.7433 Y29.5128 F350.00
G01 X50.7454 Y29.5372 F350.00
G01 X50.7469 Y29.5617 F350.00
G01 X50.7497 Y29.6255 F350.00
G01 X50.7500 Y29.6500 F350.00
G01 X50.7500 Y31.4500 F350.00
G01 X50.7497 Y31.4745 F350.00
G01 X50.7488 Y31.4991 F350.00
G01 X50.7454 Y31.5628 F350.00
G01 X50.7433 Y31.5872 F350.00
G01 X50.7406 Y31.6116 F350.00
G01 X50.7373 Y31.6359 F350.00
G01 X50.7276 Y31.6990 F350.00
G01 X50.7231 Y31.7231 F350.00
G01 X50.7180 Y31.7471 F350.00
G01 X50.7123 Y31.7710 F350.00
G01 X50.6966 Y31.8328 F350.00
G01 X50.6897 Y31.8564 F350.00
G01 X50.6823 Y31.8798 F350.00
G01 X50.6743 Y31.9030 F350.00
G01 X50.6525 Y31.9630 F350.00
G01 X50.6434 Y31.9858 F350.00
G01 X50.6338 Y32.0083 F350.00
G01 X50.6068 Y32.0661 F350.00
G01 X50.5900 Y32.0997 F350.00
G00 Z0.5000
G00 X46.6001 Y35.2003
G01 F250.00
G01 Z-0.0500
G01 F350.00
G01 X43.2516 Y35.2003 F350.00
G00 Z0.5000
G00 X47.5041 Y37.8003
G01 F250.00
G01 Z-0.0500
G01 F350.00
G01 X47.6859 Y37.8003 F350.00
G00 Z0.5000
G00 X50.0441 Y37.8003
G01 F250.00
G01 Z-0.0500
G01 F350.00
G01 X50.2259 Y37.8003 F350.00
G00 Z0.5000
G00 X52.5841 Y37.8003
G01 F250.00
G01 Z-0.0500
G01 F350.00
G01 X52.7659 Y37.8003 F350.00
G00 Z0.5000
G00 X55.1241 Y37.8003
G01 F250.00
G01 Z-0.0500
G01 F350.00
G01 X55.3059 Y37.8003 F350.00
G00 Z0.5000
G00 X57.6641 Y37.8003
G01 F250.00
G01 Z-0.0500
G01 F350.00
G01 X57.8459 Y37.8003 F350.00
G00 Z0.5000
G00 X60.2041 Y37.8003
G01 F250.00
G01 Z-0.0500
G01 F350.00
G01 X65.4659 Y37.8003 F350.00
G00 Z0.5000
G00 X64.3799 Y39.1003
G01 F250.00
G01 Z-0.0500
G01 F350.00
G01 X61.2901 Y39.1003 F350.00
G00 Z0.5000
G00 X61.3697 Y40.4003
G01 F250.00
G01 Z-0.0500
G01 F350.00
G01 X64.3003 Y40.4003 F350.00
G01 X60.6553 Y41.6499 F350.00
G01 X65.0147 Y41.6499 F350.00
G01 X64.9797 Y41.6177 F350.00
G01 X64.9622 Y41.6006 F350.00
G01 X64.9173 Y41.5553 F350.00
G01 X64.9006 Y41.5373 F350.00
G01 X64.8184 Y41.4462 F350.00
G01 X64.7777 Y41.3971 F350.00
G01 X64.7624 Y41.3779 F350.00
G01 X64.7475 Y41.3584 F350.00
G01 X64.6747 Y41.2597 F350.00
G01 X64.6608 Y41.2394 F350.00
G01 X64.6256 Y41.1862 F350.00
G01 X64.6127 Y41.1653 F350.00
G01 X64.5499 Y41.0599 F350.00
G01 X64.5381 Y41.0384 F350.00
G01 X64.5083 Y40.9820 F350.00
G01 X64.4555 Y40.8713 F350.00
G01 X64.4453 Y40.8489 F350.00
G01 X64.4206 Y40.7901 F350.00
G01 X64.4115 Y40.7673 F350.00
G01 X64.3699 Y40.6519 F350.00
G01 X64.3619 Y40.6287 F350.00
G01 X64.3431 Y40.5678 F350.00
G01 X64.3363 Y40.5442 F350.00
G01 X64.3300 Y40.5205 F350.00
G01 X64.3062 Y40.4253 F350.00
G01 X64.3005 Y40.4014 F350.00
G01 X64.2878 Y40.3389 F350.00
G01 X64.2833 Y40.3147 F350.00
G01 X64.2794 Y40.2905 F350.00
G01 X64.2650 Y40.1934 F350.00
G01 X64.2617 Y40.1691 F350.00
G01 X64.2590 Y40.1447 F350.00
G01 X64.2530 Y40.0812 F350.00
G01 X64.2515 Y40.0567 F350.00
G01 X64.2458 Y39.9342 F350.00
G01 X64.2455 Y39.9096 F350.00
G01 X64.2458 Y39.8458 F350.00
G01 X64.2515 Y39.7233 F350.00
G01 X64.2530 Y39.6988 F350.00
G01 X64.2590 Y39.6353 F350.00
G01 X64.2617 Y39.6109 F350.00
G01 X64.2650 Y39.5866 F350.00
G01 X64.2833 Y39.4653 F350.00
G01 X64.2878 Y39.4411 F350.00
G01 X64.3005 Y39.3786 F350.00
G01 X64.3300 Y39.2595 F350.00
G01 X64.3363 Y39.2358 F350.00
G01 X64.3431 Y39.2122 F350.00
G01 X64.3619 Y39.1513 F350.00
G01 X64.4030 Y39.0357 F350.00
G01 X64.4115 Y39.0127 F350.00
G01 X64.4206 Y38.9899 F350.00
G01 X64.4453 Y38.9311 F350.00
G01 X64.4555 Y38.9087 F350.00
G01 X64.5083 Y38.7980 F350.00
G01 X64.5381 Y38.7416 F350.00
G01 X64.5499 Y38.7201 F350.00
G01 X64.6127 Y38.6147 F350.00
G01 X64.6256 Y38.5938 F350.00
G01 X64.6608 Y38.5406 F350.00
G01 X64.6747 Y38.5203 F350.00
G01 X64.6890 Y38.5005 F350.00
G01 X64.7624 Y38.4021 F350.00
