(G-CODE GENERATED BY FLATCAM v8.994 - www.flatcam.org - Version Date: 2020/11/7)

(Name: DEEP HOLES_edit_cnc)
(Type: G-code from Geometry)
(Units: MM)

(Created on Thursday, 25 June 2026 at 21:20)


G01 F300.00

M5             
G00 Z40.0000
G00 X0.0000 Y0.0000                
T1
M6
(MSG, Change to Tool Dia = 3.1750 ||| Total drills for tool T1 = 4)
M0
G00 Z40.0000

G01 F300.00
M03
G00 X0.0000 Y65.8000
G01 Z-9.0000
G01 Z0
G00 Z2.0000
G00 X0.0000 Y0.0000
G01 Z-9.0000
G01 Z0
G00 Z2.0000
G00 X131.4810 Y0.0000
G01 Z-9.0000
G01 Z0
G00 Z2.0000
G00 X131.4810 Y65.8000
G01 Z-9.0000
G01 Z0
G00 Z2.0000
M05
G00 Z40.00


