(G-CODE GENERATED BY FLATCAM v8.994 - www.flatcam.org - Version Date: 2020/11/7)

(Name: Buzzer PCB-F_Cu.gbr_iso_combined_cnc)
(Type: G-code from Geometry)
(Units: MM)

(Created on Thursday, 25 June 2026 at 18:55)


G01 F350.00

M5             
G00 Z40.0000
G00 X0.0000 Y0.0000                
T1
M6
(MSG, Change to Tool Dia = 0.4000)
M0
G00 Z40.0000

M03
G01 F350.00
G00 X3.5050 Y1.7512
G01 F250.00
G01 Z-0.0500
G01 F350.00
G01 X3.5166 Y1.6735 F350.00
G01 X3.5206 Y1.6503 F350.00
G01 X3.5258 Y1.6273 F350.00
G01 X3.5448 Y1.5511 F350.00
G01 X3.5511 Y1.5284 F350.00
G01 X3.5585 Y1.5061 F350.00
G01 X3.5850 Y1.4321 F350.00
G01 X3.5934 Y1.4102 F350.00
G01 X3.6030 Y1.3886 F350.00
G01 X3.6365 Y1.3177 F350.00
G01 X3.6471 Y1.2966 F350.00
G01 X3.6588 Y1.2761 F350.00
G01 X3.6991 Y1.2088 F350.00
G01 X3.7117 Y1.1889 F350.00
G01 X3.7253 Y1.1696 F350.00
G01 X3.7721 Y1.1065 F350.00
G01 X3.7865 Y1.0880 F350.00
G01 X3.8019 Y1.0701 F350.00
G01 X3.8547 Y1.0120 F350.00
G01 X3.8709 Y0.9949 F350.00
G01 X3.8880 Y0.9787 F350.00
G01 X3.9461 Y0.9259 F350.00
G01 X3.9640 Y0.9105 F350.00
G01 X3.9825 Y0.8961 F350.00
G01 X4.0456 Y0.8493 F350.00
G01 X4.0649 Y0.8357 F350.00
G01 X4.0848 Y0.8231 F350.00
G01 X4.1521 Y0.7828 F350.00
G01 X4.1726 Y0.7711 F350.00
G01 X4.1937 Y0.7605 F350.00
G01 X4.2646 Y0.7270 F350.00
G01 X4.2862 Y0.7174 F350.00
G01 X4.3081 Y0.7090 F350.00
G01 X4.3821 Y0.6825 F350.00
G01 X4.4044 Y0.6751 F350.00
G01 X4.4271 Y0.6688 F350.00
G01 X4.5033 Y0.6498 F350.00
G01 X4.5263 Y0.6446 F350.00
G01 X4.5495 Y0.6406 F350.00
G01 X4.6272 Y0.6290 F350.00
G01 X4.6505 Y0.6262 F350.00
G01 X4.6740 Y0.6244 F350.00
G01 X4.7524 Y0.6206 F350.00
G01 X4.7760 Y0.6200 F350.00
G01 X4.7996 Y0.6206 F350.00
G01 X4.8780 Y0.6244 F350.00
G01 X4.9015 Y0.6262 F350.00
G01 X4.9248 Y0.6290 F350.00
G01 X5.0025 Y0.6406 F350.00
G01 X5.0257 Y0.6446 F350.00
G01 X5.0487 Y0.6498 F350.00
G01 X5.1249 Y0.6688 F350.00
G01 X5.1476 Y0.6751 F350.00
G01 X5.1699 Y0.6825 F350.00
G01 X5.2439 Y0.7090 F350.00
G01 X5.2658 Y0.7174 F350.00
G01 X5.2874 Y0.7270 F350.00
G01 X5.3583 Y0.7605 F350.00
G01 X5.3794 Y0.7711 F350.00
G01 X5.3999 Y0.7828 F350.00
G01 X5.4672 Y0.8231 F350.00
G01 X5.4871 Y0.8357 F350.00
G01 X5.5064 Y0.8493 F350.00
G01 X5.5695 Y0.8961 F350.00
G01 X5.5880 Y0.9105 F350.00
G01 X5.6059 Y0.9259 F350.00
G01 X5.6640 Y0.9787 F350.00
G01 X5.6811 Y0.9949 F350.00
G01 X5.6973 Y1.0120 F350.00
G01 X5.7501 Y1.0701 F350.00
G01 X5.7655 Y1.0880 F350.00
G01 X5.7799 Y1.1065 F350.00
G01 X5.8267 Y1.1696 F350.00
G01 X5.8403 Y1.1889 F350.00
G01 X5.8529 Y1.2088 F350.00
G01 X5.8932 Y1.2761 F350.00
G01 X5.9049 Y1.2966 F350.00
G01 X5.9155 Y1.3177 F350.00
G01 X5.9490 Y1.3886 F350.00
G01 X5.9586 Y1.4102 F350.00
G01 X5.9670 Y1.4321 F350.00
G01 X5.9935 Y1.5061 F350.00
G01 X6.0009 Y1.5284 F350.00
G01 X6.0072 Y1.5511 F350.00
G01 X6.0262 Y1.6273 F350.00
G01 X6.0314 Y1.6503 F350.00
G01 X6.0354 Y1.6735 F350.00
G01 X6.0485 Y1.7628 F350.00
G01 X6.0498 Y1.7745 F350.00
G01 X6.0516 Y1.7980 F350.00
G01 X6.0554 Y1.8764 F350.00
G01 X6.0560 Y1.9000 F350.00
G01 X6.0560 Y3.3000 F350.00
G01 X6.0554 Y3.3236 F350.00
G01 X6.0516 Y3.4020 F350.00
G01 X6.0498 Y3.4255 F350.00
G01 X6.0470 Y3.4488 F350.00
G01 X6.0354 Y3.5265 F350.00
G01 X6.0314 Y3.5497 F350.00
G01 X6.0262 Y3.5727 F350.00
G01 X6.0072 Y3.6489 F350.00
G01 X6.0009 Y3.6716 F350.00
G01 X5.9935 Y3.6939 F350.00
G01 X5.9670 Y3.7679 F350.00
G01 X5.9586 Y3.7898 F350.00
G01 X5.9490 Y3.8114 F350.00
G01 X5.9155 Y3.8823 F350.00
G01 X5.9049 Y3.9034 F350.00
G01 X5.8932 Y3.9239 F350.00
G01 X5.8529 Y3.9912 F350.00
G01 X5.8403 Y4.0111 F350.00
G01 X5.8267 Y4.0304 F350.00
G01 X5.7799 Y4.0935 F350.00
G01 X5.7655 Y4.1120 F350.00
G01 X5.7501 Y4.1299 F350.00
G01 X5.6973 Y4.1880 F350.00
G01 X5.6811 Y4.2051 F350.00
G01 X5.6640 Y4.2213 F350.00
G01 X5.6059 Y4.2741 F350.00
G01 X5.5880 Y4.2895 F350.00
G01 X5.5695 Y4.3039 F350.00
G01 X5.5064 Y4.3507 F350.00
G01 X5.4871 Y4.3643 F350.00
G01 X5.4672 Y4.3769 F350.00
G01 X5.3999 Y4.4172 F350.00
G01 X5.3794 Y4.4289 F350.00
G01 X5.3583 Y4.4395 F350.00
G01 X5.2874 Y4.4730 F350.00
G01 X5.2658 Y4.4826 F350.00
G01 X5.2439 Y4.4910 F350.00
G01 X5.1699 Y4.5175 F350.00
G01 X5.1476 Y4.5249 F350.00
G01 X5.1249 Y4.5312 F350.00
G01 X5.0487 Y4.5502 F350.00
G01 X5.0257 Y4.5554 F350.00
G01 X5.0025 Y4.5594 F350.00
G01 X4.9248 Y4.5710 F350.00
G01 X4.9015 Y4.5738 F350.00
G01 X4.8780 Y4.5756 F350.00
G01 X4.7996 Y4.5794 F350.00
G01 X4.7760 Y4.5800 F350.00
G01 X4.7524 Y4.5794 F350.00
G01 X4.6740 Y4.5756 F350.00
G01 X4.6505 Y4.5738 F350.00
G01 X4.6272 Y4.5710 F350.00
G01 X4.5495 Y4.5594 F350.00
G01 X4.5263 Y4.5554 F350.00
G01 X4.5033 Y4.5502 F350.00
G01 X4.4271 Y4.5312 F350.00
G01 X4.4044 Y4.5249 F350.00
G01 X4.3821 Y4.5175 F350.00
G01 X4.3081 Y4.4910 F350.00
G01 X4.2862 Y4.4826 F350.00
G01 X4.2646 Y4.4730 F350.00
G01 X4.1937 Y4.4395 F350.00
G01 X4.1726 Y4.4289 F350.00
G01 X4.1521 Y4.4172 F350.00
G01 X4.0848 Y4.3769 F350.00
G01 X4.0649 Y4.3643 F350.00
G01 X4.0456 Y4.3507 F350.00
G01 X3.9825 Y4.3039 F350.00
G01 X3.9640 Y4.2895 F350.00
G01 X3.9461 Y4.2741 F350.00
G01 X3.8880 Y4.2213 F350.00
G01 X3.8709 Y4.2051 F350.00
G01 X3.8547 Y4.1880 F350.00
G01 X3.8019 Y4.1299 F350.00
G01 X3.7865 Y4.1120 F350.00
G01 X3.7721 Y4.0935 F350.00
G01 X3.7253 Y4.0304 F350.00
G01 X3.7117 Y4.0111 F350.00
G01 X3.6991 Y3.9912 F350.00
G01 X3.6588 Y3.9239 F350.00
G01 X3.6471 Y3.9034 F350.00
G01 X3.6365 Y3.8823 F350.00
G01 X3.6030 Y3.8114 F350.00
G01 X3.5934 Y3.7898 F350.00
G01 X3.5850 Y3.7679 F350.00
G01 X3.5585 Y3.6939 F350.00
G01 X3.5511 Y3.6716 F350.00
G01 X3.5448 Y3.6489 F350.00
G01 X3.5258 Y3.5727 F350.00
G01 X3.5206 Y3.5497 F350.00
G01 X3.5166 Y3.5265 F350.00
G01 X3.5035 Y3.4372 F350.00
G01 X3.5012 Y3.4137 F350.00
G01 X3.5004 Y3.4020 F350.00
G01 X3.4966 Y3.3236 F350.00
G01 X3.4960 Y3.3000 F350.00
G01 X3.4960 Y1.9000 F350.00
G01 X3.4966 Y1.8764 F350.00
G01 X3.5004 Y1.7980 F350.00
G01 X3.5022 Y1.7745 F350.00
G01 X3.5050 Y1.7512 F350.00
G00 Z0.5000
G00 X3.7820 Y1.7922
G01 F250.00
G01 Z-0.0500
G01 F350.00
G01 X3.7952 Y1.7049 F350.00
G01 X3.8164 Y1.6192 F350.00
G01 X3.8221 Y1.6004 F350.00
G01 X3.8486 Y1.5265 F350.00
G01 X3.8561 Y1.5083 F350.00
G01 X3.8941 Y1.4286 F350.00
G01 X3.9445 Y1.3444 F350.00
G01 X4.0030 Y1.2656 F350.00
G01 X4.0621 Y1.2000 F350.00
G01 X4.0760 Y1.1861 F350.00
G01 X4.1342 Y1.1334 F350.00
G01 X4.1493 Y1.1210 F350.00
G01 X4.2204 Y1.0685 F350.00
G01 X4.3046 Y1.0181 F350.00
G01 X4.3843 Y0.9801 F350.00
G01 X4.4025 Y0.9726 F350.00
G01 X4.4857 Y0.9431 F350.00
G01 X4.5713 Y0.9214 F350.00
G01 X4.5906 Y0.9175 F350.00
G01 X4.6682 Y0.9060 F350.00
G01 X4.6878 Y0.9041 F350.00
G01 X4.7760 Y0.9000 F350.00
G01 X4.8740 Y0.9048 F350.00
G01 X4.9711 Y0.9192 F350.00
G01 X5.0568 Y0.9404 F350.00
G01 X5.0756 Y0.9461 F350.00
G01 X5.1587 Y0.9761 F350.00
G01 X5.2474 Y1.0181 F350.00
G01 X5.3233 Y1.0633 F350.00
G01 X5.3396 Y1.0742 F350.00
G01 X5.4104 Y1.1270 F350.00
G01 X5.4831 Y1.1929 F350.00
G01 X5.5426 Y1.2582 F350.00
G01 X5.5550 Y1.2733 F350.00
G01 X5.6075 Y1.3444 F350.00
G01 X5.6531 Y1.4201 F350.00
G01 X5.6623 Y1.4374 F350.00
G01 X5.6999 Y1.5173 F350.00
G01 X5.7299 Y1.6004 F350.00
G01 X5.7356 Y1.6192 F350.00
G01 X5.7568 Y1.7049 F350.00
G01 X5.7700 Y1.7922 F350.00
G01 X5.7716 Y1.8069 F350.00
G01 X5.7760 Y1.9000 F350.00
G01 X5.7760 Y3.3000 F350.00
G01 X5.7712 Y3.3980 F350.00
G01 X5.7568 Y3.4951 F350.00
G01 X5.7356 Y3.5808 F350.00
G01 X5.7299 Y3.5996 F350.00
G01 X5.7034 Y3.6735 F350.00
G01 X5.6959 Y3.6917 F350.00
G01 X5.6579 Y3.7714 F350.00
G01 X5.6127 Y3.8473 F350.00
G01 X5.6018 Y3.8636 F350.00
G01 X5.5490 Y3.9344 F350.00
G01 X5.4831 Y4.0071 F350.00
G01 X5.4104 Y4.0730 F350.00
G01 X5.3316 Y4.1315 F350.00
G01 X5.2474 Y4.1819 F350.00
G01 X5.1587 Y4.2239 F350.00
G01 X5.0663 Y4.2569 F350.00
G01 X4.9711 Y4.2808 F350.00
G01 X4.8740 Y4.2952 F350.00
G01 X4.7760 Y4.3000 F350.00
G01 X4.6780 Y4.2952 F350.00
G01 X4.5809 Y4.2808 F350.00
G01 X4.4857 Y4.2569 F350.00
G01 X4.3933 Y4.2239 F350.00
G01 X4.3046 Y4.1819 F350.00
G01 X4.2204 Y4.1315 F350.00
G01 X4.1416 Y4.0730 F350.00
G01 X4.0689 Y4.0071 F350.00
G01 X4.0030 Y3.9344 F350.00
G01 X3.9445 Y3.8556 F350.00
G01 X3.8989 Y3.7799 F350.00
G01 X3.8897 Y3.7626 F350.00
G01 X3.8521 Y3.6827 F350.00
G01 X3.8221 Y3.5996 F350.00
G01 X3.8164 Y3.5808 F350.00
G01 X3.7952 Y3.4951 F350.00
G01 X3.7820 Y3.4078 F350.00
G01 X3.7804 Y3.3931 F350.00
G01 X3.7760 Y3.3000 F350.00
G01 X3.7760 Y1.9000 F350.00
G01 X3.7801 Y1.8118 F350.00
G01 X3.7820 Y1.7922 F350.00
G00 Z0.5000
G00 X3.5830 Y10.9726
G01 F250.00
G01 Z-0.0500
G01 F350.00
G01 X3.5991 Y10.8659 F350.00
G01 X3.6251 Y10.7611 F350.00
G01 X3.6308 Y10.7423 F350.00
G01 X3.6673 Y10.6408 F350.00
G01 X3.7177 Y10.5343 F350.00
G01 X3.7730 Y10.4416 F350.00
G01 X3.7839 Y10.4253 F350.00
G01 X3.8484 Y10.3387 F350.00
G01 X3.9207 Y10.2586 F350.00
G01 X3.9346 Y10.2447 F350.00
G01 X4.0147 Y10.1724 F350.00
G01 X4.1093 Y10.1022 F350.00
G01 X4.2018 Y10.0465 F350.00
G01 X4.2191 Y10.0373 F350.00
G01 X4.3168 Y9.9913 F350.00
G01 X4.4183 Y9.9548 F350.00
G01 X4.4371 Y9.9491 F350.00
G01 X4.5323 Y9.9252 F350.00
G01 X4.5516 Y9.9214 F350.00
G01 X4.6584 Y9.9058 F350.00
G01 X4.7662 Y9.9002 F350.00
G01 X4.7858 Y9.9002 F350.00
G01 X4.8936 Y9.9058 F350.00
G01 X5.0004 Y9.9214 F350.00
G01 X5.0197 Y9.9252 F350.00
G01 X5.1243 Y9.9517 F350.00
G01 X5.2261 Y9.9878 F350.00
G01 X5.2442 Y9.9953 F350.00
G01 X5.3417 Y10.0417 F350.00
G01 X5.4344 Y10.0970 F350.00
G01 X5.4507 Y10.1079 F350.00
G01 X5.5373 Y10.1724 F350.00
G01 X5.6210 Y10.2480 F350.00
G01 X5.6313 Y10.2586 F350.00
G01 X5.7036 Y10.3387 F350.00
G01 X5.7738 Y10.4333 F350.00
G01 X5.8343 Y10.5343 F350.00
G01 X5.8847 Y10.6408 F350.00
G01 X5.9243 Y10.7517 F350.00
G01 X5.9529 Y10.8659 F350.00
G01 X5.9702 Y10.9824 F350.00
G01 X5.9760 Y11.1000 F350.00
G01 X5.9759 Y12.1049 F350.00
G01 X5.9702 Y12.2176 F350.00
G01 X5.9529 Y12.3341 F350.00
G01 X5.9243 Y12.4483 F350.00
G01 X5.8882 Y12.5501 F350.00
G01 X5.8807 Y12.5682 F350.00
G01 X5.8343 Y12.6657 F350.00
G01 X5.7790 Y12.7584 F350.00
G01 X5.7681 Y12.7747 F350.00
G01 X5.7036 Y12.8613 F350.00
G01 X5.6280 Y12.9450 F350.00
G01 X5.6174 Y12.9553 F350.00
G01 X5.5373 Y13.0276 F350.00
G01 X5.4427 Y13.0978 F350.00
G01 X5.3417 Y13.1583 F350.00
G01 X5.2352 Y13.2087 F350.00
G01 X5.1243 Y13.2483 F350.00
G01 X5.0101 Y13.2769 F350.00
G01 X4.8936 Y13.2942 F350.00
G01 X4.7760 Y13.3000 F350.00
G01 X4.6584 Y13.2942 F350.00
G01 X4.5419 Y13.2769 F350.00
G01 X4.4277 Y13.2483 F350.00
G01 X4.3168 Y13.2087 F350.00
G01 X4.2103 Y13.1583 F350.00
G01 X4.1093 Y13.0978 F350.00
G01 X4.0147 Y13.0276 F350.00
G01 X3.9310 Y12.9520 F350.00
G01 X3.9207 Y12.9414 F350.00
G01 X3.8548 Y12.8687 F350.00
G01 X3.8423 Y12.8535 F350.00
G01 X3.7782 Y12.7667 F350.00
G01 X3.7177 Y12.6657 F350.00
G01 X3.6673 Y12.5592 F350.00
G01 X3.6308 Y12.4577 F350.00
G01 X3.6251 Y12.4389 F350.00
G01 X3.6012 Y12.3437 F350.00
G01 X3.5982 Y12.3293 F350.00
G01 X3.5818 Y12.2176 F350.00
G01 X3.5760 Y12.1000 F350.00
G01 X3.5760 Y11.1000 F350.00
G01 X3.5811 Y10.9922 F350.00
G01 X3.5830 Y10.9726 F350.00
G00 Z0.5000
G00 X1.6000 Y18.0402
G01 F250.00
G01 Z-0.0500
G01 F350.00
G01 X1.6031 Y17.9814 F350.00
G01 X1.6132 Y17.9134 F350.00
G01 X1.6299 Y17.8467 F350.00
G01 X1.6495 Y17.7912 F350.00
G01 X1.6550 Y17.7775 F350.00
G01 X1.6780 Y17.7287 F350.00
G01 X1.6873 Y17.7114 F350.00
G01 X1.7178 Y17.6610 F350.00
G01 X1.7587 Y17.6058 F350.00
G01 X1.8048 Y17.5548 F350.00
G01 X1.8558 Y17.5087 F350.00
G01 X1.9110 Y17.4678 F350.00
G01 X1.9614 Y17.4373 F350.00
G01 X1.9787 Y17.4280 F350.00
G01 X2.0275 Y17.4050 F350.00
G01 X2.0412 Y17.3995 F350.00
G01 X2.0967 Y17.3799 F350.00
G01 X2.1538 Y17.3654 F350.00
G01 X2.1682 Y17.3623 F350.00
G01 X2.2314 Y17.3531 F350.00
G01 X2.3000 Y17.3497 F350.00
G01 X5.7099 Y17.3497 F350.00
G01 X6.6157 Y16.4439 F350.00
G01 X6.6157 Y13.0732 F350.00
G01 X6.5625 Y13.0337 F350.00
G01 X6.5510 Y13.0245 F350.00
G01 X6.4746 Y12.9553 F350.00
G01 X6.4640 Y12.9450 F350.00
G01 X6.3884 Y12.8613 F350.00
G01 X6.3239 Y12.7747 F350.00
G01 X6.3156 Y12.7626 F350.00
G01 X6.2577 Y12.6657 F350.00
G01 X6.2073 Y12.5592 F350.00
G01 X6.1677 Y12.4483 F350.00
G01 X6.1391 Y12.3341 F350.00
G01 X6.1218 Y12.2176 F350.00
G01 X6.1161 Y12.1049 F350.00
G01 X6.1161 Y11.0951 F350.00
G01 X6.1218 Y10.9824 F350.00
G01 X6.1374 Y10.8756 F350.00
G01 X6.1412 Y10.8563 F350.00
G01 X6.1677 Y10.7517 F350.00
G01 X6.2038 Y10.6499 F350.00
G01 X6.2113 Y10.6318 F350.00
G01 X6.2577 Y10.5343 F350.00
G01 X6.3182 Y10.4333 F350.00
G01 X6.3884 Y10.3387 F350.00
G01 X6.4607 Y10.2586 F350.00
G01 X6.4746 Y10.2447 F350.00
G01 X6.5547 Y10.1724 F350.00
G01 X6.6493 Y10.1022 F350.00
G01 X6.7503 Y10.0417 F350.00
G01 X6.8568 Y9.9913 F350.00
G01 X6.9583 Y9.9548 F350.00
G01 X6.9724 Y9.9503 F350.00
G01 X7.0819 Y9.9231 F350.00
G01 X7.1886 Y9.9070 F350.00
G01 X7.2033 Y9.9054 F350.00
G01 X7.3062 Y9.9002 F350.00
G01 X7.3209 Y9.9001 F350.00
G01 X7.4287 Y9.9054 F350.00
G01 X7.4434 Y9.9070 F350.00
G01 X7.4950 Y9.9146 F350.00
G01 X9.0084 Y8.4014 F350.00
G01 X9.0558 Y8.3587 F350.00
G01 X9.1029 Y8.3234 F350.00
G01 X9.1193 Y8.3125 F350.00
G01 X9.1656 Y8.2848 F350.00
G01 X9.1787 Y8.2780 F350.00
G01 X9.2320 Y8.2531 F350.00
G01 X9.2874 Y8.2330 F350.00
G01 X9.3062 Y8.2273 F350.00
G01 X9.3634 Y8.2132 F350.00
G01 X9.4216 Y8.2043 F350.00
G01 X9.4412 Y8.2024 F350.00
G01 X9.5000 Y8.1997 F350.00
G01 X17.6049 Y8.1998 F350.00
G01 X17.6686 Y8.2031 F350.00
G01 X17.7366 Y8.2132 F350.00
G01 X17.8033 Y8.2299 F350.00
G01 X17.8588 Y8.2495 F350.00
G01 X17.8769 Y8.2570 F350.00
G01 X17.9301 Y8.2824 F350.00
G01 X17.9807 Y8.3125 F350.00
G01 X17.9931 Y8.3205 F350.00
G01 X18.0365 Y8.3527 F350.00
G01 X18.0517 Y8.3651 F350.00
G01 X18.0952 Y8.4048 F350.00
G01 X18.1381 Y8.4520 F350.00
G01 X18.1473 Y8.4635 F350.00
G01 X18.1822 Y8.5110 F350.00
G01 X18.2127 Y8.5614 F350.00
G01 X18.2220 Y8.5787 F350.00
G01 X18.2450 Y8.6275 F350.00
G01 X18.2505 Y8.6412 F350.00
G01 X18.2701 Y8.6967 F350.00
G01 X18.2868 Y8.7634 F350.00
G01 X18.2969 Y8.8314 F350.00
G01 X18.3002 Y8.8951 F350.00
G01 X18.3003 Y19.4500 F350.00
G01 X18.2969 Y19.5186 F350.00
G01 X18.2885 Y19.5769 F350.00
G01 X18.2858 Y19.5914 F350.00
G01 X18.2701 Y19.6533 F350.00
G01 X18.2505 Y19.7088 F350.00
G01 X18.2430 Y19.7269 F350.00
G01 X18.2176 Y19.7801 F350.00
G01 X18.1875 Y19.8307 F350.00
G01 X18.1766 Y19.8471 F350.00
G01 X18.1413 Y19.8942 F350.00
G01 X18.0986 Y19.9416 F350.00
G01 X13.7003 Y24.3401 F350.00
G01 X13.7003 Y24.8000 F350.00
G01 X13.7980 Y24.8048 F350.00
G01 X13.8951 Y24.8192 F350.00
G01 X13.9903 Y24.8431 F350.00
G01 X14.0735 Y24.8726 F350.00
G01 X14.0917 Y24.8801 F350.00
G01 X14.1626 Y24.9137 F350.00
G01 X14.1799 Y24.9229 F350.00
G01 X14.2556 Y24.9685 F350.00
G01 X14.3344 Y25.0270 F350.00
G01 X14.4071 Y25.0929 F350.00
G01 X14.4666 Y25.1582 F350.00
G01 X14.4790 Y25.1733 F350.00
G01 X14.5258 Y25.2364 F350.00
G01 X14.5367 Y25.2527 F350.00
G01 X14.5819 Y25.3286 F350.00
G01 X14.6239 Y25.4173 F350.00
G01 X14.6569 Y25.5097 F350.00
G01 X14.6786 Y25.5953 F350.00
G01 X14.6825 Y25.6146 F350.00
G01 X14.6940 Y25.6922 F350.00
G01 X14.6959 Y25.7118 F350.00
G01 X14.7000 Y25.8000 F350.00
G01 X14.6952 Y25.8980 F350.00
G01 X14.6808 Y25.9951 F350.00
G01 X14.6596 Y26.0808 F350.00
G01 X14.6539 Y26.0996 F350.00
G01 X14.6239 Y26.1827 F350.00
G01 X14.5819 Y26.2714 F350.00
G01 X14.5367 Y26.3473 F350.00
G01 X14.5258 Y26.3636 F350.00
G01 X14.4730 Y26.4344 F350.00
G01 X14.4071 Y26.5071 F350.00
G01 X14.3418 Y26.5666 F350.00
G01 X14.3267 Y26.5790 F350.00
G01 X14.2556 Y26.6315 F350.00
G01 X14.1799 Y26.6771 F350.00
G01 X14.1626 Y26.6863 F350.00
G01 X14.0827 Y26.7239 F350.00
G01 X13.9996 Y26.7539 F350.00
G01 X13.9808 Y26.7596 F350.00
G01 X13.8951 Y26.7808 F350.00
G01 X13.8078 Y26.7940 F350.00
G01 X13.7882 Y26.7959 F350.00
G01 X13.7000 Y26.8000 F350.00
G01 X12.2951 Y26.7999 F350.00
G01 X12.2020 Y26.7952 F350.00
G01 X12.1146 Y26.7825 F350.00
G01 X12.0953 Y26.7786 F350.00
G01 X12.0192 Y26.7596 F350.00
G01 X12.0004 Y26.7539 F350.00
G01 X11.9173 Y26.7239 F350.00
G01 X11.8286 Y26.6819 F350.00
G01 X11.7444 Y26.6315 F350.00
G01 X11.6733 Y26.5790 F350.00
G01 X11.6582 Y26.5666 F350.00
G01 X11.5929 Y26.5071 F350.00
G01 X11.5334 Y26.4418 F350.00
G01 X11.5210 Y26.4267 F350.00
G01 X11.4742 Y26.3636 F350.00
G01 X11.4633 Y26.3473 F350.00
G01 X11.4181 Y26.2714 F350.00
G01 X11.3761 Y26.1827 F350.00
G01 X11.3431 Y26.0903 F350.00
G01 X11.3192 Y25.9951 F350.00
G01 X11.3048 Y25.8980 F350.00
G01 X11.3000 Y25.8000 F350.00
G01 X11.3048 Y25.7020 F350.00
G01 X11.3175 Y25.6146 F350.00
G01 X11.3214 Y25.5953 F350.00
G01 X11.3404 Y25.5192 F350.00
G01 X11.3461 Y25.5004 F350.00
G01 X11.3761 Y25.4173 F350.00
G01 X11.4137 Y25.3374 F350.00
G01 X11.4229 Y25.3201 F350.00
G01 X11.4685 Y25.2444 F350.00
G01 X11.5270 Y25.1656 F350.00
G01 X11.5929 Y25.0929 F350.00
G01 X11.6656 Y25.0270 F350.00
G01 X11.7444 Y24.9685 F350.00
G01 X11.8201 Y24.9229 F350.00
G01 X11.8374 Y24.9137 F350.00
G01 X11.9083 Y24.8801 F350.00
G01 X11.9265 Y24.8726 F350.00
G01 X12.0097 Y24.8431 F350.00
G01 X12.1049 Y24.8192 F350.00
G01 X12.2020 Y24.8048 F350.00
G01 X12.2997 Y24.8000 F350.00
G01 X12.2997 Y24.0500 F350.00
G01 X12.3024 Y23.9912 F350.00
G01 X12.3037 Y23.9765 F350.00
G01 X12.3132 Y23.9134 F350.00
G01 X12.3273 Y23.8562 F350.00
G01 X12.3330 Y23.8374 F350.00
G01 X12.3531 Y23.7820 F350.00
G01 X12.3824 Y23.7199 F350.00
G01 X12.4125 Y23.6693 F350.00
G01 X12.4234 Y23.6529 F350.00
G01 X12.4527 Y23.6135 F350.00
G01 X12.4619 Y23.6020 F350.00
G01 X12.5048 Y23.5548 F350.00
G01 X16.8997 Y19.1599 F350.00
G01 X16.8997 Y9.6003 F350.00
G01 X9.7901 Y9.6003 F350.00
G01 X8.4972 Y10.8931 F350.00
G01 X8.5102 Y10.9824 F350.00
G01 X8.5159 Y11.0951 F350.00
G01 X8.5160 Y12.1000 F350.00
G01 X8.5102 Y12.2176 F350.00
G01 X8.4946 Y12.3244 F350.00
G01 X8.4919 Y12.3389 F350.00
G01 X8.4643 Y12.4483 F350.00
G01 X8.4247 Y12.5592 F350.00
G01 X8.3743 Y12.6657 F350.00
G01 X8.3164 Y12.7626 F350.00
G01 X8.3081 Y12.7747 F350.00
G01 X8.2436 Y12.8613 F350.00
G01 X8.1680 Y12.9450 F350.00
G01 X8.1574 Y12.9553 F350.00
G01 X8.0810 Y13.0245 F350.00
G01 X8.0695 Y13.0337 F350.00
G01 X8.0163 Y13.0732 F350.00
G01 X8.0160 Y16.7438 F350.00
G01 X8.0129 Y16.8026 F350.00
G01 X8.0028 Y16.8706 F350.00
G01 X7.9861 Y16.9373 F350.00
G01 X7.9665 Y16.9928 F350.00
G01 X7.9590 Y17.0109 F350.00
G01 X7.9380 Y17.0553 F350.00
G01 X7.9312 Y17.0684 F350.00
G01 X7.8982 Y17.1230 F350.00
G01 X7.8633 Y17.1705 F350.00
G01 X7.8509 Y17.1857 F350.00
G01 X7.8112 Y17.2292 F350.00
G01 X6.4916 Y18.5486 F350.00
G01 X6.4442 Y18.5913 F350.00
G01 X6.3971 Y18.6266 F350.00
G01 X6.3807 Y18.6375 F350.00
G01 X6.3301 Y18.6676 F350.00
G01 X6.2769 Y18.6930 F350.00
G01 X6.2588 Y18.7005 F350.00
G01 X6.2080 Y18.7186 F350.00
G01 X6.1938 Y18.7227 F350.00
G01 X6.1462 Y18.7346 F350.00
G01 X6.1269 Y18.7385 F350.00
G01 X6.0686 Y18.7469 F350.00
G01 X6.0000 Y18.7503 F350.00
G01 X3.0003 Y18.7503 F350.00
G01 X3.0003 Y36.0997 F350.00
G01 X3.4715 Y36.0997 F350.00
G01 X3.4844 Y36.0881 F350.00
G01 X3.4920 Y36.0819 F350.00
G01 X3.5531 Y36.0365 F350.00
G01 X3.5652 Y36.0282 F350.00
G01 X3.6390 Y35.9842 F350.00
G01 X3.7210 Y35.9454 F350.00
G01 X3.8065 Y35.9148 F350.00
G01 X3.8850 Y35.8949 F350.00
G01 X3.9042 Y35.8911 F350.00
G01 X3.9746 Y35.8807 F350.00
G01 X3.9892 Y35.8790 F350.00
G01 X4.0750 Y35.8750 F350.00
G01 X6.6299 Y35.8751 F350.00
G01 X6.7157 Y35.8795 F350.00
G01 X6.7958 Y35.8911 F350.00
G01 X6.8150 Y35.8949 F350.00
G01 X6.8935 Y35.9148 F350.00
G01 X6.9698 Y35.9419 F350.00
G01 X6.9880 Y35.9494 F350.00
G01 X7.0610 Y35.9842 F350.00
G01 X7.1348 Y36.0282 F350.00
G01 X7.1469 Y36.0365 F350.00
G01 X7.2041 Y36.0789 F350.00
G01 X7.2192 Y36.0914 F350.00
G01 X7.2791 Y36.1459 F350.00
G01 X7.3369 Y36.2094 F350.00
G01 X7.3461 Y36.2209 F350.00
G01 X7.3885 Y36.2781 F350.00
G01 X7.3968 Y36.2902 F350.00
G01 X7.4384 Y36.3597 F350.00
G01 X7.4452 Y36.3727 F350.00
G01 X7.4580 Y36.3997 F350.00
G01 X14.9488 Y36.3997 F350.00
G01 X14.9696 Y36.3924 F350.00
G01 X14.9789 Y36.3895 F350.00
G01 X15.0599 Y36.3693 F350.00
G01 X15.0743 Y36.3666 F350.00
G01 X15.1471 Y36.3558 F350.00
G01 X15.1618 Y36.3542 F350.00
G01 X15.2500 Y36.3500 F350.00
G01 X15.7549 Y36.3501 F350.00
G01 X15.8431 Y36.3546 F350.00
G01 X15.9257 Y36.3666 F350.00
G01 X15.9449 Y36.3704 F350.00
G01 X16.0163 Y36.3883 F350.00
G01 X16.0351 Y36.3940 F350.00
G01 X16.1135 Y36.4223 F350.00
G01 X16.1978 Y36.4622 F350.00
G01 X16.2778 Y36.5101 F350.00
G01 X16.3488 Y36.5626 F350.00
G01 X16.3601 Y36.5721 F350.00
G01 X16.4218 Y36.6282 F350.00
G01 X16.4779 Y36.6899 F350.00
G01 X16.4904 Y36.7051 F350.00
G01 X16.5399 Y36.7722 F350.00
G01 X16.5830 Y36.8436 F350.00
G01 X16.5922 Y36.8609 F350.00
G01 X16.6237 Y36.9275 F350.00
G01 X16.6312 Y36.9456 F350.00
G01 X16.6591 Y37.0242 F350.00
G01 X16.6817 Y37.1147 F350.00
G01 X16.6954 Y37.2069 F350.00
G01 X16.6998 Y37.2902 F350.00
G01 X16.6998 Y37.3098 F350.00
G01 X16.6954 Y37.3931 F350.00
G01 X16.6834 Y37.4757 F350.00
G01 X16.6796 Y37.4949 F350.00
G01 X16.6591 Y37.5758 F350.00
G01 X16.6312 Y37.6544 F350.00
G01 X16.6237 Y37.6725 F350.00
G01 X16.5878 Y37.7478 F350.00
G01 X16.5451 Y37.8195 F350.00
G01 X16.5342 Y37.8358 F350.00
G01 X16.4844 Y37.9027 F350.00
G01 X16.4285 Y37.9646 F350.00
G01 X16.4146 Y37.9785 F350.00
G01 X16.3527 Y38.0344 F350.00
G01 X16.2858 Y38.0842 F350.00
G01 X16.2695 Y38.0951 F350.00
G01 X16.2003 Y38.1365 F350.00
G01 X16.2003 Y39.7599 F350.00
G01 X44.8401 Y68.3997 F350.00
G01 X96.3999 Y68.3997 F350.00
G01 X104.1825 Y60.6172 F350.00
G01 X104.1773 Y60.6069 F350.00
G01 X104.1313 Y60.5092 F350.00
G01 X104.0917 Y60.3983 F350.00
G01 X104.0631 Y60.2841 F350.00
G01 X104.0470 Y60.1774 F350.00
G01 X104.0451 Y60.1578 F350.00
G01 X104.0400 Y60.0500 F350.00
G01 X104.0451 Y59.9422 F350.00
G01 X104.0470 Y59.9226 F350.00
G01 X104.0631 Y59.8159 F350.00
G01 X104.0891 Y59.7111 F350.00
G01 X104.0948 Y59.6923 F350.00
G01 X104.1278 Y59.5999 F350.00
G01 X104.1353 Y59.5818 F350.00
G01 X104.1817 Y59.4843 F350.00
G01 X104.2422 Y59.3833 F350.00
G01 X104.3124 Y59.2887 F350.00
G01 X104.3915 Y59.2015 F350.00
G01 X104.4787 Y59.1224 F350.00
G01 X104.5733 Y59.0522 F350.00
G01 X104.6743 Y58.9917 F350.00
G01 X104.7718 Y58.9453 F350.00
G01 X104.7896 Y58.9379 F350.00
G01 X104.7896 Y57.4121 F350.00
G01 X104.7718 Y57.4047 F350.00
G01 X104.6831 Y57.3627 F350.00
G01 X104.6658 Y57.3535 F350.00
G01 X104.5733 Y57.2978 F350.00
G01 X104.4787 Y57.2276 F350.00
G01 X104.3915 Y57.1485 F350.00
G01 X104.3188 Y57.0687 F350.00
G01 X104.3063 Y57.0535 F350.00
G01 X104.2479 Y56.9747 F350.00
G01 X104.2370 Y56.9584 F350.00
G01 X104.1817 Y56.8657 F350.00
G01 X104.1313 Y56.7592 F350.00
G01 X104.0917 Y56.6483 F350.00
G01 X104.0652 Y56.5437 F350.00
G01 X104.0614 Y56.5244 F350.00
G01 X104.0470 Y56.4274 F350.00
G01 X104.0451 Y56.4078 F350.00
G01 X104.0400 Y56.3000 F350.00
G01 X104.0458 Y56.1824 F350.00
G01 X104.0631 Y56.0659 F350.00
G01 X104.0891 Y55.9611 F350.00
G01 X104.0948 Y55.9423 F350.00
G01 X104.1313 Y55.8408 F350.00
G01 X104.1773 Y55.7431 F350.00
G01 X104.1865 Y55.7258 F350.00
G01 X104.2422 Y55.6333 F350.00
G01 X104.3063 Y55.5465 F350.00
G01 X104.3188 Y55.5313 F350.00
G01 X104.3915 Y55.4515 F350.00
G01 X104.4713 Y55.3788 F350.00
G01 X104.4865 Y55.3663 F350.00
G01 X104.5733 Y55.3022 F350.00
G01 X104.6658 Y55.2465 F350.00
G01 X104.6831 Y55.2373 F350.00
G01 X104.7718 Y55.1953 F350.00
G01 X104.7896 Y55.1879 F350.00
G01 X104.7896 Y53.6582 F350.00
G01 X104.6843 Y53.6083 F350.00
G01 X104.5916 Y53.5530 F350.00
G01 X104.5753 Y53.5421 F350.00
G01 X104.4887 Y53.4776 F350.00
G01 X104.4015 Y53.3985 F350.00
G01 X104.3288 Y53.3187 F350.00
G01 X104.3163 Y53.3035 F350.00
G01 X104.2579 Y53.2247 F350.00
G01 X104.2470 Y53.2084 F350.00
G01 X104.1917 Y53.1157 F350.00
G01 X104.1453 Y53.0182 F350.00
G01 X104.1378 Y53.0001 F350.00
G01 X104.1048 Y52.9077 F350.00
G01 X104.0991 Y52.8889 F350.00
G01 X104.0731 Y52.7841 F350.00
G01 X104.0558 Y52.6676 F350.00
G01 X104.0500 Y52.5500 F350.00
G01 X104.0551 Y52.4422 F350.00
G01 X104.0570 Y52.4226 F350.00
G01 X104.0731 Y52.3159 F350.00
G01 X104.0991 Y52.2111 F350.00
G01 X104.1048 Y52.1923 F350.00
G01 X104.1413 Y52.0908 F350.00
G01 X104.1873 Y51.9931 F350.00
G01 X104.1965 Y51.9758 F350.00
G01 X104.2522 Y51.8833 F350.00
G01 X104.3224 Y51.7887 F350.00
G01 X104.3947 Y51.7086 F350.00
G01 X104.4086 Y51.6947 F350.00
G01 X104.4887 Y51.6224 F350.00
G01 X104.5753 Y51.5579 F350.00
G01 X104.5916 Y51.5470 F350.00
G01 X104.6800 Y51.4941 F350.00
G01 X104.6931 Y51.4873 F350.00
G01 X104.7908 Y51.4413 F350.00
G01 X104.9017 Y51.4017 F350.00
G01 X105.0159 Y51.3731 F350.00
G01 X105.1226 Y51.3570 F350.00
G01 X105.1373 Y51.3554 F350.00
G01 X105.2500 Y51.3500 F350.00
G01 X106.2500 Y51.3500 F350.00
G01 X106.3578 Y51.3551 F350.00
G01 X106.3774 Y51.3570 F350.00
G01 X106.4841 Y51.3731 F350.00
G01 X106.5983 Y51.4017 F350.00
G01 X106.7092 Y51.4413 F350.00
G01 X106.8069 Y51.4873 F350.00
G01 X106.8200 Y51.4941 F350.00
G01 X106.9167 Y51.5522 F350.00
G01 X107.0035 Y51.6163 F350.00
G01 X107.0150 Y51.6255 F350.00
G01 X107.0914 Y51.6947 F350.00
G01 X107.1053 Y51.7086 F350.00
G01 X107.1776 Y51.7887 F350.00
G01 X107.2232 Y51.8497 F350.00
G01 X128.2099 Y51.8497 F350.00
G01 X132.2997 Y47.7599 F350.00
G01 X132.2997 Y25.5901 F350.00
G01 X131.2099 Y24.5003 F350.00
G01 X125.4902 Y24.5000 F350.00
G01 X125.4363 Y24.4973 F350.00
G01 X125.4216 Y24.4957 F350.00
G01 X125.3634 Y24.4868 F350.00
G01 X125.3062 Y24.4727 F350.00
G01 X125.2874 Y24.4670 F350.00
G01 X125.2320 Y24.4469 F350.00
G01 X125.1743 Y24.4198 F350.00
G01 X125.1614 Y24.4127 F350.00
G01 X125.1110 Y24.3822 F350.00
G01 X125.0558 Y24.3413 F350.00
G01 X125.0048 Y24.2952 F350.00
G01 X124.9614 Y24.2516 F350.00
G01 X124.9219 Y24.2080 F350.00
G01 X124.9127 Y24.1965 F350.00
G01 X124.8834 Y24.1571 F350.00
G01 X124.8725 Y24.1407 F350.00
G01 X124.8424 Y24.0901 F350.00
G01 X124.8131 Y24.0280 F350.00
G01 X124.7899 Y23.9633 F350.00
G01 X124.7754 Y23.9062 F350.00
G01 X124.7723 Y23.8918 F350.00
G01 X124.7643 Y23.8384 F350.00
G01 X124.7624 Y23.8188 F350.00
G01 X124.7597 Y23.7600 F350.00
G01 X124.7597 Y21.0000 F350.00
G01 X124.4551 Y20.9999 F350.00
G01 X124.4404 Y20.9990 F350.00
G01 X124.4258 Y20.9971 F350.00
G01 X124.4114 Y20.9940 F350.00
G01 X124.3926 Y20.9883 F350.00
G01 X124.3835 Y20.9848 F350.00
G01 X124.3701 Y20.9786 F350.00
G01 X124.3572 Y20.9715 F350.00
G01 X124.3448 Y20.9635 F350.00
G01 X124.3331 Y20.9546 F350.00
G01 X124.3221 Y20.9448 F350.00
G01 X124.3118 Y20.9343 F350.00
G01 X124.3023 Y20.9230 F350.00
G01 X124.2937 Y20.9111 F350.00
G01 X124.2860 Y20.8986 F350.00
G01 X124.2792 Y20.8855 F350.00
G01 X124.2752 Y20.8765 F350.00
G01 X124.2701 Y20.8627 F350.00
G01 X124.2660 Y20.8486 F350.00
G01 X124.2629 Y20.8342 F350.00
G01 X124.2610 Y20.8196 F350.00
G01 X124.2600 Y20.8000 F350.00
G01 X124.2600 Y17.8000 F350.00
G01 X124.2605 Y17.7853 F350.00
G01 X124.2629 Y17.7658 F350.00
G01 X124.2660 Y17.7514 F350.00
G01 X124.2717 Y17.7326 F350.00
G01 X124.2772 Y17.7190 F350.00
G01 X124.2836 Y17.7057 F350.00
G01 X124.2910 Y17.6930 F350.00
G01 X124.3023 Y17.6770 F350.00
G01 X124.3118 Y17.6657 F350.00
G01 X124.3257 Y17.6518 F350.00
G01 X124.3370 Y17.6423 F350.00
G01 X124.3489 Y17.6337 F350.00
G01 X124.3614 Y17.6260 F350.00
G01 X124.3745 Y17.6192 F350.00
G01 X124.3880 Y17.6134 F350.00
G01 X124.4067 Y17.6072 F350.00
G01 X124.4210 Y17.6038 F350.00
G01 X124.4355 Y17.6015 F350.00
G01 X124.4502 Y17.6002 F350.00
G01 X124.4600 Y17.6000 F350.00
G01 X125.0099 Y17.6000 F350.00
G01 X125.0099 Y17.0001 F350.00
G01 X118.0351 Y17.0001 F350.00
G01 X118.0351 Y17.6000 F350.00
G01 X118.5850 Y17.6000 F350.00
G01 X118.5948 Y17.6002 F350.00
G01 X118.6095 Y17.6015 F350.00
G01 X118.6288 Y17.6049 F350.00
G01 X118.6431 Y17.6086 F350.00
G01 X118.6570 Y17.6134 F350.00
G01 X118.6705 Y17.6192 F350.00
G01 X118.6836 Y17.6260 F350.00
G01 X118.6961 Y17.6337 F350.00
G01 X118.7080 Y17.6423 F350.00
G01 X118.7193 Y17.6518 F350.00
G01 X118.7332 Y17.6657 F350.00
G01 X118.7427 Y17.6770 F350.00
G01 X118.7513 Y17.6889 F350.00
G01 X118.7590 Y17.7014 F350.00
G01 X118.7658 Y17.7145 F350.00
G01 X118.7716 Y17.7280 F350.00
G01 X118.7764 Y17.7419 F350.00
G01 X118.7801 Y17.7562 F350.00
G01 X118.7828 Y17.7707 F350.00
G01 X118.7845 Y17.7853 F350.00
G01 X118.7850 Y17.8000 F350.00
G01 X118.7848 Y20.8098 F350.00
G01 X118.7828 Y20.8293 F350.00
G01 X118.7790 Y20.8486 F350.00
G01 X118.7733 Y20.8674 F350.00
G01 X118.7678 Y20.8810 F350.00
G01 X118.7590 Y20.8986 F350.00
G01 X118.7485 Y20.9152 F350.00
G01 X118.7364 Y20.9306 F350.00
G01 X118.7229 Y20.9448 F350.00
G01 X118.7080 Y20.9577 F350.00
G01 X118.6961 Y20.9663 F350.00
G01 X118.6793 Y20.9764 F350.00
G01 X118.6615 Y20.9848 F350.00
G01 X118.6431 Y20.9914 F350.00
G01 X118.6240 Y20.9962 F350.00
G01 X118.6046 Y20.9990 F350.00
G01 X118.5850 Y21.0000 F350.00
G01 X116.5752 Y20.9998 F350.00
G01 X116.5605 Y20.9985 F350.00
G01 X116.5460 Y20.9962 F350.00
G01 X116.5317 Y20.9928 F350.00
G01 X116.5176 Y20.9883 F350.00
G01 X116.5040 Y20.9828 F350.00
G01 X116.4907 Y20.9764 F350.00
G01 X116.4780 Y20.9690 F350.00
G01 X116.4659 Y20.9606 F350.00
G01 X116.4544 Y20.9514 F350.00
G01 X116.4436 Y20.9414 F350.00
G01 X116.4336 Y20.9306 F350.00
G01 X116.4244 Y20.9191 F350.00
G01 X116.4160 Y20.9070 F350.00
G01 X116.4086 Y20.8943 F350.00
G01 X116.4022 Y20.8810 F350.00
G01 X116.3967 Y20.8674 F350.00
G01 X116.3922 Y20.8533 F350.00
G01 X116.3879 Y20.8342 F350.00
G01 X116.3855 Y20.8147 F350.00
G01 X116.3850 Y20.8000 F350.00
G01 X116.3850 Y17.8000 F350.00
G01 X116.3860 Y17.7804 F350.00
G01 X116.3888 Y17.7610 F350.00
G01 X116.3922 Y17.7467 F350.00
G01 X116.3967 Y17.7326 F350.00
G01 X116.4022 Y17.7190 F350.00
G01 X116.4086 Y17.7057 F350.00
G01 X116.4160 Y17.6930 F350.00
G01 X116.4244 Y17.6809 F350.00
G01 X116.4336 Y17.6694 F350.00
G01 X116.4436 Y17.6586 F350.00
G01 X116.4544 Y17.6486 F350.00
G01 X116.4659 Y17.6394 F350.00
G01 X116.4780 Y17.6310 F350.00
G01 X116.4907 Y17.6236 F350.00
G01 X116.4995 Y17.6192 F350.00
G01 X116.5130 Y17.6134 F350.00
G01 X116.5269 Y17.6086 F350.00
G01 X116.5412 Y17.6049 F350.00
G01 X116.5605 Y17.6015 F350.00
G01 X116.5752 Y17.6002 F350.00
G01 X116.5850 Y17.6000 F350.00
G01 X117.1349 Y17.6000 F350.00
G01 X117.1349 Y17.0001 F350.00
G01 X110.1601 Y17.0001 F350.00
G01 X110.1601 Y17.6000 F350.00
G01 X110.7100 Y17.6000 F350.00
G01 X110.7198 Y17.6002 F350.00
G01 X110.7345 Y17.6015 F350.00
G01 X110.7538 Y17.6049 F350.00
G01 X110.7681 Y17.6086 F350.00
G01 X110.7820 Y17.6134 F350.00
G01 X110.7955 Y17.6192 F350.00
G01 X110.8086 Y17.6260 F350.00
G01 X110.8211 Y17.6337 F350.00
G01 X110.8330 Y17.6423 F350.00
G01 X110.8443 Y17.6518 F350.00
G01 X110.8548 Y17.6621 F350.00
G01 X110.8646 Y17.6731 F350.00
G01 X110.8735 Y17.6848 F350.00
G01 X110.8815 Y17.6972 F350.00
G01 X110.8886 Y17.7101 F350.00
G01 X110.8948 Y17.7235 F350.00
G01 X110.8999 Y17.7373 F350.00
G01 X110.9040 Y17.7514 F350.00
G01 X110.9071 Y17.7658 F350.00
G01 X110.9095 Y17.7853 F350.00
G01 X110.9100 Y17.8000 F350.00
G01 X110.9099 Y20.8049 F350.00
G01 X110.9085 Y20.8245 F350.00
G01 X110.9062 Y20.8390 F350.00
G01 X110.9040 Y20.8486 F350.00
G01 X110.9014 Y20.8581 F350.00
G01 X110.8966 Y20.8720 F350.00
G01 X110.8886 Y20.8899 F350.00
G01 X110.8790 Y20.9070 F350.00
G01 X110.8735 Y20.9152 F350.00
G01 X110.8646 Y20.9269 F350.00
G01 X110.8514 Y20.9414 F350.00
G01 X110.8406 Y20.9514 F350.00
G01 X110.8330 Y20.9577 F350.00
G01 X110.8211 Y20.9663 F350.00
G01 X110.8043 Y20.9764 F350.00
G01 X110.7910 Y20.9828 F350.00
G01 X110.7774 Y20.9883 F350.00
G01 X110.7633 Y20.9928 F350.00
G01 X110.7490 Y20.9962 F350.00
G01 X110.7296 Y20.9990 F350.00
G01 X110.7149 Y20.9999 F350.00
G01 X109.0003 Y21.0000 F350.00
G01 X107.2080 Y22.7919 F350.00
G01 X107.1642 Y22.8313 F350.00
G01 X107.1171 Y22.8666 F350.00
G01 X107.1007 Y22.8775 F350.00
G01 X107.0501 Y22.9076 F350.00
G01 X106.9880 Y22.9369 F350.00
G01 X106.9326 Y22.9570 F350.00
G01 X106.9138 Y22.9627 F350.00
G01 X106.8662 Y22.9746 F350.00
G01 X106.8518 Y22.9777 F350.00
G01 X106.7886 Y22.9869 F350.00
G01 X106.7200 Y22.9903 F350.00
G01 X99.1001 Y22.9903 F350.00
G01 X87.5952 Y34.4952 F350.00
G01 X87.5517 Y34.5349 F350.00
G01 X87.5365 Y34.5473 F350.00
G01 X87.4890 Y34.5822 F350.00
G01 X87.4344 Y34.6152 F350.00
G01 X87.4213 Y34.6220 F350.00
G01 X87.3680 Y34.6469 F350.00
G01 X87.3126 Y34.6670 F350.00
G01 X87.2938 Y34.6727 F350.00
G01 X87.2366 Y34.6868 F350.00
G01 X87.1784 Y34.6957 F350.00
G01 X87.1588 Y34.6976 F350.00
G01 X87.1000 Y34.7003 F350.00
G01 X78.2003 Y34.7003 F350.00
G01 X78.2003 Y45.8199 F350.00
G01 X88.5352 Y56.1548 F350.00
G01 X88.5749 Y56.1983 F350.00
G01 X88.5873 Y56.2135 F350.00
G01 X88.6222 Y56.2610 F350.00
G01 X88.6552 Y56.3156 F350.00
G01 X88.6620 Y56.3287 F350.00
G01 X88.6869 Y56.3820 F350.00
G01 X88.7070 Y56.4374 F350.00
G01 X88.7127 Y56.4562 F350.00
G01 X88.7268 Y56.5134 F350.00
G01 X88.7357 Y56.5716 F350.00
G01 X88.7373 Y56.5863 F350.00
G01 X88.7400 Y56.6402 F350.00
G01 X88.7403 Y58.3268 F350.00
G01 X88.7935 Y58.3663 F350.00
G01 X88.8050 Y58.3755 F350.00
G01 X88.8814 Y58.4447 F350.00
G01 X88.8920 Y58.4550 F350.00
G01 X88.9676 Y58.5387 F350.00
G01 X89.0350 Y58.6293 F350.00
G01 X89.0430 Y58.6416 F350.00
G01 X89.0983 Y58.7343 F350.00
G01 X89.1447 Y58.8318 F350.00
G01 X89.1522 Y58.8499 F350.00
G01 X89.1852 Y58.9423 F350.00
G01 X89.1909 Y58.9611 F350.00
G01 X89.2169 Y59.0659 F350.00
G01 X89.2330 Y59.1726 F350.00
G01 X89.2349 Y59.1922 F350.00
G01 X89.2399 Y59.2951 F350.00
G01 X89.2400 Y60.3000 F350.00
G01 X89.2349 Y60.4078 F350.00
G01 X89.2330 Y60.4274 F350.00
G01 X89.2169 Y60.5341 F350.00
G01 X89.1909 Y60.6389 F350.00
G01 X89.1852 Y60.6577 F350.00
G01 X89.1487 Y60.7592 F350.00
G01 X89.1027 Y60.8569 F350.00
G01 X89.0959 Y60.8700 F350.00
G01 X89.0378 Y60.9667 F350.00
G01 X88.9737 Y61.0535 F350.00
G01 X88.9612 Y61.0687 F350.00
G01 X88.8885 Y61.1485 F350.00
G01 X88.8087 Y61.2212 F350.00
G01 X88.7974 Y61.2307 F350.00
G01 X88.7067 Y61.2978 F350.00
G01 X88.6378 Y61.3394 F350.00
G01 X88.6378 Y62.2500 F350.00
G01 X88.8297 Y62.2502 F350.00
G01 X88.8755 Y62.2527 F350.00
G01 X88.9209 Y62.2592 F350.00
G01 X88.9354 Y62.2619 F350.00
G01 X88.9752 Y62.2718 F350.00
G01 X88.9893 Y62.2759 F350.00
G01 X89.0325 Y62.2914 F350.00
G01 X89.0461 Y62.2972 F350.00
G01 X89.0831 Y62.3148 F350.00
G01 X89.0960 Y62.3219 F350.00
G01 X89.1352 Y62.3457 F350.00
G01 X89.1722 Y62.3728 F350.00
G01 X89.1874 Y62.3853 F350.00
G01 X89.2212 Y62.4163 F350.00
G01 X89.2586 Y62.4575 F350.00
G01 X89.2918 Y62.5023 F350.00
G01 X89.3156 Y62.5415 F350.00
G01 X89.3227 Y62.5544 F350.00
G01 X89.3403 Y62.5914 F350.00
G01 X89.3461 Y62.6050 F350.00
G01 X89.3616 Y62.6482 F350.00
G01 X89.3657 Y62.6623 F350.00
G01 X89.3756 Y62.7021 F350.00
G01 X89.3783 Y62.7166 F350.00
G01 X89.3848 Y62.7620 F350.00
G01 X89.3873 Y62.8078 F350.00
G01 X89.3875 Y64.5824 F350.00
G01 X89.3848 Y64.6380 F350.00
G01 X89.3775 Y64.6883 F350.00
G01 X89.3744 Y64.7027 F350.00
G01 X89.3657 Y64.7377 F350.00
G01 X89.3600 Y64.7565 F350.00
G01 X89.3443 Y64.7996 F350.00
G01 X89.3227 Y64.8456 F350.00
G01 X89.3156 Y64.8585 F350.00
G01 X89.2971 Y64.8894 F350.00
G01 X89.2862 Y64.9057 F350.00
G01 X89.2586 Y64.9425 F350.00
G01 X89.2280 Y64.9766 F350.00
G01 X89.2141 Y64.9905 F350.00
G01 X89.1800 Y65.0211 F350.00
G01 X89.1432 Y65.0487 F350.00
G01 X89.1269 Y65.0596 F350.00
G01 X89.0874 Y65.0830 F350.00
G01 X89.0461 Y65.1028 F350.00
G01 X89.0279 Y65.1103 F350.00
G01 X88.9940 Y65.1225 F350.00
G01 X88.9799 Y65.1269 F350.00
G01 X88.9306 Y65.1391 F350.00
G01 X88.8852 Y65.1461 F350.00
G01 X88.8657 Y65.1480 F350.00
G01 X88.8199 Y65.1500 F350.00
G01 X87.0551 Y65.1500 F350.00
G01 X86.9995 Y65.1473 F350.00
G01 X86.9492 Y65.1400 F350.00
G01 X86.9348 Y65.1369 F350.00
G01 X86.8998 Y65.1282 F350.00
G01 X86.8810 Y65.1225 F350.00
G01 X86.8379 Y65.1068 F350.00
G01 X86.7876 Y65.0830 F350.00
G01 X86.7481 Y65.0596 F350.00
G01 X86.7318 Y65.0487 F350.00
G01 X86.6950 Y65.0211 F350.00
G01 X86.6538 Y64.9837 F350.00
G01 X86.6228 Y64.9499 F350.00
G01 X86.6103 Y64.9347 F350.00
G01 X86.5832 Y64.8977 F350.00
G01 X86.5545 Y64.8499 F350.00
G01 X86.5307 Y64.7996 F350.00
G01 X86.5150 Y64.7565 F350.00
G01 X86.5093 Y64.7377 F350.00
G01 X86.4984 Y64.6931 F350.00
G01 X86.4902 Y64.6380 F350.00
G01 X86.4875 Y64.5824 F350.00
G01 X86.4875 Y62.8176 F350.00
G01 X86.4902 Y62.7620 F350.00
G01 X86.4967 Y62.7166 F350.00
G01 X86.5006 Y62.6973 F350.00
G01 X86.5119 Y62.6529 F350.00
G01 X86.5307 Y62.6004 F350.00
G01 X86.5545 Y62.5501 F350.00
G01 X86.5832 Y62.5023 F350.00
G01 X86.6164 Y62.4575 F350.00
G01 X86.6538 Y62.4163 F350.00
G01 X86.6950 Y62.3789 F350.00
G01 X86.7398 Y62.3457 F350.00
G01 X86.7833 Y62.3194 F350.00
G01 X86.7963 Y62.3126 F350.00
G01 X86.8379 Y62.2932 F350.00
G01 X86.8810 Y62.2775 F350.00
G01 X86.8998 Y62.2718 F350.00
G01 X86.9396 Y62.2619 F350.00
G01 X86.9541 Y62.2592 F350.00
G01 X86.9995 Y62.2527 F350.00
G01 X87.0502 Y62.2501 F350.00
G01 X87.2372 Y62.2500 F350.00
G01 X87.2372 Y61.1903 F350.00
G01 X87.1986 Y61.1553 F350.00
G01 X87.1880 Y61.1450 F350.00
G01 X87.1188 Y61.0687 F350.00
G01 X87.1093 Y61.0574 F350.00
G01 X87.0422 Y60.9667 F350.00
G01 X86.9865 Y60.8742 F350.00
G01 X86.9794 Y60.8613 F350.00
G01 X86.9313 Y60.7592 F350.00
G01 X86.8917 Y60.6483 F350.00
G01 X86.8631 Y60.5341 F350.00
G01 X86.8463 Y60.4225 F350.00
G01 X86.8451 Y60.4078 F350.00
G01 X86.8400 Y60.3000 F350.00
G01 X86.8401 Y59.2951 F350.00
G01 X86.8451 Y59.1922 F350.00
G01 X86.8470 Y59.1726 F350.00
G01 X86.8631 Y59.0659 F350.00
G01 X86.8891 Y58.9611 F350.00
G01 X86.8948 Y58.9423 F350.00
G01 X86.9313 Y58.8408 F350.00
G01 X86.9794 Y58.7387 F350.00
G01 X86.9865 Y58.7258 F350.00
G01 X87.0422 Y58.6333 F350.00
G01 X87.1063 Y58.5465 F350.00
G01 X87.1155 Y58.5350 F350.00
G01 X87.1847 Y58.4586 F350.00
G01 X87.1986 Y58.4447 F350.00
G01 X87.2787 Y58.3724 F350.00
G01 X87.3397 Y58.3268 F350.00
G01 X87.3397 Y56.9401 F350.00
G01 X77.0048 Y46.6052 F350.00
G01 X76.9587 Y46.5542 F350.00
G01 X76.9178 Y46.4990 F350.00
G01 X76.8824 Y46.4401 F350.00
G01 X76.8531 Y46.3780 F350.00
G01 X76.8299 Y46.3133 F350.00
G01 X76.8132 Y46.2466 F350.00
G01 X76.8031 Y46.1786 F350.00
G01 X76.7997 Y46.1100 F350.00
G01 X76.7997 Y34.7003 F350.00
G01 X48.0872 Y34.7003 F350.00
G01 X48.0284 Y34.6976 F350.00
G01 X48.0088 Y34.6957 F350.00
G01 X47.9554 Y34.6877 F350.00
G01 X47.9410 Y34.6846 F350.00
G01 X47.8839 Y34.6701 F350.00
G01 X47.8192 Y34.6469 F350.00
G01 X47.7571 Y34.6176 F350.00
G01 X47.7065 Y34.5875 F350.00
G01 X47.6901 Y34.5766 F350.00
G01 X47.6468 Y34.5444 F350.00
G01 X47.6355 Y34.5349 F350.00
G01 X47.5921 Y34.4952 F350.00
G01 X45.9100 Y32.8131 F350.00
G01 X45.4279 Y33.2952 F350.00
G01 X45.3808 Y33.3381 F350.00
G01 X45.3693 Y33.3473 F350.00
G01 X45.3218 Y33.3822 F350.00
G01 X45.2629 Y33.4176 F350.00
G01 X45.2008 Y33.4469 F350.00
G01 X45.1454 Y33.4670 F350.00
G01 X45.1266 Y33.4727 F350.00
G01 X45.0694 Y33.4868 F350.00
G01 X45.0112 Y33.4957 F350.00
G01 X44.9916 Y33.4976 F350.00
G01 X44.9377 Y33.5002 F350.00
G01 X43.2545 Y33.5003 F350.00
G01 X41.9453 Y34.8095 F350.00
G01 X41.9453 Y38.9168 F350.00
G01 X42.0063 Y38.9624 F350.00
G01 X42.0864 Y39.0347 F350.00
G01 X42.1003 Y39.0486 F350.00
G01 X42.1695 Y39.1250 F350.00
G01 X42.1787 Y39.1365 F350.00
G01 X42.2428 Y39.2233 F350.00
G01 X42.2985 Y39.3158 F350.00
G01 X42.3056 Y39.3287 F350.00
G01 X42.3537 Y39.4308 F350.00
G01 X42.3902 Y39.5323 F350.00
G01 X42.3959 Y39.5511 F350.00
G01 X42.4219 Y39.6559 F350.00
G01 X42.4380 Y39.7626 F350.00
G01 X42.4399 Y39.7822 F350.00
G01 X42.4448 Y39.8802 F350.00
G01 X42.4448 Y39.8998 F350.00
G01 X42.4399 Y39.9978 F350.00
G01 X42.4380 Y40.0174 F350.00
G01 X42.4219 Y40.1241 F350.00
G01 X42.3959 Y40.2289 F350.00
G01 X42.3902 Y40.2477 F350.00
G01 X42.3537 Y40.3492 F350.00
G01 X42.3033 Y40.4557 F350.00
G01 X42.2428 Y40.5567 F350.00
G01 X42.1726 Y40.6513 F350.00
G01 X42.1003 Y40.7314 F350.00
G01 X42.0864 Y40.7453 F350.00
G01 X42.0063 Y40.8176 F350.00
G01 X41.9117 Y40.8878 F350.00
G01 X41.8107 Y40.9483 F350.00
G01 X41.7132 Y40.9947 F350.00
G01 X41.6951 Y41.0022 F350.00
G01 X41.5933 Y41.0383 F350.00
G01 X41.4791 Y41.0669 F350.00
G01 X41.3724 Y41.0830 F350.00
G01 X41.3528 Y41.0849 F350.00
G01 X41.2450 Y41.0900 F350.00
G01 X41.1274 Y41.0842 F350.00
G01 X41.0206 Y41.0686 F350.00
G01 X41.0013 Y41.0648 F350.00
G01 X40.9061 Y41.0409 F350.00
G01 X40.8873 Y41.0352 F350.00
G01 X40.7858 Y40.9987 F350.00
G01 X40.6881 Y40.9527 F350.00
G01 X40.6708 Y40.9435 F350.00
G01 X40.5866 Y40.8930 F350.00
G01 X40.5703 Y40.8821 F350.00
G01 X40.4837 Y40.8176 F350.00
G01 X40.3965 Y40.7385 F350.00
G01 X40.3174 Y40.6513 F350.00
G01 X40.2529 Y40.5647 F350.00
G01 X40.2420 Y40.5484 F350.00
G01 X40.1915 Y40.4642 F350.00
G01 X40.1823 Y40.4469 F350.00
G01 X40.1363 Y40.3492 F350.00
G01 X40.0967 Y40.2383 F350.00
G01 X40.0702 Y40.1337 F350.00
G01 X40.0664 Y40.1144 F350.00
G01 X40.0508 Y40.0076 F350.00
G01 X40.0451 Y39.8949 F350.00
G01 X40.0452 Y39.8802 F350.00
G01 X40.0508 Y39.7724 F350.00
G01 X40.0664 Y39.6656 F350.00
G01 X40.0702 Y39.6463 F350.00
G01 X40.0967 Y39.5417 F350.00
G01 X40.1328 Y39.4399 F350.00
G01 X40.1403 Y39.4218 F350.00
G01 X40.1844 Y39.3287 F350.00
G01 X40.1915 Y39.3158 F350.00
G01 X40.2472 Y39.2233 F350.00
G01 X40.3113 Y39.1365 F350.00
G01 X40.3205 Y39.1250 F350.00
G01 X40.3897 Y39.0486 F350.00
G01 X40.4036 Y39.0347 F350.00
G01 X40.4837 Y38.9624 F350.00
G01 X40.5447 Y38.9168 F350.00
G01 X40.5448 Y34.5146 F350.00
G01 X40.5474 Y34.4606 F350.00
G01 X40.5493 Y34.4411 F350.00
G01 X40.5582 Y34.3829 F350.00
G01 X40.5723 Y34.3257 F350.00
G01 X40.5780 Y34.3069 F350.00
G01 X40.5981 Y34.2515 F350.00
G01 X40.6230 Y34.1981 F350.00
G01 X40.6298 Y34.1851 F350.00
G01 X40.6628 Y34.1304 F350.00
G01 X40.6977 Y34.0830 F350.00
G01 X40.7101 Y34.0678 F350.00
G01 X40.7498 Y34.0243 F350.00
G01 X42.4693 Y32.3048 F350.00
G01 X42.5202 Y32.2587 F350.00
G01 X42.5674 Y32.2234 F350.00
G01 X42.5837 Y32.2125 F350.00
G01 X42.6344 Y32.1824 F350.00
G01 X42.6965 Y32.1531 F350.00
G01 X42.7519 Y32.1330 F350.00
G01 X42.7707 Y32.1273 F350.00
G01 X42.8279 Y32.1132 F350.00
G01 X42.8861 Y32.1043 F350.00
G01 X42.9007 Y32.1027 F350.00
G01 X42.9547 Y32.1000 F350.00
G01 X44.6427 Y32.0997 F350.00
G01 X45.2097 Y31.5327 F350.00
G01 X45.2097 Y31.3983 F350.00
G01 X45.1322 Y31.3278 F350.00
G01 X45.0661 Y31.2553 F350.00
G01 X45.0536 Y31.2401 F350.00
G01 X45.0010 Y31.1692 F350.00
G01 X44.9901 Y31.1528 F350.00
G01 X44.9399 Y31.0685 F350.00
G01 X44.8937 Y30.9710 F350.00
G01 X44.8574 Y30.8693 F350.00
G01 X44.8322 Y30.7694 F350.00
G01 X44.8295 Y30.7549 F350.00
G01 X44.8165 Y30.6676 F350.00
G01 X44.8146 Y30.6480 F350.00
G01 X44.8100 Y30.5500 F350.00
G01 X44.8153 Y30.4422 F350.00
G01 X44.8311 Y30.3354 F350.00
G01 X44.8547 Y30.2401 F350.00
G01 X44.8604 Y30.2214 F350.00
G01 X44.8902 Y30.1382 F350.00
G01 X44.8957 Y30.1245 F350.00
G01 X44.9355 Y30.0402 F350.00
G01 X44.9447 Y30.0229 F350.00
G01 X44.9954 Y29.9389 F350.00
G01 X45.0536 Y29.8599 F350.00
G01 X45.0661 Y29.8447 F350.00
G01 X45.1322 Y29.7722 F350.00
G01 X45.2047 Y29.7061 F350.00
G01 X45.2199 Y29.6936 F350.00
G01 X45.2989 Y29.6354 F350.00
G01 X45.3829 Y29.5847 F350.00
G01 X45.4002 Y29.5755 F350.00
G01 X45.4890 Y29.5337 F350.00
G01 X45.5814 Y29.5004 F350.00
G01 X45.6001 Y29.4947 F350.00
G01 X45.6954 Y29.4711 F350.00
G01 X45.7924 Y29.4565 F350.00
G01 X45.8120 Y29.4546 F350.00
G01 X45.9100 Y29.4500 F350.00
G01 X46.0080 Y29.4546 F350.00
G01 X46.0276 Y29.4565 F350.00
G01 X46.1246 Y29.4711 F350.00
G01 X46.2199 Y29.4947 F350.00
G01 X46.2386 Y29.5004 F350.00
G01 X46.3218 Y29.5302 F350.00
G01 X46.3399 Y29.5377 F350.00
G01 X46.4285 Y29.5799 F350.00
G01 X46.5128 Y29.6301 F350.00
G01 X46.5292 Y29.6410 F350.00
G01 X46.6078 Y29.6997 F350.00
G01 X46.6878 Y29.7722 F350.00
G01 X46.7539 Y29.8447 F350.00
G01 X46.7664 Y29.8599 F350.00
G01 X46.8246 Y29.9389 F350.00
G01 X46.8801 Y30.0315 F350.00
G01 X46.9263 Y30.1290 F350.00
G01 X46.9626 Y30.2307 F350.00
G01 X46.9867 Y30.3258 F350.00
G01 X46.9905 Y30.3451 F350.00
G01 X47.0035 Y30.4324 F350.00
G01 X47.0054 Y30.4520 F350.00
G01 X47.0100 Y30.5500 F350.00
G01 X47.0054 Y30.6480 F350.00
G01 X47.0042 Y30.6627 F350.00
G01 X46.9889 Y30.7646 F350.00
G01 X46.9653 Y30.8599 F350.00
G01 X46.9596 Y30.8786 F350.00
G01 X46.9298 Y30.9618 F350.00
G01 X46.9243 Y30.9755 F350.00
G01 X46.8845 Y31.0598 F350.00
G01 X46.8753 Y31.0771 F350.00
G01 X46.8246 Y31.1611 F350.00
G01 X46.7664 Y31.2401 F350.00
G01 X46.7539 Y31.2553 F350.00
G01 X46.6878 Y31.3278 F350.00
G01 X46.6103 Y31.3983 F350.00
G01 X46.6103 Y31.5327 F350.00
G01 X48.3773 Y33.2997 F350.00
G01 X86.8099 Y33.2997 F350.00
G01 X98.1097 Y21.9999 F350.00
G01 X98.1097 Y20.4232 F350.00
G01 X98.0487 Y20.3776 F350.00
G01 X97.9686 Y20.3053 F350.00
G01 X97.9547 Y20.2914 F350.00
G01 X97.8855 Y20.2150 F350.00
G01 X97.8763 Y20.2035 F350.00
G01 X97.8122 Y20.1167 F350.00
G01 X97.7565 Y20.0242 F350.00
G01 X97.7494 Y20.0113 F350.00
G01 X97.7053 Y19.9182 F350.00
G01 X97.6978 Y19.9001 F350.00
G01 X97.6617 Y19.7983 F350.00
G01 X97.6352 Y19.6937 F350.00
G01 X97.6314 Y19.6744 F350.00
G01 X97.6158 Y19.5676 F350.00
G01 X97.6100 Y19.4500 F350.00
G01 X97.6100 Y17.4500 F350.00
G01 X97.6158 Y17.3324 F350.00
G01 X97.6322 Y17.2207 F350.00
G01 X97.6352 Y17.2063 F350.00
G01 X97.6617 Y17.1017 F350.00
G01 X97.7013 Y16.9908 F350.00
G01 X97.7517 Y16.8843 F350.00
G01 X97.8096 Y16.7874 F350.00
G01 X97.8179 Y16.7753 F350.00
G01 X97.8824 Y16.6887 F350.00
G01 X97.9580 Y16.6050 F350.00
G01 X97.9686 Y16.5947 F350.00
G01 X98.0450 Y16.5255 F350.00
G01 X98.0565 Y16.5163 F350.00
G01 X98.1097 Y16.4768 F350.00
G01 X98.1097 Y7.6501 F350.00
G01 X94.3948 Y3.9352 F350.00
G01 X94.3487 Y3.8842 F350.00
G01 X94.3134 Y3.8371 F350.00
G01 X94.3051 Y3.8249 F350.00
G01 X94.2773 Y3.7786 F350.00
G01 X94.2680 Y3.7613 F350.00
G01 X94.2431 Y3.7080 F350.00
G01 X94.2230 Y3.6526 F350.00
G01 X94.2173 Y3.6338 F350.00
G01 X94.2032 Y3.5766 F350.00
G01 X94.1943 Y3.5184 F350.00
G01 X94.1924 Y3.4988 F350.00
G01 X94.1897 Y3.4400 F350.00
G01 X94.1897 Y1.6735 F350.00
G01 X94.1586 Y1.6453 F350.00
G01 X94.1480 Y1.6350 F350.00
G01 X94.0788 Y1.5587 F350.00
G01 X94.0693 Y1.5474 F350.00
G01 X94.0022 Y1.4567 F350.00
G01 X93.9465 Y1.3642 F350.00
G01 X93.9394 Y1.3513 F350.00
G01 X93.8913 Y1.2492 F350.00
G01 X93.8517 Y1.1383 F350.00
G01 X93.8231 Y1.0241 F350.00
G01 X93.8063 Y0.9125 F350.00
G01 X93.8051 Y0.8978 F350.00
G01 X93.8000 Y0.7900 F350.00
G01 X93.8001 Y-1.2149 F350.00
G01 X93.8058 Y-1.3276 F350.00
G01 X93.8231 Y-1.4441 F350.00
G01 X93.8517 Y-1.5583 F350.00
G01 X93.8878 Y-1.6601 F350.00
G01 X93.8933 Y-1.6737 F350.00
G01 X93.9417 Y-1.7757 F350.00
G01 X94.0022 Y-1.8767 F350.00
G01 X94.0724 Y-1.9713 F350.00
G01 X94.1447 Y-2.0514 F350.00
G01 X94.1586 Y-2.0653 F350.00
G01 X94.2313 Y-2.1312 F350.00
G01 X94.2465 Y-2.1437 F350.00
G01 X94.3333 Y-2.2078 F350.00
G01 X94.4343 Y-2.2683 F350.00
G01 X94.5408 Y-2.3187 F350.00
G01 X94.6517 Y-2.3583 F350.00
G01 X94.7659 Y-2.3869 F350.00
G01 X94.8726 Y-2.4030 F350.00
G01 X94.8922 Y-2.4049 F350.00
G01 X94.9902 Y-2.4098 F350.00
G01 X95.0098 Y-2.4098 F350.00
G01 X95.1176 Y-2.4042 F350.00
G01 X95.2244 Y-2.3886 F350.00
G01 X95.2389 Y-2.3859 F350.00
G01 X95.3483 Y-2.3583 F350.00
G01 X95.4501 Y-2.3222 F350.00
G01 X95.4682 Y-2.3147 F350.00
G01 X95.5569 Y-2.2727 F350.00
G01 X95.5742 Y-2.2635 F350.00
G01 X95.6667 Y-2.2078 F350.00
G01 X95.7613 Y-2.1376 F350.00
G01 X95.8485 Y-2.0585 F350.00
G01 X95.9212 Y-1.9787 F350.00
G01 X95.9337 Y-1.9635 F350.00
G01 X95.9921 Y-1.8847 F350.00
G01 X96.0030 Y-1.8684 F350.00
G01 X96.0583 Y-1.7757 F350.00
G01 X96.1087 Y-1.6692 F350.00
G01 X96.1483 Y-1.5583 F350.00
G01 X96.1748 Y-1.4537 F350.00
G01 X96.1786 Y-1.4344 F350.00
G01 X96.1930 Y-1.3374 F350.00
G01 X96.1946 Y-1.3227 F350.00
G01 X96.2000 Y-1.2100 F350.00
G01 X96.2000 Y0.7900 F350.00
G01 X96.1949 Y0.8978 F350.00
G01 X96.1937 Y0.9125 F350.00
G01 X96.1786 Y1.0144 F350.00
G01 X96.1748 Y1.0337 F350.00
G01 X96.1483 Y1.1383 F350.00
G01 X96.1122 Y1.2401 F350.00
G01 X96.1047 Y1.2582 F350.00
G01 X96.0583 Y1.3557 F350.00
G01 X95.9978 Y1.4567 F350.00
G01 X95.9276 Y1.5513 F350.00
G01 X95.8553 Y1.6314 F350.00
G01 X95.8414 Y1.6453 F350.00
G01 X95.7687 Y1.7112 F350.00
G01 X95.7535 Y1.7237 F350.00
G01 X95.6667 Y1.7878 F350.00
G01 X95.5903 Y1.8339 F350.00
G01 X95.5903 Y3.1499 F350.00
G01 X99.3086 Y6.8684 F350.00
G01 X99.3513 Y6.9158 F350.00
G01 X99.3866 Y6.9629 F350.00
G01 X99.3975 Y6.9793 F350.00
G01 X99.4276 Y7.0299 F350.00
G01 X99.4569 Y7.0920 F350.00
G01 X99.4770 Y7.1474 F350.00
G01 X99.4827 Y7.1662 F350.00
G01 X99.4946 Y7.2138 F350.00
G01 X99.4977 Y7.2282 F350.00
G01 X99.5069 Y7.2914 F350.00
G01 X99.5103 Y7.3600 F350.00
G01 X99.5103 Y16.4768 F350.00
G01 X99.5713 Y16.5224 F350.00
G01 X99.6514 Y16.5947 F350.00
G01 X99.6653 Y16.6086 F350.00
G01 X99.7345 Y16.6850 F350.00
G01 X99.7437 Y16.6965 F350.00
G01 X99.8078 Y16.7833 F350.00
G01 X99.8635 Y16.8758 F350.00
G01 X99.8706 Y16.8887 F350.00
G01 X99.9147 Y16.9818 F350.00
G01 X99.9222 Y16.9999 F350.00
G01 X99.9583 Y17.1017 F350.00
G01 X99.9848 Y17.2063 F350.00
G01 X99.9886 Y17.2256 F350.00
G01 X100.0042 Y17.3324 F350.00
G01 X100.0100 Y17.4500 F350.00
G01 X100.0100 Y19.4500 F350.00
G01 X100.0049 Y19.5578 F350.00
G01 X100.0037 Y19.5725 F350.00
G01 X99.9869 Y19.6841 F350.00
G01 X99.9583 Y19.7983 F350.00
G01 X99.9187 Y19.9092 F350.00
G01 X99.8727 Y20.0069 F350.00
G01 X99.8659 Y20.0200 F350.00
G01 X99.8078 Y20.1167 F350.00
G01 X99.7437 Y20.2035 F350.00
G01 X99.7345 Y20.2150 F350.00
G01 X99.6653 Y20.2914 F350.00
G01 X99.6514 Y20.3053 F350.00
G01 X99.5713 Y20.3776 F350.00
G01 X99.5103 Y20.4232 F350.00
G01 X99.5103 Y21.5897 F350.00
G01 X106.4299 Y21.5897 F350.00
G01 X108.5100 Y19.5097 F350.00
G01 X108.5100 Y17.8000 F350.00
G01 X108.5110 Y17.7804 F350.00
G01 X108.5129 Y17.7658 F350.00
G01 X108.5160 Y17.7514 F350.00
G01 X108.5201 Y17.7373 F350.00
G01 X108.5234 Y17.7280 F350.00
G01 X108.5292 Y17.7145 F350.00
G01 X108.5360 Y17.7014 F350.00
G01 X108.5437 Y17.6889 F350.00
G01 X108.5523 Y17.6770 F350.00
G01 X108.5618 Y17.6657 F350.00
G01 X108.5721 Y17.6552 F350.00
G01 X108.5794 Y17.6486 F350.00
G01 X108.5909 Y17.6394 F350.00
G01 X108.6030 Y17.6310 F350.00
G01 X108.6157 Y17.6236 F350.00
G01 X108.6245 Y17.6192 F350.00
G01 X108.6335 Y17.6152 F350.00
G01 X108.6473 Y17.6101 F350.00
G01 X108.6614 Y17.6060 F350.00
G01 X108.6758 Y17.6029 F350.00
G01 X108.6904 Y17.6010 F350.00
G01 X108.7100 Y17.6000 F350.00
G01 X109.2599 Y17.6000 F350.00
G01 X109.2599 Y16.5500 F350.00
G01 X109.2620 Y16.5059 F350.00
G01 X109.2676 Y16.4670 F350.00
G01 X109.2707 Y16.4526 F350.00
G01 X109.2793 Y16.4193 F350.00
G01 X109.2906 Y16.3869 F350.00
G01 X109.2961 Y16.3732 F350.00
G01 X109.3130 Y16.3378 F350.00
G01 X109.3331 Y16.3040 F350.00
G01 X109.3414 Y16.2919 F350.00
G01 X109.3620 Y16.2644 F350.00
G01 X109.3917 Y16.2317 F350.00
G01 X109.4207 Y16.2052 F350.00
G01 X109.4322 Y16.1960 F350.00
G01 X109.4599 Y16.1757 F350.00
G01 X109.4978 Y16.1530 F350.00
G01 X109.5332 Y16.1361 F350.00
G01 X109.5469 Y16.1306 F350.00
G01 X109.5793 Y16.1193 F350.00
G01 X109.6222 Y16.1085 F350.00
G01 X109.6659 Y16.1020 F350.00
G01 X109.7100 Y16.0999 F350.00
G01 X125.4600 Y16.0999 F350.00
G01 X125.5041 Y16.1020 F350.00
G01 X125.5430 Y16.1076 F350.00
G01 X125.5574 Y16.1107 F350.00
G01 X125.5907 Y16.1193 F350.00
G01 X125.6323 Y16.1341 F350.00
G01 X125.6722 Y16.1530 F350.00
G01 X125.7018 Y16.1705 F350.00
G01 X125.7141 Y16.1785 F350.00
G01 X125.7456 Y16.2020 F350.00
G01 X125.7783 Y16.2317 F350.00
G01 X125.8015 Y16.2570 F350.00
G01 X125.8110 Y16.2683 F350.00
G01 X125.8343 Y16.2999 F350.00
G01 X125.8570 Y16.3378 F350.00
G01 X125.8719 Y16.3688 F350.00
G01 X125.8794 Y16.3869 F350.00
G01 X125.8893 Y16.4147 F350.00
G01 X125.8921 Y16.4241 F350.00
G01 X125.9005 Y16.4574 F350.00
G01 X125.9032 Y16.4719 F350.00
G01 X125.9080 Y16.5059 F350.00
G01 X125.9101 Y16.5451 F350.00
G01 X125.9101 Y17.6000 F350.00
G01 X126.4600 Y17.6000 F350.00
G01 X126.4698 Y17.6002 F350.00
G01 X126.4845 Y17.6015 F350.00
G01 X126.4990 Y17.6038 F350.00
G01 X126.5086 Y17.6060 F350.00
G01 X126.5227 Y17.6101 F350.00
G01 X126.5365 Y17.6152 F350.00
G01 X126.5543 Y17.6236 F350.00
G01 X126.5670 Y17.6310 F350.00
G01 X126.5791 Y17.6394 F350.00
G01 X126.5906 Y17.6486 F350.00
G01 X126.6014 Y17.6586 F350.00
G01 X126.6114 Y17.6694 F350.00
G01 X126.6206 Y17.6809 F350.00
G01 X126.6290 Y17.6930 F350.00
G01 X126.6364 Y17.7057 F350.00
G01 X126.6428 Y17.7190 F350.00
G01 X126.6499 Y17.7373 F350.00
G01 X126.6540 Y17.7514 F350.00
G01 X126.6571 Y17.7658 F350.00
G01 X126.6590 Y17.7804 F350.00
G01 X126.6600 Y17.8000 F350.00
G01 X126.6600 Y20.8000 F350.00
G01 X126.6590 Y20.8196 F350.00
G01 X126.6571 Y20.8342 F350.00
G01 X126.6540 Y20.8486 F350.00
G01 X126.6499 Y20.8627 F350.00
G01 X126.6448 Y20.8765 F350.00
G01 X126.6408 Y20.8855 F350.00
G01 X126.6340 Y20.8986 F350.00
G01 X126.6263 Y20.9111 F350.00
G01 X126.6177 Y20.9230 F350.00
G01 X126.6082 Y20.9343 F350.00
G01 X126.5979 Y20.9448 F350.00
G01 X126.5869 Y20.9546 F350.00
G01 X126.5752 Y20.9635 F350.00
G01 X126.5628 Y20.9715 F350.00
G01 X126.5499 Y20.9786 F350.00
G01 X126.5365 Y20.9848 F350.00
G01 X126.5274 Y20.9883 F350.00
G01 X126.5133 Y20.9928 F350.00
G01 X126.4990 Y20.9962 F350.00
G01 X126.4845 Y20.9985 F350.00
G01 X126.4649 Y20.9999 F350.00
G01 X126.1603 Y21.0000 F350.00
G01 X126.1603 Y23.0997 F350.00
G01 X131.5000 Y23.0997 F350.00
G01 X131.5686 Y23.1031 F350.00
G01 X131.6269 Y23.1115 F350.00
G01 X131.6462 Y23.1154 F350.00
G01 X131.7033 Y23.1299 F350.00
G01 X131.7588 Y23.1495 F350.00
G01 X131.7769 Y23.1570 F350.00
G01 X131.8301 Y23.1824 F350.00
G01 X131.8807 Y23.2125 F350.00
G01 X131.8971 Y23.2234 F350.00
G01 X131.9442 Y23.2587 F350.00
G01 X131.9880 Y23.2981 F350.00
G01 X133.4952 Y24.8048 F350.00
G01 X133.5349 Y24.8483 F350.00
G01 X133.5473 Y24.8635 F350.00
G01 X133.5822 Y24.9110 F350.00
G01 X133.6176 Y24.9699 F350.00
G01 X133.6469 Y25.0320 F350.00
G01 X133.6670 Y25.0874 F350.00
G01 X133.6727 Y25.1062 F350.00
G01 X133.6858 Y25.1586 F350.00
G01 X133.6885 Y25.1731 F350.00
G01 X133.6969 Y25.2314 F350.00
G01 X133.7003 Y25.3000 F350.00
G01 X133.7003 Y48.0500 F350.00
G01 X133.6969 Y48.1186 F350.00
G01 X133.6885 Y48.1769 F350.00
G01 X133.6858 Y48.1914 F350.00
G01 X133.6701 Y48.2533 F350.00
G01 X133.6505 Y48.3088 F350.00
G01 X133.6430 Y48.3269 F350.00
G01 X133.6176 Y48.3801 F350.00
G01 X133.5875 Y48.4307 F350.00
G01 X133.5766 Y48.4471 F350.00
G01 X133.5413 Y48.4942 F350.00
G01 X133.4986 Y48.5416 F350.00
G01 X128.9952 Y53.0452 F350.00
G01 X128.9442 Y53.0913 F350.00
G01 X128.8971 Y53.1266 F350.00
G01 X128.8807 Y53.1375 F350.00
G01 X128.8301 Y53.1676 F350.00
G01 X128.7680 Y53.1969 F350.00
G01 X128.7126 Y53.2170 F350.00
G01 X128.6938 Y53.2227 F350.00
G01 X128.6366 Y53.2368 F350.00
G01 X128.5686 Y53.2469 F350.00
G01 X128.5000 Y53.2503 F350.00
G01 X107.2232 Y53.2503 F350.00
G01 X107.1776 Y53.3113 F350.00
G01 X107.1020 Y53.3950 F350.00
G01 X107.0914 Y53.4053 F350.00
G01 X107.0187 Y53.4712 F350.00
G01 X107.0074 Y53.4807 F350.00
G01 X106.9167 Y53.5478 F350.00
G01 X106.8242 Y53.6035 F350.00
G01 X106.8069 Y53.6127 F350.00
G01 X106.7182 Y53.6547 F350.00
G01 X106.7047 Y53.6605 F350.00
G01 X106.6904 Y53.6657 F350.00
G01 X106.6904 Y55.1879 F350.00
G01 X106.7082 Y55.1953 F350.00
G01 X106.7969 Y55.2373 F350.00
G01 X106.8142 Y55.2465 F350.00
G01 X106.9067 Y55.3022 F350.00
G01 X107.0013 Y55.3724 F350.00
G01 X107.0885 Y55.4515 F350.00
G01 X107.1612 Y55.5313 F350.00
G01 X107.1737 Y55.5465 F350.00
G01 X107.2321 Y55.6253 F350.00
G01 X107.2430 Y55.6416 F350.00
G01 X107.2983 Y55.7343 F350.00
G01 X107.3487 Y55.8408 F350.00
G01 X107.3883 Y55.9517 F350.00
G01 X107.4148 Y56.0563 F350.00
G01 X107.4186 Y56.0756 F350.00
G01 X107.4330 Y56.1726 F350.00
G01 X107.4349 Y56.1922 F350.00
G01 X107.4400 Y56.3000 F350.00
G01 X107.4342 Y56.4176 F350.00
G01 X107.4169 Y56.5341 F350.00
G01 X107.3909 Y56.6389 F350.00
G01 X107.3852 Y56.6577 F350.00
G01 X107.3487 Y56.7592 F350.00
G01 X107.3027 Y56.8569 F350.00
G01 X107.2935 Y56.8742 F350.00
G01 X107.2378 Y56.9667 F350.00
G01 X107.1737 Y57.0535 F350.00
G01 X107.1612 Y57.0687 F350.00
G01 X107.0885 Y57.1485 F350.00
G01 X107.0087 Y57.2212 F350.00
G01 X106.9935 Y57.2337 F350.00
G01 X106.9067 Y57.2978 F350.00
G01 X106.8142 Y57.3535 F350.00
G01 X106.7969 Y57.3627 F350.00
G01 X106.7082 Y57.4047 F350.00
G01 X106.6904 Y57.4121 F350.00
G01 X106.6904 Y58.9379 F350.00
G01 X106.7082 Y58.9453 F350.00
G01 X106.8057 Y58.9917 F350.00
G01 X106.9067 Y59.0522 F350.00
G01 X107.0013 Y59.1224 F350.00
G01 X107.0814 Y59.1947 F350.00
G01 X107.0953 Y59.2086 F350.00
G01 X107.1612 Y59.2813 F350.00
G01 X107.1737 Y59.2965 F350.00
G01 X107.2378 Y59.3833 F350.00
G01 X107.2935 Y59.4758 F350.00
G01 X107.3027 Y59.4931 F350.00
G01 X107.3487 Y59.5908 F350.00
G01 X107.3883 Y59.7017 F350.00
G01 X107.4169 Y59.8159 F350.00
G01 X107.4342 Y59.9324 F350.00
G01 X107.4400 Y60.0500 F350.00
G01 X107.4349 Y60.1578 F350.00
G01 X107.4330 Y60.1774 F350.00
G01 X107.4169 Y60.2841 F350.00
G01 X107.3909 Y60.3889 F350.00
G01 X107.3852 Y60.4077 F350.00
G01 X107.3522 Y60.5001 F350.00
G01 X107.3447 Y60.5182 F350.00
G01 X107.2983 Y60.6157 F350.00
G01 X107.2404 Y60.7126 F350.00
G01 X107.2321 Y60.7247 F350.00
G01 X107.1676 Y60.8113 F350.00
G01 X107.0953 Y60.8914 F350.00
G01 X107.0814 Y60.9053 F350.00
G01 X107.0087 Y60.9712 F350.00
G01 X106.9935 Y60.9837 F350.00
G01 X106.9067 Y61.0478 F350.00
G01 X106.8057 Y61.1083 F350.00
G01 X106.6992 Y61.1587 F350.00
G01 X106.5883 Y61.1983 F350.00
G01 X106.4837 Y61.2248 F350.00
G01 X106.4644 Y61.2286 F350.00
G01 X106.3576 Y61.2442 F350.00
G01 X106.2498 Y61.2498 F350.00
G01 X105.5303 Y61.2500 F350.00
G01 X97.1852 Y69.5952 F350.00
G01 X97.1342 Y69.6413 F350.00
G01 X97.0871 Y69.6766 F350.00
G01 X97.0707 Y69.6875 F350.00
G01 X97.0201 Y69.7176 F350.00
G01 X96.9669 Y69.7430 F350.00
G01 X96.9488 Y69.7505 F350.00
G01 X96.8933 Y69.7701 F350.00
G01 X96.8362 Y69.7846 F350.00
G01 X96.8169 Y69.7885 F350.00
G01 X96.7586 Y69.7969 F350.00
G01 X96.6900 Y69.8003 F350.00
G01 X44.5500 Y69.8003 F350.00
G01 X44.4814 Y69.7969 F350.00
G01 X44.4231 Y69.7885 F350.00
G01 X44.4086 Y69.7858 F350.00
G01 X44.3467 Y69.7701 F350.00
G01 X44.2912 Y69.7505 F350.00
G01 X44.2731 Y69.7430 F350.00
G01 X44.2199 Y69.7176 F350.00
G01 X44.1693 Y69.6875 F350.00
G01 X44.1529 Y69.6766 F350.00
G01 X44.1058 Y69.6413 F350.00
G01 X44.0548 Y69.5952 F350.00
G01 X15.0014 Y40.5416 F350.00
G01 X14.9587 Y40.4942 F350.00
G01 X14.9178 Y40.4390 F350.00
G01 X14.8824 Y40.3801 F350.00
G01 X14.8570 Y40.3269 F350.00
G01 X14.8512 Y40.3134 F350.00
G01 X14.8330 Y40.2626 F350.00
G01 X14.8273 Y40.2438 F350.00
G01 X14.8132 Y40.1866 F350.00
G01 X14.8043 Y40.1284 F350.00
G01 X14.8027 Y40.1137 F350.00
G01 X14.7997 Y40.0500 F350.00
G01 X14.7997 Y38.1365 F350.00
G01 X14.7305 Y38.0951 F350.00
G01 X14.7142 Y38.0842 F350.00
G01 X14.6473 Y38.0344 F350.00
G01 X14.5818 Y37.9752 F350.00
G01 X14.5715 Y37.9646 F350.00
G01 X14.5221 Y37.9101 F350.00
G01 X14.5126 Y37.8988 F350.00
G01 X14.4629 Y37.8318 F350.00
G01 X14.4574 Y37.8237 F350.00
G01 X14.4433 Y37.8003 F350.00
G01 X5.6402 Y37.8000 F350.00
G01 X5.5912 Y37.7976 F350.00
G01 X5.5765 Y37.7963 F350.00
G01 X5.5231 Y37.7885 F350.00
G01 X5.5038 Y37.7846 F350.00
G01 X5.4514 Y37.7715 F350.00
G01 X5.4374 Y37.7670 F350.00
G01 X5.3820 Y37.7469 F350.00
G01 X5.3351 Y37.7250 F350.00
G01 X4.0750 Y37.7250 F350.00
G01 X3.9941 Y37.7213 F350.00
G01 X3.9746 Y37.7193 F350.00
G01 X3.8945 Y37.7072 F350.00
G01 X3.8159 Y37.6878 F350.00
G01 X3.7972 Y37.6821 F350.00
G01 X3.7302 Y37.6581 F350.00
G01 X3.7165 Y37.6527 F350.00
G01 X3.6390 Y37.6158 F350.00
G01 X3.5652 Y37.5718 F350.00
G01 X3.5531 Y37.5635 F350.00
G01 X3.4920 Y37.5181 F350.00
G01 X3.4844 Y37.5119 F350.00
G01 X3.4715 Y37.5003 F350.00
G01 X2.3000 Y37.5003 F350.00
G01 X2.2412 Y37.4976 F350.00
G01 X2.2216 Y37.4957 F350.00
G01 X2.1634 Y37.4868 F350.00
G01 X2.0967 Y37.4701 F350.00
G01 X2.0320 Y37.4469 F350.00
G01 X1.9699 Y37.4176 F350.00
G01 X1.9110 Y37.3822 F350.00
G01 X1.8558 Y37.3413 F350.00
G01 X1.8048 Y37.2952 F350.00
G01 X1.7587 Y37.2442 F350.00
G01 X1.7178 Y37.1890 F350.00
G01 X1.6824 Y37.1301 F350.00
G01 X1.6531 Y37.0680 F350.00
G01 X1.6330 Y37.0126 F350.00
G01 X1.6273 Y36.9938 F350.00
G01 X1.6142 Y36.9414 F350.00
G01 X1.6115 Y36.9269 F350.00
G01 X1.6031 Y36.8686 F350.00
G01 X1.5997 Y36.8000 F350.00
G01 X1.6000 Y18.0402 F350.00
G00 Z0.5000
G00 X4.3286 Y20.3610
G01 F250.00
G01 Z-0.0500
G01 F350.00
G01 X4.3386 Y20.2930 F350.00
G01 X4.3427 Y20.2698 F350.00
G01 X4.3478 Y20.2468 F350.00
G01 X4.3645 Y20.1802 F350.00
G01 X4.3675 Y20.1688 F350.00
G01 X4.3744 Y20.1462 F350.00
G01 X4.4013 Y20.0704 F350.00
G01 X4.4098 Y20.0484 F350.00
G01 X4.4194 Y20.0269 F350.00
G01 X4.4487 Y19.9648 F350.00
G01 X4.4593 Y19.9438 F350.00
G01 X4.4709 Y19.9233 F350.00
G01 X4.5063 Y19.8643 F350.00
G01 X4.5189 Y19.8444 F350.00
G01 X4.5255 Y19.8347 F350.00
G01 X4.5734 Y19.7700 F350.00
G01 X4.5878 Y19.7514 F350.00
G01 X4.6032 Y19.7336 F350.00
G01 X4.6574 Y19.6740 F350.00
G01 X4.6740 Y19.6574 F350.00
G01 X4.6827 Y19.6494 F350.00
G01 X4.7336 Y19.6032 F350.00
G01 X4.7514 Y19.5878 F350.00
G01 X4.7700 Y19.5734 F350.00
G01 X4.8252 Y19.5324 F350.00
G01 X4.8444 Y19.5189 F350.00
G01 X4.8643 Y19.5063 F350.00
G01 X4.9334 Y19.4650 F350.00
G01 X4.9542 Y19.4539 F350.00
G01 X4.9648 Y19.4487 F350.00
G01 X5.0269 Y19.4194 F350.00
G01 X5.0484 Y19.4098 F350.00
G01 X5.0704 Y19.4013 F350.00
G01 X5.1462 Y19.3744 F350.00
G01 X5.1688 Y19.3675 F350.00
G01 X5.2468 Y19.3478 F350.00
G01 X5.2698 Y19.3427 F350.00
G01 X5.2930 Y19.3386 F350.00
G01 X5.3610 Y19.3286 F350.00
G01 X5.3843 Y19.3257 F350.00
G01 X5.4078 Y19.3239 F350.00
G01 X5.4882 Y19.3201 F350.00
G01 X5.5118 Y19.3201 F350.00
G01 X5.5922 Y19.3239 F350.00
G01 X5.6157 Y19.3257 F350.00
G01 X5.6274 Y19.3270 F350.00
G01 X5.7070 Y19.3386 F350.00
G01 X5.7302 Y19.3427 F350.00
G01 X5.7532 Y19.3478 F350.00
G01 X5.8198 Y19.3645 F350.00
G01 X5.8312 Y19.3675 F350.00
G01 X5.8538 Y19.3744 F350.00
G01 X5.9296 Y19.4013 F350.00
G01 X5.9516 Y19.4098 F350.00
G01 X5.9731 Y19.4194 F350.00
G01 X6.0458 Y19.4539 F350.00
G01 X6.0666 Y19.4650 F350.00
G01 X6.0767 Y19.4709 F350.00
G01 X6.1357 Y19.5063 F350.00
G01 X6.1556 Y19.5189 F350.00
G01 X6.1748 Y19.5324 F350.00
G01 X6.2394 Y19.5805 F350.00
G01 X6.2576 Y19.5954 F350.00
G01 X6.3173 Y19.6494 F350.00
G01 X6.3260 Y19.6574 F350.00
G01 X6.3426 Y19.6740 F350.00
G01 X6.3968 Y19.7336 F350.00
G01 X6.4122 Y19.7514 F350.00
G01 X6.4266 Y19.7700 F350.00
G01 X6.4676 Y19.8252 F350.00
G01 X6.4745 Y19.8347 F350.00
G01 X6.4876 Y19.8543 F350.00
G01 X6.5291 Y19.9233 F350.00
G01 X6.5407 Y19.9438 F350.00
G01 X6.5513 Y19.9648 F350.00
G01 X6.5806 Y20.0269 F350.00
G01 X6.5902 Y20.0484 F350.00
G01 X6.5987 Y20.0704 F350.00
G01 X6.6218 Y20.1351 F350.00
G01 X6.6292 Y20.1575 F350.00
G01 X6.6355 Y20.1802 F350.00
G01 X6.6549 Y20.2583 F350.00
G01 X6.6595 Y20.2814 F350.00
G01 X6.6714 Y20.3610 F350.00
G01 X6.6743 Y20.3843 F350.00
G01 X6.6761 Y20.4078 F350.00
G01 X6.6799 Y20.4882 F350.00
G01 X6.6800 Y21.6000 F350.00
G01 X6.6794 Y21.6236 F350.00
G01 X6.6761 Y21.6922 F350.00
G01 X6.6743 Y21.7157 F350.00
G01 X6.6714 Y21.7390 F350.00
G01 X6.6614 Y21.8070 F350.00
G01 X6.6573 Y21.8302 F350.00
G01 X6.6522 Y21.8532 F350.00
G01 X6.6355 Y21.9198 F350.00
G01 X6.6292 Y21.9425 F350.00
G01 X6.6218 Y21.9649 F350.00
G01 X6.5987 Y22.0296 F350.00
G01 X6.5902 Y22.0516 F350.00
G01 X6.5806 Y22.0731 F350.00
G01 X6.5513 Y22.1352 F350.00
G01 X6.5407 Y22.1562 F350.00
G01 X6.5291 Y22.1767 F350.00
G01 X6.4937 Y22.2357 F350.00
G01 X6.4811 Y22.2556 F350.00
G01 X6.4676 Y22.2748 F350.00
G01 X6.4266 Y22.3300 F350.00
G01 X6.4122 Y22.3486 F350.00
G01 X6.3968 Y22.3664 F350.00
G01 X6.3506 Y22.4173 F350.00
G01 X6.3426 Y22.4260 F350.00
G01 X6.3260 Y22.4426 F350.00
G01 X6.2664 Y22.4968 F350.00
G01 X6.2486 Y22.5122 F350.00
G01 X6.2300 Y22.5266 F350.00
G01 X6.1748 Y22.5676 F350.00
G01 X6.1556 Y22.5811 F350.00
G01 X6.1357 Y22.5937 F350.00
G01 X6.0767 Y22.6291 F350.00
G01 X6.0562 Y22.6407 F350.00
G01 X6.0352 Y22.6513 F350.00
G01 X5.9731 Y22.6806 F350.00
G01 X5.9516 Y22.6902 F350.00
G01 X5.9296 Y22.6987 F350.00
G01 X5.8649 Y22.7218 F350.00
G01 X5.8425 Y22.7292 F350.00
G01 X5.8198 Y22.7355 F350.00
G01 X5.7532 Y22.7522 F350.00
G01 X5.7302 Y22.7573 F350.00
G01 X5.7070 Y22.7614 F350.00
G01 X5.6390 Y22.7714 F350.00
G01 X5.6157 Y22.7743 F350.00
G01 X5.5922 Y22.7761 F350.00
G01 X5.5236 Y22.7794 F350.00
G01 X5.5000 Y22.7800 F350.00
G01 X5.4764 Y22.7794 F350.00
G01 X5.4078 Y22.7761 F350.00
G01 X5.3843 Y22.7743 F350.00
G01 X5.3610 Y22.7714 F350.00
G01 X5.2930 Y22.7614 F350.00
G01 X5.2698 Y22.7573 F350.00
G01 X5.2468 Y22.7522 F350.00
G01 X5.1802 Y22.7355 F350.00
G01 X5.1575 Y22.7292 F350.00
G01 X5.1351 Y22.7218 F350.00
G01 X5.0704 Y22.6987 F350.00
G01 X5.0484 Y22.6902 F350.00
G01 X5.0269 Y22.6806 F350.00
G01 X4.9648 Y22.6513 F350.00
G01 X4.9438 Y22.6407 F350.00
G01 X4.9233 Y22.6291 F350.00
G01 X4.8643 Y22.5937 F350.00
G01 X4.8444 Y22.5811 F350.00
G01 X4.8252 Y22.5676 F350.00
G01 X4.7700 Y22.5266 F350.00
G01 X4.7514 Y22.5122 F350.00
G01 X4.7336 Y22.4968 F350.00
G01 X4.6827 Y22.4506 F350.00
G01 X4.6740 Y22.4426 F350.00
G01 X4.6574 Y22.4260 F350.00
G01 X4.6032 Y22.3664 F350.00
G01 X4.5878 Y22.3486 F350.00
G01 X4.5734 Y22.3300 F350.00
G01 X4.5324 Y22.2748 F350.00
G01 X4.5189 Y22.2556 F350.00
G01 X4.5063 Y22.2357 F350.00
G01 X4.4650 Y22.1666 F350.00
G01 X4.4539 Y22.1458 F350.00
G01 X4.4194 Y22.0731 F350.00
G01 X4.4098 Y22.0516 F350.00
G01 X4.4013 Y22.0296 F350.00
G01 X4.3744 Y21.9538 F350.00
G01 X4.3675 Y21.9312 F350.00
G01 X4.3478 Y21.8532 F350.00
G01 X4.3427 Y21.8302 F350.00
G01 X4.3386 Y21.8070 F350.00
G01 X4.3286 Y21.7390 F350.00
G01 X4.3257 Y21.7157 F350.00
G01 X4.3239 Y21.6922 F350.00
G01 X4.3206 Y21.6236 F350.00
G01 X4.3200 Y21.6000 F350.00
G01 X4.3200 Y20.5000 F350.00
G01 X4.3206 Y20.4764 F350.00
G01 X4.3247 Y20.3961 F350.00
G01 X4.3257 Y20.3843 F350.00
G01 X4.3286 Y20.3610 F350.00
G00 Z0.5000
G00 X4.6055 Y20.4020
G01 F250.00
G01 Z-0.0500
G01 F350.00
G01 X4.6173 Y20.3244 F350.00
G01 X4.6361 Y20.2482 F350.00
G01 X4.6418 Y20.2294 F350.00
G01 X4.6685 Y20.1556 F350.00
G01 X4.7063 Y20.0757 F350.00
G01 X4.7464 Y20.0083 F350.00
G01 X4.7573 Y19.9920 F350.00
G01 X4.8043 Y19.9290 F350.00
G01 X4.8568 Y19.8707 F350.00
G01 X4.8707 Y19.8568 F350.00
G01 X4.9290 Y19.8043 F350.00
G01 X5.0000 Y19.7517 F350.00
G01 X5.0757 Y19.7063 F350.00
G01 X5.1466 Y19.6725 F350.00
G01 X5.1647 Y19.6650 F350.00
G01 X5.2387 Y19.6388 F350.00
G01 X5.3244 Y19.6173 F350.00
G01 X5.4020 Y19.6055 F350.00
G01 X5.4216 Y19.6036 F350.00
G01 X5.5000 Y19.6000 F350.00
G01 X5.5784 Y19.6036 F350.00
G01 X5.5980 Y19.6055 F350.00
G01 X5.6756 Y19.6173 F350.00
G01 X5.7613 Y19.6388 F350.00
G01 X5.8353 Y19.6650 F350.00
G01 X5.8534 Y19.6725 F350.00
G01 X5.9243 Y19.7063 F350.00
G01 X6.0000 Y19.7517 F350.00
G01 X6.0710 Y19.8043 F350.00
G01 X6.1293 Y19.8568 F350.00
G01 X6.1432 Y19.8707 F350.00
G01 X6.1893 Y19.9216 F350.00
G01 X6.1988 Y19.9329 F350.00
G01 X6.2483 Y20.0000 F350.00
G01 X6.2889 Y20.0672 F350.00
G01 X6.2981 Y20.0845 F350.00
G01 X6.3315 Y20.1556 F350.00
G01 X6.3582 Y20.2294 F350.00
G01 X6.3639 Y20.2482 F350.00
G01 X6.3827 Y20.3244 F350.00
G01 X6.3951 Y20.4069 F350.00
G01 X6.3964 Y20.4216 F350.00
G01 X6.4000 Y20.5000 F350.00
G01 X6.4000 Y21.6000 F350.00
G01 X6.3964 Y21.6784 F350.00
G01 X6.3945 Y21.6980 F350.00
G01 X6.3827 Y21.7756 F350.00
G01 X6.3612 Y21.8613 F350.00
G01 X6.3315 Y21.9444 F350.00
G01 X6.2937 Y22.0243 F350.00
G01 X6.2483 Y22.1000 F350.00
G01 X6.1957 Y22.1710 F350.00
G01 X6.1364 Y22.2364 F350.00
G01 X6.0784 Y22.2893 F350.00
G01 X6.0671 Y22.2988 F350.00
G01 X6.0000 Y22.3483 F350.00
G01 X5.9243 Y22.3937 F350.00
G01 X5.8444 Y22.4315 F350.00
G01 X5.7613 Y22.4612 F350.00
G01 X5.6756 Y22.4827 F350.00
G01 X5.5882 Y22.4957 F350.00
G01 X5.5000 Y22.5000 F350.00
G01 X5.4118 Y22.4957 F350.00
G01 X5.3244 Y22.4827 F350.00
G01 X5.2387 Y22.4612 F350.00
G01 X5.1556 Y22.4315 F350.00
G01 X5.0757 Y22.3937 F350.00
G01 X5.0000 Y22.3483 F350.00
G01 X4.9290 Y22.2957 F350.00
G01 X4.8636 Y22.2364 F350.00
G01 X4.8107 Y22.1784 F350.00
G01 X4.8012 Y22.1671 F350.00
G01 X4.7517 Y22.1000 F350.00
G01 X4.7111 Y22.0328 F350.00
G01 X4.7019 Y22.0155 F350.00
G01 X4.6685 Y21.9444 F350.00
G01 X4.6418 Y21.8706 F350.00
G01 X4.6361 Y21.8518 F350.00
G01 X4.6173 Y21.7756 F350.00
G01 X4.6043 Y21.6882 F350.00
G01 X4.6000 Y21.6000 F350.00
G01 X4.6000 Y20.5000 F350.00
G01 X4.6036 Y20.4216 F350.00
G01 X4.6055 Y20.4020 F350.00
G00 Z0.5000
G00 X8.3000 Y26.5402
G01 F250.00
G01 Z-0.0500
G01 F350.00
G01 X8.3031 Y26.4814 F350.00
G01 X8.3132 Y26.4134 F350.00
G01 X8.3299 Y26.3467 F350.00
G01 X8.3495 Y26.2912 F350.00
G01 X8.3550 Y26.2775 F350.00
G01 X8.3780 Y26.2287 F350.00
G01 X8.3873 Y26.2114 F350.00
G01 X8.4178 Y26.1610 F350.00
G01 X8.4527 Y26.1135 F350.00
G01 X8.4619 Y26.1020 F350.00
G01 X8.5048 Y26.0548 F350.00
G01 X9.7997 Y24.7599 F350.00
G01 X9.7997 Y22.1652 F350.00
G01 X9.7517 Y22.1000 F350.00
G01 X9.7063 Y22.0243 F350.00
G01 X9.6685 Y21.9444 F350.00
G01 X9.6418 Y21.8706 F350.00
G01 X9.6361 Y21.8518 F350.00
G01 X9.6194 Y21.7852 F350.00
G01 X9.6156 Y21.7659 F350.00
G01 X9.6043 Y21.6882 F350.00
G01 X9.6001 Y21.6049 F350.00
G01 X9.6002 Y20.4902 F350.00
G01 X9.6043 Y20.4118 F350.00
G01 X9.6173 Y20.3244 F350.00
G01 X9.6388 Y20.2387 F350.00
G01 X9.6650 Y20.1647 F350.00
G01 X9.6725 Y20.1466 F350.00
G01 X9.7063 Y20.0757 F350.00
G01 X9.7517 Y20.0000 F350.00
G01 X9.8043 Y19.9290 F350.00
G01 X9.8636 Y19.8636 F350.00
G01 X9.9290 Y19.8043 F350.00
G01 X10.0000 Y19.7517 F350.00
G01 X10.0757 Y19.7063 F350.00
G01 X10.1556 Y19.6685 F350.00
G01 X10.2387 Y19.6388 F350.00
G01 X10.3244 Y19.6173 F350.00
G01 X10.4118 Y19.6043 F350.00
G01 X10.5000 Y19.6000 F350.00
G01 X10.5882 Y19.6043 F350.00
G01 X10.6756 Y19.6173 F350.00
G01 X10.7613 Y19.6388 F350.00
G01 X10.8353 Y19.6650 F350.00
G01 X10.8534 Y19.6725 F350.00
G01 X10.9243 Y19.7063 F350.00
G01 X10.9917 Y19.7464 F350.00
G01 X11.0080 Y19.7573 F350.00
G01 X11.0710 Y19.8043 F350.00
G01 X11.1293 Y19.8568 F350.00
G01 X11.1432 Y19.8707 F350.00
G01 X11.1893 Y19.9216 F350.00
G01 X11.2017 Y19.9368 F350.00
G01 X11.2483 Y20.0000 F350.00
G01 X11.2889 Y20.0672 F350.00
G01 X11.2981 Y20.0845 F350.00
G01 X11.3315 Y20.1556 F350.00
G01 X11.3612 Y20.2387 F350.00
G01 X11.3806 Y20.3148 F350.00
G01 X11.3844 Y20.3341 F350.00
G01 X11.3945 Y20.4020 F350.00
G01 X11.3961 Y20.4167 F350.00
G01 X11.4000 Y20.5000 F350.00
G01 X11.4000 Y21.6000 F350.00
G01 X11.3964 Y21.6784 F350.00
G01 X11.3951 Y21.6931 F350.00
G01 X11.3827 Y21.7756 F350.00
G01 X11.3639 Y21.8518 F350.00
G01 X11.3582 Y21.8706 F350.00
G01 X11.3315 Y21.9444 F350.00
G01 X11.2981 Y22.0155 F350.00
G01 X11.2889 Y22.0328 F350.00
G01 X11.2483 Y22.1000 F350.00
G01 X11.2003 Y22.1652 F350.00
G01 X11.2003 Y25.0500 F350.00
G01 X11.1969 Y25.1186 F350.00
G01 X11.1868 Y25.1866 F350.00
G01 X11.1727 Y25.2438 F350.00
G01 X11.1670 Y25.2626 F350.00
G01 X11.1469 Y25.3180 F350.00
G01 X11.1176 Y25.3801 F350.00
G01 X11.0875 Y25.4307 F350.00
G01 X11.0766 Y25.4471 F350.00
G01 X11.0473 Y25.4865 F350.00
G01 X11.0381 Y25.4980 F350.00
G01 X10.9952 Y25.5452 F350.00
G01 X9.7003 Y26.8401 F350.00
G01 X9.7003 Y30.7599 F350.00
G01 X13.5401 Y34.5997 F350.00
G01 X14.6093 Y34.5997 F350.00
G01 X14.6399 Y34.5721 F350.00
G01 X14.6512 Y34.5626 F350.00
G01 X14.7182 Y34.5129 F350.00
G01 X14.7305 Y34.5049 F350.00
G01 X14.7936 Y34.4670 F350.00
G01 X14.8065 Y34.4599 F350.00
G01 X14.8865 Y34.4223 F350.00
G01 X14.9649 Y34.3940 F350.00
G01 X14.9837 Y34.3883 F350.00
G01 X15.0599 Y34.3693 F350.00
G01 X15.0743 Y34.3666 F350.00
G01 X15.1569 Y34.3546 F350.00
G01 X15.2451 Y34.3501 F350.00
G01 X15.7549 Y34.3501 F350.00
G01 X15.8431 Y34.3546 F350.00
G01 X15.9353 Y34.3683 F350.00
G01 X16.0258 Y34.3909 F350.00
G01 X16.1090 Y34.4205 F350.00
G01 X16.1225 Y34.4263 F350.00
G01 X16.1978 Y34.4622 F350.00
G01 X16.2737 Y34.5074 F350.00
G01 X16.2858 Y34.5158 F350.00
G01 X16.3488 Y34.5626 F350.00
G01 X16.3601 Y34.5721 F350.00
G01 X16.3907 Y34.5997 F350.00
G01 X16.5049 Y34.5998 F350.00
G01 X16.5588 Y34.6024 F350.00
G01 X16.5784 Y34.6043 F350.00
G01 X16.6366 Y34.6132 F350.00
G01 X16.6938 Y34.6273 F350.00
G01 X16.7126 Y34.6330 F350.00
G01 X16.7680 Y34.6531 F350.00
G01 X16.8301 Y34.6824 F350.00
G01 X16.8890 Y34.7178 F350.00
G01 X16.9442 Y34.7587 F350.00
G01 X16.9916 Y34.8014 F350.00
G01 X19.0401 Y36.8497 F350.00
G01 X24.2549 Y36.8498 F350.00
G01 X24.3186 Y36.8531 F350.00
G01 X24.3866 Y36.8632 F350.00
G01 X24.4533 Y36.8799 F350.00
G01 X24.5180 Y36.9031 F350.00
G01 X24.5801 Y36.9324 F350.00
G01 X24.6390 Y36.9678 F350.00
G01 X24.6942 Y37.0087 F350.00
G01 X24.7380 Y37.0481 F350.00
G01 X26.9986 Y39.3084 F350.00
G01 X27.0349 Y39.3483 F350.00
G01 X27.0473 Y39.3635 F350.00
G01 X27.0822 Y39.4110 F350.00
G01 X27.1127 Y39.4614 F350.00
G01 X27.1220 Y39.4787 F350.00
G01 X27.1469 Y39.5320 F350.00
G01 X27.1701 Y39.5967 F350.00
G01 X27.1868 Y39.6634 F350.00
G01 X27.1957 Y39.7216 F350.00
G01 X27.1976 Y39.7412 F350.00
G01 X27.2003 Y39.8000 F350.00
G01 X27.2003 Y45.0099 F350.00
G01 X42.6032 Y60.4129 F350.00
G01 X42.5908 Y60.3276 F350.00
G01 X42.5850 Y60.2100 F350.00
G01 X42.5908 Y60.0924 F350.00
G01 X42.6064 Y59.9856 F350.00
G01 X42.6102 Y59.9663 F350.00
G01 X42.6341 Y59.8711 F350.00
G01 X42.6398 Y59.8523 F350.00
G01 X42.6763 Y59.7508 F350.00
G01 X42.7244 Y59.6487 F350.00
G01 X42.7315 Y59.6358 F350.00
G01 X42.7820 Y59.5516 F350.00
G01 X42.7929 Y59.5353 F350.00
G01 X42.8574 Y59.4487 F350.00
G01 X42.9365 Y59.3615 F350.00
G01 X43.0237 Y59.2824 F350.00
G01 X43.1103 Y59.2179 F350.00
G01 X43.1266 Y59.2070 F350.00
G01 X43.2108 Y59.1565 F350.00
G01 X43.2237 Y59.1494 F350.00
G01 X43.3258 Y59.1013 F350.00
G01 X43.4273 Y59.0648 F350.00
G01 X43.4461 Y59.0591 F350.00
G01 X43.5413 Y59.0352 F350.00
G01 X43.5606 Y59.0314 F350.00
G01 X43.6674 Y59.0158 F350.00
G01 X43.7850 Y59.0100 F350.00
G01 X43.9026 Y59.0158 F350.00
G01 X44.0094 Y59.0314 F350.00
G01 X44.0287 Y59.0352 F350.00
G01 X44.1239 Y59.0591 F350.00
G01 X44.1427 Y59.0648 F350.00
G01 X44.2442 Y59.1013 F350.00
G01 X44.3507 Y59.1517 F350.00
G01 X44.4517 Y59.2122 F350.00
G01 X44.5385 Y59.2763 F350.00
G01 X44.5537 Y59.2888 F350.00
G01 X44.6335 Y59.3615 F350.00
G01 X44.7126 Y59.4487 F350.00
G01 X44.7828 Y59.5433 F350.00
G01 X44.8433 Y59.6443 F350.00
G01 X44.8937 Y59.7508 F350.00
G01 X44.9333 Y59.8617 F350.00
G01 X44.9619 Y59.9759 F350.00
G01 X44.9792 Y60.0924 F350.00
G01 X44.9848 Y60.2002 F350.00
G01 X44.9848 Y60.2198 F350.00
G01 X44.9799 Y60.3178 F350.00
G01 X44.9780 Y60.3374 F350.00
G01 X44.9619 Y60.4441 F350.00
G01 X44.9359 Y60.5489 F350.00
G01 X44.9318 Y60.5630 F350.00
G01 X44.8937 Y60.6692 F350.00
G01 X44.8433 Y60.7757 F350.00
G01 X44.7828 Y60.8767 F350.00
G01 X44.7354 Y60.9410 F350.00
G01 X44.7354 Y61.7650 F350.00
G01 X44.7314 Y61.8507 F350.00
G01 X44.7451 Y61.8501 F350.00
G01 X44.7598 Y61.8502 F350.00
G01 X44.9166 Y61.8582 F350.00
G01 X45.0817 Y61.8827 F350.00
G01 X45.2435 Y61.9232 F350.00
G01 X45.3914 Y61.9759 F350.00
G01 X45.4095 Y61.9834 F350.00
G01 X45.5426 Y62.0463 F350.00
G01 X45.5599 Y62.0556 F350.00
G01 X45.6945 Y62.1365 F350.00
G01 X45.8207 Y62.2298 F350.00
G01 X45.8359 Y62.2423 F350.00
G01 X45.9521 Y62.3479 F350.00
G01 X46.0610 Y62.4678 F350.00
G01 X46.0702 Y62.4793 F350.00
G01 X46.1635 Y62.6055 F350.00
G01 X46.2444 Y62.7401 F350.00
G01 X46.2537 Y62.7574 F350.00
G01 X46.3206 Y62.8994 F350.00
G01 X46.3737 Y63.0472 F350.00
G01 X46.3794 Y63.0660 F350.00
G01 X46.4152 Y63.2088 F350.00
G01 X46.4182 Y63.2232 F350.00
G01 X46.4418 Y63.3834 F350.00
G01 X46.4498 Y63.5402 F350.00
G01 X46.4498 Y63.5598 F350.00
G01 X46.4422 Y63.7117 F350.00
G01 X46.4406 Y63.7264 F350.00
G01 X46.4190 Y63.8720 F350.00
G01 X46.4163 Y63.8865 F350.00
G01 X46.3768 Y64.0435 F350.00
G01 X46.3393 Y64.1490 F350.00
G01 X49.0901 Y66.8997 F350.00
G01 X91.2997 Y66.8997 F350.00
G01 X91.2997 Y65.1500 F350.00
G01 X91.1078 Y65.1498 F350.00
G01 X91.0620 Y65.1473 F350.00
G01 X91.0166 Y65.1408 F350.00
G01 X91.0021 Y65.1381 F350.00
G01 X90.9623 Y65.1282 F350.00
G01 X90.9482 Y65.1241 F350.00
G01 X90.9050 Y65.1086 F350.00
G01 X90.8914 Y65.1028 F350.00
G01 X90.8544 Y65.0852 F350.00
G01 X90.8415 Y65.0781 F350.00
G01 X90.8023 Y65.0543 F350.00
G01 X90.7653 Y65.0272 F350.00
G01 X90.7501 Y65.0147 F350.00
G01 X90.7163 Y64.9837 F350.00
G01 X90.6789 Y64.9425 F350.00
G01 X90.6457 Y64.8977 F350.00
G01 X90.6219 Y64.8585 F350.00
G01 X90.6126 Y64.8412 F350.00
G01 X90.5932 Y64.7996 F350.00
G01 X90.5775 Y64.7565 F350.00
G01 X90.5731 Y64.7424 F350.00
G01 X90.5631 Y64.7027 F350.00
G01 X90.5592 Y64.6834 F350.00
G01 X90.5527 Y64.6380 F350.00
G01 X90.5500 Y64.5824 F350.00
G01 X90.5500 Y62.8176 F350.00
G01 X90.5527 Y62.7620 F350.00
G01 X90.5592 Y62.7166 F350.00
G01 X90.5631 Y62.6973 F350.00
G01 X90.5744 Y62.6529 F350.00
G01 X90.5897 Y62.6096 F350.00
G01 X90.5951 Y62.5959 F350.00
G01 X90.6170 Y62.5501 F350.00
G01 X90.6404 Y62.5106 F350.00
G01 X90.6484 Y62.4982 F350.00
G01 X90.6789 Y62.4575 F350.00
G01 X90.7095 Y62.4234 F350.00
G01 X90.7198 Y62.4128 F350.00
G01 X90.7501 Y62.3853 F350.00
G01 X90.7614 Y62.3758 F350.00
G01 X90.7982 Y62.3484 F350.00
G01 X90.8106 Y62.3404 F350.00
G01 X90.8501 Y62.3170 F350.00
G01 X90.8914 Y62.2972 F350.00
G01 X90.9050 Y62.2914 F350.00
G01 X90.9529 Y62.2744 F350.00
G01 X90.9973 Y62.2631 F350.00
G01 X91.0117 Y62.2600 F350.00
G01 X91.0620 Y62.2527 F350.00
G01 X91.1127 Y62.2501 F350.00
G01 X91.2997 Y62.2500 F350.00
G01 X91.2997 Y61.5101 F350.00
G01 X91.0397 Y61.2500 F350.00
G01 X89.5702 Y61.2498 F350.00
G01 X89.5604 Y61.2490 F350.00
G01 X89.5458 Y61.2471 F350.00
G01 X89.5314 Y61.2440 F350.00
G01 X89.5219 Y61.2414 F350.00
G01 X89.5035 Y61.2348 F350.00
G01 X89.4945 Y61.2308 F350.00
G01 X89.4814 Y61.2240 F350.00
G01 X89.4689 Y61.2163 F350.00
G01 X89.4609 Y61.2106 F350.00
G01 X89.4494 Y61.2014 F350.00
G01 X89.4421 Y61.1948 F350.00
G01 X89.4352 Y61.1879 F350.00
G01 X89.4254 Y61.1769 F350.00
G01 X89.4194 Y61.1691 F350.00
G01 X89.4110 Y61.1570 F350.00
G01 X89.4036 Y61.1443 F350.00
G01 X89.3972 Y61.1310 F350.00
G01 X89.3917 Y61.1174 F350.00
G01 X89.3886 Y61.1081 F350.00
G01 X89.3849 Y61.0938 F350.00
G01 X89.3822 Y61.0793 F350.00
G01 X89.3805 Y61.0647 F350.00
G01 X89.3800 Y61.0500 F350.00
G01 X89.3801 Y58.5451 F350.00
G01 X89.3810 Y58.5304 F350.00
G01 X89.3838 Y58.5110 F350.00
G01 X89.3886 Y58.4919 F350.00
G01 X89.3952 Y58.4735 F350.00
G01 X89.4036 Y58.4557 F350.00
G01 X89.4110 Y58.4430 F350.00
G01 X89.4194 Y58.4309 F350.00
G01 X89.4318 Y58.4157 F350.00
G01 X89.4421 Y58.4052 F350.00
G01 X89.4570 Y58.3923 F350.00
G01 X89.4730 Y58.3810 F350.00
G01 X89.4901 Y58.3714 F350.00
G01 X89.5080 Y58.3634 F350.00
G01 X89.5219 Y58.3586 F350.00
G01 X89.5410 Y58.3538 F350.00
G01 X89.5604 Y58.3510 F350.00
G01 X89.5800 Y58.3500 F350.00
G01 X91.5849 Y58.3501 F350.00
G01 X91.6045 Y58.3515 F350.00
G01 X91.6190 Y58.3538 F350.00
G01 X91.6381 Y58.3586 F350.00
G01 X91.6520 Y58.3634 F350.00
G01 X91.6699 Y58.3714 F350.00
G01 X91.6870 Y58.3810 F350.00
G01 X91.6991 Y58.3894 F350.00
G01 X91.7143 Y58.4018 F350.00
G01 X91.7248 Y58.4121 F350.00
G01 X91.7377 Y58.4270 F350.00
G01 X91.7490 Y58.4430 F350.00
G01 X91.7564 Y58.4557 F350.00
G01 X91.7648 Y58.4735 F350.00
G01 X91.7714 Y58.4919 F350.00
G01 X91.7762 Y58.5110 F350.00
G01 X91.7785 Y58.5255 F350.00
G01 X91.7798 Y58.5402 F350.00
G01 X91.7800 Y58.5500 F350.00
G01 X91.7800 Y60.0097 F350.00
G01 X92.4952 Y60.7248 F350.00
G01 X92.5381 Y60.7720 F350.00
G01 X92.5473 Y60.7835 F350.00
G01 X92.5822 Y60.8310 F350.00
G01 X92.6176 Y60.8899 F350.00
G01 X92.6469 Y60.9520 F350.00
G01 X92.6670 Y61.0074 F350.00
G01 X92.6715 Y61.0214 F350.00
G01 X92.6868 Y61.0834 F350.00
G01 X92.6957 Y61.1416 F350.00
G01 X92.6976 Y61.1612 F350.00
G01 X92.7002 Y61.2151 F350.00
G01 X92.7003 Y62.2500 F350.00
G01 X92.8922 Y62.2502 F350.00
G01 X92.9380 Y62.2527 F350.00
G01 X92.9931 Y62.2609 F350.00
G01 X93.0471 Y62.2744 F350.00
G01 X93.0996 Y62.2932 F350.00
G01 X93.1499 Y62.3170 F350.00
G01 X93.1977 Y62.3457 F350.00
G01 X93.2425 Y62.3789 F350.00
G01 X93.2766 Y62.4095 F350.00
G01 X93.2905 Y62.4234 F350.00
G01 X93.3180 Y62.4538 F350.00
G01 X93.3272 Y62.4653 F350.00
G01 X93.3543 Y62.5023 F350.00
G01 X93.3781 Y62.5415 F350.00
G01 X93.3874 Y62.5588 F350.00
G01 X93.4068 Y62.6004 F350.00
G01 X93.4256 Y62.6529 F350.00
G01 X93.4391 Y62.7069 F350.00
G01 X93.4473 Y62.7620 F350.00
G01 X93.4500 Y62.8176 F350.00
G01 X93.4500 Y64.5824 F350.00
G01 X93.4473 Y64.6380 F350.00
G01 X93.4408 Y64.6834 F350.00
G01 X93.4369 Y64.7027 F350.00
G01 X93.4256 Y64.7471 F350.00
G01 X93.4068 Y64.7996 F350.00
G01 X93.3830 Y64.8499 F350.00
G01 X93.3543 Y64.8977 F350.00
G01 X93.3211 Y64.9425 F350.00
G01 X93.2837 Y64.9837 F350.00
G01 X93.2425 Y65.0211 F350.00
G01 X93.1977 Y65.0543 F350.00
G01 X93.1542 Y65.0806 F350.00
G01 X93.1412 Y65.0874 F350.00
G01 X93.0996 Y65.1068 F350.00
G01 X93.0565 Y65.1225 F350.00
G01 X93.0377 Y65.1282 F350.00
G01 X92.9979 Y65.1381 F350.00
G01 X92.9834 Y65.1408 F350.00
G01 X92.9380 Y65.1473 F350.00
G01 X92.8873 Y65.1499 F350.00
G01 X92.7003 Y65.1500 F350.00
G01 X92.7002 Y67.6049 F350.00
G01 X92.6969 Y67.6686 F350.00
G01 X92.6885 Y67.7269 F350.00
G01 X92.6846 Y67.7462 F350.00
G01 X92.6701 Y67.8033 F350.00
G01 X92.6505 Y67.8588 F350.00
G01 X92.6430 Y67.8769 F350.00
G01 X92.6198 Y67.9257 F350.00
G01 X92.6127 Y67.9386 F350.00
G01 X92.5875 Y67.9807 F350.00
G01 X92.5766 Y67.9971 F350.00
G01 X92.5413 Y68.0442 F350.00
G01 X92.5019 Y68.0880 F350.00
G01 X92.4880 Y68.1019 F350.00
G01 X92.4442 Y68.1413 F350.00
G01 X92.3971 Y68.1766 F350.00
G01 X92.3807 Y68.1875 F350.00
G01 X92.3301 Y68.2176 F350.00
G01 X92.2769 Y68.2430 F350.00
G01 X92.2588 Y68.2505 F350.00
G01 X92.2033 Y68.2701 F350.00
G01 X92.1366 Y68.2868 F350.00
G01 X92.0784 Y68.2957 F350.00
G01 X92.0588 Y68.2976 F350.00
G01 X92.0000 Y68.3003 F350.00
G01 X48.8000 Y68.3003 F350.00
G01 X48.7314 Y68.2969 F350.00
G01 X48.6731 Y68.2885 F350.00
G01 X48.6538 Y68.2846 F350.00
G01 X48.5967 Y68.2701 F350.00
G01 X48.5412 Y68.2505 F350.00
G01 X48.5231 Y68.2430 F350.00
G01 X48.4743 Y68.2198 F350.00
G01 X48.4614 Y68.2127 F350.00
G01 X48.4193 Y68.1875 F350.00
G01 X48.4029 Y68.1766 F350.00
G01 X48.3558 Y68.1413 F350.00
G01 X48.3048 Y68.0952 F350.00
G01 X45.3490 Y65.1393 F350.00
G01 X45.2435 Y65.1768 F350.00
G01 X45.0865 Y65.2163 F350.00
G01 X45.0720 Y65.2190 F350.00
G01 X44.9264 Y65.2406 F350.00
G01 X44.9117 Y65.2422 F350.00
G01 X44.7500 Y65.2500 F350.00
G01 X44.5932 Y65.2425 F350.00
G01 X44.5736 Y65.2406 F350.00
G01 X44.4280 Y65.2190 F350.00
G01 X44.4135 Y65.2163 F350.00
G01 X44.2565 Y65.1768 F350.00
G01 X44.1086 Y65.1241 F350.00
G01 X44.0905 Y65.1166 F350.00
G01 X43.9486 Y65.0493 F350.00
G01 X43.8138 Y64.9688 F350.00
G01 X43.7975 Y64.9578 F350.00
G01 X43.6715 Y64.8641 F350.00
G01 X43.5479 Y64.7521 F350.00
G01 X43.4359 Y64.6285 F350.00
G01 X43.3422 Y64.5025 F350.00
G01 X43.3312 Y64.4862 F350.00
G01 X43.2507 Y64.3514 F350.00
G01 X43.1834 Y64.2095 F350.00
G01 X43.1759 Y64.1914 F350.00
G01 X43.1263 Y64.0528 F350.00
G01 X43.1206 Y64.0340 F350.00
G01 X43.0827 Y63.8817 F350.00
G01 X43.0594 Y63.7264 F350.00
G01 X43.0575 Y63.7068 F350.00
G01 X43.0500 Y63.5500 F350.00
G01 X43.0575 Y63.3932 F350.00
G01 X43.0594 Y63.3736 F350.00
G01 X43.0814 Y63.2254 F350.00
G01 X43.0712 Y63.2149 F350.00
G01 X43.0154 Y63.1529 F350.00
G01 X42.9598 Y63.0780 F350.00
G01 X42.9118 Y62.9980 F350.00
G01 X42.8739 Y62.9182 F350.00
G01 X42.8684 Y62.9045 F350.00
G01 X42.8405 Y62.8259 F350.00
G01 X42.8189 Y62.7402 F350.00
G01 X42.8162 Y62.7257 F350.00
G01 X42.8047 Y62.6480 F350.00
G01 X42.8035 Y62.6334 F350.00
G01 X42.8014 Y62.5917 F350.00
G01 X26.0048 Y45.7952 F350.00
G01 X25.9587 Y45.7442 F350.00
G01 X25.9178 Y45.6890 F350.00
G01 X25.8873 Y45.6386 F350.00
G01 X25.8780 Y45.6213 F350.00
G01 X25.8550 Y45.5725 F350.00
G01 X25.8495 Y45.5588 F350.00
G01 X25.8299 Y45.5033 F350.00
G01 X25.8132 Y45.4366 F350.00
G01 X25.8031 Y45.3686 F350.00
G01 X25.7998 Y45.3049 F350.00
G01 X25.7997 Y40.0901 F350.00
G01 X23.9599 Y38.2503 F350.00
G01 X18.7500 Y38.2503 F350.00
G01 X18.6814 Y38.2469 F350.00
G01 X18.6134 Y38.2368 F350.00
G01 X18.5467 Y38.2201 F350.00
G01 X18.4912 Y38.2005 F350.00
G01 X18.4731 Y38.1930 F350.00
G01 X18.4199 Y38.1676 F350.00
G01 X18.3693 Y38.1375 F350.00
G01 X18.3529 Y38.1266 F350.00
G01 X18.3058 Y38.0913 F350.00
G01 X18.2620 Y38.0519 F350.00
G01 X16.2905 Y36.0808 F350.00
G01 X16.2778 Y36.0899 F350.00
G01 X16.2695 Y36.0951 F350.00
G01 X16.1978 Y36.1378 F350.00
G01 X16.1135 Y36.1777 F350.00
G01 X16.0258 Y36.2091 F350.00
G01 X15.9449 Y36.2296 F350.00
G01 X15.9257 Y36.2334 F350.00
G01 X15.8431 Y36.2454 F350.00
G01 X15.7549 Y36.2499 F350.00
G01 X15.2402 Y36.2498 F350.00
G01 X15.1569 Y36.2454 F350.00
G01 X15.0647 Y36.2317 F350.00
G01 X14.9742 Y36.2091 F350.00
G01 X14.8910 Y36.1795 F350.00
G01 X14.8775 Y36.1737 F350.00
G01 X14.8022 Y36.1378 F350.00
G01 X14.7263 Y36.0926 F350.00
G01 X14.7142 Y36.0842 F350.00
G01 X14.6512 Y36.0374 F350.00
G01 X14.6399 Y36.0279 F350.00
G01 X14.6093 Y36.0003 F350.00
G01 X13.2451 Y36.0002 F350.00
G01 X13.1814 Y35.9969 F350.00
G01 X13.1134 Y35.9868 F350.00
G01 X13.0467 Y35.9701 F350.00
G01 X12.9912 Y35.9505 F350.00
G01 X12.9775 Y35.9450 F350.00
G01 X12.9199 Y35.9176 F350.00
G01 X12.8610 Y35.8822 F350.00
G01 X12.8058 Y35.8413 F350.00
G01 X12.7548 Y35.7952 F350.00
G01 X8.5014 Y31.5416 F350.00
G01 X8.4587 Y31.4942 F350.00
G01 X8.4178 Y31.4390 F350.00
G01 X8.3824 Y31.3801 F350.00
G01 X8.3531 Y31.3180 F350.00
G01 X8.3299 Y31.2533 F350.00
G01 X8.3132 Y31.1866 F350.00
G01 X8.3031 Y31.1186 F350.00
G01 X8.3000 Y31.0598 F350.00
G01 X8.3000 Y26.5402 F350.00
G00 Z0.5000
G00 X11.3060 Y30.6922
G01 F250.00
G01 Z-0.0500
G01 F350.00
G01 X11.3192 Y30.6049 F350.00
G01 X11.3404 Y30.5192 F350.00
G01 X11.3461 Y30.5004 F350.00
G01 X11.3726 Y30.4265 F350.00
G01 X11.3801 Y30.4083 F350.00
G01 X11.4181 Y30.3286 F350.00
G01 X11.4685 Y30.2444 F350.00
G01 X11.5270 Y30.1656 F350.00
G01 X11.5861 Y30.1000 F350.00
G01 X11.6000 Y30.0861 F350.00
G01 X11.6656 Y30.0270 F350.00
G01 X11.7364 Y29.9742 F350.00
G01 X11.7527 Y29.9633 F350.00
G01 X11.8286 Y29.9181 F350.00
G01 X11.9173 Y29.8761 F350.00
G01 X12.0097 Y29.8431 F350.00
G01 X12.1049 Y29.8192 F350.00
G01 X12.2020 Y29.8048 F350.00
G01 X12.3000 Y29.8000 F350.00
G01 X13.0097 Y29.8000 F350.00
G01 X17.5084 Y25.3014 F350.00
G01 X17.5558 Y25.2587 F350.00
G01 X17.6110 Y25.2178 F350.00
G01 X17.6699 Y25.1824 F350.00
G01 X17.7231 Y25.1570 F350.00
G01 X17.7366 Y25.1512 F350.00
G01 X17.7874 Y25.1330 F350.00
G01 X17.8062 Y25.1273 F350.00
G01 X17.8634 Y25.1132 F350.00
G01 X17.9314 Y25.1031 F350.00
G01 X18.0000 Y25.0997 F350.00
G01 X45.6000 Y25.0997 F350.00
G01 X45.6637 Y25.1027 F350.00
G01 X45.6784 Y25.1043 F350.00
G01 X45.7269 Y25.1115 F350.00
G01 X45.7462 Y25.1154 F350.00
G01 X45.8033 Y25.1299 F350.00
G01 X45.8680 Y25.1531 F350.00
G01 X45.9301 Y25.1824 F350.00
G01 X45.9807 Y25.2125 F350.00
G01 X45.9971 Y25.2234 F350.00
G01 X46.0404 Y25.2556 F350.00
G01 X46.0517 Y25.2651 F350.00
G01 X46.0952 Y25.3048 F350.00
G01 X47.7497 Y26.9594 F350.00
G01 X47.7498 Y20.5773 F350.00
G01 X47.7531 Y20.5136 F350.00
G01 X47.7615 Y20.4553 F350.00
G01 X47.7642 Y20.4408 F350.00
G01 X47.7773 Y20.3884 F350.00
G01 X47.7830 Y20.3696 F350.00
G01 X47.8031 Y20.3143 F350.00
G01 X47.8324 Y20.2521 F350.00
G01 X47.8678 Y20.1932 F350.00
G01 X47.9056 Y20.1418 F350.00
G01 X47.9151 Y20.1306 F350.00
G01 X47.9548 Y20.0871 F350.00
G01 X71.7471 Y-3.7052 F350.00
G01 X71.7980 Y-3.7513 F350.00
G01 X71.8532 Y-3.7922 F350.00
G01 X71.9121 Y-3.8276 F350.00
G01 X71.9653 Y-3.8530 F350.00
G01 X71.9788 Y-3.8588 F350.00
G01 X72.0390 Y-3.8801 F350.00
G01 X72.1056 Y-3.8968 F350.00
G01 X72.1736 Y-3.9069 F350.00
G01 X72.2422 Y-3.9103 F350.00
G01 X100.0849 Y-3.9102 F350.00
G01 X100.1486 Y-3.9069 F350.00
G01 X100.2069 Y-3.8985 F350.00
G01 X100.2262 Y-3.8946 F350.00
G01 X100.2833 Y-3.8801 F350.00
G01 X100.3388 Y-3.8605 F350.00
G01 X100.3569 Y-3.8530 F350.00
G01 X100.4101 Y-3.8276 F350.00
G01 X100.4690 Y-3.7922 F350.00
G01 X100.5242 Y-3.7513 F350.00
G01 X100.5680 Y-3.7119 F350.00
G01 X100.5819 Y-3.6980 F350.00
G01 X100.6213 Y-3.6542 F350.00
G01 X100.6622 Y-3.5990 F350.00
G01 X100.6927 Y-3.5486 F350.00
G01 X100.7020 Y-3.5313 F350.00
G01 X100.7230 Y-3.4869 F350.00
G01 X100.7288 Y-3.4734 F350.00
G01 X100.7501 Y-3.4133 F350.00
G01 X100.7668 Y-3.3466 F350.00
G01 X100.7769 Y-3.2786 F350.00
G01 X100.7800 Y-3.2198 F350.00
G01 X100.7803 Y-2.1832 F350.00
G01 X100.8335 Y-2.1437 F350.00
G01 X100.8450 Y-2.1345 F350.00
G01 X100.9214 Y-2.0653 F350.00
G01 X100.9320 Y-2.0550 F350.00
G01 X101.0076 Y-1.9713 F350.00
G01 X101.0721 Y-1.8847 F350.00
G01 X101.0804 Y-1.8726 F350.00
G01 X101.1383 Y-1.7757 F350.00
G01 X101.1887 Y-1.6692 F350.00
G01 X101.2283 Y-1.5583 F350.00
G01 X101.2548 Y-1.4537 F350.00
G01 X101.2586 Y-1.4344 F350.00
G01 X101.2742 Y-1.3276 F350.00
G01 X101.2799 Y-1.2149 F350.00
G01 X101.2800 Y0.1697 F350.00
G01 X102.0952 Y0.9848 F350.00
G01 X102.1413 Y1.0358 F350.00
G01 X102.1766 Y1.0829 F350.00
G01 X102.1875 Y1.0993 F350.00
G01 X102.2176 Y1.1499 F350.00
G01 X102.2469 Y1.2120 F350.00
G01 X102.2701 Y1.2767 F350.00
G01 X102.2846 Y1.3338 F350.00
G01 X102.2885 Y1.3531 F350.00
G01 X102.2957 Y1.4016 F350.00
G01 X102.2973 Y1.4163 F350.00
G01 X102.3003 Y1.4800 F350.00
G01 X102.3003 Y14.8699 F350.00
G01 X103.6970 Y16.2667 F350.00
G01 X103.7724 Y16.2558 F350.00
G01 X103.8802 Y16.2502 F350.00
G01 X103.8998 Y16.2502 F350.00
G01 X104.0027 Y16.2554 F350.00
G01 X104.0174 Y16.2570 F350.00
G01 X104.1241 Y16.2731 F350.00
G01 X104.2336 Y16.3003 F350.00
G01 X104.2477 Y16.3048 F350.00
G01 X104.3492 Y16.3413 F350.00
G01 X104.4557 Y16.3917 F350.00
G01 X104.5567 Y16.4522 F350.00
G01 X104.6435 Y16.5163 F350.00
G01 X104.6550 Y16.5255 F350.00
G01 X104.7385 Y16.6015 F350.00
G01 X104.8176 Y16.6887 F350.00
G01 X104.8878 Y16.7833 F350.00
G01 X104.9435 Y16.8758 F350.00
G01 X104.9527 Y16.8931 F350.00
G01 X104.9947 Y16.9818 F350.00
G01 X105.0022 Y16.9999 F350.00
G01 X105.0383 Y17.1017 F350.00
G01 X105.0648 Y17.2063 F350.00
G01 X105.0686 Y17.2256 F350.00
G01 X105.0842 Y17.3324 F350.00
G01 X105.0900 Y17.4500 F350.00
G01 X105.0900 Y19.4500 F350.00
G01 X105.0842 Y19.5676 F350.00
G01 X105.0686 Y19.6744 F350.00
G01 X105.0659 Y19.6889 F350.00
G01 X105.0409 Y19.7889 F350.00
G01 X105.0352 Y19.8077 F350.00
G01 X104.9987 Y19.9092 F350.00
G01 X104.9527 Y20.0069 F350.00
G01 X104.9435 Y20.0242 F350.00
G01 X104.8878 Y20.1167 F350.00
G01 X104.8176 Y20.2113 F350.00
G01 X104.7453 Y20.2914 F350.00
G01 X104.7314 Y20.3053 F350.00
G01 X104.6513 Y20.3776 F350.00
G01 X104.5647 Y20.4421 F350.00
G01 X104.5484 Y20.4530 F350.00
G01 X104.4557 Y20.5083 F350.00
G01 X104.3582 Y20.5547 F350.00
G01 X104.3447 Y20.5605 F350.00
G01 X104.2383 Y20.5983 F350.00
G01 X104.1241 Y20.6269 F350.00
G01 X104.0076 Y20.6442 F350.00
G01 X103.8998 Y20.6498 F350.00
G01 X103.8802 Y20.6498 F350.00
G01 X103.7822 Y20.6449 F350.00
G01 X103.7626 Y20.6430 F350.00
G01 X103.6559 Y20.6269 F350.00
G01 X103.5417 Y20.5983 F350.00
G01 X103.4308 Y20.5587 F350.00
G01 X103.3331 Y20.5127 F350.00
G01 X103.3158 Y20.5035 F350.00
G01 X103.2316 Y20.4530 F350.00
G01 X103.2153 Y20.4421 F350.00
G01 X103.1287 Y20.3776 F350.00
G01 X103.0415 Y20.2985 F350.00
G01 X102.9624 Y20.2113 F350.00
G01 X102.8922 Y20.1167 F350.00
G01 X102.8365 Y20.0242 F350.00
G01 X102.8273 Y20.0069 F350.00
G01 X102.7813 Y19.9092 F350.00
G01 X102.7448 Y19.8077 F350.00
G01 X102.7391 Y19.7889 F350.00
G01 X102.7131 Y19.6841 F350.00
G01 X102.6970 Y19.5774 F350.00
G01 X102.6954 Y19.5627 F350.00
G01 X102.6900 Y19.4500 F350.00
G01 X102.6900 Y17.4500 F350.00
G01 X102.6958 Y17.3324 F350.00
G01 X102.7067 Y17.2570 F350.00
G01 X101.0981 Y15.6480 F350.00
G01 X101.0587 Y15.6042 F350.00
G01 X101.0234 Y15.5571 F350.00
G01 X101.0125 Y15.5407 F350.00
G01 X100.9824 Y15.4901 F350.00
G01 X100.9570 Y15.4369 F350.00
G01 X100.9495 Y15.4188 F350.00
G01 X100.9299 Y15.3633 F350.00
G01 X100.9142 Y15.3014 F350.00
G01 X100.9115 Y15.2869 F350.00
G01 X100.9031 Y15.2286 F350.00
G01 X100.8997 Y15.1600 F350.00
G01 X100.8997 Y1.7701 F350.00
G01 X100.8446 Y1.7149 F350.00
G01 X100.8335 Y1.7237 F350.00
G01 X100.7547 Y1.7821 F350.00
G01 X100.7384 Y1.7930 F350.00
G01 X100.6457 Y1.8483 F350.00
G01 X100.5392 Y1.8987 F350.00
G01 X100.4377 Y1.9352 F350.00
G01 X100.4189 Y1.9409 F350.00
G01 X100.3141 Y1.9669 F350.00
G01 X100.2074 Y1.9830 F350.00
G01 X100.1878 Y1.9849 F350.00
G01 X100.0800 Y1.9900 F350.00
G01 X99.9624 Y1.9842 F350.00
G01 X99.8459 Y1.9669 F350.00
G01 X99.7317 Y1.9383 F350.00
G01 X99.6208 Y1.8987 F350.00
G01 X99.5231 Y1.8527 F350.00
G01 X99.5058 Y1.8435 F350.00
G01 X99.4133 Y1.7878 F350.00
G01 X99.3265 Y1.7237 F350.00
G01 X99.3113 Y1.7112 F350.00
G01 X99.2315 Y1.6385 F350.00
G01 X99.1524 Y1.5513 F350.00
G01 X99.0879 Y1.4647 F350.00
G01 X99.0770 Y1.4484 F350.00
G01 X99.0217 Y1.3557 F350.00
G01 X98.9753 Y1.2582 F350.00
G01 X98.9678 Y1.2401 F350.00
G01 X98.9348 Y1.1477 F350.00
G01 X98.9291 Y1.1289 F350.00
G01 X98.9052 Y1.0337 F350.00
G01 X98.9014 Y1.0144 F350.00
G01 X98.8858 Y0.9076 F350.00
G01 X98.8801 Y0.7949 F350.00
G01 X98.8800 Y-1.2100 F350.00
G01 X98.8851 Y-1.3178 F350.00
G01 X98.8863 Y-1.3325 F350.00
G01 X98.9031 Y-1.4441 F350.00
G01 X98.9317 Y-1.5583 F350.00
G01 X98.9713 Y-1.6692 F350.00
G01 X99.0173 Y-1.7669 F350.00
G01 X99.0241 Y-1.7800 F350.00
G01 X99.0822 Y-1.8767 F350.00
G01 X99.1463 Y-1.9635 F350.00
G01 X99.1555 Y-1.9750 F350.00
G01 X99.2247 Y-2.0514 F350.00
G01 X99.2386 Y-2.0653 F350.00
G01 X99.3187 Y-2.1376 F350.00
G01 X99.3797 Y-2.1832 F350.00
G01 X99.3797 Y-2.5097 F350.00
G01 X72.5323 Y-2.5097 F350.00
G01 X49.1503 Y20.8723 F350.00
G01 X49.1503 Y29.4500 F350.00
G01 X49.3598 Y29.4502 F350.00
G01 X49.3793 Y29.4522 F350.00
G01 X49.3986 Y29.4560 F350.00
G01 X49.4127 Y29.4601 F350.00
G01 X49.4310 Y29.4672 F350.00
G01 X49.4443 Y29.4736 F350.00
G01 X49.4528 Y29.4785 F350.00
G01 X49.4652 Y29.4865 F350.00
G01 X49.4769 Y29.4954 F350.00
G01 X49.4879 Y29.5052 F350.00
G01 X49.4948 Y29.5121 F350.00
G01 X49.5014 Y29.5194 F350.00
G01 X49.5106 Y29.5309 F350.00
G01 X49.5163 Y29.5389 F350.00
G01 X49.5240 Y29.5514 F350.00
G01 X49.5286 Y29.5601 F350.00
G01 X49.5348 Y29.5735 F350.00
G01 X49.5399 Y29.5873 F350.00
G01 X49.5428 Y29.5967 F350.00
G01 X49.5462 Y29.6110 F350.00
G01 X49.5478 Y29.6207 F350.00
G01 X49.5495 Y29.6353 F350.00
G01 X49.5500 Y29.6500 F350.00
G01 X49.5498 Y31.4598 F350.00
G01 X49.5485 Y31.4745 F350.00
G01 X49.5471 Y31.4842 F350.00
G01 X49.5451 Y31.4938 F350.00
G01 X49.5414 Y31.5081 F350.00
G01 X49.5383 Y31.5174 F350.00
G01 X49.5328 Y31.5310 F350.00
G01 X49.5286 Y31.5399 F350.00
G01 X49.5215 Y31.5528 F350.00
G01 X49.5135 Y31.5652 F350.00
G01 X49.5077 Y31.5730 F350.00
G01 X49.5014 Y31.5806 F350.00
G01 X49.4914 Y31.5914 F350.00
G01 X49.4806 Y31.6014 F350.00
G01 X49.4730 Y31.6077 F350.00
G01 X49.4652 Y31.6135 F350.00
G01 X49.4528 Y31.6215 F350.00
G01 X49.4399 Y31.6286 F350.00
G01 X49.4310 Y31.6328 F350.00
G01 X49.4174 Y31.6383 F350.00
G01 X49.4081 Y31.6414 F350.00
G01 X49.3938 Y31.6451 F350.00
G01 X49.3793 Y31.6478 F350.00
G01 X49.3647 Y31.6495 F350.00
G01 X49.3549 Y31.6499 F350.00
G01 X47.5451 Y31.6499 F350.00
G01 X47.5353 Y31.6495 F350.00
G01 X47.5207 Y31.6478 F350.00
G01 X47.5014 Y31.6440 F350.00
G01 X47.4826 Y31.6383 F350.00
G01 X47.4645 Y31.6308 F350.00
G01 X47.4514 Y31.6240 F350.00
G01 X47.4430 Y31.6190 F350.00
G01 X47.4270 Y31.6077 F350.00
G01 X47.4121 Y31.5948 F350.00
G01 X47.4018 Y31.5843 F350.00
G01 X47.3954 Y31.5769 F350.00
G01 X47.3837 Y31.5611 F350.00
G01 X47.3760 Y31.5486 F350.00
G01 X47.3672 Y31.5310 F350.00
G01 X47.3617 Y31.5174 F350.00
G01 X47.3560 Y31.4986 F350.00
G01 X47.3529 Y31.4842 F350.00
G01 X47.3510 Y31.4696 F350.00
G01 X47.3501 Y31.4549 F350.00
G01 X47.3500 Y29.6500 F350.00
G01 X47.3505 Y29.6353 F350.00
G01 X47.3515 Y29.6255 F350.00
G01 X47.3529 Y29.6158 F350.00
G01 X47.3560 Y29.6014 F350.00
G01 X47.3601 Y29.5873 F350.00
G01 X47.3652 Y29.5735 F350.00
G01 X47.3714 Y29.5601 F350.00
G01 X47.3760 Y29.5514 F350.00
G01 X47.3810 Y29.5430 F350.00
G01 X47.3894 Y29.5309 F350.00
G01 X47.3986 Y29.5194 F350.00
G01 X47.4086 Y29.5086 F350.00
G01 X47.4157 Y29.5018 F350.00
G01 X47.4270 Y29.4923 F350.00
G01 X47.4389 Y29.4837 F350.00
G01 X47.4472 Y29.4785 F350.00
G01 X47.4557 Y29.4736 F350.00
G01 X47.4690 Y29.4672 F350.00
G01 X47.4873 Y29.4601 F350.00
G01 X47.5014 Y29.4560 F350.00
G01 X47.5207 Y29.4522 F350.00
G01 X47.5402 Y29.4502 F350.00
G01 X47.7497 Y29.4500 F350.00
G01 X47.7497 Y28.9401 F350.00
G01 X45.3099 Y26.5003 F350.00
G01 X25.4503 Y26.5003 F350.00
G01 X25.4503 Y34.5099 F350.00
G01 X27.7901 Y36.8497 F350.00
G01 X35.5000 Y36.8497 F350.00
G01 X35.5588 Y36.8524 F350.00
G01 X35.5784 Y36.8543 F350.00
G01 X35.6366 Y36.8632 F350.00
G01 X35.6938 Y36.8773 F350.00
G01 X35.7126 Y36.8830 F350.00
G01 X35.7680 Y36.9031 F350.00
G01 X35.8213 Y36.9280 F350.00
G01 X35.8344 Y36.9348 F350.00
G01 X35.8807 Y36.9625 F350.00
G01 X35.8971 Y36.9734 F350.00
G01 X35.9442 Y37.0087 F350.00
G01 X35.9916 Y37.0514 F350.00
G01 X36.6602 Y37.7198 F350.00
G01 X36.6999 Y37.7633 F350.00
G01 X36.7123 Y37.7785 F350.00
G01 X36.7472 Y37.8260 F350.00
G01 X36.7802 Y37.8806 F350.00
G01 X36.7870 Y37.8937 F350.00
G01 X36.8119 Y37.9470 F350.00
G01 X36.8351 Y38.0117 F350.00
G01 X36.8518 Y38.0784 F350.00
G01 X36.8607 Y38.1366 F350.00
G01 X36.8623 Y38.1513 F350.00
G01 X36.8653 Y38.2150 F350.00
G01 X36.8653 Y38.9168 F350.00
G01 X36.9185 Y38.9563 F350.00
G01 X36.9300 Y38.9655 F350.00
G01 X37.0064 Y39.0347 F350.00
G01 X37.0170 Y39.0450 F350.00
G01 X37.0926 Y39.1287 F350.00
G01 X37.1571 Y39.2153 F350.00
G01 X37.1654 Y39.2274 F350.00
G01 X37.2233 Y39.3243 F350.00
G01 X37.2737 Y39.4308 F350.00
G01 X37.3133 Y39.5417 F350.00
G01 X37.3409 Y39.6511 F350.00
G01 X37.3436 Y39.6656 F350.00
G01 X37.3580 Y39.7626 F350.00
G01 X37.3599 Y39.7822 F350.00
G01 X37.3650 Y39.8900 F350.00
G01 X37.3592 Y40.0076 F350.00
G01 X37.3419 Y40.1241 F350.00
G01 X37.3159 Y40.2289 F350.00
G01 X37.3102 Y40.2477 F350.00
G01 X37.2772 Y40.3401 F350.00
G01 X37.2697 Y40.3582 F350.00
G01 X37.2233 Y40.4557 F350.00
G01 X37.1628 Y40.5567 F350.00
G01 X37.0926 Y40.6513 F350.00
G01 X37.0203 Y40.7314 F350.00
G01 X37.0064 Y40.7453 F350.00
G01 X36.9337 Y40.8112 F350.00
G01 X36.9185 Y40.8237 F350.00
G01 X36.8317 Y40.8878 F350.00
G01 X36.7307 Y40.9483 F350.00
G01 X36.6242 Y40.9987 F350.00
G01 X36.5133 Y41.0383 F350.00
G01 X36.3991 Y41.0669 F350.00
G01 X36.2826 Y41.0842 F350.00
G01 X36.1650 Y41.0900 F350.00
G01 X36.0474 Y41.0842 F350.00
G01 X35.9309 Y41.0669 F350.00
G01 X35.8167 Y41.0383 F350.00
G01 X35.7058 Y40.9987 F350.00
G01 X35.5993 Y40.9483 F350.00
G01 X35.4983 Y40.8878 F350.00
G01 X35.4037 Y40.8176 F350.00
G01 X35.3165 Y40.7385 F350.00
G01 X35.2374 Y40.6513 F350.00
G01 X35.1672 Y40.5567 F350.00
G01 X35.1091 Y40.4600 F350.00
G01 X35.1023 Y40.4469 F350.00
G01 X35.0563 Y40.3492 F350.00
G01 X35.0167 Y40.2383 F350.00
G01 X34.9881 Y40.1241 F350.00
G01 X34.9720 Y40.0174 F350.00
G01 X34.9701 Y39.9978 F350.00
G01 X34.9652 Y39.8998 F350.00
G01 X34.9652 Y39.8802 F350.00
G01 X34.9708 Y39.7724 F350.00
G01 X34.9864 Y39.6656 F350.00
G01 X34.9891 Y39.6511 F350.00
G01 X35.0167 Y39.5417 F350.00
G01 X35.0563 Y39.4308 F350.00
G01 X35.1067 Y39.3243 F350.00
G01 X35.1646 Y39.2274 F350.00
G01 X35.1729 Y39.2153 F350.00
G01 X35.2374 Y39.1287 F350.00
G01 X35.3130 Y39.0450 F350.00
G01 X35.3236 Y39.0347 F350.00
G01 X35.4000 Y38.9655 F350.00
G01 X35.4115 Y38.9563 F350.00
G01 X35.4647 Y38.9168 F350.00
G01 X35.4647 Y38.5051 F350.00
G01 X35.2099 Y38.2503 F350.00
G01 X27.5000 Y38.2503 F350.00
G01 X27.4412 Y38.2476 F350.00
G01 X27.4216 Y38.2457 F350.00
G01 X27.3634 Y38.2368 F350.00
G01 X27.3014 Y38.2215 F350.00
G01 X27.2874 Y38.2170 F350.00
G01 X27.2320 Y38.1969 F350.00
G01 X27.1787 Y38.1720 F350.00
G01 X27.1614 Y38.1627 F350.00
G01 X27.1110 Y38.1322 F350.00
G01 X27.0635 Y38.0973 F350.00
G01 X27.0483 Y38.0849 F350.00
G01 X27.0084 Y38.0486 F350.00
G01 X24.2548 Y35.2952 F350.00
G01 X24.2119 Y35.2480 F350.00
G01 X24.2027 Y35.2365 F350.00
G01 X24.1678 Y35.1890 F350.00
G01 X24.1373 Y35.1386 F350.00
G01 X24.1280 Y35.1213 F350.00
G01 X24.1050 Y35.0725 F350.00
G01 X24.0995 Y35.0588 F350.00
G01 X24.0799 Y35.0033 F350.00
G01 X24.0632 Y34.9366 F350.00
G01 X24.0531 Y34.8686 F350.00
G01 X24.0498 Y34.8049 F350.00
G01 X24.0497 Y26.5003 F350.00
G01 X18.2901 Y26.5003 F350.00
G01 X14.5370 Y30.2533 F350.00
G01 X14.5819 Y30.3286 F350.00
G01 X14.6199 Y30.4083 F350.00
G01 X14.6274 Y30.4265 F350.00
G01 X14.6539 Y30.5004 F350.00
G01 X14.6596 Y30.5192 F350.00
G01 X14.6808 Y30.6049 F350.00
G01 X14.6952 Y30.7020 F350.00
G01 X14.7000 Y30.8000 F350.00
G01 X14.6959 Y30.8882 F350.00
G01 X14.6940 Y30.9078 F350.00
G01 X14.6808 Y30.9951 F350.00
G01 X14.6596 Y31.0808 F350.00
G01 X14.6539 Y31.0996 F350.00
G01 X14.6274 Y31.1735 F350.00
G01 X14.6199 Y31.1917 F350.00
G01 X14.5819 Y31.2714 F350.00
G01 X14.5315 Y31.3556 F350.00
G01 X14.4730 Y31.4344 F350.00
G01 X14.4139 Y31.5000 F350.00
G01 X14.4000 Y31.5139 F350.00
G01 X14.3418 Y31.5666 F350.00
G01 X14.3267 Y31.5790 F350.00
G01 X14.2556 Y31.6315 F350.00
G01 X14.1799 Y31.6771 F350.00
G01 X14.1626 Y31.6863 F350.00
G01 X14.0827 Y31.7239 F350.00
G01 X13.9950 Y31.7555 F350.00
G01 X13.9808 Y31.7596 F350.00
G01 X13.9047 Y31.7786 F350.00
G01 X13.8854 Y31.7825 F350.00
G01 X13.7980 Y31.7952 F350.00
G01 X13.7049 Y31.7999 F350.00
G01 X12.2951 Y31.7999 F350.00
G01 X12.2020 Y31.7952 F350.00
G01 X12.1049 Y31.7808 F350.00
G01 X12.0097 Y31.7569 F350.00
G01 X11.9219 Y31.7257 F350.00
G01 X11.9083 Y31.7199 F350.00
G01 X11.8286 Y31.6819 F350.00
