(G-CODE GENERATED BY FLATCAM v8.994 - www.flatcam.org - Version Date: 2020/11/7)

(Name: Buzzer PCB-Edge_Cuts.gbr_cutout_1_cnc)
(Type: G-code from Geometry)
(Units: MM)

(Created on Monday, 22 June 2026 at 00:26)

(This preprocessor is used with a motion controller loaded with GRBL firmware.)
(It is configured to be compatible with almost any version of GRBL firmware.)

(TOOL DIAMETER: 3.175 mm)
(Feedrate_XY: 120.0 mm/min)
(Feedrate_Z: 60.0 mm/min)
(Feedrate rapids 1500.0 mm/min)

(Z_Cut: -1.6 mm)
(Z_Move: 2.0 mm)
(Z Start: None mm)
(Z End: 40.0 mm)
(X,Y End: None mm)
(Steps per circle: 64)
(Steps per circle: 64)
(Preprocessor Geometry: grbl_11)

(X range:    3.1185 ...   31.6128  mm)
(Y range:    3.4185 ...   29.5536  mm)

(Spindle Speed: 0.0 RPM)
G21
G90
G17
G94


G01 F120.00

M5             
G00 Z40.0000
G00 X0.0000 Y0.0000                
T1
M6
(MSG, Change to Tool Dia = 3.1750)
M0
G00 Z40.0000

M03
G01 F120.00
G00 X31.6118 Y25.4139
G01 F60.00
G01 Z-1.6000
G01 F120.00
G01 X31.6128 Y25.3761 F120.00
G01 X31.6128 Y7.5961 F120.00
G01 X31.6122 Y7.5546 F120.00
G01 X31.6108 Y7.5157 F120.00
G01 X31.5985 Y7.2667 F120.00
G01 X31.5928 Y7.1890 F120.00
G01 X31.5828 Y7.1068 F120.00
G01 X31.5462 Y6.8602 F120.00
G01 X31.5329 Y6.7835 F120.00
G01 X31.5149 Y6.7026 F120.00
G01 X31.4543 Y6.4608 F120.00
G01 X31.4335 Y6.3857 F120.00
G01 X31.4076 Y6.3071 F120.00
G01 X31.3237 Y6.0724 F120.00
G01 X31.2956 Y5.9997 F120.00
G01 X31.2622 Y5.9239 F120.00
G01 X31.1556 Y5.6986 F120.00
G01 X31.1182 Y5.6246 F120.00
G01 X31.0798 Y5.5568 F120.00
G01 X30.9517 Y5.3430 F120.00
G01 X30.9073 Y5.2731 F120.00
G01 X30.8624 Y5.2094 F120.00
G01 X30.7139 Y5.0092 F120.00
G01 X30.6629 Y4.9440 F120.00
G01 X30.6120 Y4.8850 F120.00
G01 X30.4446 Y4.7003 F120.00
G01 X30.3874 Y4.6404 F120.00
G01 X30.3310 Y4.5867 F120.00
G01 X30.1463 Y4.4193 F120.00
G01 X30.0873 Y4.3684 F120.00
G01 X30.0221 Y4.3174 F120.00
G01 X29.8218 Y4.1689 F120.00
G01 X29.7541 Y4.1213 F120.00
G01 X29.6882 Y4.0796 F120.00
G01 X29.4744 Y3.9514 F120.00
G01 X29.4066 Y3.9130 F120.00
G01 X29.3327 Y3.8757 F120.00
G01 X29.1074 Y3.7691 F120.00
G01 X29.0361 Y3.7375 F120.00
G01 X28.9589 Y3.7076 F120.00
G01 X28.7242 Y3.6236 F120.00
G01 X28.6502 Y3.5992 F120.00
G01 X28.5705 Y3.5770 F120.00
G01 X28.3287 Y3.5164 F120.00
G01 X28.2526 Y3.4993 F120.00
G01 X28.1711 Y3.4851 F120.00
G01 X27.9245 Y3.4485 F120.00
G01 X27.8423 Y3.4385 F120.00
G01 X27.7646 Y3.4327 F120.00
G01 X27.5156 Y3.4205 F120.00
G01 X27.4742 Y3.4190 F120.00
G01 X27.4352 Y3.4185 F120.00
G01 X4.7561 Y3.4185 F120.00
G01 X4.6782 Y3.4204 F120.00
G01 X4.5182 Y3.4359 F120.00
G01 X4.3606 Y3.4671 F120.00
G01 X4.2067 Y3.5135 F120.00
G01 X4.0537 Y3.5768 F120.00
G01 X3.9121 Y3.6528 F120.00
G01 X3.7786 Y3.7423 F120.00
G01 X3.6582 Y3.8411 F120.00
G01 X3.5444 Y3.9546 F120.00
G01 X3.4423 Y4.0786 F120.00
G01 X3.3503 Y4.2163 F120.00
G01 X3.2748 Y4.3582 F120.00
G01 X3.2135 Y4.5067 F120.00
G01 X3.1683 Y4.6558 F120.00
G01 X3.1367 Y4.8134 F120.00
G01 X3.1207 Y4.9733 F120.00
G01 X3.1185 Y5.0561 F120.00
G01 X3.1185 Y27.9161 F120.00
G01 X3.1207 Y27.9988 F120.00
G01 X3.1359 Y28.1539 F120.00
G01 X3.1671 Y28.3115 F120.00
G01 X3.2151 Y28.4700 F120.00
G01 X3.2768 Y28.6184 F120.00
G01 X3.3528 Y28.7600 F120.00
G01 X3.4423 Y28.8935 F120.00
G01 X3.5444 Y29.0175 F120.00
G01 X3.6582 Y29.1310 F120.00
G01 X3.7786 Y29.2298 F120.00
G01 X3.9121 Y29.3193 F120.00
G01 X4.0537 Y29.3953 F120.00
G01 X4.2067 Y29.4586 F120.00
G01 X4.3606 Y29.5050 F120.00
G01 X4.5134 Y29.5354 F120.00
G01 X4.6733 Y29.5514 F120.00
G01 X4.7561 Y29.5536 F120.00
G01 X27.4352 Y29.5536 F120.00
G01 X27.4733 Y29.5531 F120.00
G01 X27.5109 Y29.5518 F120.00
G01 X27.7452 Y29.5410 F120.00
G01 X27.8184 Y29.5359 F120.00
G01 X27.8958 Y29.5270 F120.00
G01 X28.1282 Y29.4946 F120.00
G01 X28.2051 Y29.4820 F120.00
G01 X28.2769 Y29.4668 F120.00
G01 X28.5052 Y29.4131 F120.00
G01 X28.5807 Y29.3934 F120.00
G01 X28.6507 Y29.3717 F120.00
G01 X28.8732 Y29.2972 F120.00
G01 X28.9465 Y29.2706 F120.00
G01 X29.0142 Y29.2425 F120.00
G01 X29.2288 Y29.1478 F120.00
G01 X29.2994 Y29.1145 F120.00
G01 X29.3642 Y29.0803 F120.00
G01 X29.5692 Y28.9662 F120.00
G01 X29.6363 Y28.9266 F120.00
G01 X29.6978 Y28.8866 F120.00
G01 X29.8913 Y28.7540 F120.00
G01 X29.9546 Y28.7084 F120.00
G01 X30.0120 Y28.6628 F120.00
G01 X30.1925 Y28.5129 F120.00
G01 X30.2513 Y28.4617 F120.00
G01 X30.3043 Y28.4110 F120.00
G01 X30.4702 Y28.2451 F120.00
G01 X30.5240 Y28.1887 F120.00
G01 X30.5721 Y28.1334 F120.00
G01 X30.7220 Y27.9529 F120.00
G01 X30.7675 Y27.8954 F120.00
G01 X30.8131 Y27.8322 F120.00
G01 X30.9457 Y27.6386 F120.00
G01 X30.9858 Y27.5772 F120.00
G01 X31.0254 Y27.5100 F120.00
G01 X31.1395 Y27.3051 F120.00
G01 X31.1737 Y27.2402 F120.00
G01 X31.2069 Y27.1697 F120.00
G01 X31.3017 Y26.9550 F120.00
G01 X31.3298 Y26.8873 F120.00
G01 X31.3563 Y26.8140 F120.00
G01 X31.4309 Y26.5915 F120.00
G01 X31.4526 Y26.5215 F120.00
G01 X31.4723 Y26.4461 F120.00
G01 X31.5260 Y26.2177 F120.00
G01 X31.5411 Y26.1459 F120.00
G01 X31.5538 Y26.0690 F120.00
G01 X31.5862 Y25.8366 F120.00
G01 X31.5947 Y25.7638 F120.00
G01 X31.6002 Y25.6860 F120.00
G01 X31.6110 Y25.4517 F120.00
G01 X31.6114 Y25.4345 F120.00
G01 X31.6117 Y25.4345 F120.00
G01 X31.6114 Y25.4345 F120.00
G01 X31.6118 Y25.4139 F120.00
G00 Z2.0000
M05
G00 Z2.0000
G00 Z40.00


