(G-CODE GENERATED BY FLATCAM v8.994 - www.flatcam.org - Version Date: 2020/11/7)

(Name: Buzzer PCB-PTH.drl_cnc)
(Type: G-code from Geometry)
(Units: MM)

(Created on Monday, 22 June 2026 at 00:24)

(This preprocessor is used with a motion controller loaded with GRBL firmware.)
(It is configured to be compatible with almost any version of GRBL firmware.)


(TOOLS DIAMETER: )
(Tool: 1 -> Dia: 0.8)
(Tool: 2 -> Dia: 1.0)

(FEEDRATE Z: )
(Tool: 1 -> Feedrate: 300)
(Tool: 2 -> Feedrate: 300)

(FEEDRATE RAPIDS: )
(Tool: 1 -> Feedrate Rapids: 1500)
(Tool: 2 -> Feedrate Rapids: 1500)

(Z_CUT: )
(Tool: 1 -> Z_Cut: -1.7)
(Tool: 2 -> Z_Cut: -1.7)

(Tools Offset: )
(Tool: 1 -> Offset Z: 0.0)
(Tool: 2 -> Offset Z: 0.0)

(DEPTH_PER_CUT: )
(Tool: 1 -> DeptPerCut: 0.7)
(Tool: 2 -> DeptPerCut: 0.7)

(Z_MOVE: )
(Tool: 1 -> Z_Move: 2)
(Tool: 2 -> Z_Move: 2)

(Z Toolchange: 40.0 mm)
(X,Y Toolchange: 0.0000, 0.0000 mm)
(Z Start: None mm)
(Z End: 40.0 mm)
(X,Y End: None mm)
(Steps per circle: 64)
(Steps per circle: 64)
(Preprocessor Excellon: grbl_11)

(X range:    5.3453 ...   28.5753  mm)
(Y range:    5.8260 ...   26.3860  mm)

(Spindle Speed: 0 RPM)
G21
G90
G17
G94


G01 F300.00

M5             
G00 Z40.0000
G00 X0.0000 Y0.0000                
T1
M6
(MSG, Change to Tool Dia = 0.8000 ||| Total drills for tool T1 = 18)
M0
G00 Z40.0000

G01 F300.00
M03
G00 X28.1753 Y11.8860
G01 Z-0.7000
G01 Z0
G00 Z2.0000
G01 Z-1.4000
G01 Z0
G00 Z2.0000
G01 Z-1.7000
G01 Z0
G00 Z2.0000
G00 X23.1753 Y11.8860
G01 Z-0.7000
G01 Z0
G00 Z2.0000
G01 Z-1.4000
G01 Z0
G00 Z2.0000
G01 Z-1.7000
G01 Z0
G00 Z2.0000
G00 X20.6753 Y11.3360
G01 Z-0.7000
G01 Z0
G00 Z2.0000
G01 Z-1.4000
G01 Z0
G00 Z2.0000
G01 Z-1.7000
G01 Z0
G00 Z2.0000
G00 X18.6753 Y11.3360
G01 Z-0.7000
G01 Z0
G00 Z2.0000
G01 Z-1.4000
G01 Z0
G00 Z2.0000
G01 Z-1.7000
G01 Z0
G00 Z2.0000
G00 X14.4753 Y11.3360
G01 Z-0.7000
G01 Z0
G00 Z2.0000
G01 Z-1.4000
G01 Z0
G00 Z2.0000
G01 Z-1.7000
G01 Z0
G00 Z2.0000
G00 X12.4753 Y11.3360
G01 Z-0.7000
G01 Z0
G00 Z2.0000
G01 Z-1.4000
G01 Z0
G00 Z2.0000
G01 Z-1.7000
G01 Z0
G00 Z2.0000
G00 X8.4753 Y8.1760
G01 Z-0.7000
G01 Z0
G00 Z2.0000
G01 Z-1.4000
G01 Z0
G00 Z2.0000
G01 Z-1.7000
G01 Z0
G00 Z2.0000
G00 X5.9753 Y8.1760
G01 Z-0.7000
G01 Z0
G00 Z2.0000
G01 Z-1.4000
G01 Z0
G00 Z2.0000
G01 Z-1.7000
G01 Z0
G00 Z2.0000
G00 X5.9753 Y15.7960
G01 Z-0.7000
G01 Z0
G00 Z2.0000
G01 Z-1.4000
G01 Z0
G00 Z2.0000
G01 Z-1.7000
G01 Z0
G00 Z2.0000
G00 X8.4753 Y15.7960
G01 Z-0.7000
G01 Z0
G00 Z2.0000
G01 Z-1.4000
G01 Z0
G00 Z2.0000
G01 Z-1.7000
G01 Z0
G00 Z2.0000
G00 X7.9753 Y18.1960
G01 Z-0.7000
G01 Z0
G00 Z2.0000
G01 Z-1.4000
G01 Z0
G00 Z2.0000
G01 Z-1.7000
G01 Z0
G00 Z2.0000
G00 X7.9753 Y20.7360
G01 Z-0.7000
G01 Z0
G00 Z2.0000
G01 Z-1.4000
G01 Z0
G00 Z2.0000
G01 Z-1.7000
G01 Z0
G00 Z2.0000
G00 X7.9753 Y23.2760
G01 Z-0.7000
G01 Z0
G00 Z2.0000
G01 Z-1.4000
G01 Z0
G00 Z2.0000
G01 Z-1.7000
G01 Z0
G00 Z2.0000
G00 X20.3753 Y24.6860
G01 Z-0.7000
G01 Z0
G00 Z2.0000
G01 Z-1.4000
G01 Z0
G00 Z2.0000
G01 Z-1.7000
G01 Z0
G00 Z2.0000
G00 X22.3753 Y24.6860
G01 Z-0.7000
G01 Z0
G00 Z2.0000
G01 Z-1.4000
G01 Z0
G00 Z2.0000
G01 Z-1.7000
G01 Z0
G00 Z2.0000
G00 X25.8753 Y20.8860
G01 Z-0.7000
G01 Z0
G00 Z2.0000
G01 Z-1.4000
G01 Z0
G00 Z2.0000
G01 Z-1.7000
G01 Z0
G00 Z2.0000
G00 X25.8753 Y18.3860
G01 Z-0.7000
G01 Z0
G00 Z2.0000
G01 Z-1.4000
G01 Z0
G00 Z2.0000
G01 Z-1.7000
G01 Z0
G00 Z2.0000
G00 X25.8753 Y15.8860
G01 Z-0.7000
G01 Z0
G00 Z2.0000
G01 Z-1.4000
G01 Z0
G00 Z2.0000
G01 Z-1.7000
G01 Z0
G00 Z2.0000
G01 F300.00

M5             
G00 Z40.0000
G00 X0.0000 Y0.0000                
T2
M6
(MSG, Change to Tool Dia = 1.0000 ||| Total drills for tool T2 = 5)
M0
G00 Z40.0000

G01 F300.00
M03
G00 X19.4753 Y18.1860
G01 Z-0.7000
G01 Z0
G00 Z2.0000
G01 Z-1.4000
G01 Z0
G00 Z2.0000
G01 Z-1.7000
G01 Z0
G00 Z2.0000
G00 X12.4753 Y18.1860
G01 Z-0.7000
G01 Z0
G00 Z2.0000
G01 Z-1.4000
G01 Z0
G00 Z2.0000
G01 Z-1.7000
G01 Z0
G00 Z2.0000
G00 X5.8453 Y6.3260
G01 Z-0.7000
G01 Z0
G00 Z2.0000
G01 Z-1.4000
G01 Z0
G00 Z2.0000
G01 Z-1.7000
G01 Z0
G00 Z2.0000
G00 X6.7753 Y25.8860
G01 Z-0.7000
G01 Z0
G00 Z2.0000
G01 Z-1.4000
G01 Z0
G00 Z2.0000
G01 Z-1.7000
G01 Z0
G00 Z2.0000
G00 X14.7753 Y25.8860
G01 Z-0.7000
G01 Z0
G00 Z2.0000
G01 Z-1.4000
G01 Z0
G00 Z2.0000
G01 Z-1.7000
G01 Z0
G00 Z2.0000
M05
G00 Z40.00


