(G-CODE GENERATED BY FLATCAM v8.994 - www.flatcam.org - Version Date: 2020/11/7)

(Name: Buzzer PCB-F_Cu.gbr_ncc_cnc)
(Type: G-code from Geometry)
(Units: MM)

(Created on Monday, 22 June 2026 at 00:23)

(This preprocessor is used with a motion controller loaded with GRBL firmware.)
(It is configured to be compatible with almost any version of GRBL firmware.)

(TOOL DIAMETER: 0.4 mm)
(Feedrate_XY: 350.0 mm/min)
(Feedrate_Z: 250.0 mm/min)
(Feedrate rapids 1500.0 mm/min)

(Z_Cut: -0.05 mm)
(Z_Move: 0.5 mm)
(Z Start: None mm)
(Z End: 40.0 mm)
(X,Y End: None mm)
(Steps per circle: 64)
(Steps per circle: 64)
(Preprocessor Geometry: grbl_11)

(X range:    1.5420 ...   31.9256  mm)
(Y range:    2.0227 ...   30.1882  mm)

(Spindle Speed: 0.0 RPM)
G21
G90
G17
G94


G01 F350.00

M5             
G00 Z40.0000
G00 X0.0000 Y0.0000                
T1
M6
(MSG, Change to Tool Dia = 0.4000)
M0
G00 Z40.0000

M03
G01 F350.00
G00 X3.0392 Y3.0684
G01 F250.00
G01 Z-0.0500
G01 F350.00
G01 X12.3657 Y3.0684 F350.00
G01 X10.9466 Y2.8284 F350.00
G01 X3.3459 Y2.8284 F350.00
G01 X3.7206 Y2.5884 F350.00
G01 X9.5275 Y2.5884 F350.00
G01 X8.1084 Y2.3484 F350.00
G01 X4.2036 Y2.3484 F350.00
G01 X4.9936 Y2.1084 F350.00
G01 X6.6893 Y2.1084 F350.00
G01 X5.8452 Y2.0227 F350.00
G01 X5.4234 Y2.0434 F350.00
G01 X5.0057 Y2.1054 F350.00
G01 X4.5960 Y2.2080 F350.00
G01 X4.1984 Y2.3502 F350.00
G01 X3.8166 Y2.5308 F350.00
G01 X3.4544 Y2.7479 F350.00
G01 X3.1152 Y2.9995 F350.00
G01 X2.8023 Y3.2831 F350.00
G01 X2.5187 Y3.5960 F350.00
G01 X2.2671 Y3.9352 F350.00
G01 X2.0500 Y4.2975 F350.00
G01 X1.8694 Y4.6792 F350.00
G01 X1.7272 Y5.0768 F350.00
G01 X1.6245 Y5.4865 F350.00
G01 X1.5626 Y5.9042 F350.00
G01 X1.5420 Y6.3238 F350.00
G01 X2.4785 Y26.0212 F350.00
G01 X2.4902 Y26.2588 F350.00
G01 X2.5449 Y26.6281 F350.00
G01 X2.6356 Y26.9901 F350.00
G01 X2.7614 Y27.3415 F350.00
G01 X2.9209 Y27.6790 F350.00
G01 X3.1128 Y27.9991 F350.00
G01 X3.3352 Y28.2989 F350.00
G01 X3.5858 Y28.5754 F350.00
G01 X3.8624 Y28.8261 F350.00
G01 X4.1622 Y29.0484 F350.00
G01 X4.4823 Y29.2403 F350.00
G01 X4.8197 Y29.3999 F350.00
G01 X5.1712 Y29.5257 F350.00
G01 X5.5332 Y29.6163 F350.00
G01 X5.8889 Y29.6691 F350.00
G01 X14.4772 Y30.1748 F350.00
G01 X14.7507 Y30.1882 F350.00
G01 X21.2130 Y29.9841 F350.00
G01 X21.4239 Y29.9738 F350.00
G01 X21.7446 Y29.9262 F350.00
G01 X22.0591 Y29.8474 F350.00
G01 X22.3643 Y29.7382 F350.00
G01 X22.6342 Y29.6106 F350.00
G01 X28.9171 Y25.9997 F350.00
G01 X29.1203 Y25.8779 F350.00
G01 X29.4004 Y25.6701 F350.00
G01 X29.6078 Y25.4821 F350.00
G01 X30.9343 Y24.1557 F350.00
G01 X31.1223 Y23.9482 F350.00
G01 X31.3301 Y23.6681 F350.00
G01 X31.5094 Y23.3690 F350.00
G01 X31.6585 Y23.0537 F350.00
G01 X31.7760 Y22.7254 F350.00
G01 X31.8607 Y22.3871 F350.00
G01 X31.9119 Y22.0421 F350.00
G01 X31.9256 Y21.7625 F350.00
G01 X31.9256 Y12.0173 F350.00
G01 X31.9119 Y11.7377 F350.00
G01 X31.8773 Y11.5045 F350.00
G01 X31.7034 Y10.4591 F350.00
G01 X31.6234 Y10.1400 F350.00
G01 X31.5043 Y9.8071 F350.00
G01 X31.3531 Y9.4874 F350.00
G01 X31.1713 Y9.1841 F350.00
G01 X30.9607 Y8.9001 F350.00
G01 X30.7232 Y8.6381 F350.00
G01 X30.4612 Y8.4006 F350.00
G01 X30.1772 Y8.1900 F350.00
G01 X29.8959 Y8.0214 F350.00
G01 X24.2332 Y5.2147 F350.00
G01 X24.0412 Y5.1239 F350.00
G01 X23.7360 Y5.0147 F350.00
G01 X23.4491 Y4.9428 F350.00
G01 X6.5768 Y2.0893 F350.00
G01 X6.2670 Y2.0434 F350.00
G01 X5.8452 Y2.0227 F350.00
G01 X5.2137 Y4.7484 F350.00
G01 X1.8447 Y4.7484 F350.00
G01 X1.7588 Y4.9884 F350.00
G01 X4.7981 Y4.9884 F350.00
G00 Z0.5000
G00 X4.5482 Y5.2284
G01 F250.00
G01 Z-0.0500
G01 F350.00
G01 X1.6892 Y5.2284 F350.00
G01 X1.6291 Y5.4684 F350.00
G01 X4.3794 Y5.4684 F350.00
G00 Z0.5000
G00 X4.2626 Y5.7084
G01 F250.00
G01 Z-0.0500
G01 F350.00
G01 X1.5916 Y5.7084 F350.00
G01 X1.5604 Y5.9484 F350.00
G01 X4.1892 Y5.9484 F350.00
G00 Z0.5000
G00 X4.1518 Y6.1884
G01 F250.00
G01 Z-0.0500
G01 F350.00
G01 X1.5486 Y6.1884 F350.00
G01 X1.5469 Y6.4284 F350.00
G01 X4.1500 Y6.4284 F350.00
G00 Z0.5000
G00 X4.1803 Y6.6684
G01 F250.00
G01 Z-0.0500
G01 F350.00
G01 X1.5583 Y6.6684 F350.00
G01 X1.5698 Y6.9084 F350.00
G01 X4.2500 Y6.9084 F350.00
G00 Z0.5000
G00 X4.3582 Y7.1484
G01 F250.00
G01 Z-0.0500
G01 F350.00
G01 X1.5812 Y7.1484 F350.00
G01 X1.5926 Y7.3884 F350.00
G01 X4.5188 Y7.3884 F350.00
G00 Z0.5000
G00 X4.7534 Y7.6284
G01 F250.00
G01 Z-0.0500
G01 F350.00
G01 X1.6040 Y7.6284 F350.00
G01 X1.6154 Y7.8684 F350.00
G01 X4.7747 Y7.8684 F350.00
G01 X4.7747 Y8.1084 F350.00
G01 X1.6268 Y8.1084 F350.00
G01 X1.6382 Y8.3484 F350.00
G01 X4.7752 Y8.3484 F350.00
G01 X4.7752 Y8.5884 F350.00
G01 X1.6496 Y8.5884 F350.00
G01 X1.6610 Y8.8284 F350.00
G01 X4.7859 Y8.8284 F350.00
G00 Z0.5000
G00 X4.8424 Y9.0684
G01 F250.00
G01 Z-0.0500
G01 F350.00
G01 X1.6725 Y9.0684 F350.00
G01 X1.6839 Y9.3084 F350.00
G01 X4.9566 Y9.3084 F350.00
G00 Z0.5000
G00 X5.1526 Y9.5484
G01 F250.00
G01 Z-0.0500
G01 F350.00
G01 X1.6953 Y9.5484 F350.00
G01 X1.7067 Y9.7884 F350.00
G01 X5.5256 Y9.7884 F350.00
G00 Z0.5000
G00 X6.4249 Y9.7884
G01 F250.00
G01 Z-0.0500
G01 F350.00
G01 X7.5249 Y9.7884 F350.00
G01 X7.5249 Y9.5484 F350.00
G01 X6.7979 Y9.5484 F350.00
G00 Z0.5000
G00 X6.9939 Y9.3084
G01 F250.00
G01 Z-0.0500
G01 F350.00
G01 X7.5249 Y9.3084 F350.00
G01 X7.5249 Y9.0684 F350.00
G01 X7.1081 Y9.0684 F350.00
G00 Z0.5000
G00 X7.1645 Y8.8284
G01 F250.00
G01 Z-0.0500
G01 F350.00
G01 X7.4686 Y8.8284 F350.00
G00 Z0.5000
G00 X7.3495 Y8.5884
G01 F250.00
G01 Z-0.0500
G01 F350.00
G01 X7.1752 Y8.5884 F350.00
G01 X7.1752 Y8.3484 F350.00
G01 X7.2889 Y8.3484 F350.00
G00 Z0.5000
G00 X7.2783 Y8.1084
G01 F250.00
G01 Z-0.0500
G01 F350.00
G01 X7.1757 Y8.1084 F350.00
G01 X7.1757 Y7.8684 F350.00
G01 X7.3165 Y7.8684 F350.00
G00 Z0.5000
G00 X7.4081 Y7.6284
G01 F250.00
G01 Z-0.0500
G01 F350.00
G01 X7.1757 Y7.6284 F350.00
G01 X7.1757 Y7.3884 F350.00
G01 X7.5712 Y7.3884 F350.00
G01 X7.3322 Y7.1484 F350.00
G01 X7.8580 Y7.1484 F350.00
G01 X7.4405 Y6.9084 F350.00
G01 X27.6503 Y6.9084 F350.00
G01 X27.1661 Y6.6684 F350.00
G01 X7.5101 Y6.6684 F350.00
G00 Z0.5000
G00 X7.5404 Y6.4284
G01 F250.00
G01 Z-0.0500
G01 F350.00
G01 X26.6819 Y6.4284 F350.00
G01 X26.1977 Y6.1884 F350.00
G01 X7.5387 Y6.1884 F350.00
G00 Z0.5000
G00 X7.5013 Y5.9484
G01 F250.00
G01 Z-0.0500
G01 F350.00
G01 X25.7134 Y5.9484 F350.00
G01 X25.2292 Y5.7084 F350.00
G01 X7.4278 Y5.7084 F350.00
G00 Z0.5000
G00 X7.3110 Y5.4684
G01 F250.00
G01 Z-0.0500
G01 F350.00
G01 X24.7450 Y5.4684 F350.00
G01 X24.2608 Y5.2284 F350.00
G01 X7.1423 Y5.2284 F350.00
G00 Z0.5000
G00 X6.8923 Y4.9884
G01 F250.00
G01 Z-0.0500
G01 F350.00
G01 X23.6310 Y4.9884 F350.00
G01 X22.2994 Y4.7484 F350.00
G01 X6.4767 Y4.7484 F350.00
G00 Z0.5000
G00 X7.1757 Y7.3828
G01 F250.00
G01 Z-0.0500
G01 F350.00
G01 X7.1757 Y8.1761 F350.00
G01 X7.1752 Y8.1911 F350.00
G01 X7.1752 Y8.6761 F350.00
G01 X7.1702 Y8.7839 F350.00
G01 X7.1689 Y8.7986 F350.00
G01 X7.1522 Y8.9102 F350.00
G01 X7.1262 Y9.0149 F350.00
G01 X7.1205 Y9.0337 F350.00
G01 X7.0839 Y9.1353 F350.00
G01 X7.0335 Y9.2417 F350.00
G01 X6.9782 Y9.3344 F350.00
G01 X6.9673 Y9.3508 F350.00
G01 X6.9089 Y9.4296 F350.00
G01 X6.8997 Y9.4411 F350.00
G01 X6.8238 Y9.5246 F350.00
G01 X6.7365 Y9.6037 F350.00
G01 X6.6419 Y9.6738 F350.00
G01 X6.5409 Y9.7344 F350.00
G01 X6.4344 Y9.7847 F350.00
G01 X6.3236 Y9.8244 F350.00
G01 X6.2093 Y9.8530 F350.00
G01 X6.0928 Y9.8703 F350.00
G01 X5.9752 Y9.8761 F350.00
G01 X5.8576 Y9.8703 F350.00
G01 X5.7411 Y9.8530 F350.00
G01 X5.6269 Y9.8244 F350.00
G01 X5.5160 Y9.7847 F350.00
G01 X5.4096 Y9.7344 F350.00
G01 X5.3085 Y9.6738 F350.00
G01 X5.2140 Y9.6037 F350.00
G01 X5.1267 Y9.5246 F350.00
G01 X5.0540 Y9.4448 F350.00
G01 X5.0416 Y9.4296 F350.00
G01 X4.9831 Y9.3508 F350.00
G01 X4.9722 Y9.3344 F350.00
G01 X4.9169 Y9.2417 F350.00
G01 X4.8666 Y9.1353 F350.00
G01 X4.8269 Y9.0244 F350.00
G01 X4.7993 Y8.9150 F350.00
G01 X4.7966 Y8.9005 F350.00
G01 X4.7810 Y8.7937 F350.00
G01 X4.7753 Y8.6810 F350.00
G01 X4.7752 Y8.1911 F350.00
G01 X4.7747 Y8.1761 F350.00
G01 X4.7747 Y7.6464 F350.00
G01 X4.7593 Y7.6338 F350.00
G01 X4.6503 Y7.5349 F350.00
G01 X4.6364 Y7.5210 F350.00
G01 X4.5311 Y7.4045 F350.00
G01 X4.4374 Y7.2785 F350.00
G01 X4.4265 Y7.2622 F350.00
G01 X4.3460 Y7.1274 F350.00
G01 X4.2746 Y6.9766 F350.00
G01 X4.2184 Y6.8195 F350.00
G01 X4.1800 Y6.6673 F350.00
G01 X4.1762 Y6.6480 F350.00
G01 X4.1534 Y6.4927 F350.00
G01 X4.1455 Y6.3359 F350.00
G01 X4.1455 Y6.3162 F350.00
G01 X4.1534 Y6.1594 F350.00
G01 X4.1762 Y6.0041 F350.00
G01 X4.1800 Y5.9848 F350.00
G01 X4.2158 Y5.8420 F350.00
G01 X4.2215 Y5.8232 F350.00
G01 X4.2746 Y5.6755 F350.00
G01 X4.3460 Y5.5247 F350.00
G01 X4.4317 Y5.3816 F350.00
G01 X4.5311 Y5.2476 F350.00
G01 X4.6431 Y5.1240 F350.00
G01 X4.7668 Y5.0119 F350.00
G01 X4.9008 Y4.9126 F350.00
G01 X5.0439 Y4.8268 F350.00
G01 X5.1947 Y4.7555 F350.00
G01 X5.3517 Y4.6993 F350.00
G01 X5.5136 Y4.6587 F350.00
G01 X5.6786 Y4.6342 F350.00
G01 X5.8452 Y4.6261 F350.00
G01 X6.0119 Y4.6342 F350.00
G01 X6.1769 Y4.6587 F350.00
G01 X6.3387 Y4.6993 F350.00
G01 X6.4958 Y4.7555 F350.00
G01 X6.6466 Y4.8268 F350.00
G01 X6.7897 Y4.9126 F350.00
G01 X6.9237 Y5.0119 F350.00
G01 X7.0473 Y5.1240 F350.00
G01 X7.1593 Y5.2476 F350.00
G01 X7.2587 Y5.3816 F350.00
G01 X7.3445 Y5.5247 F350.00
G01 X7.4158 Y5.6755 F350.00
G01 X7.4720 Y5.8326 F350.00
G01 X7.5126 Y5.9944 F350.00
G01 X7.5370 Y6.1594 F350.00
G01 X7.5452 Y6.3261 F350.00
G01 X7.5370 Y6.4927 F350.00
G01 X7.5126 Y6.6577 F350.00
G01 X7.4720 Y6.8195 F350.00
G01 X7.4158 Y6.9766 F350.00
G01 X7.3445 Y7.1274 F350.00
G01 X7.2587 Y7.2705 F350.00
G01 X7.1757 Y7.3828 F350.00
G00 Z0.5000
G00 X9.0925 Y7.1484
G01 F250.00
G01 Z-0.0500
G01 F350.00
G01 X28.1345 Y7.1484 F350.00
G01 X28.6188 Y7.3884 F350.00
G01 X9.3792 Y7.3884 F350.00
G00 Z0.5000
G00 X9.4256 Y9.0684
G01 F250.00
G01 Z-0.0500
G01 F350.00
G01 X15.4173 Y9.0684 F350.00
G01 X15.6573 Y9.3084 F350.00
G01 X15.0117 Y9.3084 F350.00
G00 Z0.5000
G00 X15.2451 Y9.5484
G01 F250.00
G01 Z-0.0500
G01 F350.00
G01 X15.8973 Y9.5484 F350.00
G01 X16.1373 Y9.7884 F350.00
G01 X15.3591 Y9.7884 F350.00
G00 Z0.5000
G00 X15.3989 Y10.0284
G01 F250.00
G01 Z-0.0500
G01 F350.00
G01 X16.3773 Y10.0284 F350.00
G01 X16.6173 Y10.2684 F350.00
G01 X15.4002 Y10.2684 F350.00
G01 X15.4002 Y10.5084 F350.00
G01 X16.8573 Y10.5084 F350.00
G01 X17.0973 Y10.7484 F350.00
G01 X15.4002 Y10.7484 F350.00
G01 X15.4002 Y10.9884 F350.00
G01 X17.3373 Y10.9884 F350.00
G01 X17.5773 Y11.2284 F350.00
G01 X15.4002 Y11.2284 F350.00
G01 X15.4479 Y11.4684 F350.00
G01 X17.7502 Y11.4684 F350.00
G01 X17.7502 Y11.7084 F350.00
G01 X15.6879 Y11.7084 F350.00
G01 X15.9279 Y11.9484 F350.00
G01 X17.7502 Y11.9484 F350.00
G01 X17.7502 Y12.1884 F350.00
G01 X16.1679 Y12.1884 F350.00
G01 X16.4079 Y12.4284 F350.00
G01 X17.7502 Y12.4284 F350.00
G00 Z0.5000
G00 X17.7528 Y12.6684
G01 F250.00
G01 Z-0.0500
G01 F350.00
G01 X16.6479 Y12.6684 F350.00
G01 X16.8879 Y12.9084 F350.00
G01 X17.8001 Y12.9084 F350.00
G00 Z0.5000
G00 X17.9232 Y13.1484
G01 F250.00
G01 Z-0.0500
G01 F350.00
G01 X17.1279 Y13.1484 F350.00
G01 X17.3679 Y13.3884 F350.00
G01 X18.1746 Y13.3884 F350.00
G01 X17.8479 Y13.8684 F350.00
G01 X20.6673 Y13.8684 F350.00
G01 X20.4273 Y13.6284 F350.00
G01 X17.6079 Y13.6284 F350.00
G01 X18.0879 Y14.1084 F350.00
G01 X20.9073 Y14.1084 F350.00
G01 X21.1473 Y14.3484 F350.00
G01 X18.3279 Y14.3484 F350.00
G01 X18.5679 Y14.5884 F350.00
G01 X21.3873 Y14.5884 F350.00
G01 X21.6273 Y14.8284 F350.00
G01 X18.8079 Y14.8284 F350.00
G01 X19.0479 Y15.0684 F350.00
G01 X21.8673 Y15.0684 F350.00
G01 X22.1073 Y15.3084 F350.00
G01 X20.8708 Y15.3084 F350.00
G00 Z0.5000
G00 X21.1279 Y15.5484
G01 F250.00
G01 Z-0.0500
G01 F350.00
G01 X22.3473 Y15.5484 F350.00
G01 X22.5873 Y15.7884 F350.00
G01 X21.3679 Y15.7884 F350.00
G01 X21.6079 Y16.0284 F350.00
G01 X22.7365 Y16.0284 F350.00
G00 Z0.5000
G00 X22.8057 Y16.2684
G01 F250.00
G01 Z-0.0500
G01 F350.00
G01 X21.8479 Y16.2684 F350.00
G01 X22.0879 Y16.5084 F350.00
G01 X22.9578 Y16.5084 F350.00
G00 Z0.5000
G00 X23.2778 Y16.7484
G01 F250.00
G01 Z-0.0500
G01 F350.00
G01 X22.3279 Y16.7484 F350.00
G01 X22.5679 Y16.9884 F350.00
G01 X27.4249 Y16.9884 F350.00
G01 X27.4249 Y17.2284 F350.00
G01 X22.8079 Y17.2284 F350.00
G00 Z0.5000
G00 X21.7873 Y18.1884
G01 F250.00
G01 Z-0.0500
G01 F350.00
G01 X20.8002 Y18.1884 F350.00
G00 Z0.5000
G00 X20.7781 Y17.9484
G01 F250.00
G01 Z-0.0500
G01 F350.00
G01 X21.5473 Y17.9484 F350.00
G01 X21.3073 Y17.7084 F350.00
G01 X20.7101 Y17.7084 F350.00
G00 Z0.5000
G00 X20.5883 Y17.4684
G01 F250.00
G01 Z-0.0500
G01 F350.00
G01 X21.0673 Y17.4684 F350.00
G01 X20.8273 Y17.2284 F350.00
G01 X20.3896 Y17.2284 F350.00
G01 X20.5873 Y16.9884 F350.00
G01 X20.0388 Y16.9884 F350.00
G01 X20.3473 Y16.7484 F350.00
G01 X16.5317 Y16.7484 F350.00
G01 X16.5317 Y16.9884 F350.00
G01 X18.9117 Y16.9884 F350.00
G00 Z0.5000
G00 X18.5609 Y17.2284
G01 F250.00
G01 Z-0.0500
G01 F350.00
G01 X16.5317 Y17.2284 F350.00
G01 X16.5317 Y17.4684 F350.00
G01 X18.3622 Y17.4684 F350.00
G00 Z0.5000
G00 X18.2403 Y17.7084
G01 F250.00
G01 Z-0.0500
G01 F350.00
G01 X16.5317 Y17.7084 F350.00
G01 X16.5317 Y17.9484 F350.00
G01 X18.1724 Y17.9484 F350.00
G00 Z0.5000
G00 X18.1503 Y18.1884
G01 F250.00
G01 Z-0.0500
G01 F350.00
G01 X16.5317 Y18.1884 F350.00
G01 X16.5317 Y18.4284 F350.00
G01 X18.1730 Y18.4284 F350.00
G00 Z0.5000
G00 X18.2420 Y18.6684
G01 F250.00
G01 Z-0.0500
G01 F350.00
G01 X16.5317 Y18.6684 F350.00
G01 X16.5317 Y18.9084 F350.00
G01 X18.3650 Y18.9084 F350.00
G00 Z0.5000
G00 X18.5660 Y19.1484
G01 F250.00
G01 Z-0.0500
G01 F350.00
G01 X16.5317 Y19.1484 F350.00
G01 X16.5317 Y19.3884 F350.00
G01 X18.9215 Y19.3884 F350.00
G01 X19.0249 Y19.6284 F350.00
G01 X16.6616 Y19.6284 F350.00
G01 X16.9016 Y19.8684 F350.00
G01 X19.0249 Y19.8684 F350.00
G01 X19.0249 Y20.1084 F350.00
G01 X17.1416 Y20.1084 F350.00
G01 X17.3816 Y20.3484 F350.00
G01 X19.0249 Y20.3484 F350.00
G00 Z0.5000
G00 X19.0471 Y20.5884
G01 F250.00
G01 Z-0.0500
G01 F350.00
G01 X17.6216 Y20.5884 F350.00
G01 X17.8616 Y20.8284 F350.00
G01 X19.1342 Y20.8284 F350.00
G00 Z0.5000
G00 X19.3135 Y21.0684
G01 F250.00
G01 Z-0.0500
G01 F350.00
G01 X18.1016 Y21.0684 F350.00
G01 X18.3416 Y21.3084 F350.00
G01 X19.5535 Y21.3084 F350.00
G01 X19.7935 Y21.5484 F350.00
G01 X18.5816 Y21.5484 F350.00
G01 X18.8216 Y21.7884 F350.00
G01 X20.0335 Y21.7884 F350.00
G01 X20.2735 Y22.0284 F350.00
G01 X19.0616 Y22.0284 F350.00
G01 X19.3016 Y22.2684 F350.00
G01 X20.5135 Y22.2684 F350.00
G01 X20.7535 Y22.5084 F350.00
G01 X19.5416 Y22.5084 F350.00
G01 X19.7816 Y22.7484 F350.00
G01 X20.9935 Y22.7484 F350.00
G01 X21.2335 Y22.9884 F350.00
G01 X20.0216 Y22.9884 F350.00
G01 X20.2616 Y23.2284 F350.00
G01 X21.4249 Y23.2284 F350.00
G01 X21.4249 Y23.4684 F350.00
G01 X20.5016 Y23.4684 F350.00
G00 Z0.5000
G00 X20.9856 Y23.7084
G01 F250.00
G01 Z-0.0500
G01 F350.00
G01 X21.4249 Y23.7084 F350.00
G01 X21.4249 Y23.9484 F350.00
G01 X21.1895 Y23.9484 F350.00
G00 Z0.5000
G00 X21.2916 Y24.1884
G01 F250.00
G01 Z-0.0500
G01 F350.00
G01 X21.4249 Y24.1884 F350.00
G01 X21.4249 Y24.4284 F350.00
G01 X21.3251 Y24.4284 F350.00
G00 Z0.5000
G00 X21.3252 Y24.6684
G01 F250.00
G01 Z-0.0500
G01 F350.00
G01 X21.4249 Y24.6684 F350.00
G00 Z0.5000
G00 X21.4252 Y24.9084
G01 F250.00
G01 Z-0.0500
G01 F350.00
G01 X21.3252 Y24.9084 F350.00
G00 Z0.5000
G00 X21.3005 Y25.1484
G01 F250.00
G01 Z-0.0500
G01 F350.00
G01 X21.4500 Y25.1484 F350.00
G01 X21.4075 Y25.3884 F350.00
G01 X21.2106 Y25.3884 F350.00
G01 X21.1675 Y25.6284 F350.00
G01 X21.0246 Y25.6284 F350.00
G01 X20.9275 Y25.8684 F350.00
G01 X20.5574 Y25.8684 F350.00
G00 Z0.5000
G00 X20.1930 Y25.8684
G01 F250.00
G01 Z-0.0500
G01 F350.00
G01 X16.4746 Y25.8684 F350.00
G00 Z0.5000
G00 X16.4538 Y25.6284
G01 F250.00
G01 Z-0.0500
G01 F350.00
G01 X19.7258 Y25.6284 F350.00
G00 Z0.5000
G00 X19.5399 Y25.3884
G01 F250.00
G01 Z-0.0500
G01 F350.00
G01 X16.4007 Y25.3884 F350.00
G00 Z0.5000
G00 X16.3049 Y25.1484
G01 F250.00
G01 Z-0.0500
G01 F350.00
G01 X19.4500 Y25.1484 F350.00
G01 X19.2535 Y24.9084 F350.00
G01 X16.1644 Y24.9084 F350.00
G00 Z0.5000
G00 X15.9605 Y24.6684
G01 F250.00
G01 Z-0.0500
G01 F350.00
G01 X19.0135 Y24.6684 F350.00
G01 X18.7735 Y24.4284 F350.00
G01 X15.6465 Y24.4284 F350.00
G00 Z0.5000
G00 X14.8275 Y24.1884
G01 F250.00
G01 Z-0.0500
G01 F350.00
G01 X18.5335 Y24.1884 F350.00
G01 X18.2935 Y23.9484 F350.00
G01 X12.0269 Y23.9484 F350.00
G01 X12.2669 Y23.7084 F350.00
G01 X18.0535 Y23.7084 F350.00
G01 X17.8135 Y23.4684 F350.00
G01 X12.5069 Y23.4684 F350.00
G01 X12.7469 Y23.2284 F350.00
G01 X17.5735 Y23.2284 F350.00
G01 X17.3335 Y22.9884 F350.00
G01 X12.9869 Y22.9884 F350.00
G00 Z0.5000
G00 X13.1692 Y22.7484
G01 F250.00
G01 Z-0.0500
G01 F350.00
G01 X17.0935 Y22.7484 F350.00
G01 X16.8535 Y22.5084 F350.00
G01 X13.2579 Y22.5084 F350.00
G00 Z0.5000
G00 X13.2817 Y22.2684
G01 F250.00
G01 Z-0.0500
G01 F350.00
G01 X16.6135 Y22.2684 F350.00
G01 X16.3735 Y22.0284 F350.00
G01 X13.2817 Y22.0284 F350.00
G01 X13.2817 Y21.7884 F350.00
G01 X16.1335 Y21.7884 F350.00
G01 X15.8935 Y21.5484 F350.00
G01 X13.2817 Y21.5484 F350.00
G01 X13.2817 Y21.3084 F350.00
G01 X15.6535 Y21.3084 F350.00
G01 X15.4135 Y21.0684 F350.00
G01 X13.2817 Y21.0684 F350.00
G01 X13.2817 Y20.8284 F350.00
G01 X15.1735 Y20.8284 F350.00
G01 X14.9335 Y20.5884 F350.00
G01 X13.2817 Y20.5884 F350.00
G01 X13.2817 Y20.3484 F350.00
G01 X14.7478 Y20.3484 F350.00
G00 Z0.5000
G00 X14.6566 Y20.1084
G01 F250.00
G01 Z-0.0500
G01 F350.00
G01 X13.2817 Y20.1084 F350.00
G01 X13.2817 Y19.8684 F350.00
G01 X14.6309 Y19.8684 F350.00
G01 X14.6309 Y19.6284 F350.00
G01 X13.2817 Y19.6284 F350.00
G01 X13.2817 Y19.3884 F350.00
G01 X14.6309 Y19.3884 F350.00
G01 X14.6309 Y19.1484 F350.00
G01 X13.3845 Y19.1484 F350.00
G00 Z0.5000
G00 X13.5855 Y18.9084
G01 F250.00
G01 Z-0.0500
G01 F350.00
G01 X14.6309 Y18.9084 F350.00
G01 X14.6309 Y18.6684 F350.00
G01 X13.7085 Y18.6684 F350.00
G00 Z0.5000
G00 X13.7774 Y18.4284
G01 F250.00
G01 Z-0.0500
G01 F350.00
G01 X14.6309 Y18.4284 F350.00
G01 X14.6309 Y18.1884 F350.00
G01 X13.8002 Y18.1884 F350.00
G00 Z0.5000
G00 X13.7781 Y17.9484
G01 F250.00
G01 Z-0.0500
G01 F350.00
G01 X14.6309 Y17.9484 F350.00
G01 X14.6309 Y17.7084 F350.00
G01 X13.7101 Y17.7084 F350.00
G00 Z0.5000
G00 X13.5883 Y17.4684
G01 F250.00
G01 Z-0.0500
G01 F350.00
G01 X14.6309 Y17.4684 F350.00
G01 X14.6309 Y17.2284 F350.00
G01 X13.3896 Y17.2284 F350.00
G00 Z0.5000
G00 X13.0388 Y16.9884
G01 F250.00
G01 Z-0.0500
G01 F350.00
G01 X14.6309 Y16.9884 F350.00
G01 X14.6309 Y16.7484 F350.00
G01 X11.5912 Y16.7484 F350.00
G01 X11.3512 Y16.9884 F350.00
G01 X11.9117 Y16.9884 F350.00
G00 Z0.5000
G00 X11.5609 Y17.2284
G01 F250.00
G01 Z-0.0500
G01 F350.00
G01 X11.1112 Y17.2284 F350.00
G01 X10.8712 Y17.4684 F350.00
G01 X11.3622 Y17.4684 F350.00
G00 Z0.5000
G00 X11.2403 Y17.7084
G01 F250.00
G01 Z-0.0500
G01 F350.00
G01 X10.6312 Y17.7084 F350.00
G01 X10.3912 Y17.9484 F350.00
G01 X11.1724 Y17.9484 F350.00
G00 Z0.5000
G00 X11.1503 Y18.1884
G01 F250.00
G01 Z-0.0500
G01 F350.00
G01 X10.1512 Y18.1884 F350.00
G01 X9.9112 Y18.4284 F350.00
G01 X11.1730 Y18.4284 F350.00
G00 Z0.5000
G00 X11.2420 Y18.6684
G01 F250.00
G01 Z-0.0500
G01 F350.00
G01 X9.6712 Y18.6684 F350.00
G00 Z0.5000
G00 X8.8127 Y18.9084
G01 F250.00
G01 Z-0.0500
G01 F350.00
G01 X11.3650 Y18.9084 F350.00
G01 X11.3809 Y19.1484 F350.00
G01 X8.5239 Y19.1484 F350.00
G01 X9.2501 Y19.8684 F350.00
G01 X11.3809 Y19.8684 F350.00
G01 X11.3809 Y19.6284 F350.00
G01 X6.6755 Y19.6284 F350.00
G01 X6.6755 Y19.3884 F350.00
G01 X11.3809 Y19.3884 F350.00
G01 X11.3809 Y20.1084 F350.00
G01 X9.4779 Y20.1084 F350.00
G00 Z0.5000
G00 X9.6037 Y20.3484
G01 F250.00
G01 Z-0.0500
G01 F350.00
G01 X11.3809 Y20.3484 F350.00
G01 X11.3809 Y20.5884 F350.00
G01 X9.6643 Y20.5884 F350.00
G00 Z0.5000
G00 X9.6709 Y20.8284
G01 F250.00
G01 Z-0.0500
G01 F350.00
G01 X11.3809 Y20.8284 F350.00
G01 X11.3809 Y21.0684 F350.00
G01 X9.6235 Y21.0684 F350.00
G00 Z0.5000
G00 X9.5134 Y21.3084
G01 F250.00
G01 Z-0.0500
G01 F350.00
G01 X11.3809 Y21.3084 F350.00
G01 X11.3809 Y21.5484 F350.00
G01 X9.3153 Y21.5484 F350.00
G00 Z0.5000
G00 X8.8955 Y21.7884
G01 F250.00
G01 Z-0.0500
G01 F350.00
G01 X11.3809 Y21.7884 F350.00
G01 X11.2589 Y22.0284 F350.00
G01 X2.2886 Y22.0284 F350.00
G01 X2.2772 Y21.7884 F350.00
G01 X7.0549 Y21.7884 F350.00
G00 Z0.5000
G00 X6.6351 Y21.5484
G01 F250.00
G01 Z-0.0500
G01 F350.00
G01 X2.2658 Y21.5484 F350.00
G01 X2.2544 Y21.3084 F350.00
G01 X5.5724 Y21.3084 F350.00
G00 Z0.5000
G00 X5.3589 Y21.0684
G01 F250.00
G01 Z-0.0500
G01 F350.00
G01 X2.2430 Y21.0684 F350.00
G01 X2.2316 Y20.8284 F350.00
G01 X5.2816 Y20.8284 F350.00
G00 Z0.5000
G00 X5.2750 Y20.5884
G01 F250.00
G01 Z-0.0500
G01 F350.00
G01 X2.2202 Y20.5884 F350.00
G01 X2.2088 Y20.3484 F350.00
G01 X5.2750 Y20.3484 F350.00
G01 X5.2750 Y20.1084 F350.00
G01 X2.1974 Y20.1084 F350.00
G01 X2.1859 Y19.8684 F350.00
G01 X5.2750 Y19.8684 F350.00
G01 X5.2750 Y19.6284 F350.00
G01 X2.1745 Y19.6284 F350.00
G01 X2.1631 Y19.3884 F350.00
G01 X5.2750 Y19.3884 F350.00
G01 X5.2750 Y19.1484 F350.00
G01 X2.1517 Y19.1484 F350.00
G01 X2.1403 Y18.9084 F350.00
G01 X5.2750 Y18.9084 F350.00
G01 X5.2750 Y18.6684 F350.00
G01 X2.1289 Y18.6684 F350.00
G01 X2.1175 Y18.4284 F350.00
G01 X5.2750 Y18.4284 F350.00
G01 X5.2750 Y18.1884 F350.00
G01 X2.1061 Y18.1884 F350.00
G01 X2.0947 Y17.9484 F350.00
G01 X5.2750 Y17.9484 F350.00
G01 X5.2750 Y17.7084 F350.00
G01 X2.0832 Y17.7084 F350.00
G01 X2.0718 Y17.4684 F350.00
G01 X5.2750 Y17.4684 F350.00
G01 X5.2750 Y17.2284 F350.00
G01 X2.0604 Y17.2284 F350.00
G01 X2.0490 Y16.9884 F350.00
G01 X5.2750 Y16.9884 F350.00
G01 X5.2750 Y16.9597 F350.00
G01 X5.2614 Y16.9460 F350.00
G01 X5.2086 Y16.8879 F350.00
G01 X5.1962 Y16.8727 F350.00
G01 X5.1438 Y16.8016 F350.00
G01 X5.0981 Y16.7260 F350.00
G01 X5.0910 Y16.7131 F350.00
G01 X5.0513 Y16.6287 F350.00
G01 X5.0214 Y16.5457 F350.00
G01 X5.0157 Y16.5269 F350.00
G01 X4.9966 Y16.4507 F350.00
G01 X4.9928 Y16.4315 F350.00
G01 X4.9800 Y16.3441 F350.00
G01 X4.9753 Y16.2510 F350.00
G01 X4.9752 Y15.3461 F350.00
G01 X4.9800 Y15.2480 F350.00
G01 X4.9944 Y15.1510 F350.00
G01 X5.0157 Y15.0652 F350.00
G01 X5.0214 Y15.0464 F350.00
G01 X5.0513 Y14.9634 F350.00
G01 X5.0933 Y14.8747 F350.00
G01 X5.1438 Y14.7905 F350.00
G01 X5.1962 Y14.7194 F350.00
G01 X5.2086 Y14.7042 F350.00
G01 X5.2681 Y14.6389 F350.00
G01 X5.3334 Y14.5795 F350.00
G01 X5.3486 Y14.5670 F350.00
G01 X5.4197 Y14.5146 F350.00
G01 X5.5038 Y14.4641 F350.00
G01 X5.5925 Y14.4222 F350.00
G01 X5.6756 Y14.3922 F350.00
G01 X5.6944 Y14.3865 F350.00
G01 X5.7801 Y14.3653 F350.00
G01 X5.8772 Y14.3509 F350.00
G01 X5.9654 Y14.3463 F350.00
G01 X5.9850 Y14.3463 F350.00
G01 X6.0732 Y14.3509 F350.00
G01 X6.1703 Y14.3653 F350.00
G01 X6.2561 Y14.3865 F350.00
G01 X6.2748 Y14.3922 F350.00
G01 X6.3488 Y14.4186 F350.00
G01 X6.3624 Y14.4241 F350.00
G01 X6.4466 Y14.4641 F350.00
G01 X6.5225 Y14.5093 F350.00
G01 X6.5388 Y14.5202 F350.00
G01 X6.6019 Y14.5670 F350.00
G01 X6.6134 Y14.5762 F350.00
G01 X6.6823 Y14.6389 F350.00
G01 X6.7482 Y14.7117 F350.00
G01 X6.8067 Y14.7905 F350.00
G01 X6.8401 Y14.8457 F350.00
G01 X7.6104 Y14.8457 F350.00
G01 X7.6438 Y14.7905 F350.00
G01 X7.6962 Y14.7194 F350.00
G01 X7.7086 Y14.7042 F350.00
G01 X7.7647 Y14.6425 F350.00
G01 X7.7752 Y14.6322 F350.00
G01 X7.8408 Y14.5730 F350.00
G01 X7.9116 Y14.5202 F350.00
G01 X7.9238 Y14.5119 F350.00
G01 X7.9953 Y14.4690 F350.00
G01 X8.0126 Y14.4597 F350.00
G01 X8.0925 Y14.4222 F350.00
G01 X8.1756 Y14.3922 F350.00
G01 X8.1944 Y14.3865 F350.00
G01 X8.2801 Y14.3653 F350.00
G01 X8.3772 Y14.3509 F350.00
G01 X8.4752 Y14.3461 F350.00
G01 X8.5635 Y14.3501 F350.00
G01 X8.5830 Y14.3521 F350.00
G01 X8.6703 Y14.3653 F350.00
G01 X8.7561 Y14.3865 F350.00
G01 X8.7748 Y14.3922 F350.00
G01 X8.8488 Y14.4186 F350.00
G01 X8.8669 Y14.4261 F350.00
G01 X8.9466 Y14.4641 F350.00
G01 X9.0308 Y14.5146 F350.00
G01 X9.1096 Y14.5730 F350.00
G01 X9.1752 Y14.6322 F350.00
G01 X9.1858 Y14.6425 F350.00
G01 X9.2482 Y14.7117 F350.00
G01 X9.3010 Y14.7825 F350.00
G01 X9.3119 Y14.7988 F350.00
G01 X9.3571 Y14.8747 F350.00
G01 X9.3991 Y14.9634 F350.00
G01 X9.4291 Y15.0464 F350.00
G01 X9.4348 Y15.0652 F350.00
G01 X9.4539 Y15.1414 F350.00
G01 X9.4569 Y15.1558 F350.00
G01 X9.4704 Y15.2480 F350.00
G01 X9.4752 Y15.3461 F350.00
G01 X9.4752 Y16.2461 F350.00
G01 X9.4711 Y16.3343 F350.00
G01 X9.4699 Y16.3489 F350.00
G01 X9.4560 Y16.4411 F350.00
G01 X9.4322 Y16.5363 F350.00
G01 X9.3991 Y16.6287 F350.00
G01 X9.3616 Y16.7087 F350.00
G01 X9.3523 Y16.7260 F350.00
G01 X9.3119 Y16.7933 F350.00
G01 X9.3010 Y16.8096 F350.00
G01 X9.2482 Y16.8804 F350.00
G01 X9.1891 Y16.9460 F350.00
G01 X9.1788 Y16.9566 F350.00
G01 X9.1096 Y17.0191 F350.00
G01 X9.0308 Y17.0775 F350.00
G01 X8.9466 Y17.1280 F350.00
G01 X8.8624 Y17.1680 F350.00
G01 X8.8488 Y17.1735 F350.00
G01 X8.7655 Y17.2030 F350.00
G01 X8.6751 Y17.2258 F350.00
G01 X8.6606 Y17.2285 F350.00
G01 X8.5781 Y17.2407 F350.00
G01 X8.5635 Y17.2420 F350.00
G01 X8.5242 Y17.2439 F350.00
G01 X8.5781 Y17.2762 F350.00
G01 X8.5904 Y17.2842 F350.00
G01 X8.6653 Y17.3397 F350.00
G01 X8.6768 Y17.3489 F350.00
G01 X8.7530 Y17.4182 F350.00
G01 X8.8235 Y17.4958 F350.00
G01 X8.8632 Y17.4958 F350.00
G01 X11.0521 Y15.3069 F350.00
G01 X7.7998 Y12.0546 F350.00
G01 X7.7406 Y11.9890 F350.00
G01 X7.6850 Y11.9141 F350.00
G01 X7.6371 Y11.8341 F350.00
G01 X7.6012 Y11.7587 F350.00
G01 X7.5954 Y11.7452 F350.00
G01 X7.5658 Y11.6619 F350.00
G01 X7.5431 Y11.5715 F350.00
G01 X7.5294 Y11.4792 F350.00
G01 X7.5249 Y11.3910 F350.00
G01 X7.5249 Y8.9070 F350.00
G01 X7.4775 Y8.8427 F350.00
G01 X7.4169 Y8.7417 F350.00
G01 X7.3666 Y8.6353 F350.00
G01 X7.3284 Y8.5291 F350.00
G01 X7.3243 Y8.5149 F350.00
G01 X7.2983 Y8.4102 F350.00
G01 X7.2822 Y8.3034 F350.00
G01 X7.2803 Y8.2839 F350.00
G01 X7.2755 Y8.1859 F350.00
G01 X7.2755 Y8.1662 F350.00
G01 X7.2803 Y8.0682 F350.00
G01 X7.2822 Y8.0487 F350.00
G01 X7.2983 Y7.9419 F350.00
G01 X7.3243 Y7.8372 F350.00
G01 X7.3300 Y7.8184 F350.00
G01 X7.3666 Y7.7168 F350.00
G01 X7.4169 Y7.6104 F350.00
G01 X7.4775 Y7.5094 F350.00
G01 X7.5416 Y7.4225 F350.00
G01 X7.5540 Y7.4073 F350.00
G01 X7.6267 Y7.3275 F350.00
G01 X7.7065 Y7.2549 F350.00
G01 X7.7217 Y7.2424 F350.00
G01 X7.8085 Y7.1783 F350.00
G01 X7.9096 Y7.1177 F350.00
G01 X8.0160 Y7.0674 F350.00
G01 X8.1269 Y7.0277 F350.00
G01 X8.2411 Y6.9991 F350.00
G01 X8.3576 Y6.9818 F350.00
G01 X8.4752 Y6.9761 F350.00
G01 X8.5928 Y6.9818 F350.00
G01 X8.7045 Y6.9982 F350.00
G01 X8.7189 Y7.0013 F350.00
G01 X8.8236 Y7.0277 F350.00
G01 X8.9344 Y7.0674 F350.00
G01 X9.0409 Y7.1177 F350.00
G01 X9.1378 Y7.1756 F350.00
G01 X9.1499 Y7.1839 F350.00
G01 X9.2365 Y7.2484 F350.00
G01 X9.3202 Y7.3241 F350.00
G01 X9.3305 Y7.3346 F350.00
G01 X9.3997 Y7.4110 F350.00
G01 X9.4089 Y7.4225 F350.00
G01 X9.4484 Y7.4758 F350.00
G01 X22.7770 Y7.4758 F350.00
G01 X22.8407 Y7.4788 F350.00
G01 X22.8553 Y7.4804 F350.00
G01 X22.9039 Y7.4876 F350.00
G01 X22.9232 Y7.4914 F350.00
G01 X22.9802 Y7.5060 F350.00
G01 X23.0449 Y7.5291 F350.00
G01 X23.0983 Y7.5541 F350.00
G01 X23.1156 Y7.5633 F350.00
G01 X23.1660 Y7.5938 F350.00
G01 X23.2174 Y7.6317 F350.00
G01 X23.2286 Y7.6412 F350.00
G01 X23.2721 Y7.6809 F350.00
G01 X23.5832 Y7.9923 F350.00
G01 X23.6226 Y8.0361 F350.00
G01 X23.6607 Y8.0873 F350.00
G01 X23.6688 Y8.0996 F350.00
G01 X23.6940 Y8.1417 F350.00
G01 X23.7033 Y8.1590 F350.00
G01 X23.7263 Y8.2079 F350.00
G01 X23.7318 Y8.2216 F350.00
G01 X23.7514 Y8.2771 F350.00
G01 X23.7659 Y8.3342 F350.00
G01 X23.7698 Y8.3534 F350.00
G01 X23.7782 Y8.4117 F350.00
G01 X23.7815 Y8.4755 F350.00
G01 X23.7815 Y10.3919 F350.00
G01 X23.8058 Y10.4100 F350.00
G01 X23.8134 Y10.4162 F350.00
G01 X23.8788 Y10.4755 F350.00
G01 X23.8891 Y10.4861 F350.00
G01 X23.9451 Y10.5479 F350.00
G01 X23.9543 Y10.5594 F350.00
G01 X24.0067 Y10.6305 F350.00
G01 X24.0548 Y10.7104 F350.00
G01 X24.0616 Y10.7234 F350.00
G01 X24.0991 Y10.8034 F350.00
G01 X24.1322 Y10.8958 F350.00
G01 X24.1560 Y10.9910 F350.00
G01 X24.1704 Y11.0880 F350.00
G01 X24.1752 Y11.1861 F350.00
G01 X24.1752 Y12.5861 F350.00
G01 X24.1708 Y12.6792 F350.00
G01 X24.1692 Y12.6938 F350.00
G01 X24.1560 Y12.7811 F350.00
G01 X24.1348 Y12.8669 F350.00
G01 X24.1291 Y12.8857 F350.00
G01 X24.1026 Y12.9596 F350.00
G01 X24.0951 Y12.9777 F350.00
G01 X24.0571 Y13.0574 F350.00
G01 X24.0067 Y13.1416 F350.00
G01 X23.9482 Y13.2204 F350.00
G01 X23.8823 Y13.2932 F350.00
G01 X23.8096 Y13.3591 F350.00
G01 X23.7308 Y13.4175 F350.00
G01 X23.6466 Y13.4680 F350.00
G01 X23.5669 Y13.5060 F350.00
G01 X23.5488 Y13.5135 F350.00
G01 X23.4748 Y13.5399 F350.00
G01 X23.4561 Y13.5456 F350.00
G01 X23.3703 Y13.5668 F350.00
G01 X23.2830 Y13.5800 F350.00
G01 X23.2635 Y13.5820 F350.00
G01 X23.1752 Y13.5861 F350.00
G01 X23.0772 Y13.5812 F350.00
G01 X22.9801 Y13.5668 F350.00
G01 X22.8849 Y13.5430 F350.00
G01 X22.7925 Y13.5099 F350.00
G01 X22.7038 Y13.4680 F350.00
G01 X22.6197 Y13.4175 F350.00
G01 X22.5486 Y13.3651 F350.00
G01 X22.5334 Y13.3526 F350.00
G01 X22.4681 Y13.2932 F350.00
G01 X22.4086 Y13.2279 F350.00
G01 X22.3962 Y13.2127 F350.00
G01 X22.3494 Y13.1496 F350.00
G01 X22.3385 Y13.1333 F350.00
G01 X22.2933 Y13.0574 F350.00
G01 X22.2513 Y12.9687 F350.00
G01 X22.2183 Y12.8763 F350.00
G01 X22.1944 Y12.7811 F350.00
G01 X22.1800 Y12.6841 F350.00
G01 X22.1752 Y12.5861 F350.00
G01 X22.1755 Y11.1762 F350.00
G01 X22.1800 Y11.0880 F350.00
G01 X22.1928 Y11.0006 F350.00
G01 X22.1966 Y10.9814 F350.00
G01 X22.2157 Y10.9052 F350.00
G01 X22.2214 Y10.8864 F350.00
G01 X22.2513 Y10.8034 F350.00
G01 X22.2933 Y10.7147 F350.00
G01 X22.3438 Y10.6305 F350.00
G01 X22.3810 Y10.5798 F350.00
G01 X22.3810 Y8.8763 F350.00
G01 X17.2058 Y8.8763 F350.00
G01 X17.8949 Y9.5654 F350.00
G01 X17.9034 Y9.5513 F350.00
G01 X17.9089 Y9.5431 F350.00
G01 X17.9602 Y9.4742 F350.00
G01 X18.0144 Y9.4141 F350.00
G01 X18.0283 Y9.4002 F350.00
G01 X18.0884 Y9.3460 F350.00
G01 X18.1533 Y9.2976 F350.00
G01 X18.1696 Y9.2867 F350.00
G01 X18.2306 Y9.2501 F350.00
G01 X18.2480 Y9.2409 F350.00
G01 X18.3212 Y9.2065 F350.00
G01 X18.3974 Y9.1790 F350.00
G01 X18.4162 Y9.1733 F350.00
G01 X18.4948 Y9.1538 F350.00
G01 X18.5846 Y9.1405 F350.00
G01 X18.6654 Y9.1363 F350.00
G01 X18.6850 Y9.1363 F350.00
G01 X18.7561 Y9.1398 F350.00
G01 X18.7756 Y9.1417 F350.00
G01 X18.8557 Y9.1538 F350.00
G01 X18.9343 Y9.1733 F350.00
G01 X18.9531 Y9.1790 F350.00
G01 X19.0292 Y9.2065 F350.00
G01 X19.1025 Y9.2409 F350.00
G01 X19.1198 Y9.2501 F350.00
G01 X19.1891 Y9.2919 F350.00
G01 X19.2620 Y9.3460 F350.00
G01 X19.3222 Y9.4002 F350.00
G01 X19.3361 Y9.4141 F350.00
G01 X19.3903 Y9.4742 F350.00
G01 X19.4443 Y9.5471 F350.00
G01 X19.4862 Y9.6165 F350.00
G01 X19.4954 Y9.6338 F350.00
G01 X19.5298 Y9.7071 F350.00
G01 X19.5604 Y9.7925 F350.00
G01 X19.5825 Y9.8806 F350.00
G01 X19.5946 Y9.9606 F350.00
G01 X19.5965 Y9.9802 F350.00
G01 X19.6002 Y10.0611 F350.00
G01 X19.6002 Y12.6111 F350.00
G01 X19.5958 Y12.7017 F350.00
G01 X19.5841 Y12.7818 F350.00
G01 X19.5814 Y12.7963 F350.00
G01 X19.5604 Y12.8796 F350.00
G01 X19.5298 Y12.9650 F350.00
G01 X19.4910 Y13.0471 F350.00
G01 X19.4496 Y13.1167 F350.00
G01 X19.4387 Y13.1330 F350.00
G01 X19.3963 Y13.1901 F350.00
G01 X19.3839 Y13.2053 F350.00
G01 X19.3293 Y13.2651 F350.00
G01 X19.2620 Y13.3261 F350.00
G01 X19.1891 Y13.3802 F350.00
G01 X19.1198 Y13.4220 F350.00
G01 X19.1025 Y13.4312 F350.00
G01 X19.0382 Y13.4617 F350.00
G01 X19.0201 Y13.4692 F350.00
G01 X18.9437 Y13.4962 F350.00
G01 X18.8557 Y13.5183 F350.00
G01 X18.7659 Y13.5316 F350.00
G01 X18.6752 Y13.5361 F350.00
G01 X18.5846 Y13.5316 F350.00
G01 X18.5044 Y13.5200 F350.00
G01 X18.4852 Y13.5161 F350.00
G01 X18.4067 Y13.4962 F350.00
G01 X18.3304 Y13.4692 F350.00
G01 X18.3123 Y13.4617 F350.00
G01 X18.2392 Y13.4268 F350.00
G01 X18.1613 Y13.3802 F350.00
G01 X18.0884 Y13.3261 F350.00
G01 X18.0283 Y13.2719 F350.00
G01 X18.0144 Y13.2580 F350.00
G01 X17.9602 Y13.1979 F350.00
G01 X17.9118 Y13.1330 F350.00
G01 X17.9009 Y13.1167 F350.00
G01 X17.8595 Y13.0471 F350.00
G01 X17.8226 Y12.9695 F350.00
G01 X17.8171 Y12.9559 F350.00
G01 X17.7901 Y12.8796 F350.00
G01 X17.7680 Y12.7915 F350.00
G01 X17.7547 Y12.7017 F350.00
G01 X17.7505 Y12.6209 F350.00
G01 X17.7502 Y11.4014 F350.00
G01 X15.2252 Y8.8763 F350.00
G01 X9.4484 Y8.8763 F350.00
G01 X9.4256 Y8.9070 F350.00
G01 X9.4256 Y10.9924 F350.00
G01 X10.4752 Y12.0420 F350.00
G01 X11.5502 Y10.9670 F350.00
G01 X11.5503 Y10.0561 F350.00
G01 X11.5547 Y9.9704 F350.00
G01 X11.5680 Y9.8806 F350.00
G01 X11.5901 Y9.7925 F350.00
G01 X11.6171 Y9.7162 F350.00
G01 X11.6246 Y9.6981 F350.00
G01 X11.6550 Y9.6338 F350.00
G01 X11.6643 Y9.6165 F350.00
G01 X11.7061 Y9.5471 F350.00
G01 X11.7602 Y9.4742 F350.00
G01 X11.8212 Y9.4070 F350.00
G01 X11.8810 Y9.3524 F350.00
G01 X11.8962 Y9.3400 F350.00
G01 X11.9613 Y9.2919 F350.00
G01 X12.0392 Y9.2453 F350.00
G01 X12.1212 Y9.2065 F350.00
G01 X12.2067 Y9.1759 F350.00
G01 X12.2948 Y9.1538 F350.00
G01 X12.3846 Y9.1405 F350.00
G01 X12.4752 Y9.1361 F350.00
G01 X12.5561 Y9.1398 F350.00
G01 X12.5756 Y9.1417 F350.00
G01 X12.6460 Y9.1521 F350.00
G01 X12.6653 Y9.1560 F350.00
G01 X12.7437 Y9.1759 F350.00
G01 X12.8201 Y9.2029 F350.00
G01 X12.8382 Y9.2104 F350.00
G01 X12.9113 Y9.2453 F350.00
G01 X12.9808 Y9.2867 F350.00
G01 X12.9972 Y9.2976 F350.00
G01 X13.0620 Y9.3460 F350.00
G01 X13.1293 Y9.4070 F350.00
G01 X13.1903 Y9.4742 F350.00
G01 X13.2443 Y9.5471 F350.00
G01 X13.2910 Y9.6250 F350.00
G01 X13.3258 Y9.6981 F350.00
G01 X13.3333 Y9.7162 F350.00
G01 X13.3604 Y9.7925 F350.00
G01 X13.3803 Y9.8710 F350.00
G01 X13.3841 Y9.8903 F350.00
G01 X13.3958 Y9.9704 F350.00
G01 X13.4002 Y10.0611 F350.00
G01 X13.4002 Y11.1712 F350.00
G01 X13.4063 Y11.1958 F350.00
G01 X13.4082 Y11.2055 F350.00
G01 X13.4205 Y11.2880 F350.00
G01 X13.4217 Y11.3027 F350.00
G01 X13.4254 Y11.3762 F350.00
G01 X13.4255 Y11.3910 F350.00
G01 X13.4217 Y11.4694 F350.00
G01 X13.4205 Y11.4841 F350.00
G01 X13.4082 Y11.5666 F350.00
G01 X13.4063 Y11.5763 F350.00
G01 X13.4002 Y11.6009 F350.00
G01 X13.4002 Y12.6111 F350.00
G01 X13.3958 Y12.7017 F350.00
G01 X13.3825 Y12.7915 F350.00
G01 X13.3630 Y12.8701 F350.00
G01 X13.3573 Y12.8889 F350.00
G01 X13.3333 Y12.9559 F350.00
G01 X13.3279 Y12.9695 F350.00
G01 X13.2910 Y13.0471 F350.00
G01 X13.2470 Y13.1208 F350.00
G01 X13.2387 Y13.1330 F350.00
G01 X13.1933 Y13.1940 F350.00
G01 X13.1871 Y13.2016 F350.00
G01 X13.1755 Y13.2145 F350.00
G01 X13.1755 Y14.0996 F350.00
G01 X15.0441 Y14.0997 F350.00
G01 X15.1323 Y14.1042 F350.00
G01 X15.2149 Y14.1162 F350.00
G01 X15.2342 Y14.1200 F350.00
G01 X15.3151 Y14.1405 F350.00
G01 X15.4029 Y14.1720 F350.00
G01 X15.4872 Y14.2118 F350.00
G01 X15.5672 Y14.2598 F350.00
G01 X15.6343 Y14.3093 F350.00
G01 X15.6458 Y14.3185 F350.00
G01 X15.7112 Y14.3780 F350.00
G01 X16.2567 Y14.9236 F350.00
G01 X16.3159 Y14.9892 F350.00
G01 X16.3715 Y15.0641 F350.00
G01 X16.4146 Y15.1356 F350.00
G01 X16.4238 Y15.1529 F350.00
G01 X16.4593 Y15.2284 F350.00
G01 X16.4907 Y15.3162 F350.00
G01 X16.5112 Y15.3971 F350.00
G01 X16.5151 Y15.4164 F350.00
G01 X16.5271 Y15.4989 F350.00
G01 X16.5316 Y15.5872 F350.00
G01 X16.5317 Y19.4984 F350.00
G01 X20.5332 Y23.5000 F350.00
G01 X20.5557 Y23.5034 F350.00
G01 X20.5654 Y23.5053 F350.00
G01 X20.6463 Y23.5256 F350.00
G01 X20.6603 Y23.5300 F350.00
G01 X20.7342 Y23.5565 F350.00
G01 X20.7478 Y23.5623 F350.00
G01 X20.8231 Y23.5982 F350.00
G01 X20.8989 Y23.6435 F350.00
G01 X20.9110 Y23.6518 F350.00
G01 X20.9779 Y23.7017 F350.00
G01 X21.0470 Y23.7643 F350.00
G01 X21.1096 Y23.8334 F350.00
G01 X21.1651 Y23.9083 F350.00
G01 X21.2131 Y23.9882 F350.00
G01 X21.2489 Y24.0635 F350.00
G01 X21.2564 Y24.0817 F350.00
G01 X21.2843 Y24.1603 F350.00
G01 X21.3048 Y24.2411 F350.00
G01 X21.3087 Y24.2604 F350.00
G01 X21.3201 Y24.3381 F350.00
G01 X21.3214 Y24.3527 F350.00
G01 X21.3252 Y24.4361 F350.00
G01 X21.3252 Y24.6735 F350.00
G01 X21.3256 Y24.6861 F350.00
G01 X21.3252 Y24.6986 F350.00
G01 X21.3252 Y24.9410 F350.00
G01 X21.3207 Y25.0292 F350.00
G01 X21.3070 Y25.1214 F350.00
G01 X21.2843 Y25.2118 F350.00
G01 X21.2564 Y25.2904 F350.00
G01 X21.2489 Y25.3086 F350.00
G01 X21.2175 Y25.3751 F350.00
G01 X21.2082 Y25.3924 F350.00
G01 X21.1651 Y25.4638 F350.00
G01 X21.1156 Y25.5310 F350.00
G01 X21.1032 Y25.5462 F350.00
G01 X21.0470 Y25.6078 F350.00
G01 X20.9779 Y25.6704 F350.00
G01 X20.9030 Y25.7259 F350.00
G01 X20.8316 Y25.7690 F350.00
G01 X20.8143 Y25.7783 F350.00
G01 X20.7388 Y25.8137 F350.00
G01 X20.6603 Y25.8421 F350.00
G01 X20.6415 Y25.8478 F350.00
G01 X20.5606 Y25.8678 F350.00
G01 X20.4683 Y25.8815 F350.00
G01 X20.3850 Y25.8858 F350.00
G01 X20.3654 Y25.8858 F350.00
G01 X20.2821 Y25.8815 F350.00
G01 X20.1996 Y25.8695 F350.00
G01 X20.1803 Y25.8656 F350.00
G01 X20.0995 Y25.8451 F350.00
G01 X20.0117 Y25.8137 F350.00
G01 X19.9274 Y25.7739 F350.00
G01 X19.8557 Y25.7312 F350.00
G01 X19.8394 Y25.7203 F350.00
G01 X19.7803 Y25.6765 F350.00
G01 X19.7651 Y25.6640 F350.00
G01 X19.7035 Y25.6078 F350.00
G01 X19.6409 Y25.5387 F350.00
G01 X19.5853 Y25.4638 F350.00
G01 X19.5398 Y25.3882 F350.00
G01 X19.5330 Y25.3751 F350.00
G01 X19.4975 Y25.2996 F350.00
G01 X19.4676 Y25.2165 F350.00
G01 X19.4635 Y25.2024 F350.00
G01 X19.4445 Y25.1262 F350.00
G01 X19.4426 Y25.1166 F350.00
G01 X19.4392 Y25.0940 F350.00
G01 X14.9093 Y20.5641 F350.00
G01 X14.8466 Y20.4950 F350.00
G01 X14.7967 Y20.4281 F350.00
G01 X14.7884 Y20.4160 F350.00
G01 X14.7431 Y20.3401 F350.00
G01 X14.7072 Y20.2648 F350.00
G01 X14.6997 Y20.2466 F350.00
G01 X14.6718 Y20.1680 F350.00
G01 X14.6513 Y20.0871 F350.00
G01 X14.6475 Y20.0678 F350.00
G01 X14.6355 Y19.9853 F350.00
G01 X14.6310 Y19.8970 F350.00
G01 X14.6309 Y16.0004 F350.00
G01 X12.3392 Y16.0004 F350.00
G01 X9.6484 Y18.6912 F350.00
G01 X9.6049 Y18.7309 F350.00
G01 X9.5937 Y18.7404 F350.00
G01 X9.5503 Y18.7726 F350.00
G01 X9.5340 Y18.7835 F350.00
G01 X9.4833 Y18.8136 F350.00
G01 X9.4302 Y18.8390 F350.00
G01 X9.4121 Y18.8465 F350.00
G01 X9.3565 Y18.8661 F350.00
G01 X9.2899 Y18.8828 F350.00
G01 X9.2219 Y18.8929 F350.00
G01 X9.1582 Y18.8962 F350.00
G01 X8.8235 Y18.8963 F350.00
G01 X8.7530 Y18.9739 F350.00
G01 X8.6731 Y19.0464 F350.00
G01 X8.5864 Y19.1107 F350.00
G01 X8.4938 Y19.1662 F350.00
G01 X8.3962 Y19.2123 F350.00
G01 X8.2945 Y19.2487 F350.00
G01 X8.1898 Y19.2749 F350.00
G01 X8.0830 Y19.2908 F350.00
G01 X7.9752 Y19.2961 F350.00
G01 X7.8674 Y19.2908 F350.00
G01 X7.7606 Y19.2749 F350.00
G01 X7.6559 Y19.2487 F350.00
G01 X7.5543 Y19.2123 F350.00
G01 X7.4567 Y19.1662 F350.00
G01 X7.3641 Y19.1107 F350.00
G01 X7.2774 Y19.0464 F350.00
G01 X7.1974 Y18.9739 F350.00
G01 X7.1249 Y18.8939 F350.00
G01 X7.0606 Y18.8072 F350.00
G01 X7.0051 Y18.7146 F350.00
G01 X6.9590 Y18.6170 F350.00
G01 X6.9226 Y18.5154 F350.00
G01 X6.8964 Y18.4107 F350.00
G01 X6.8817 Y18.3136 F350.00
G01 X6.8798 Y18.2941 F350.00
G01 X6.8752 Y18.1961 F350.00
G01 X6.8805 Y18.0882 F350.00
G01 X6.8964 Y17.9815 F350.00
G01 X6.9226 Y17.8767 F350.00
G01 X6.9590 Y17.7751 F350.00
G01 X7.0051 Y17.6775 F350.00
G01 X7.0606 Y17.5849 F350.00
G01 X7.1189 Y17.5060 F350.00
G01 X7.1313 Y17.4908 F350.00
G01 X7.1974 Y17.4182 F350.00
G01 X7.2774 Y17.3457 F350.00
G01 X7.3641 Y17.2814 F350.00
G01 X7.4482 Y17.2308 F350.00
G01 X7.4655 Y17.2215 F350.00
G01 X7.5543 Y17.1798 F350.00
G01 X7.6466 Y17.1465 F350.00
G01 X7.6654 Y17.1408 F350.00
G01 X7.7511 Y17.1193 F350.00
G01 X7.7703 Y17.1155 F350.00
G01 X7.8674 Y17.1013 F350.00
G01 X7.9516 Y17.0970 F350.00
G01 X7.9238 Y17.0802 F350.00
G01 X7.9156 Y17.0747 F350.00
G01 X7.8447 Y17.0221 F350.00
G01 X7.8334 Y17.0126 F350.00
G01 X7.7752 Y16.9599 F350.00
G01 X7.7647 Y16.9496 F350.00
G01 X7.7086 Y16.8879 F350.00
G01 X7.6962 Y16.8727 F350.00
G01 X7.6438 Y16.8016 F350.00
G01 X7.6104 Y16.7464 F350.00
G01 X6.8401 Y16.7464 F350.00
G01 X6.8067 Y16.8016 F350.00
G01 X6.7513 Y16.8766 F350.00
G01 X6.7418 Y16.8879 F350.00
G01 X6.6891 Y16.9460 F350.00
G01 X6.6755 Y16.9597 F350.00
G01 X6.6755 Y19.8874 F350.00
G01 X6.6851 Y19.8797 F350.00
G01 X6.7561 Y19.8271 F350.00
G01 X6.7724 Y19.8162 F350.00
G01 X6.8567 Y19.7659 F350.00
G01 X6.9543 Y19.7198 F350.00
G01 X7.0559 Y19.6834 F350.00
G01 X7.1511 Y19.6593 F350.00
G01 X7.1703 Y19.6555 F350.00
G01 X7.2674 Y19.6413 F350.00
G01 X7.3752 Y19.6361 F350.00
G01 X8.5752 Y19.6361 F350.00
G01 X8.6830 Y19.6413 F350.00
G01 X8.7802 Y19.6555 F350.00
G01 X8.7994 Y19.6593 F350.00
G01 X8.8945 Y19.6834 F350.00
G01 X8.9870 Y19.7163 F350.00
G01 X9.0052 Y19.7238 F350.00
G01 X9.0938 Y19.7659 F350.00
G01 X9.1781 Y19.8162 F350.00
G01 X9.1944 Y19.8271 F350.00
G01 X9.2731 Y19.8857 F350.00
G01 X9.3459 Y19.9515 F350.00
G01 X9.3598 Y19.9653 F350.00
G01 X9.4255 Y20.0382 F350.00
G01 X9.4842 Y20.1169 F350.00
G01 X9.4951 Y20.1332 F350.00
G01 X9.5453 Y20.2175 F350.00
G01 X9.5875 Y20.3061 F350.00
G01 X9.5950 Y20.3243 F350.00
G01 X9.6279 Y20.4167 F350.00
G01 X9.6519 Y20.5119 F350.00
G01 X9.6558 Y20.5311 F350.00
G01 X9.6687 Y20.6185 F350.00
G01 X9.6707 Y20.6380 F350.00
G01 X9.6752 Y20.7361 F350.00
G01 X9.6699 Y20.8439 F350.00
G01 X9.6541 Y20.9507 F350.00
G01 X9.6305 Y21.0459 F350.00
G01 X9.6248 Y21.0647 F350.00
G01 X9.5950 Y21.1478 F350.00
G01 X9.5875 Y21.1660 F350.00
G01 X9.5453 Y21.2546 F350.00
G01 X9.4951 Y21.3389 F350.00
G01 X9.4842 Y21.3552 F350.00
G01 X9.4255 Y21.4339 F350.00
G01 X9.3530 Y21.5139 F350.00
G01 X9.2731 Y21.5864 F350.00
G01 X9.1944 Y21.6450 F350.00
G01 X9.1781 Y21.6559 F350.00
G01 X9.0938 Y21.7062 F350.00
G01 X9.0052 Y21.7483 F350.00
G01 X8.9870 Y21.7559 F350.00
G01 X8.9039 Y21.7856 F350.00
G01 X8.8851 Y21.7913 F350.00
G01 X8.7898 Y21.8149 F350.00
G01 X8.6830 Y21.8308 F350.00
G01 X8.5752 Y21.8361 F350.00
G01 X7.3752 Y21.8361 F350.00
G01 X7.2674 Y21.8308 F350.00
G01 X7.1703 Y21.8166 F350.00
G01 X7.1558 Y21.8139 F350.00
G01 X7.0559 Y21.7887 F350.00
G01 X6.9543 Y21.7523 F350.00
G01 X6.8567 Y21.7062 F350.00
G01 X6.7724 Y21.6559 F350.00
G01 X6.7561 Y21.6450 F350.00
G01 X6.6851 Y21.5924 F350.00
G01 X6.6700 Y21.5800 F350.00
G01 X6.5974 Y21.5139 F350.00
G01 X6.5270 Y21.4363 F350.00
G01 X5.9654 Y21.4361 F350.00
G01 X5.9066 Y21.4329 F350.00
G01 X5.8483 Y21.4245 F350.00
G01 X5.8290 Y21.4207 F350.00
G01 X5.7767 Y21.4075 F350.00
G01 X5.7626 Y21.4031 F350.00
G01 X5.7073 Y21.3830 F350.00
G01 X5.6539 Y21.3580 F350.00
G01 X5.6366 Y21.3488 F350.00
G01 X5.5903 Y21.3210 F350.00
G01 X5.5782 Y21.3126 F350.00
G01 X5.5310 Y21.2774 F350.00
G01 X5.4801 Y21.2312 F350.00
G01 X5.4339 Y21.1803 F350.00
G01 X5.3958 Y21.1291 F350.00
G01 X5.3877 Y21.1168 F350.00
G01 X5.3625 Y21.0747 F350.00
G01 X5.3532 Y21.0574 F350.00
G01 X5.3283 Y21.0040 F350.00
G01 X5.3051 Y20.9393 F350.00
G01 X5.2906 Y20.8822 F350.00
G01 X5.2868 Y20.8630 F350.00
G01 X5.2783 Y20.8047 F350.00
G01 X5.2750 Y20.7410 F350.00
G01 X5.2750 Y16.9597 F350.00
G00 Z0.5000
G00 X5.1116 Y16.7484
G01 F250.00
G01 Z-0.0500
G01 F350.00
G01 X2.0376 Y16.7484 F350.00
G01 X2.0262 Y16.5084 F350.00
G01 X5.0110 Y16.5084 F350.00
G00 Z0.5000
G00 X4.9761 Y16.2684
G01 F250.00
G01 Z-0.0500
G01 F350.00
G01 X2.0148 Y16.2684 F350.00
G01 X2.0034 Y16.0284 F350.00
G01 X4.9752 Y16.0284 F350.00
G01 X4.9752 Y15.7884 F350.00
G01 X1.9920 Y15.7884 F350.00
G01 X1.9805 Y15.5484 F350.00
G01 X4.9752 Y15.5484 F350.00
G00 Z0.5000
G00 X4.9768 Y15.3084
G01 F250.00
G01 Z-0.0500
G01 F350.00
G01 X1.9691 Y15.3084 F350.00
G01 X1.9577 Y15.0684 F350.00
G01 X5.0149 Y15.0684 F350.00
G00 Z0.5000
G00 X5.1208 Y14.8284
G01 F250.00
G01 Z-0.0500
G01 F350.00
G01 X1.9463 Y14.8284 F350.00
G01 X1.9349 Y14.5884 F350.00
G01 X5.3236 Y14.5884 F350.00
G00 Z0.5000
G00 X5.9230 Y14.3484
G01 F250.00
G01 Z-0.0500
G01 F350.00
G01 X1.9235 Y14.3484 F350.00
G01 X1.9121 Y14.1084 F350.00
G01 X9.8535 Y14.1084 F350.00
G01 X9.6135 Y13.8684 F350.00
G01 X1.9007 Y13.8684 F350.00
G01 X1.8893 Y13.6284 F350.00
G01 X9.3735 Y13.6284 F350.00
G01 X9.1335 Y13.3884 F350.00
G01 X1.8779 Y13.3884 F350.00
G01 X1.8664 Y13.1484 F350.00
G01 X8.8935 Y13.1484 F350.00
G01 X8.6535 Y12.9084 F350.00
G01 X1.8550 Y12.9084 F350.00
G01 X1.8436 Y12.6684 F350.00
G01 X8.4135 Y12.6684 F350.00
G01 X8.1735 Y12.4284 F350.00
G01 X1.8322 Y12.4284 F350.00
G01 X1.8208 Y12.1884 F350.00
G01 X7.9335 Y12.1884 F350.00
G00 Z0.5000
G00 X7.7102 Y11.9484
G01 F250.00
G01 Z-0.0500
G01 F350.00
G01 X1.8094 Y11.9484 F350.00
G01 X1.7980 Y11.7084 F350.00
G01 X7.5821 Y11.7084 F350.00
G00 Z0.5000
G00 X7.5287 Y11.4684
G01 F250.00
G01 Z-0.0500
G01 F350.00
G01 X1.7866 Y11.4684 F350.00
G01 X1.7752 Y11.2284 F350.00
G01 X7.5249 Y11.2284 F350.00
G01 X7.5249 Y10.9884 F350.00
G01 X1.7637 Y10.9884 F350.00
G01 X1.7523 Y10.7484 F350.00
G01 X7.5249 Y10.7484 F350.00
G01 X7.5249 Y10.5084 F350.00
G01 X1.7409 Y10.5084 F350.00
G01 X1.7295 Y10.2684 F350.00
G01 X7.5249 Y10.2684 F350.00
G01 X7.5249 Y10.0284 F350.00
G01 X1.7181 Y10.0284 F350.00
G00 Z0.5000
G00 X1.9502 Y4.5084
G01 F250.00
G01 Z-0.0500
G01 F350.00
G01 X20.8803 Y4.5084 F350.00
G01 X19.4612 Y4.2684 F350.00
G01 X2.0674 Y4.2684 F350.00
G01 X2.2113 Y4.0284 F350.00
G01 X18.0421 Y4.0284 F350.00
G01 X16.6230 Y3.7884 F350.00
G01 X2.3760 Y3.7884 F350.00
G01 X2.5619 Y3.5484 F350.00
G01 X15.2039 Y3.5484 F350.00
G01 X13.7848 Y3.3084 F350.00
G01 X2.7794 Y3.3084 F350.00
G00 Z0.5000
G00 X9.4256 Y9.3084
G01 F250.00
G01 Z-0.0500
G01 F350.00
G01 X11.9388 Y9.3084 F350.00
G00 Z0.5000
G00 X11.7053 Y9.5484
G01 F250.00
G01 Z-0.0500
G01 F350.00
G01 X9.4256 Y9.5484 F350.00
G01 X9.4256 Y9.7884 F350.00
G01 X11.5914 Y9.7884 F350.00
G00 Z0.5000
G00 X11.5516 Y10.0284
G01 F250.00
G01 Z-0.0500
G01 F350.00
G01 X9.4256 Y10.0284 F350.00
G01 X9.4256 Y10.2684 F350.00
G01 X11.5502 Y10.2684 F350.00
G01 X11.5502 Y10.5084 F350.00
G01 X9.4256 Y10.5084 F350.00
G01 X9.4256 Y10.7484 F350.00
G01 X11.5502 Y10.7484 F350.00
G01 X11.5289 Y10.9884 F350.00
G01 X9.4256 Y10.9884 F350.00
G01 X9.6616 Y11.2284 F350.00
G01 X11.2889 Y11.2284 F350.00
G01 X11.0489 Y11.4684 F350.00
G01 X9.9016 Y11.4684 F350.00
G01 X10.1416 Y11.7084 F350.00
G01 X10.8089 Y11.7084 F350.00
G01 X10.5689 Y11.9484 F350.00
G01 X10.3816 Y11.9484 F350.00
G00 Z0.5000
G00 X10.0935 Y14.3484
G01 F250.00
G01 Z-0.0500
G01 F350.00
G01 X8.5275 Y14.3484 F350.00
G00 Z0.5000
G00 X8.4230 Y14.3484
G01 F250.00
G01 Z-0.0500
G01 F350.00
G01 X6.0275 Y14.3484 F350.00
G00 Z0.5000
G00 X6.6269 Y14.5884
G01 F250.00
G01 Z-0.0500
G01 F350.00
G01 X7.8236 Y14.5884 F350.00
G00 Z0.5000
G00 X7.6208 Y14.8284
G01 F250.00
G01 Z-0.0500
G01 F350.00
G01 X6.8297 Y14.8284 F350.00
G00 Z0.5000
G00 X6.8389 Y16.7484
G01 F250.00
G01 Z-0.0500
G01 F350.00
G01 X7.6116 Y16.7484 F350.00
G00 Z0.5000
G00 X7.8066 Y16.9884
G01 F250.00
G01 Z-0.0500
G01 F350.00
G01 X6.6755 Y16.9884 F350.00
G01 X6.6755 Y17.2284 F350.00
G01 X7.4523 Y17.2284 F350.00
G00 Z0.5000
G00 X7.1516 Y17.4684
G01 F250.00
G01 Z-0.0500
G01 F350.00
G01 X6.6755 Y17.4684 F350.00
G01 X6.6755 Y17.7084 F350.00
G01 X6.9903 Y17.7084 F350.00
G00 Z0.5000
G00 X6.9044 Y17.9484
G01 F250.00
G01 Z-0.0500
G01 F350.00
G01 X6.6755 Y17.9484 F350.00
G01 X6.6755 Y18.1884 F350.00
G01 X6.8754 Y18.1884 F350.00
G00 Z0.5000
G00 X6.9006 Y18.4284
G01 F250.00
G01 Z-0.0500
G01 F350.00
G01 X6.6755 Y18.4284 F350.00
G01 X6.6755 Y18.6684 F350.00
G01 X6.9830 Y18.6684 F350.00
G00 Z0.5000
G00 X7.1377 Y18.9084
G01 F250.00
G01 Z-0.0500
G01 F350.00
G01 X6.6755 Y18.9084 F350.00
G01 X6.6755 Y19.1484 F350.00
G01 X7.4265 Y19.1484 F350.00
G01 X6.7004 Y19.8684 F350.00
G01 X6.6755 Y19.8684 F350.00
G00 Z0.5000
G00 X7.5355 Y22.2684
G01 F250.00
G01 Z-0.0500
G01 F350.00
G01 X2.3001 Y22.2684 F350.00
G01 X2.3115 Y22.5084 F350.00
G01 X7.1879 Y22.5084 F350.00
G01 X6.7896 Y22.7484 F350.00
G01 X2.3229 Y22.7484 F350.00
G01 X2.3343 Y22.9884 F350.00
G01 X6.2266 Y22.9884 F350.00
G00 Z0.5000
G00 X5.6678 Y23.2284
G01 F250.00
G01 Z-0.0500
G01 F350.00
G01 X2.3457 Y23.2284 F350.00
G01 X2.3571 Y23.4684 F350.00
G01 X5.3536 Y23.4684 F350.00
G00 Z0.5000
G00 X5.2035 Y23.7084
G01 F250.00
G01 Z-0.0500
G01 F350.00
G01 X2.3685 Y23.7084 F350.00
G01 X2.3799 Y23.9484 F350.00
G01 X5.1358 Y23.9484 F350.00
G00 Z0.5000
G00 X5.1290 Y23.9978
G01 F250.00
G01 Z-0.0500
G01 F350.00
G01 X5.1306 Y23.9832 F350.00
G01 X5.1397 Y23.9199 F350.00
G01 X5.1431 Y23.9006 F350.00
G01 X5.1605 Y23.8290 F350.00
G01 X5.1658 Y23.8102 F350.00
G01 X5.1901 Y23.7406 F350.00
G01 X5.1972 Y23.7224 F350.00
G01 X5.2303 Y23.6511 F350.00
G01 X5.2419 Y23.6295 F350.00
G01 X5.2796 Y23.5662 F350.00
G01 X5.2878 Y23.5540 F350.00
G01 X5.3285 Y23.4985 F350.00
G01 X5.3437 Y23.4794 F350.00
G01 X5.3896 Y23.4282 F350.00
G01 X5.4067 Y23.4106 F350.00
G01 X5.4648 Y23.3576 F350.00
G01 X5.4761 Y23.3483 F350.00
G01 X5.5351 Y23.3041 F350.00
G01 X5.5513 Y23.2932 F350.00
G01 X5.6186 Y23.2525 F350.00
G01 X5.6360 Y23.2435 F350.00
G01 X5.7025 Y23.2118 F350.00
G01 X7.0950 Y22.6182 F350.00
G01 X7.1189 Y22.5860 F350.00
G01 X7.1281 Y22.5745 F350.00
G01 X7.1906 Y22.5053 F350.00
G01 X7.2009 Y22.4948 F350.00
G01 X7.2774 Y22.4257 F350.00
G01 X7.3601 Y22.3642 F350.00
G01 X7.3724 Y22.3562 F350.00
G01 X7.4567 Y22.3059 F350.00
G01 X7.5453 Y22.2638 F350.00
G01 X7.5634 Y22.2563 F350.00
G01 X7.6466 Y22.2265 F350.00
G01 X7.6606 Y22.2220 F350.00
G01 X7.7606 Y22.1972 F350.00
G01 X7.8674 Y22.1813 F350.00
G01 X7.9752 Y22.1761 F350.00
G01 X8.0733 Y22.1806 F350.00
G01 X8.0879 Y22.1819 F350.00
G01 X8.1898 Y22.1972 F350.00
G01 X8.2851 Y22.2208 F350.00
G01 X8.2992 Y22.2249 F350.00
G01 X8.3870 Y22.2563 F350.00
G01 X8.4007 Y22.2617 F350.00
G01 X8.4894 Y22.3037 F350.00
G01 X8.4981 Y22.3083 F350.00
G01 X8.5272 Y22.3257 F350.00
G01 X10.9616 Y22.3257 F350.00
G01 X11.3809 Y21.9063 F350.00
G01 X11.3809 Y18.9325 F350.00
G01 X11.3735 Y18.9222 F350.00
G01 X11.3683 Y18.9139 F350.00
G01 X11.3115 Y18.8192 F350.00
G01 X11.3023 Y18.8019 F350.00
G01 X11.2511 Y18.6931 F350.00
G01 X11.2073 Y18.5707 F350.00
G01 X11.1778 Y18.4541 F350.00
G01 X11.1740 Y18.4349 F350.00
G01 X11.1566 Y18.3159 F350.00
G01 X11.1503 Y18.1910 F350.00
G01 X11.1505 Y18.1762 F350.00
G01 X11.1566 Y18.0562 F350.00
G01 X11.1740 Y17.9372 F350.00
G01 X11.1778 Y17.9180 F350.00
G01 X11.2073 Y17.8014 F350.00
G01 X11.2476 Y17.6882 F350.00
G01 X11.2551 Y17.6700 F350.00
G01 X11.3044 Y17.5658 F350.00
G01 X11.3115 Y17.5529 F350.00
G01 X11.3735 Y17.4499 F350.00
G01 X11.4449 Y17.3532 F350.00
G01 X11.4574 Y17.3380 F350.00
G01 X11.5383 Y17.2491 F350.00
G01 X11.6272 Y17.1682 F350.00
G01 X11.6424 Y17.1558 F350.00
G01 X11.7391 Y17.0844 F350.00
G01 X11.8506 Y17.0175 F350.00
G01 X11.9592 Y16.9659 F350.00
G01 X11.9773 Y16.9584 F350.00
G01 X12.0906 Y16.9181 F350.00
G01 X12.2072 Y16.8887 F350.00
G01 X12.2264 Y16.8848 F350.00
G01 X12.3454 Y16.8674 F350.00
G01 X12.4654 Y16.8613 F350.00
G01 X12.4850 Y16.8613 F350.00
G01 X12.6051 Y16.8674 F350.00
G01 X12.7241 Y16.8848 F350.00
G01 X12.7433 Y16.8887 F350.00
G01 X12.8599 Y16.9181 F350.00
G01 X12.9823 Y16.9619 F350.00
G01 X13.0911 Y17.0131 F350.00
G01 X13.1084 Y17.0223 F350.00
G01 X13.2114 Y17.0844 F350.00
G01 X13.3081 Y17.1558 F350.00
G01 X13.3232 Y17.1682 F350.00
G01 X13.4121 Y17.2491 F350.00
G01 X13.4931 Y17.3380 F350.00
G01 X13.5025 Y17.3493 F350.00
G01 X13.5769 Y17.4499 F350.00
G01 X13.6438 Y17.5615 F350.00
G01 X13.6994 Y17.6790 F350.00
G01 X13.7401 Y17.7921 F350.00
G01 X13.7458 Y17.8109 F350.00
G01 X13.7726 Y17.9180 F350.00
G01 X13.7764 Y17.9372 F350.00
G01 X13.7938 Y18.0562 F350.00
G01 X13.8000 Y18.1762 F350.00
G01 X13.8000 Y18.1959 F350.00
G01 X13.7938 Y18.3159 F350.00
G01 X13.7764 Y18.4349 F350.00
G01 X13.7726 Y18.4541 F350.00
G01 X13.7458 Y18.5612 F350.00
G01 X13.7401 Y18.5800 F350.00
G01 X13.6994 Y18.6931 F350.00
G01 X13.6460 Y18.8063 F350.00
G01 X13.6389 Y18.8192 F350.00
G01 X13.5769 Y18.9222 F350.00
G01 X13.5055 Y19.0189 F350.00
G01 X13.4963 Y19.0304 F350.00
G01 X13.4189 Y19.1159 F350.00
G01 X13.4086 Y19.1264 F350.00
G01 X13.3196 Y19.2071 F350.00
G01 X13.3081 Y19.2163 F350.00
G01 X13.2817 Y19.2359 F350.00
G01 X13.2817 Y22.3000 F350.00
G01 X13.2771 Y22.3932 F350.00
G01 X13.2651 Y22.4757 F350.00
G01 X13.2624 Y22.4902 F350.00
G01 X13.2433 Y22.5664 F350.00
G01 X13.2377 Y22.5852 F350.00
G01 X13.2093 Y22.6637 F350.00
G01 X13.1738 Y22.7392 F350.00
G01 X13.1646 Y22.7565 F350.00
G01 X13.1215 Y22.8280 F350.00
G01 X13.0720 Y22.8952 F350.00
G01 X13.0628 Y22.9067 F350.00
G01 X13.0033 Y22.9720 F350.00
G01 X12.0033 Y23.9720 F350.00
G01 X11.9416 Y24.0282 F350.00
G01 X11.9304 Y24.0377 F350.00
G01 X11.8593 Y24.0902 F350.00
G01 X11.7878 Y24.1333 F350.00
G01 X11.7705 Y24.1426 F350.00
G01 X11.6950 Y24.1780 F350.00
G01 X11.6072 Y24.2095 F350.00
G01 X11.5263 Y24.2300 F350.00
G01 X11.5070 Y24.2338 F350.00
G01 X11.4342 Y24.2446 F350.00
G01 X11.4146 Y24.2465 F350.00
G01 X11.3313 Y24.2504 F350.00
G01 X11.2430 Y24.2462 F350.00
G01 X11.2284 Y24.2446 F350.00
G01 X11.1507 Y24.2330 F350.00
G01 X11.1411 Y24.2311 F350.00
G01 X11.1222 Y24.2264 F350.00
G01 X8.5272 Y24.2264 F350.00
G01 X8.4981 Y24.2438 F350.00
G01 X8.4894 Y24.2484 F350.00
G01 X8.4052 Y24.2883 F350.00
G01 X8.3916 Y24.2941 F350.00
G01 X8.2945 Y24.3287 F350.00
G01 X8.1898 Y24.3549 F350.00
G01 X8.0830 Y24.3708 F350.00
G01 X7.9801 Y24.3760 F350.00
G01 X7.9654 Y24.3758 F350.00
G01 X7.8723 Y24.3712 F350.00
G01 X7.8625 Y24.3702 F350.00
G01 X7.8398 Y24.3669 F350.00
G01 X7.0912 Y24.6861 F350.00
G01 X7.2801 Y24.6861 F350.00
G01 X7.3831 Y24.6911 F350.00
G01 X7.4026 Y24.6930 F350.00
G01 X7.5093 Y24.7091 F350.00
G01 X7.6141 Y24.7351 F350.00
G01 X7.6329 Y24.7408 F350.00
G01 X7.7299 Y24.7756 F350.00
G01 X7.7434 Y24.7814 F350.00
G01 X7.8409 Y24.8277 F350.00
G01 X7.9336 Y24.8830 F350.00
G01 X7.9499 Y24.8939 F350.00
G01 X8.0365 Y24.9584 F350.00
G01 X8.1166 Y25.0308 F350.00
G01 X8.1305 Y25.0446 F350.00
G01 X8.1997 Y25.1210 F350.00
G01 X8.2089 Y25.1325 F350.00
G01 X8.2730 Y25.2194 F350.00
G01 X8.3287 Y25.3118 F350.00
G01 X8.3379 Y25.3291 F350.00
G01 X8.3839 Y25.4268 F350.00
G01 X8.4205 Y25.5284 F350.00
G01 X8.4262 Y25.5472 F350.00
G01 X8.4522 Y25.6519 F350.00
G01 X8.4682 Y25.7587 F350.00
G01 X8.4702 Y25.7782 F350.00
G01 X8.4752 Y25.8861 F350.00
G01 X8.4702 Y25.9939 F350.00
G01 X8.4682 Y26.0134 F350.00
G01 X8.4522 Y26.1202 F350.00
G01 X8.4262 Y26.2249 F350.00
G01 X8.4221 Y26.2391 F350.00
G01 X8.3839 Y26.3453 F350.00
G01 X8.3379 Y26.4430 F350.00
G01 X8.3287 Y26.4603 F350.00
G01 X8.2730 Y26.5527 F350.00
G01 X8.2089 Y26.6396 F350.00
G01 X8.1964 Y26.6548 F350.00
G01 X8.1305 Y26.7275 F350.00
G01 X8.1166 Y26.7413 F350.00
G01 X8.0365 Y26.8137 F350.00
G01 X7.9419 Y26.8838 F350.00
G01 X7.8409 Y26.9444 F350.00
G01 X7.7434 Y26.9907 F350.00
G01 X7.7299 Y26.9965 F350.00
G01 X7.6236 Y27.0344 F350.00
G01 X7.5189 Y27.0608 F350.00
G01 X7.4997 Y27.0647 F350.00
G01 X7.4026 Y27.0791 F350.00
G01 X7.3880 Y27.0807 F350.00
G01 X7.2752 Y27.0861 F350.00
G01 X6.2752 Y27.0861 F350.00
G01 X6.1674 Y27.0810 F350.00
G01 X6.1479 Y27.0791 F350.00
G01 X6.0411 Y27.0630 F350.00
G01 X5.9269 Y27.0344 F350.00
G01 X5.8252 Y26.9982 F350.00
G01 X5.8070 Y26.9907 F350.00
G01 X5.7096 Y26.9444 F350.00
G01 X5.6085 Y26.8838 F350.00
G01 X5.5217 Y26.8197 F350.00
G01 X5.5065 Y26.8073 F350.00
G01 X5.4267 Y26.7346 F350.00
G01 X5.3476 Y26.6473 F350.00
G01 X5.2775 Y26.5527 F350.00
G01 X5.2218 Y26.4603 F350.00
G01 X5.2125 Y26.4430 F350.00
G01 X5.1706 Y26.3542 F350.00
G01 X5.1630 Y26.3361 F350.00
G01 X5.1269 Y26.2344 F350.00
G01 X5.0983 Y26.1202 F350.00
G01 X5.0810 Y26.0037 F350.00
G01 X5.0753 Y25.8910 F350.00
G01 X5.0755 Y25.8762 F350.00
G01 X5.0810 Y25.7684 F350.00
G01 X5.0983 Y25.6519 F350.00
G01 X5.1269 Y25.5377 F350.00
G01 X5.1607 Y25.4426 F350.00
G01 X5.1431 Y25.3715 F350.00
G01 X5.1306 Y25.2889 F350.00
G01 X5.1287 Y25.2694 F350.00
G01 X5.1249 Y25.1910 F350.00
G01 X5.1249 Y24.0861 F350.00
G01 X5.1279 Y24.0124 F350.00
G01 X5.1290 Y23.9978 F350.00
G00 Z0.5000
G00 X5.1249 Y24.1884
G01 F250.00
G01 Z-0.0500
G01 F350.00
G01 X2.3913 Y24.1884 F350.00
G01 X2.4028 Y24.4284 F350.00
G01 X5.1249 Y24.4284 F350.00
G01 X5.1249 Y24.6684 F350.00
G01 X2.4142 Y24.6684 F350.00
G01 X2.4256 Y24.9084 F350.00
G01 X5.1249 Y24.9084 F350.00
G01 X5.1249 Y25.1484 F350.00
G01 X2.4370 Y25.1484 F350.00
G01 X2.4484 Y25.3884 F350.00
G01 X5.1471 Y25.3884 F350.00
G01 X5.1039 Y25.6284 F350.00
G01 X2.4598 Y25.6284 F350.00
G01 X2.4712 Y25.8684 F350.00
G01 X5.0759 Y25.8684 F350.00
G00 Z0.5000
G00 X5.0963 Y26.1084
G01 F250.00
G01 Z-0.0500
G01 F350.00
G01 X2.4828 Y26.1084 F350.00
G01 X2.5034 Y26.3484 F350.00
G01 X5.1679 Y26.3484 F350.00
G00 Z0.5000
G00 X5.3036 Y26.5884
G01 F250.00
G01 Z-0.0500
G01 F350.00
G01 X2.5390 Y26.5884 F350.00
G01 X2.5951 Y26.8284 F350.00
G01 X5.5334 Y26.8284 F350.00
G00 Z0.5000
G00 X6.0758 Y27.0684
G01 F250.00
G01 Z-0.0500
G01 F350.00
G01 X2.6636 Y27.0684 F350.00
G01 X2.7495 Y27.3084 F350.00
G01 X13.8450 Y27.3084 F350.00
G00 Z0.5000
G00 X13.5549 Y27.0684
G01 F250.00
G01 Z-0.0500
G01 F350.00
G01 X7.4747 Y27.0684 F350.00
G00 Z0.5000
G00 X8.0171 Y26.8284
G01 F250.00
G01 Z-0.0500
G01 F350.00
G01 X13.3603 Y26.8284 F350.00
G00 Z0.5000
G00 X13.2288 Y26.5884
G01 F250.00
G01 Z-0.0500
G01 F350.00
G01 X8.2469 Y26.5884 F350.00
G00 Z0.5000
G00 X8.3826 Y26.3484
G01 F250.00
G01 Z-0.0500
G01 F350.00
G01 X13.1404 Y26.3484 F350.00
G00 Z0.5000
G00 X13.0914 Y26.1084
G01 F250.00
G01 Z-0.0500
G01 F350.00
G01 X8.4542 Y26.1084 F350.00
G00 Z0.5000
G00 X8.4746 Y25.8684
G01 F250.00
G01 Z-0.0500
G01 F350.00
G01 X13.0759 Y25.8684 F350.00
G00 Z0.5000
G00 X13.0967 Y25.6284
G01 F250.00
G01 Z-0.0500
G01 F350.00
G01 X8.4465 Y25.6284 F350.00
G00 Z0.5000
G00 X8.3660 Y25.3884
G01 F250.00
G01 Z-0.0500
G01 F350.00
G01 X13.1498 Y25.3884 F350.00
G00 Z0.5000
G00 X13.2456 Y25.1484
G01 F250.00
G01 Z-0.0500
G01 F350.00
G01 X8.2206 Y25.1484 F350.00
G00 Z0.5000
G00 X7.9694 Y24.9084
G01 F250.00
G01 Z-0.0500
G01 F350.00
G01 X13.3861 Y24.9084 F350.00
G00 Z0.5000
G00 X13.5900 Y24.6684
G01 F250.00
G01 Z-0.0500
G01 F350.00
G01 X7.1327 Y24.6684 F350.00
G01 X7.6956 Y24.4284 F350.00
G01 X13.9040 Y24.4284 F350.00
G00 Z0.5000
G00 X14.7230 Y24.1884
G01 F250.00
G01 Z-0.0500
G01 F350.00
G01 X11.6668 Y24.1884 F350.00
G00 Z0.5000
G00 X11.0189 Y22.2684
G01 F250.00
G01 Z-0.0500
G01 F350.00
G01 X8.4149 Y22.2684 F350.00
G00 Z0.5000
G00 X8.7988 Y17.4684
G01 F250.00
G01 Z-0.0500
G01 F350.00
G01 X8.8906 Y17.4684 F350.00
G00 Z0.5000
G00 X8.6615 Y17.2284
G01 F250.00
G01 Z-0.0500
G01 F350.00
G01 X9.1306 Y17.2284 F350.00
G01 X9.1438 Y16.9884 F350.00
G01 X9.3706 Y16.9884 F350.00
G01 X9.3389 Y16.7484 F350.00
G01 X9.6106 Y16.7484 F350.00
G01 X9.4394 Y16.5084 F350.00
G01 X9.8506 Y16.5084 F350.00
G01 X10.0906 Y16.2684 F350.00
G01 X9.4744 Y16.2684 F350.00
G00 Z0.5000
G00 X9.4752 Y16.0284
G01 F250.00
G01 Z-0.0500
G01 F350.00
G01 X10.3306 Y16.0284 F350.00
G01 X10.5706 Y15.7884 F350.00
G01 X9.4752 Y15.7884 F350.00
G01 X9.4752 Y15.5484 F350.00
G01 X10.8106 Y15.5484 F350.00
G01 X11.0506 Y15.3084 F350.00
G01 X9.4736 Y15.3084 F350.00
G00 Z0.5000
G00 X9.4356 Y15.0684
G01 F250.00
G01 Z-0.0500
G01 F350.00
G01 X10.8135 Y15.0684 F350.00
G01 X10.5735 Y14.8284 F350.00
G01 X9.3297 Y14.8284 F350.00
G00 Z0.5000
G00 X9.1269 Y14.5884
G01 F250.00
G01 Z-0.0500
G01 F350.00
G01 X10.3335 Y14.5884 F350.00
G00 Z0.5000
G00 X12.0712 Y16.2684
G01 F250.00
G01 Z-0.0500
G01 F350.00
G01 X14.6309 Y16.2684 F350.00
G01 X14.6309 Y16.0284 F350.00
G01 X12.3112 Y16.0284 F350.00
G01 X11.8312 Y16.5084 F350.00
G01 X14.6309 Y16.5084 F350.00
G00 Z0.5000
G00 X16.5317 Y16.5084
G01 F250.00
G01 Z-0.0500
G01 F350.00
G01 X18.5546 Y16.5084 F350.00
G00 Z0.5000
G00 X18.2673 Y16.2684
G01 F250.00
G01 Z-0.0500
G01 F350.00
G01 X16.5317 Y16.2684 F350.00
G01 X16.5317 Y16.0284 F350.00
G01 X18.0273 Y16.0284 F350.00
G01 X17.7873 Y15.7884 F350.00
G01 X16.5317 Y15.7884 F350.00
G00 Z0.5000
G00 X16.5297 Y15.5484
G01 F250.00
G01 Z-0.0500
G01 F350.00
G01 X17.5473 Y15.5484 F350.00
G01 X17.3073 Y15.3084 F350.00
G01 X16.4882 Y15.3084 F350.00
G00 Z0.5000
G00 X16.3743 Y15.0684
G01 F250.00
G01 Z-0.0500
G01 F350.00
G01 X17.0673 Y15.0684 F350.00
G01 X16.8273 Y14.8284 F350.00
G01 X16.1616 Y14.8284 F350.00
G01 X15.9216 Y14.5884 F350.00
G01 X16.5873 Y14.5884 F350.00
G01 X16.3473 Y14.3484 F350.00
G01 X15.6789 Y14.3484 F350.00
G01 X16.1073 Y14.1084 F350.00
G01 X15.1621 Y14.1084 F350.00
G01 X15.6273 Y13.6284 F350.00
G01 X13.1755 Y13.6284 F350.00
G01 X13.1755 Y13.8684 F350.00
G01 X15.8673 Y13.8684 F350.00
G01 X15.3873 Y13.3884 F350.00
G01 X14.9759 Y13.3884 F350.00
G00 Z0.5000
G00 X15.1931 Y13.1943
G01 F250.00
G01 Z-0.0500
G01 F350.00
G01 X15.1839 Y13.2053 F350.00
G01 X15.1361 Y13.2580 F350.00
G01 X15.1222 Y13.2719 F350.00
G01 X15.0620 Y13.3261 F350.00
G01 X14.9891 Y13.3802 F350.00
G01 X14.9198 Y13.4220 F350.00
G01 X14.9025 Y13.4312 F350.00
G01 X14.8292 Y13.4656 F350.00
G01 X14.7531 Y13.4931 F350.00
G01 X14.7343 Y13.4988 F350.00
G01 X14.6653 Y13.5161 F350.00
G01 X14.6460 Y13.5200 F350.00
G01 X14.5659 Y13.5316 F350.00
G01 X14.4850 Y13.5358 F350.00
G01 X14.4654 Y13.5358 F350.00
G01 X14.3846 Y13.5316 F350.00
G01 X14.3044 Y13.5200 F350.00
G01 X14.2852 Y13.5161 F350.00
G01 X14.2067 Y13.4962 F350.00
G01 X14.1304 Y13.4692 F350.00
G01 X14.1123 Y13.4617 F350.00
G01 X14.0392 Y13.4268 F350.00
G01 X13.9613 Y13.3802 F350.00
G01 X13.8962 Y13.3321 F350.00
G01 X13.8810 Y13.3197 F350.00
G01 X13.8212 Y13.2651 F350.00
G01 X13.7666 Y13.2053 F350.00
G01 X13.7542 Y13.1901 F350.00
G01 X13.7061 Y13.1250 F350.00
G01 X13.6595 Y13.0471 F350.00
G01 X13.6246 Y12.9740 F350.00
G01 X13.6171 Y12.9559 F350.00
G01 X13.5901 Y12.8796 F350.00
G01 X13.5690 Y12.7963 F350.00
G01 X13.5663 Y12.7818 F350.00
G01 X13.5547 Y12.7017 F350.00
G01 X13.5502 Y12.6111 F350.00
G01 X13.5502 Y10.0611 F350.00
G01 X13.5547 Y9.9704 F350.00
G01 X13.5680 Y9.8806 F350.00
G01 X13.5901 Y9.7925 F350.00
G01 X13.6171 Y9.7162 F350.00
G01 X13.6246 Y9.6981 F350.00
G01 X13.6595 Y9.6250 F350.00
G01 X13.7061 Y9.5471 F350.00
G01 X13.7542 Y9.4820 F350.00
G01 X13.7666 Y9.4668 F350.00
G01 X13.8212 Y9.4070 F350.00
G01 X13.8810 Y9.3524 F350.00
G01 X13.8962 Y9.3400 F350.00
G01 X13.9613 Y9.2919 F350.00
G01 X14.0392 Y9.2453 F350.00
G01 X14.1123 Y9.2104 F350.00
G01 X14.1304 Y9.2029 F350.00
G01 X14.2067 Y9.1759 F350.00
G01 X14.2900 Y9.1548 F350.00
G01 X14.3044 Y9.1521 F350.00
G01 X14.3748 Y9.1417 F350.00
G01 X14.3944 Y9.1398 F350.00
G01 X14.4752 Y9.1361 F350.00
G01 X14.5659 Y9.1405 F350.00
G01 X14.6557 Y9.1538 F350.00
G01 X14.7343 Y9.1733 F350.00
G01 X14.7531 Y9.1790 F350.00
G01 X14.8201 Y9.2029 F350.00
G01 X14.8382 Y9.2104 F350.00
G01 X14.9113 Y9.2453 F350.00
G01 X14.9891 Y9.2919 F350.00
G01 X15.0620 Y9.3460 F350.00
G01 X15.1222 Y9.4002 F350.00
G01 X15.1361 Y9.4141 F350.00
G01 X15.1839 Y9.4668 F350.00
G01 X15.1963 Y9.4820 F350.00
G01 X15.2443 Y9.5471 F350.00
G01 X15.2862 Y9.6165 F350.00
G01 X15.2933 Y9.6294 F350.00
G01 X15.3298 Y9.7071 F350.00
G01 X15.3604 Y9.7925 F350.00
G01 X15.3825 Y9.8806 F350.00
G01 X15.3946 Y9.9606 F350.00
G01 X15.3965 Y9.9802 F350.00
G01 X15.4002 Y10.0611 F350.00
G01 X15.4002 Y11.4207 F350.00
G01 X19.1653 Y15.1858 F350.00
G01 X20.4752 Y15.1858 F350.00
G01 X20.5341 Y15.1885 F350.00
G01 X20.5536 Y15.1904 F350.00
G01 X20.6118 Y15.1993 F350.00
G01 X20.6785 Y15.2160 F350.00
G01 X20.7432 Y15.2391 F350.00
G01 X20.7966 Y15.2641 F350.00
G01 X20.8139 Y15.2733 F350.00
G01 X20.8643 Y15.3038 F350.00
G01 X20.9117 Y15.3387 F350.00
G01 X20.9269 Y15.3512 F350.00
G01 X20.9704 Y15.3909 F350.00
G01 X23.0152 Y17.4357 F350.00
G01 X25.8801 Y17.4357 F350.00
G01 X25.9684 Y17.4403 F350.00
G01 X26.0558 Y17.4530 F350.00
G01 X26.0702 Y17.4561 F350.00
G01 X26.1464 Y17.4752 F350.00
G01 X26.1558 Y17.4781 F350.00
G01 X26.1782 Y17.4861 F350.00
G01 X26.4301 Y17.4861 F350.00
G01 X26.5037 Y17.4897 F350.00
G01 X26.5183 Y17.4909 F350.00
G01 X26.6008 Y17.5033 F350.00
G01 X26.6770 Y17.5222 F350.00
G01 X26.6958 Y17.5279 F350.00
G01 X26.7605 Y17.5510 F350.00
G01 X26.7742 Y17.5565 F350.00
G01 X26.8495 Y17.5923 F350.00
G01 X26.9252 Y17.6377 F350.00
G01 X26.9962 Y17.6903 F350.00
G01 X27.0616 Y17.7497 F350.00
G01 X27.1209 Y17.8151 F350.00
G01 X27.1736 Y17.8860 F350.00
G01 X27.2190 Y17.9618 F350.00
G01 X27.2567 Y18.0416 F350.00
G01 X27.2865 Y18.1248 F350.00
G01 X27.3079 Y18.2105 F350.00
G01 X27.3209 Y18.2978 F350.00
G01 X27.3252 Y18.3861 F350.00
G01 X27.3209 Y18.4743 F350.00
G01 X27.3079 Y18.5616 F350.00
G01 X27.2865 Y18.6473 F350.00
G01 X27.2603 Y18.7213 F350.00
G01 X27.2527 Y18.7394 F350.00
G01 X27.2190 Y18.8103 F350.00
G01 X27.1788 Y18.8778 F350.00
G01 X27.1679 Y18.8941 F350.00
G01 X27.1209 Y18.9570 F350.00
G01 X27.0684 Y19.0153 F350.00
G01 X27.0545 Y19.0292 F350.00
G01 X26.9962 Y19.0818 F350.00
G01 X26.9333 Y19.1287 F350.00
G01 X26.9169 Y19.1396 F350.00
G01 X26.8495 Y19.1798 F350.00
G01 X26.7786 Y19.2136 F350.00
G01 X26.7605 Y19.2211 F350.00
G01 X26.6865 Y19.2473 F350.00
G01 X26.6104 Y19.2666 F350.00
G01 X26.5911 Y19.2704 F350.00
G01 X26.5183 Y19.2812 F350.00
G01 X26.5037 Y19.2824 F350.00
G01 X26.4301 Y19.2860 F350.00
G01 X26.1782 Y19.2861 F350.00
G01 X26.1558 Y19.2940 F350.00
G01 X26.1464 Y19.2969 F350.00
G01 X26.0702 Y19.3160 F350.00
G01 X26.0558 Y19.3191 F350.00
G01 X25.9684 Y19.3318 F350.00
G01 X25.8801 Y19.3364 F350.00
G01 X22.9752 Y19.3364 F350.00
G01 X22.8821 Y19.3318 F350.00
G01 X22.7898 Y19.3182 F350.00
G01 X22.6993 Y19.2955 F350.00
G01 X22.6207 Y19.2676 F350.00
G01 X22.6026 Y19.2601 F350.00
G01 X22.5272 Y19.2242 F350.00
G01 X22.4555 Y19.1815 F350.00
G01 X22.4392 Y19.1706 F350.00
G01 X22.3723 Y19.1207 F350.00
G01 X22.3103 Y19.0648 F350.00
G01 X22.2964 Y19.0510 F350.00
G01 X22.2406 Y18.9890 F350.00
G01 X22.1878 Y18.9181 F350.00
G01 X22.1798 Y18.9058 F350.00
G01 X22.1419 Y18.8426 F350.00
G01 X22.1327 Y18.8253 F350.00
G01 X22.0972 Y18.7497 F350.00
G01 X22.0673 Y18.6666 F350.00
G01 X22.0632 Y18.6525 F350.00
G01 X22.0453 Y18.5810 F350.00
G01 X22.0422 Y18.5666 F350.00
G01 X22.0300 Y18.4841 F350.00
G01 X22.0287 Y18.4694 F350.00
G01 X22.0267 Y18.4278 F350.00
G01 X20.1852 Y16.5863 F350.00
G01 X18.8752 Y16.5863 F350.00
G01 X18.8115 Y16.5834 F350.00
G01 X18.7968 Y16.5817 F350.00
G01 X18.7386 Y16.5728 F350.00
G01 X18.6814 Y16.5588 F350.00
G01 X18.6626 Y16.5531 F350.00
G01 X18.6073 Y16.5330 F350.00
G01 X18.5539 Y16.5080 F350.00
G01 X18.5366 Y16.4988 F350.00
G01 X18.4862 Y16.4683 F350.00
G01 X18.4310 Y16.4274 F350.00
G01 X18.3801 Y16.3812 F350.00
G01 X15.1931 Y13.1943 F350.00
G00 Z0.5000
G00 X13.9746 Y13.3884
G01 F250.00
G01 Z-0.0500
G01 F350.00
G01 X13.1755 Y13.3884 F350.00
G01 X13.2273 Y13.1484 F350.00
G01 X13.7232 Y13.1484 F350.00
G00 Z0.5000
G00 X13.6001 Y12.9084
G01 F250.00
G01 Z-0.0500
G01 F350.00
G01 X13.3503 Y12.9084 F350.00
G00 Z0.5000
G00 X13.3977 Y12.6684
G01 F250.00
G01 Z-0.0500
G01 F350.00
G01 X13.5528 Y12.6684 F350.00
G00 Z0.5000
G00 X13.5502 Y12.4284
G01 F250.00
G01 Z-0.0500
G01 F350.00
G01 X13.4002 Y12.4284 F350.00
G01 X13.4002 Y12.1884 F350.00
G01 X13.5502 Y12.1884 F350.00
G01 X13.5502 Y11.9484 F350.00
G01 X13.4002 Y11.9484 F350.00
G01 X13.4002 Y11.7084 F350.00
G01 X13.5502 Y11.7084 F350.00
G01 X13.5502 Y11.4684 F350.00
G01 X13.4218 Y11.4684 F350.00
G00 Z0.5000
G00 X13.4117 Y11.2284
G01 F250.00
G01 Z-0.0500
G01 F350.00
G01 X13.5502 Y11.2284 F350.00
G01 X13.5502 Y10.9884 F350.00
G01 X13.4002 Y10.9884 F350.00
G01 X13.4002 Y10.7484 F350.00
G01 X13.5502 Y10.7484 F350.00
G01 X13.5502 Y10.5084 F350.00
G01 X13.4002 Y10.5084 F350.00
G01 X13.4002 Y10.2684 F350.00
G01 X13.5502 Y10.2684 F350.00
G00 Z0.5000
G00 X13.5516 Y10.0284
G01 F250.00
G01 Z-0.0500
G01 F350.00
G01 X13.3989 Y10.0284 F350.00
G00 Z0.5000
G00 X13.3591 Y9.7884
G01 F250.00
G01 Z-0.0500
G01 F350.00
G01 X13.5914 Y9.7884 F350.00
G00 Z0.5000
G00 X13.7053 Y9.5484
G01 F250.00
G01 Z-0.0500
G01 F350.00
G01 X13.2451 Y9.5484 F350.00
G00 Z0.5000
G00 X13.0117 Y9.3084
G01 F250.00
G01 Z-0.0500
G01 F350.00
G01 X13.9388 Y9.3084 F350.00
G00 Z0.5000
G00 X17.3979 Y9.0684
G01 F250.00
G01 Z-0.0500
G01 F350.00
G01 X22.3810 Y9.0684 F350.00
G01 X22.3810 Y9.3084 F350.00
G01 X21.2117 Y9.3084 F350.00
G00 Z0.5000
G00 X21.4451 Y9.5484
G01 F250.00
G01 Z-0.0500
G01 F350.00
G01 X22.3810 Y9.5484 F350.00
G01 X22.3810 Y9.7884 F350.00
G01 X21.5591 Y9.7884 F350.00
G00 Z0.5000
G00 X21.5989 Y10.0284
G01 F250.00
G01 Z-0.0500
G01 F350.00
G01 X22.3810 Y10.0284 F350.00
G01 X22.3810 Y10.2684 F350.00
G01 X21.6002 Y10.2684 F350.00
G01 X21.6002 Y10.5084 F350.00
G01 X22.3810 Y10.5084 F350.00
G01 X22.2771 Y10.7484 F350.00
G01 X21.6002 Y10.7484 F350.00
G01 X21.6002 Y10.9884 F350.00
G01 X22.1950 Y10.9884 F350.00
G00 Z0.5000
G00 X22.1752 Y11.2284
G01 F250.00
G01 Z-0.0500
G01 F350.00
G01 X21.6002 Y11.2284 F350.00
G01 X21.6002 Y11.4684 F350.00
G01 X22.1752 Y11.4684 F350.00
G01 X22.1752 Y11.7084 F350.00
G01 X21.6002 Y11.7084 F350.00
G01 X21.6002 Y11.9484 F350.00
G01 X22.1752 Y11.9484 F350.00
G01 X22.1752 Y12.1884 F350.00
G01 X21.6002 Y12.1884 F350.00
G01 X21.6002 Y12.4284 F350.00
G01 X22.1752 Y12.4284 F350.00
G00 Z0.5000
G00 X22.1790 Y12.6684
G01 F250.00
G01 Z-0.0500
G01 F350.00
G01 X21.5977 Y12.6684 F350.00
G01 X21.6879 Y12.9084 F350.00
G01 X22.2295 Y12.9084 F350.00
G00 Z0.5000
G00 X22.3485 Y13.1484
G01 F250.00
G01 Z-0.0500
G01 F350.00
G01 X21.9279 Y13.1484 F350.00
G01 X22.1679 Y13.3884 F350.00
G01 X22.5800 Y13.3884 F350.00
G01 X22.4079 Y13.6284 F350.00
G01 X27.4249 Y13.6284 F350.00
G01 X27.4249 Y13.3884 F350.00
G01 X23.7705 Y13.3884 F350.00
G00 Z0.5000
G00 X24.0020 Y13.1484
G01 F250.00
G01 Z-0.0500
G01 F350.00
G01 X27.3485 Y13.1484 F350.00
G00 Z0.5000
G00 X27.2295 Y12.9084
G01 F250.00
G01 Z-0.0500
G01 F350.00
G01 X24.1210 Y12.9084 F350.00
G00 Z0.5000
G00 X24.1714 Y12.6684
G01 F250.00
G01 Z-0.0500
G01 F350.00
G01 X27.1790 Y12.6684 F350.00
G00 Z0.5000
G00 X27.1752 Y12.4284
G01 F250.00
G01 Z-0.0500
G01 F350.00
G01 X24.1752 Y12.4284 F350.00
G01 X24.1752 Y12.1884 F350.00
G01 X27.1752 Y12.1884 F350.00
G01 X27.1752 Y11.9484 F350.00
G01 X24.1752 Y11.9484 F350.00
G01 X24.1752 Y11.7084 F350.00
G01 X27.1752 Y11.7084 F350.00
G01 X27.1752 Y11.4684 F350.00
G01 X24.1752 Y11.4684 F350.00
G01 X24.1752 Y11.2284 F350.00
G01 X27.1752 Y11.2284 F350.00
G00 Z0.5000
G00 X27.1950 Y10.9884
G01 F250.00
G01 Z-0.0500
G01 F350.00
G01 X24.1555 Y10.9884 F350.00
G00 Z0.5000
G00 X24.0734 Y10.7484
G01 F250.00
G01 Z-0.0500
G01 F350.00
G01 X27.2771 Y10.7484 F350.00
G00 Z0.5000
G00 X27.4411 Y10.5084
G01 F250.00
G01 Z-0.0500
G01 F350.00
G01 X23.9093 Y10.5084 F350.00
G01 X23.7815 Y10.2684 F350.00
G01 X27.7789 Y10.2684 F350.00
G00 Z0.5000
G00 X28.5716 Y10.2684
G01 F250.00
G01 Z-0.0500
G01 F350.00
G01 X31.6556 Y10.2684 F350.00
G01 X31.7116 Y10.5084 F350.00
G01 X28.9093 Y10.5084 F350.00
G00 Z0.5000
G00 X29.0734 Y10.7484
G01 F250.00
G01 Z-0.0500
G01 F350.00
G01 X31.7515 Y10.7484 F350.00
G01 X31.7914 Y10.9884 F350.00
G01 X29.1555 Y10.9884 F350.00
G00 Z0.5000
G00 X29.1752 Y11.2284
G01 F250.00
G01 Z-0.0500
G01 F350.00
G01 X31.8313 Y11.2284 F350.00
G01 X31.8713 Y11.4684 F350.00
G01 X29.1752 Y11.4684 F350.00
G01 X29.2469 Y11.7084 F350.00
G01 X31.9075 Y11.7084 F350.00
G01 X31.9222 Y11.9484 F350.00
G01 X29.3147 Y11.9484 F350.00
G00 Z0.5000
G00 X29.3256 Y12.1884
G01 F250.00
G01 Z-0.0500
G01 F350.00
G01 X31.9256 Y12.1884 F350.00
G01 X31.9256 Y12.4284 F350.00
G01 X29.3256 Y12.4284 F350.00
G01 X29.3256 Y12.6684 F350.00
G01 X31.9256 Y12.6684 F350.00
G01 X31.9256 Y12.9084 F350.00
G01 X29.3256 Y12.9084 F350.00
G01 X29.3256 Y13.1484 F350.00
G01 X31.9256 Y13.1484 F350.00
G01 X31.9256 Y13.3884 F350.00
G01 X29.3256 Y13.3884 F350.00
G01 X29.3256 Y13.6284 F350.00
G01 X31.9256 Y13.6284 F350.00
G01 X31.9256 Y13.8684 F350.00
G01 X29.3256 Y13.8684 F350.00
G01 X29.3256 Y14.1084 F350.00
G01 X31.9256 Y14.1084 F350.00
G01 X31.9256 Y14.3484 F350.00
G01 X29.3256 Y14.3484 F350.00
G01 X29.3256 Y14.5884 F350.00
G01 X31.9256 Y14.5884 F350.00
G01 X31.9256 Y14.8284 F350.00
G01 X29.3256 Y14.8284 F350.00
G01 X29.3256 Y15.0684 F350.00
G01 X31.9256 Y15.0684 F350.00
G01 X31.9256 Y15.3084 F350.00
G01 X29.3256 Y15.3084 F350.00
G01 X29.3256 Y15.5484 F350.00
G01 X31.9256 Y15.5484 F350.00
G01 X31.9256 Y15.7884 F350.00
G01 X29.3256 Y15.7884 F350.00
G01 X29.3256 Y16.0284 F350.00
G01 X31.9256 Y16.0284 F350.00
G01 X31.9256 Y16.2684 F350.00
G01 X29.3256 Y16.2684 F350.00
G01 X29.3256 Y16.5084 F350.00
G01 X31.9256 Y16.5084 F350.00
G01 X31.9256 Y16.7484 F350.00
G01 X29.3256 Y16.7484 F350.00
G01 X29.3256 Y16.9884 F350.00
G01 X31.9256 Y16.9884 F350.00
G01 X31.9256 Y17.2284 F350.00
G01 X29.3256 Y17.2284 F350.00
G01 X29.3256 Y17.4684 F350.00
G01 X31.9256 Y17.4684 F350.00
G01 X31.9256 Y17.7084 F350.00
G01 X29.3256 Y17.7084 F350.00
G01 X29.3256 Y17.9484 F350.00
G01 X31.9256 Y17.9484 F350.00
G01 X31.9256 Y18.1884 F350.00
G01 X29.3256 Y18.1884 F350.00
G01 X29.3256 Y18.4284 F350.00
G01 X31.9256 Y18.4284 F350.00
G01 X31.9256 Y18.6684 F350.00
G01 X29.3256 Y18.6684 F350.00
G01 X29.3256 Y18.9084 F350.00
G01 X31.9256 Y18.9084 F350.00
G01 X31.9256 Y19.1484 F350.00
G01 X29.3256 Y19.1484 F350.00
G01 X29.3256 Y19.3884 F350.00
G01 X31.9256 Y19.3884 F350.00
G01 X31.9256 Y19.6284 F350.00
G01 X29.3256 Y19.6284 F350.00
G01 X29.3256 Y19.8684 F350.00
G01 X31.9256 Y19.8684 F350.00
G01 X31.9256 Y20.1084 F350.00
G01 X29.3256 Y20.1084 F350.00
G01 X29.3256 Y20.3484 F350.00
G01 X31.9256 Y20.3484 F350.00
G01 X31.9256 Y20.5884 F350.00
G01 X29.3256 Y20.5884 F350.00
G01 X29.3256 Y20.8284 F350.00
G01 X31.9256 Y20.8284 F350.00
G01 X31.9256 Y21.0684 F350.00
G01 X29.3256 Y21.0684 F350.00
G01 X29.3256 Y21.3084 F350.00
G01 X31.9256 Y21.3084 F350.00
G01 X31.9256 Y21.5484 F350.00
G01 X29.3256 Y21.5484 F350.00
G00 Z0.5000
G00 X29.3209 Y21.7884
G01 F250.00
G01 Z-0.0500
G01 F350.00
G01 X31.9243 Y21.7884 F350.00
G01 X31.9125 Y22.0284 F350.00
G01 X29.2639 Y22.0284 F350.00
G00 Z0.5000
G00 X29.1312 Y22.2684
G01 F250.00
G01 Z-0.0500
G01 F350.00
G01 X31.8783 Y22.2684 F350.00
G01 X31.8303 Y22.5084 F350.00
G01 X28.9047 Y22.5084 F350.00
G01 X28.6647 Y22.7484 F350.00
G01 X31.7677 Y22.7484 F350.00
G01 X31.6818 Y22.9884 F350.00
G01 X28.4247 Y22.9884 F350.00
G01 X28.1847 Y23.2284 F350.00
G01 X31.5759 Y23.2284 F350.00
G01 X31.4498 Y23.4684 F350.00
G01 X27.9447 Y23.4684 F350.00
G00 Z0.5000
G00 X27.6809 Y23.7084
G01 F250.00
G01 Z-0.0500
G01 F350.00
G01 X31.3002 Y23.7084 F350.00
G01 X31.1222 Y23.9484 F350.00
G01 X24.4569 Y23.9484 F350.00
G01 X24.2169 Y24.1884 F350.00
G01 X30.9016 Y24.1884 F350.00
G01 X30.6616 Y24.4284 F350.00
G01 X23.9769 Y24.4284 F350.00
G01 X23.7369 Y24.6684 F350.00
G01 X30.4216 Y24.6684 F350.00
G01 X30.1816 Y24.9084 F350.00
G01 X23.4969 Y24.9084 F350.00
G01 X23.3005 Y25.1484 F350.00
G01 X29.9416 Y25.1484 F350.00
G01 X29.7016 Y25.3884 F350.00
G01 X23.2106 Y25.3884 F350.00
G00 Z0.5000
G00 X23.0405 Y25.6284
G01 F250.00
G01 Z-0.0500
G01 F350.00
G01 X29.4465 Y25.6284 F350.00
G01 X29.1331 Y25.8684 F350.00
G01 X22.9049 Y25.8684 F350.00
G00 Z0.5000
G00 X22.6681 Y26.1084
G01 F250.00
G01 Z-0.0500
G01 F350.00
G01 X28.7280 Y26.1084 F350.00
G01 X28.3104 Y26.3484 F350.00
G01 X22.4281 Y26.3484 F350.00
G01 X22.1881 Y26.5884 F350.00
G01 X27.8928 Y26.5884 F350.00
G01 X27.4752 Y26.8284 F350.00
G01 X21.9481 Y26.8284 F350.00
G01 X21.7081 Y27.0684 F350.00
G01 X27.0576 Y27.0684 F350.00
G01 X26.6400 Y27.3084 F350.00
G01 X21.4207 Y27.3084 F350.00
G01 X22.4274 Y29.7084 F350.00
G01 X6.5558 Y29.7084 F350.00
G01 X5.0111 Y29.4684 F350.00
G01 X22.8816 Y29.4684 F350.00
G01 X23.2992 Y29.2284 F350.00
G01 X4.4624 Y29.2284 F350.00
G01 X4.0812 Y28.9884 F350.00
G01 X23.7168 Y28.9884 F350.00
G01 X24.1344 Y28.7484 F350.00
G01 X3.7766 Y28.7484 F350.00
G01 X3.5250 Y28.5084 F350.00
G01 X24.5520 Y28.5084 F350.00
G01 X24.9696 Y28.2684 F350.00
G01 X3.3125 Y28.2684 F350.00
G01 X3.1346 Y28.0284 F350.00
G01 X25.3872 Y28.0284 F350.00
G01 X25.8048 Y27.7884 F350.00
G01 X2.9865 Y27.7884 F350.00
G01 X2.8592 Y27.5484 F350.00
G01 X14.4226 Y27.5484 F350.00
G00 Z0.5000
G00 X15.1279 Y27.5484
G01 F250.00
G01 Z-0.0500
G01 F350.00
G01 X26.2224 Y27.5484 F350.00
G00 Z0.5000
G00 X21.5951 Y29.9484
G01 F250.00
G01 Z-0.0500
G01 F350.00
G01 X10.6319 Y29.9484 F350.00
G00 Z0.5000
G00 X15.5747 Y27.3863
G01 F250.00
G01 Z-0.0500
G01 F350.00
G01 X15.4258 Y27.4566 F350.00
G01 X15.2687 Y27.5128 F350.00
G01 X15.1069 Y27.5534 F350.00
G01 X14.9419 Y27.5779 F350.00
G01 X14.7752 Y27.5861 F350.00
G01 X14.6086 Y27.5779 F350.00
G01 X14.4436 Y27.5534 F350.00
G01 X14.2817 Y27.5128 F350.00
G01 X14.1247 Y27.4566 F350.00
G01 X13.9739 Y27.3853 F350.00
G01 X13.8308 Y27.2995 F350.00
G01 X13.6968 Y27.2002 F350.00
G01 X13.5731 Y27.0881 F350.00
G01 X13.4611 Y26.9645 F350.00
G01 X13.3617 Y26.8305 F350.00
G01 X13.2760 Y26.6874 F350.00
G01 X13.2046 Y26.5366 F350.00
G01 X13.1484 Y26.3795 F350.00
G01 X13.1079 Y26.2177 F350.00
G01 X13.0834 Y26.0527 F350.00
G01 X13.0752 Y25.8861 F350.00
G01 X13.0834 Y25.7194 F350.00
G01 X13.1079 Y25.5544 F350.00
G01 X13.1484 Y25.3926 F350.00
G01 X13.2046 Y25.2355 F350.00
G01 X13.2760 Y25.0847 F350.00
G01 X13.3617 Y24.9416 F350.00
G01 X13.4611 Y24.8076 F350.00
G01 X13.5731 Y24.6840 F350.00
G01 X13.6968 Y24.5719 F350.00
G01 X13.8308 Y24.4726 F350.00
G01 X13.9739 Y24.3868 F350.00
G01 X14.1157 Y24.3194 F350.00
G01 X14.1338 Y24.3119 F350.00
G01 X14.2817 Y24.2593 F350.00
G01 X14.4340 Y24.2209 F350.00
G01 X14.4532 Y24.2170 F350.00
G01 X14.6086 Y24.1942 F350.00
G01 X14.7654 Y24.1863 F350.00
G01 X14.7850 Y24.1863 F350.00
G01 X14.9419 Y24.1942 F350.00
G01 X15.0972 Y24.2170 F350.00
G01 X15.1165 Y24.2209 F350.00
G01 X15.2687 Y24.2593 F350.00
G01 X15.4166 Y24.3119 F350.00
G01 X15.4348 Y24.3194 F350.00
G01 X15.5766 Y24.3868 F350.00
G01 X15.7156 Y24.4699 F350.00
G01 X15.7277 Y24.4782 F350.00
G01 X15.8537 Y24.5719 F350.00
G01 X15.9702 Y24.6772 F350.00
G01 X15.9841 Y24.6911 F350.00
G01 X16.0893 Y24.8076 F350.00
G01 X16.1831 Y24.9336 F350.00
G01 X16.1940 Y24.9499 F350.00
G01 X16.2697 Y25.0761 F350.00
G01 X16.2768 Y25.0890 F350.00
G01 X16.3418 Y25.2265 F350.00
G01 X16.3494 Y25.2446 F350.00
G01 X16.4020 Y25.3926 F350.00
G01 X16.4415 Y25.5496 F350.00
G01 X16.4442 Y25.5641 F350.00
G01 X16.4658 Y25.7097 F350.00
G01 X16.4675 Y25.7243 F350.00
G01 X16.4752 Y25.8861 F350.00
G01 X16.4706 Y25.9858 F350.00
G01 X20.8100 Y25.9858 F350.00
G01 X21.4972 Y25.2987 F350.00
G01 X21.4661 Y25.2118 F350.00
G01 X21.4435 Y25.1214 F350.00
G01 X21.4298 Y25.0292 F350.00
G01 X21.4253 Y24.9410 F350.00
G01 X21.4252 Y24.6986 F350.00
G01 X21.4249 Y24.6861 F350.00
G01 X21.4249 Y23.1797 F350.00
G01 X19.3032 Y21.0581 F350.00
G01 X19.2406 Y20.9890 F350.00
G01 X19.1878 Y20.9181 F350.00
G01 X19.1798 Y20.9058 F350.00
G01 X19.1371 Y20.8341 F350.00
G01 X19.1012 Y20.7587 F350.00
G01 X19.0937 Y20.7406 F350.00
G01 X19.0658 Y20.6619 F350.00
G01 X19.0453 Y20.5810 F350.00
G01 X19.0414 Y20.5618 F350.00
G01 X19.0294 Y20.4792 F350.00
G01 X19.0249 Y20.3861 F350.00
G01 X19.0249 Y19.4307 F350.00
G01 X18.9773 Y19.4137 F350.00
G01 X18.9637 Y19.4083 F350.00
G01 X18.8550 Y19.3569 F350.00
G01 X18.8421 Y19.3498 F350.00
G01 X18.7432 Y19.2904 F350.00
G01 X18.7311 Y19.2821 F350.00
G01 X18.6347 Y19.2103 F350.00
G01 X18.5454 Y19.1297 F350.00
G01 X18.5349 Y19.1195 F350.00
G01 X18.4574 Y19.0341 F350.00
G01 X18.4449 Y19.0189 F350.00
G01 X18.3735 Y18.9222 F350.00
G01 X18.3115 Y18.8192 F350.00
G01 X18.3023 Y18.8019 F350.00
G01 X18.2511 Y18.6931 F350.00
G01 X18.2088 Y18.5754 F350.00
G01 X18.2047 Y18.5612 F350.00
G01 X18.1757 Y18.4445 F350.00
G01 X18.1578 Y18.3257 F350.00
G01 X18.1559 Y18.3061 F350.00
G01 X18.1505 Y18.1959 F350.00
G01 X18.1505 Y18.1762 F350.00
G01 X18.1566 Y18.0562 F350.00
G01 X18.1757 Y17.9276 F350.00
G01 X18.2073 Y17.8014 F350.00
G01 X18.2511 Y17.6790 F350.00
G01 X18.3067 Y17.5615 F350.00
G01 X18.3735 Y17.4499 F350.00
G01 X18.4510 Y17.3455 F350.00
G01 X18.5315 Y17.2562 F350.00
G01 X18.5454 Y17.2424 F350.00
G01 X18.6272 Y17.1682 F350.00
G01 X18.6424 Y17.1558 F350.00
G01 X18.7391 Y17.0844 F350.00
G01 X18.8421 Y17.0223 F350.00
G01 X18.8550 Y17.0152 F350.00
G01 X18.9682 Y16.9619 F350.00
G01 X19.0906 Y16.9181 F350.00
G01 X19.2167 Y16.8865 F350.00
G01 X19.3356 Y16.8686 F350.00
G01 X19.3551 Y16.8667 F350.00
G01 X19.4654 Y16.8613 F350.00
G01 X19.4850 Y16.8613 F350.00
G01 X19.6051 Y16.8674 F350.00
G01 X19.7337 Y16.8865 F350.00
G01 X19.8599 Y16.9181 F350.00
G01 X19.9731 Y16.9584 F350.00
G01 X19.9913 Y16.9659 F350.00
G01 X20.0911 Y17.0131 F350.00
G01 X20.1084 Y17.0223 F350.00
G01 X20.2114 Y17.0844 F350.00
G01 X20.3158 Y17.1618 F350.00
G01 X20.4121 Y17.2491 F350.00
G01 X20.4995 Y17.3455 F350.00
G01 X20.5769 Y17.4499 F350.00
G01 X20.6438 Y17.5615 F350.00
G01 X20.6994 Y17.6790 F350.00
G01 X20.7401 Y17.7921 F350.00
G01 X20.7458 Y17.8109 F350.00
G01 X20.7748 Y17.9276 F350.00
G01 X20.7926 Y18.0464 F350.00
G01 X20.7946 Y18.0660 F350.00
G01 X20.8000 Y18.1762 F350.00
G01 X20.8002 Y18.1910 F350.00
G01 X20.7991 Y18.2138 F350.00
G01 X20.8110 Y18.2337 F350.00
G01 X20.8156 Y18.2424 F350.00
G01 X20.8493 Y18.3134 F350.00
G01 X20.8551 Y18.3269 F350.00
G01 X20.8847 Y18.4102 F350.00
G01 X20.9052 Y18.4911 F350.00
G01 X20.9082 Y18.5055 F350.00
G01 X20.9210 Y18.5929 F350.00
G01 X20.9256 Y18.6861 F350.00
G01 X20.9256 Y19.9924 F350.00
G01 X23.0507 Y22.1175 F350.00
G01 X23.1099 Y22.1831 F350.00
G01 X23.1598 Y22.2500 F350.00
G01 X23.1681 Y22.2622 F350.00
G01 X23.2085 Y22.3295 F350.00
G01 X23.2156 Y22.3424 F350.00
G01 X23.2513 Y22.4178 F350.00
G01 X23.2551 Y22.4269 F350.00
G01 X23.2644 Y22.4528 F350.00
G01 X23.4733 Y22.2443 F350.00
G01 X23.5353 Y22.1884 F350.00
G01 X23.6022 Y22.1385 F350.00
G01 X23.6185 Y22.1276 F350.00
G01 X23.6817 Y22.0897 F350.00
G01 X23.6990 Y22.0805 F350.00
G01 X23.7745 Y22.0450 F350.00
G01 X23.8530 Y22.0167 F350.00
G01 X23.8718 Y22.0110 F350.00
G01 X23.9528 Y21.9909 F350.00
G01 X24.0353 Y21.9785 F350.00
G01 X24.0549 Y21.9765 F350.00
G01 X24.1382 Y21.9727 F350.00
G01 X26.7523 Y21.9727 F350.00
G01 X27.4249 Y21.3001 F350.00
G01 X27.4249 Y16.8364 F350.00
G01 X23.6752 Y16.8364 F350.00
G01 X23.5870 Y16.8323 F350.00
G01 X23.5723 Y16.8306 F350.00
G01 X23.4898 Y16.8182 F350.00
G01 X23.4088 Y16.7981 F350.00
G01 X23.3900 Y16.7924 F350.00
G01 X23.3207 Y16.7676 F350.00
G01 X23.3026 Y16.7601 F350.00
G01 X23.2272 Y16.7242 F350.00
G01 X23.1472 Y16.6763 F350.00
G01 X23.0723 Y16.6207 F350.00
G01 X23.0032 Y16.5581 F350.00
G01 X22.9406 Y16.4890 F350.00
G01 X22.8850 Y16.4141 F350.00
G01 X22.8371 Y16.3341 F350.00
G01 X22.7991 Y16.2543 F350.00
G01 X22.7937 Y16.2406 F350.00
G01 X22.7658 Y16.1619 F350.00
G01 X22.7441 Y16.0763 F350.00
G01 X22.7414 Y16.0618 F350.00
G01 X22.7300 Y15.9841 F350.00
G01 X22.7287 Y15.9694 F350.00
G01 X22.7267 Y15.9278 F350.00
G01 X20.2062 Y13.4074 F350.00
G01 X20.1696 Y13.3854 F350.00
G01 X20.1573 Y13.3774 F350.00
G01 X20.0922 Y13.3292 F350.00
G01 X20.0810 Y13.3197 F350.00
G01 X20.0212 Y13.2651 F350.00
G01 X19.9602 Y13.1979 F350.00
G01 X19.9061 Y13.1250 F350.00
G01 X19.8595 Y13.0471 F350.00
G01 X19.8226 Y12.9695 F350.00
G01 X19.8171 Y12.9559 F350.00
G01 X19.7901 Y12.8796 F350.00
G01 X19.7680 Y12.7915 F350.00
G01 X19.7547 Y12.7017 F350.00
G01 X19.7503 Y12.6160 F350.00
G01 X19.7505 Y10.0512 F350.00
G01 X19.7547 Y9.9704 F350.00
G01 X19.7680 Y9.8806 F350.00
G01 X19.7901 Y9.7925 F350.00
G01 X19.8171 Y9.7162 F350.00
G01 X19.8246 Y9.6981 F350.00
G01 X19.8550 Y9.6338 F350.00
G01 X19.8643 Y9.6165 F350.00
G01 X19.9061 Y9.5471 F350.00
G01 X19.9571 Y9.4781 F350.00
G01 X19.9666 Y9.4668 F350.00
G01 X20.0212 Y9.4070 F350.00
G01 X20.0810 Y9.3524 F350.00
G01 X20.0962 Y9.3400 F350.00
G01 X20.1613 Y9.2919 F350.00
G01 X20.2306 Y9.2501 F350.00
G01 X20.2480 Y9.2409 F350.00
G01 X20.3123 Y9.2104 F350.00
G01 X20.3304 Y9.2029 F350.00
G01 X20.4067 Y9.1759 F350.00
G01 X20.4948 Y9.1538 F350.00
G01 X20.5846 Y9.1405 F350.00
G01 X20.6654 Y9.1363 F350.00
G01 X20.6850 Y9.1363 F350.00
G01 X20.7659 Y9.1405 F350.00
G01 X20.8460 Y9.1521 F350.00
G01 X20.8653 Y9.1560 F350.00
G01 X20.9343 Y9.1733 F350.00
G01 X20.9531 Y9.1790 F350.00
G01 X21.0292 Y9.2065 F350.00
G01 X21.1113 Y9.2453 F350.00
G01 X21.1891 Y9.2919 F350.00
G01 X21.2543 Y9.3400 F350.00
G01 X21.2695 Y9.3524 F350.00
G01 X21.3293 Y9.4070 F350.00
G01 X21.3839 Y9.4668 F350.00
G01 X21.3963 Y9.4820 F350.00
G01 X21.4416 Y9.5431 F350.00
G01 X21.4496 Y9.5554 F350.00
G01 X21.4862 Y9.6165 F350.00
G01 X21.4954 Y9.6338 F350.00
G01 X21.5298 Y9.7071 F350.00
G01 X21.5604 Y9.7925 F350.00
G01 X21.5803 Y9.8710 F350.00
G01 X21.5841 Y9.8903 F350.00
G01 X21.5958 Y9.9704 F350.00
G01 X21.6000 Y10.0512 F350.00
G01 X21.6002 Y12.6111 F350.00
G01 X21.5958 Y12.7017 F350.00
G01 X21.5841 Y12.7818 F350.00
G01 X21.5804 Y12.8009 F350.00
G01 X23.7152 Y14.9357 F350.00
G01 X27.4249 Y14.9357 F350.00
G01 X27.4249 Y13.2458 F350.00
G01 X27.4054 Y13.2242 F350.00
G01 X27.3992 Y13.2166 F350.00
G01 X27.3494 Y13.1496 F350.00
G01 X27.3411 Y13.1375 F350.00
G01 X27.2933 Y13.0574 F350.00
G01 X27.2533 Y12.9732 F350.00
G01 X27.2478 Y12.9596 F350.00
G01 X27.2183 Y12.8763 F350.00
G01 X27.1966 Y12.7907 F350.00
G01 X27.1928 Y12.7715 F350.00
G01 X27.1812 Y12.6938 F350.00
G01 X27.1793 Y12.6743 F350.00
G01 X27.1752 Y12.5861 F350.00
G01 X27.1753 Y11.1811 F350.00
G01 X27.1800 Y11.0880 F350.00
G01 X27.1928 Y11.0006 F350.00
G01 X27.1966 Y10.9814 F350.00
G01 X27.2183 Y10.8958 F350.00
G01 X27.2513 Y10.8034 F350.00
G01 X27.2889 Y10.7234 F350.00
G01 X27.2981 Y10.7061 F350.00
G01 X27.3438 Y10.6305 F350.00
G01 X27.3962 Y10.5594 F350.00
G01 X27.4086 Y10.5442 F350.00
G01 X27.4681 Y10.4789 F350.00
G01 X27.5334 Y10.4195 F350.00
G01 X27.5486 Y10.4070 F350.00
G01 X27.6197 Y10.3546 F350.00
G01 X27.6953 Y10.3090 F350.00
G01 X27.7126 Y10.2997 F350.00
G01 X27.7925 Y10.2622 F350.00
G01 X27.8849 Y10.2291 F350.00
G01 X27.9706 Y10.2074 F350.00
G01 X27.9898 Y10.2036 F350.00
G01 X28.0772 Y10.1909 F350.00
G01 X28.1654 Y10.1863 F350.00
G01 X28.1850 Y10.1863 F350.00
G01 X28.2732 Y10.1909 F350.00
G01 X28.3703 Y10.2053 F350.00
G01 X28.4655 Y10.2291 F350.00
G01 X28.5488 Y10.2586 F350.00
G01 X28.5669 Y10.2661 F350.00
G01 X28.6466 Y10.3041 F350.00
G01 X28.7225 Y10.3493 F350.00
G01 X28.7388 Y10.3602 F350.00
G01 X28.8058 Y10.4100 F350.00
G01 X28.8171 Y10.4195 F350.00
G01 X28.8752 Y10.4722 F350.00
G01 X28.8891 Y10.4861 F350.00
G01 X28.9482 Y10.5517 F350.00
G01 X29.0067 Y10.6305 F350.00
G01 X29.0523 Y10.7061 F350.00
G01 X29.0616 Y10.7234 F350.00
G01 X29.0991 Y10.8034 F350.00
G01 X29.1322 Y10.8958 F350.00
G01 X29.1560 Y10.9910 F350.00
G01 X29.1692 Y11.0783 F350.00
G01 X29.1708 Y11.0929 F350.00
G01 X29.1752 Y11.1861 F350.00
G01 X29.1752 Y11.5739 F350.00
G01 X29.2134 Y11.6380 F350.00
G01 X29.2493 Y11.7134 F350.00
G01 X29.2568 Y11.7315 F350.00
G01 X29.2847 Y11.8102 F350.00
G01 X29.3052 Y11.8911 F350.00
G01 X29.3090 Y11.9103 F350.00
G01 X29.3210 Y11.9929 F350.00
G01 X29.3255 Y12.0811 F350.00
G01 X29.3255 Y21.6987 F350.00
G01 X29.3210 Y21.7869 F350.00
G01 X29.3090 Y21.8695 F350.00
G01 X29.3052 Y21.8888 F350.00
G01 X29.2873 Y21.9602 F350.00
G01 X29.2816 Y21.9790 F350.00
G01 X29.2533 Y22.0575 F350.00
G01 X29.2134 Y22.1418 F350.00
G01 X29.1654 Y22.2218 F350.00
G01 X29.1129 Y22.2928 F350.00
G01 X29.1035 Y22.3041 F350.00
G01 X29.0472 Y22.3658 F350.00
G01 X27.8109 Y23.6018 F350.00
G01 X27.7489 Y23.6577 F350.00
G01 X27.6820 Y23.7076 F350.00
G01 X27.6657 Y23.7185 F350.00
G01 X27.6025 Y23.7564 F350.00
G01 X27.5852 Y23.7656 F350.00
G01 X27.5096 Y23.8011 F350.00
G01 X27.4311 Y23.8294 F350.00
G01 X27.4124 Y23.8351 F350.00
G01 X27.3409 Y23.8530 F350.00
G01 X27.3217 Y23.8568 F350.00
G01 X27.2391 Y23.8688 F350.00
G01 X27.1509 Y23.8734 F350.00
G01 X24.5319 Y23.8734 F350.00
G01 X23.3113 Y25.0940 F350.00
G01 X23.3079 Y25.1166 F350.00
G01 X23.3060 Y25.1262 F350.00
G01 X23.2869 Y25.2024 F350.00
G01 X23.2828 Y25.2165 F350.00
G01 X23.2529 Y25.2996 F350.00
G01 X23.2131 Y25.3839 F350.00
G01 X23.1704 Y25.4555 F350.00
G01 X23.1595 Y25.4719 F350.00
G01 X23.1096 Y25.5387 F350.00
G01 X23.0472 Y25.6076 F350.00
G01 X23.0422 Y25.6235 F350.00
G01 X23.0222 Y25.6789 F350.00
G01 X22.9972 Y25.7323 F350.00
G01 X22.9880 Y25.7496 F350.00
G01 X22.9575 Y25.8000 F350.00
G01 X22.9226 Y25.8474 F350.00
G01 X22.9134 Y25.8589 F350.00
G01 X22.8771 Y25.8990 F350.00
G01 X21.5917 Y27.1846 F350.00
G01 X21.5443 Y27.2274 F350.00
G01 X21.4891 Y27.2683 F350.00
G01 X21.4302 Y27.3036 F350.00
G01 X21.3771 Y27.3290 F350.00
G01 X21.3635 Y27.3348 F350.00
G01 X21.3034 Y27.3561 F350.00
G01 X21.2367 Y27.3728 F350.00
G01 X21.1687 Y27.3829 F350.00
G01 X21.1001 Y27.3863 F350.00
G01 X15.5747 Y27.3863 F350.00
G00 Z0.5000
G00 X22.0016 Y21.0684
G01 F250.00
G01 Z-0.0500
G01 F350.00
G01 X27.4249 Y21.0684 F350.00
G01 X27.4249 Y20.8284 F350.00
G01 X21.7616 Y20.8284 F350.00
G01 X21.5216 Y20.5884 F350.00
G01 X27.4249 Y20.5884 F350.00
G01 X27.4249 Y20.3484 F350.00
G01 X21.2816 Y20.3484 F350.00
G01 X21.0416 Y20.1084 F350.00
G01 X27.4249 Y20.1084 F350.00
G01 X27.4249 Y19.8684 F350.00
G01 X20.9256 Y19.8684 F350.00
G01 X20.9256 Y19.6284 F350.00
G01 X27.4249 Y19.6284 F350.00
G01 X27.4249 Y19.3884 F350.00
G01 X20.9256 Y19.3884 F350.00
G01 X20.9256 Y19.1484 F350.00
G01 X22.4092 Y19.1484 F350.00
G00 Z0.5000
G00 X22.1814 Y18.9084
G01 F250.00
G01 Z-0.0500
G01 F350.00
G01 X20.9256 Y18.9084 F350.00
G00 Z0.5000
G00 X20.9250 Y18.6684
G01 F250.00
G01 Z-0.0500
G01 F350.00
G01 X22.0679 Y18.6684 F350.00
G00 Z0.5000
G00 X22.0267 Y18.4284
G01 F250.00
G01 Z-0.0500
G01 F350.00
G01 X20.8895 Y18.4284 F350.00
G01 X22.2416 Y21.3084 F350.00
G01 X27.4166 Y21.3084 F350.00
G01 X27.1766 Y21.5484 F350.00
G01 X22.4816 Y21.5484 F350.00
G01 X22.7216 Y21.7884 F350.00
G01 X26.9366 Y21.7884 F350.00
G01 X26.9023 Y19.1484 F350.00
G01 X27.4249 Y19.1484 F350.00
G01 X27.4249 Y18.9084 F350.00
G01 X27.1573 Y18.9084 F350.00
G00 Z0.5000
G00 X27.2792 Y18.6684
G01 F250.00
G01 Z-0.0500
G01 F350.00
G01 X27.4249 Y18.6684 F350.00
G01 X27.4249 Y18.4284 F350.00
G01 X27.3234 Y18.4284 F350.00
G00 Z0.5000
G00 X27.3026 Y18.1884
G01 F250.00
G01 Z-0.0500
G01 F350.00
G01 X27.4249 Y18.1884 F350.00
G01 X27.4249 Y17.9484 F350.00
G01 X27.2112 Y17.9484 F350.00
G00 Z0.5000
G00 X27.0164 Y17.7084
G01 F250.00
G01 Z-0.0500
G01 F350.00
G01 X27.4249 Y17.7084 F350.00
G01 X27.4249 Y17.4684 F350.00
G01 X26.1193 Y17.4684 F350.00
G00 Z0.5000
G00 X27.4249 Y14.8284
G01 F250.00
G01 Z-0.0500
G01 F350.00
G01 X23.6079 Y14.8284 F350.00
G01 X23.3679 Y14.5884 F350.00
G01 X27.4249 Y14.5884 F350.00
G01 X27.4249 Y14.3484 F350.00
G01 X23.1279 Y14.3484 F350.00
G01 X22.8879 Y14.1084 F350.00
G01 X27.4249 Y14.1084 F350.00
G01 X27.4249 Y13.8684 F350.00
G01 X22.6479 Y13.8684 F350.00
G00 Z0.5000
G00 X20.1746 Y13.3884
G01 F250.00
G01 Z-0.0500
G01 F350.00
G01 X19.1759 Y13.3884 F350.00
G00 Z0.5000
G00 X19.4273 Y13.1484
G01 F250.00
G01 Z-0.0500
G01 F350.00
G01 X19.9232 Y13.1484 F350.00
G00 Z0.5000
G00 X19.8001 Y12.9084
G01 F250.00
G01 Z-0.0500
G01 F350.00
G01 X19.5503 Y12.9084 F350.00
G00 Z0.5000
G00 X19.5977 Y12.6684
G01 F250.00
G01 Z-0.0500
G01 F350.00
G01 X19.7528 Y12.6684 F350.00
G00 Z0.5000
G00 X19.7502 Y12.4284
G01 F250.00
G01 Z-0.0500
G01 F350.00
G01 X19.6002 Y12.4284 F350.00
G01 X19.6002 Y12.1884 F350.00
G01 X19.7502 Y12.1884 F350.00
G01 X19.7502 Y11.9484 F350.00
G01 X19.6002 Y11.9484 F350.00
G01 X19.6002 Y11.7084 F350.00
G01 X19.7502 Y11.7084 F350.00
G01 X19.7502 Y11.4684 F350.00
G01 X19.6002 Y11.4684 F350.00
G01 X19.6002 Y11.2284 F350.00
G01 X19.7502 Y11.2284 F350.00
G01 X19.7502 Y10.9884 F350.00
G01 X19.6002 Y10.9884 F350.00
G01 X19.6002 Y10.7484 F350.00
G01 X19.7502 Y10.7484 F350.00
G01 X19.7502 Y10.5084 F350.00
G01 X19.6002 Y10.5084 F350.00
G01 X19.6002 Y10.2684 F350.00
G01 X19.7502 Y10.2684 F350.00
G00 Z0.5000
G00 X19.7516 Y10.0284
G01 F250.00
G01 Z-0.0500
G01 F350.00
G01 X19.5989 Y10.0284 F350.00
G00 Z0.5000
G00 X19.5591 Y9.7884
G01 F250.00
G01 Z-0.0500
G01 F350.00
G01 X19.7914 Y9.7884 F350.00
G00 Z0.5000
G00 X19.9053 Y9.5484
G01 F250.00
G01 Z-0.0500
G01 F350.00
G01 X19.4451 Y9.5484 F350.00
G00 Z0.5000
G00 X19.2117 Y9.3084
G01 F250.00
G01 Z-0.0500
G01 F350.00
G01 X20.1388 Y9.3084 F350.00
G00 Z0.5000
G00 X18.1388 Y9.3084
G01 F250.00
G01 Z-0.0500
G01 F350.00
G01 X17.6379 Y9.3084 F350.00
G01 X17.8779 Y9.5484 F350.00
G01 X17.9053 Y9.5484 F350.00
G00 Z0.5000
G00 X23.2130 Y7.6284
G01 F250.00
G01 Z-0.0500
G01 F350.00
G01 X29.1030 Y7.6284 F350.00
G01 X29.5872 Y7.8684 F350.00
G01 X23.4596 Y7.8684 F350.00
G00 Z0.5000
G00 X23.6740 Y8.1084
G01 F250.00
G01 Z-0.0500
G01 F350.00
G01 X30.0411 Y8.1084 F350.00
G01 X30.3908 Y8.3484 F350.00
G01 X23.7689 Y8.3484 F350.00
G00 Z0.5000
G00 X23.7815 Y8.5884
G01 F250.00
G01 Z-0.0500
G01 F350.00
G01 X30.6684 Y8.5884 F350.00
G01 X30.8957 Y8.8284 F350.00
G01 X23.7815 Y8.8284 F350.00
G01 X23.7815 Y9.0684 F350.00
G01 X31.0855 Y9.0684 F350.00
G01 X31.2458 Y9.3084 F350.00
G01 X23.7815 Y9.3084 F350.00
G01 X23.7815 Y9.5484 F350.00
G01 X31.3819 Y9.5484 F350.00
G01 X31.4955 Y9.7884 F350.00
G01 X23.7815 Y9.7884 F350.00
G01 X23.7815 Y10.0284 F350.00
G01 X31.5835 Y10.0284 F350.00
G00 Z0.5000
G00 X23.8203 Y22.0284
G01 F250.00
G01 Z-0.0500
G01 F350.00
G01 X22.9616 Y22.0284 F350.00
G00 Z0.5000
G00 X23.1719 Y22.2684
G01 F250.00
G01 Z-0.0500
G01 F350.00
G01 X23.4489 Y22.2684 F350.00
G00 Z0.5000
M05
G00 Z0.5000
G00 Z40.00


