%
(; SHAPEOKO POSTPROCESSED v1)
( Source: 5.BACKSIDEFULLCLEAR_3mm.nc )
( Stripped: M30 only - kept T#/M6/M0/M1/MSG for Shapeoko/Carbide Motion )
( Wrapped with Shapeoko start/end blocks - mirrors 1001.nc structure )
G90        ( absolute positioning )
G17        ( XY plane select )
G21        ( mm units )
G94        ( feedrate units/min )
G28 G91 Z0 ( safe Z home - assumes machine has been homed )
G90        ( back to absolute )
G54        ( work coordinate system 1 )
M5         ( ensure spindle off at start )

(G-CODE GENERATED BY FLATCAM v8.994 - www.flatcam.org - Version Date: 2020/11/7)

(Name: BACKSIDEFULLCLEAR_mt_paint_cnc)
(Type: G-code from Geometry)
(Units: MM)

(Created on Sunday, 21 June 2026 at 20:21)

(This preprocessor is used with a motion controller loaded with GRBL firmware.)
(It is configured to be compatible with almost any version of GRBL firmware.)

(TOOL DIAMETER: 3.0 mm)
(Feedrate_XY: 350.0 mm/min)
(Feedrate_Z: 60.0 mm/min)
(Feedrate rapids 1500.0 mm/min)

(Z_Cut: -0.05 mm)
(Z_Move: 0.5 mm)
(Z Start: None mm)
(Z End: 40.0 mm)
(X,Y End: None mm)
(Steps per circle: 64)
(Steps per circle: 64)
(Preprocessor Geometry: grbl_11)

(X range:   -1.5000 ...   21.5000  mm)
(Y range:   -1.5000 ...   19.5000  mm)

(Spindle Speed: 0.0 RPM)
G21
G90
G17
G94


G01 F350.00

M5             
G00 Z40.0000
G00 X0.0000 Y0.0000                
T1 M6
(MSG, Change to Tool Dia = 3.0000)
M0
G00 Z40.0000

M03
G01 F350.00
G00 X-1.5000 Y-0.8000
G01 F60.00
G01 Z-0.0500
G01 F350.00
G01 X18.5000 Y-0.8000 F350.00
G01 X18.5000 Y1.3000 F350.00
G01 X-1.5000 Y1.3000 F350.00
G01 X-1.5000 Y3.4000 F350.00
G01 X18.5000 Y3.4000 F350.00
G01 X-1.5000 Y5.5000 F350.00
G01 X18.5000 Y5.5000 F350.00
G01 X18.5000 Y-1.5000 F350.00
G01 X-1.5000 Y-1.5000 F350.00
G01 X-1.5000 Y5.5000 F350.00
G00 Z0.5000
G00 X-1.5000 Y7.5000
G01 F60.00
G01 Z-0.0500
G01 F350.00
G01 X18.5000 Y7.5000 F350.00
G01 X18.5000 Y5.5000 F350.00
G01 X-1.5000 Y5.5000 F350.00
G01 X-1.5000 Y7.5000 F350.00
G00 Z0.5000
G00 X-1.5000 Y9.0000
G01 F60.00
G01 Z-0.0500
G01 F350.00
G01 X21.5000 Y9.0000 F350.00
G01 X21.5000 Y11.1000 F350.00
G01 X-1.5000 Y11.1000 F350.00
G01 X-1.5000 Y13.2000 F350.00
G01 X21.5000 Y13.2000 F350.00
G01 X21.5000 Y15.3000 F350.00
G01 X-1.5000 Y15.3000 F350.00
G01 X-1.5000 Y17.4000 F350.00
G01 X21.5000 Y17.4000 F350.00
G01 X21.5000 Y19.5000 F350.00
G01 X-1.5000 Y19.5000 F350.00
G01 X21.5000 Y19.5000 F350.00
G01 X21.5000 Y8.5000 F350.00
G01 X-1.5000 Y8.5000 F350.00
G01 X-1.5000 Y19.5000 F350.00
G01 X21.5000 Y19.5000 F350.00
G00 Z0.5000
M05
G00 Z0.5000
G00 Z40.00
M5         ( spindle off )
M9         ( coolant off - ignored by Shapeoko if unused )
G28 G91 Z0 ( safe Z home )
G90        ( absolute )
G28 G91 X0 Y0 ( XY home )
G90        ( absolute )
M30        ( program end )
%
