(G-CODE GENERATED BY FLATCAM v8.994 - www.flatcam.org - Version Date: 2020/11/7)

(Name: Buzzer PCB-Edge_Cuts.gbr_cutout_cnc)
(Type: G-code from Geometry)
(Units: MM)

(Created on Sunday, 21 June 2026 at 02:27)


G01 F350.00

M5             
G00 Z40.0000
G00 X0.0000 Y0.0000                
T1
M6
(MSG, Change to Tool Dia = 3.1750)
M0
G00 Z40.0000

M03
G01 F350.00
G00 X33.5356 Y7.7921
G01 F250.00
G01 Z-1.6000
G01 F350.00
G01 X33.5201 Y7.6322 F350.00
G01 X33.4890 Y7.4745 F350.00
G01 X33.4426 Y7.3207 F350.00
G01 X33.3813 Y7.1721 F350.00
G01 X33.3058 Y7.0303 F350.00
G01 X33.2167 Y6.8965 F350.00
G01 X33.1149 Y6.7722 F350.00
G01 X33.0015 Y6.6584 F350.00
G01 X32.8774 Y6.5562 F350.00
G01 X32.7439 Y6.4668 F350.00
G01 X32.6023 Y6.3908 F350.00
G01 X32.4540 Y6.3291 F350.00
G01 X32.3003 Y6.2822 F350.00
G01 X32.1427 Y6.2506 F350.00
G01 X31.9828 Y6.2346 F350.00
G01 X31.9000 Y6.2325 F350.00
G01 X9.2208 Y6.2325 F350.00
G01 X9.1794 Y6.2330 F350.00
G01 X9.1405 Y6.2344 F350.00
G01 X8.8915 Y6.2467 F350.00
G01 X8.8089 Y6.2529 F350.00
G01 X8.7316 Y6.2624 F350.00
G01 X8.4850 Y6.2990 F350.00
G01 X8.4082 Y6.3123 F350.00
G01 X8.3274 Y6.3304 F350.00
G01 X8.0856 Y6.3909 F350.00
G01 X8.0105 Y6.4117 F350.00
G01 X7.9318 Y6.4376 F350.00
G01 X7.6971 Y6.5215 F350.00
G01 X7.6244 Y6.5496 F350.00
G01 X7.5487 Y6.5830 F350.00
G01 X7.3233 Y6.6896 F350.00
G01 X7.2537 Y6.7246 F350.00
G01 X7.1816 Y6.7654 F350.00
G01 X6.9678 Y6.8935 F350.00
G01 X6.8979 Y6.9379 F350.00
G01 X6.8342 Y6.9828 F350.00
G01 X6.6340 Y7.1313 F350.00
G01 X6.5688 Y7.1823 F350.00
G01 X6.5098 Y7.2332 F350.00
G01 X6.3251 Y7.4006 F350.00
G01 X6.2652 Y7.4578 F350.00
G01 X6.2114 Y7.5143 F350.00
G01 X6.0441 Y7.6989 F350.00
G01 X5.9900 Y7.7617 F350.00
G01 X5.9421 Y7.8232 F350.00
G01 X5.7936 Y8.0234 F350.00
G01 X5.7460 Y8.0912 F350.00
G01 X5.7043 Y8.1570 F350.00
G01 X5.5762 Y8.3708 F350.00
G01 X5.5378 Y8.4386 F350.00
G01 X5.5004 Y8.5125 F350.00
G01 X5.3939 Y8.7379 F350.00
G01 X5.3623 Y8.8091 F350.00
G01 X5.3324 Y8.8863 F350.00
G01 X5.2484 Y9.1210 F350.00
G01 X5.2240 Y9.1950 F350.00
G01 X5.2017 Y9.2748 F350.00
G01 X5.1412 Y9.5166 F350.00
G01 X5.1241 Y9.5926 F350.00
G01 X5.1098 Y9.6742 F350.00
G01 X5.0733 Y9.9208 F350.00
G01 X5.0637 Y9.9981 F350.00
G01 X5.0575 Y10.0807 F350.00
G01 X5.0453 Y10.3297 F350.00
G01 X5.0438 Y10.3710 F350.00
G01 X5.0433 Y10.4100 F350.00
G01 X5.0433 Y28.1900 F350.00
G01 X5.0438 Y28.2314 F350.00
G01 X5.0453 Y28.2703 F350.00
G01 X5.0575 Y28.5193 F350.00
G01 X5.0637 Y28.6019 F350.00
G01 X5.0733 Y28.6792 F350.00
G01 X5.1098 Y28.9258 F350.00
G01 X5.1231 Y29.0026 F350.00
G01 X5.1412 Y29.0834 F350.00
G01 X5.2017 Y29.3252 F350.00
G01 X5.2225 Y29.4003 F350.00
G01 X5.2484 Y29.4790 F350.00
G01 X5.3324 Y29.7137 F350.00
G01 X5.3604 Y29.7864 F350.00
G01 X5.3939 Y29.8621 F350.00
G01 X5.5004 Y30.0875 F350.00
G01 X5.5355 Y30.1571 F350.00
G01 X5.5762 Y30.2292 F350.00
G01 X5.7043 Y30.4430 F350.00
G01 X5.7488 Y30.5129 F350.00
G01 X5.7936 Y30.5766 F350.00
G01 X5.9421 Y30.7768 F350.00
G01 X5.9932 Y30.8421 F350.00
G01 X6.0441 Y30.9011 F350.00
G01 X6.2114 Y31.0857 F350.00
G01 X6.2686 Y31.1456 F350.00
G01 X6.3251 Y31.1994 F350.00
G01 X6.5098 Y31.3668 F350.00
G01 X6.5726 Y31.4208 F350.00
G01 X6.6340 Y31.4687 F350.00
G01 X6.8342 Y31.6172 F350.00
G01 X6.9020 Y31.6648 F350.00
G01 X6.9678 Y31.7065 F350.00
G01 X7.1816 Y31.8346 F350.00
G01 X7.2494 Y31.8730 F350.00
G01 X7.3233 Y31.9104 F350.00
G01 X7.5487 Y32.0170 F350.00
G01 X7.6199 Y32.0485 F350.00
G01 X7.6971 Y32.0785 F350.00
G01 X7.9318 Y32.1624 F350.00
G01 X8.0058 Y32.1869 F350.00
G01 X8.0856 Y32.2091 F350.00
G01 X8.3274 Y32.2696 F350.00
G01 X8.4034 Y32.2867 F350.00
G01 X8.4850 Y32.3010 F350.00
G01 X8.7316 Y32.3376 F350.00
G01 X8.8089 Y32.3471 F350.00
G01 X8.8915 Y32.3533 F350.00
G01 X9.1405 Y32.3656 F350.00
G01 X9.1819 Y32.3670 F350.00
G01 X9.2208 Y32.3675 F350.00
G01 X31.9000 Y32.3675 F350.00
G01 X31.9828 Y32.3654 F350.00
G01 X32.1427 Y32.3494 F350.00
G01 X32.3003 Y32.3178 F350.00
G01 X32.4540 Y32.2709 F350.00
G01 X32.5979 Y32.2113 F350.00
G01 X32.7397 Y32.1358 F350.00
G01 X32.8735 Y32.0467 F350.00
G01 X32.9978 Y31.9449 F350.00
G01 X33.1149 Y31.8278 F350.00
G01 X33.2167 Y31.7035 F350.00
G01 X33.3058 Y31.5697 F350.00
G01 X33.3813 Y31.4279 F350.00
G01 X33.4426 Y31.2793 F350.00
G01 X33.4890 Y31.1255 F350.00
G01 X33.5201 Y30.9678 F350.00
G01 X33.5354 Y30.8128 F350.00
G01 X33.5375 Y30.7300 F350.00
G01 X33.5375 Y7.8700 F350.00
G01 X33.5356 Y7.7921 F350.00
G00 Z0.5000
M05
G00 Z0.5000
G00 Z40.00


