(G-CODE GENERATED BY FLATCAM v8.994 - www.flatcam.org - Version Date: 2020/11/7)

(Name: Buzzer PCB-F_Cu.gbr_ncc_1_cnc)
(Type: G-code from Geometry)
(Units: MM)

(Created on Sunday, 21 June 2026 at 03:05)

(This preprocessor is used with a motion controller loaded with GRBL firmware.)
(It is configured to be compatible with almost any version of GRBL firmware.)

(TOOL DIAMETER: 0.4 mm)
(Feedrate_XY: 350.0 mm/min)
(Feedrate_Z: 250.0 mm/min)
(Feedrate rapids 1500.0 mm/min)

(Z_Cut: -0.05 mm)
(Z_Move: 0.4 mm)
(Z Start: None mm)
(Z End: 40.0 mm)
(X,Y End: None mm)
(Steps per circle: 64)
(Steps per circle: 64)
(Preprocessor Geometry: grbl_11)

(X range:    5.3806 ...   33.6113  mm)
(Y range:    6.7479 ...   32.2612  mm)

(Spindle Speed: 0.0 RPM)
G21
G90
G17
G94


G01 F350.00

M5             
G00 Z40.0000
G00 X0.0000 Y0.0000                
T2
M6
(MSG, Change to Tool Dia = 0.4000)
M0
G00 Z40.0000

M03
G01 F350.00
G00 X10.3068 Y8.4613
G01 F250.00
G01 Z-0.0500
G01 F350.00
G01 X18.5003 Y8.4613 F350.00
G00 Z0.4000
G00 X18.0161 Y8.7413
G01 F250.00
G01 Z-0.0500
G01 F350.00
G01 X10.0848 Y8.7413 F350.00
G01 X9.8629 Y9.0213 F350.00
G01 X11.9724 Y9.0213 F350.00
G00 Z0.4000
G00 X11.6893 Y9.3013
G01 F250.00
G01 Z-0.0500
G01 F350.00
G01 X9.6409 Y9.3013 F350.00
G01 X9.4189 Y9.5813 F350.00
G01 X11.5160 Y9.5813 F350.00
G00 Z0.4000
G00 X11.4806 Y9.8613
G01 F250.00
G01 Z-0.0500
G01 F350.00
G01 X9.1969 Y9.8613 F350.00
G01 X8.9749 Y10.1413 F350.00
G01 X11.4806 Y10.1413 F350.00
G01 X11.4806 Y10.4213 F350.00
G01 X8.7530 Y10.4213 F350.00
G01 X8.5310 Y10.7013 F350.00
G01 X11.4806 Y10.7013 F350.00
G01 X11.2593 Y10.9813 F350.00
G01 X8.3090 Y10.9813 F350.00
G01 X8.0870 Y11.2613 F350.00
G01 X10.9793 Y11.2613 F350.00
G01 X10.6993 Y11.5413 F350.00
G01 X7.8650 Y11.5413 F350.00
G01 X7.6430 Y11.8213 F350.00
G01 X10.4193 Y11.8213 F350.00
G01 X10.1393 Y12.1013 F350.00
G01 X7.4211 Y12.1013 F350.00
G01 X7.1991 Y12.3813 F350.00
G01 X9.8593 Y12.3813 F350.00
G01 X9.5793 Y12.6613 F350.00
G01 X6.9771 Y12.6613 F350.00
G01 X6.7551 Y12.9413 F350.00
G01 X9.2993 Y12.9413 F350.00
G01 X9.0193 Y13.2213 F350.00
G01 X6.5331 Y13.2213 F350.00
G01 X6.3111 Y13.5013 F350.00
G01 X8.7393 Y13.5013 F350.00
G01 X8.4593 Y13.7813 F350.00
G01 X6.0892 Y13.7813 F350.00
G01 X5.8672 Y14.0613 F350.00
G01 X8.1793 Y14.0613 F350.00
G01 X7.8993 Y14.3413 F350.00
G01 X5.6799 Y14.3413 F350.00
G01 X5.5443 Y14.6213 F350.00
G01 X7.6193 Y14.6213 F350.00
G01 X7.4102 Y14.8303 F350.00
G01 X11.4806 Y10.7599 F350.00
G01 X11.4808 Y9.7902 F350.00
G01 X11.4839 Y9.7314 F350.00
G01 X11.4940 Y9.6634 F350.00
G01 X11.5107 Y9.5967 F350.00
G01 X11.5321 Y9.5366 F350.00
G01 X11.5379 Y9.5231 F350.00
G01 X11.5588 Y9.4787 F350.00
G01 X11.5681 Y9.4614 F350.00
G01 X11.5986 Y9.4110 F350.00
G01 X11.6395 Y9.3558 F350.00
G01 X11.6857 Y9.3048 F350.00
G01 X11.9392 Y9.0514 F350.00
G01 X11.9866 Y9.0087 F350.00
G01 X12.0338 Y8.9734 F350.00
G01 X12.0501 Y8.9625 F350.00
G01 X12.1007 Y8.9324 F350.00
G01 X12.1539 Y8.9070 F350.00
G01 X12.1720 Y8.8995 F350.00
G01 X12.2229 Y8.8814 F350.00
G01 X12.2370 Y8.8773 F350.00
G01 X12.2846 Y8.8654 F350.00
G01 X12.3039 Y8.8615 F350.00
G01 X12.3622 Y8.8531 F350.00
G01 X12.4308 Y8.8497 F350.00
G01 X16.9308 Y8.8497 F350.00
G01 X16.9946 Y8.8527 F350.00
G01 X17.0092 Y8.8543 F350.00
G01 X17.0674 Y8.8632 F350.00
G01 X17.1246 Y8.8773 F350.00
G01 X17.1434 Y8.8830 F350.00
G01 X17.1988 Y8.9031 F350.00
G01 X17.2522 Y8.9280 F350.00
G01 X17.2695 Y8.9373 F350.00
G01 X17.3157 Y8.9651 F350.00
G01 X17.3279 Y8.9734 F350.00
G01 X17.3751 Y9.0087 F350.00
G01 X17.4225 Y9.0514 F350.00
G01 X17.6082 Y9.2371 F350.00
G01 X17.6873 Y9.1055 F350.00
G01 X17.7807 Y8.9793 F350.00
G01 X17.7931 Y8.9641 F350.00
G01 X17.8987 Y8.8479 F350.00
G01 X18.0224 Y8.7359 F350.00
G01 X18.1483 Y8.6422 F350.00
G01 X18.1646 Y8.6312 F350.00
G01 X18.2994 Y8.5507 F350.00
G01 X18.4503 Y8.4794 F350.00
G01 X18.5980 Y8.4263 F350.00
G01 X18.6168 Y8.4206 F350.00
G01 X18.7692 Y8.3827 F350.00
G01 X18.9245 Y8.3594 F350.00
G01 X18.9440 Y8.3575 F350.00
G01 X19.1008 Y8.3500 F350.00
G01 X19.2626 Y8.3578 F350.00
G01 X19.2772 Y8.3594 F350.00
G01 X19.4228 Y8.3810 F350.00
G01 X19.4421 Y8.3848 F350.00
G01 X19.5943 Y8.4232 F350.00
G01 X19.7514 Y8.4794 F350.00
G01 X19.8934 Y8.5463 F350.00
G01 X19.9107 Y8.5556 F350.00
G01 X20.0453 Y8.6365 F350.00
G01 X20.1793 Y8.7359 F350.00
G01 X20.2958 Y8.8411 F350.00
G01 X20.3097 Y8.8550 F350.00
G01 X20.4149 Y8.9715 F350.00
G01 X20.5143 Y9.1055 F350.00
G01 X20.6001 Y9.2486 F350.00
G01 X20.6674 Y9.3905 F350.00
G01 X20.6750 Y9.4086 F350.00
G01 X20.7276 Y9.5565 F350.00
G01 X20.7682 Y9.7183 F350.00
G01 X20.7914 Y9.8736 F350.00
G01 X20.7934 Y9.8932 F350.00
G01 X20.8008 Y10.0500 F350.00
G01 X20.7934 Y10.2068 F350.00
G01 X20.7914 Y10.2264 F350.00
G01 X20.7682 Y10.3817 F350.00
G01 X20.7276 Y10.5435 F350.00
G01 X20.6714 Y10.7006 F350.00
G01 X20.6045 Y10.8426 F350.00
G01 X20.5953 Y10.8599 F350.00
G01 X20.5143 Y10.9945 F350.00
G01 X20.4149 Y11.1285 F350.00
G01 X20.3097 Y11.2450 F350.00
G01 X20.2958 Y11.2589 F350.00
G01 X20.1867 Y11.3577 F350.00
G01 X20.1755 Y11.3672 F350.00
G01 X20.0453 Y11.4635 F350.00
G01 X19.9022 Y11.5493 F350.00
G01 X19.7514 Y11.6206 F350.00
G01 X19.6036 Y11.6737 F350.00
G01 X19.5848 Y11.6794 F350.00
G01 X19.4421 Y11.7152 F350.00
G01 X19.4228 Y11.7190 F350.00
G01 X19.2675 Y11.7418 F350.00
G01 X19.1106 Y11.7498 F350.00
G01 X19.0910 Y11.7498 F350.00
G01 X18.9342 Y11.7418 F350.00
G01 X18.7763 Y11.7186 F350.00
G01 X18.0228 Y12.4720 F350.00
G01 X17.9612 Y12.5282 F350.00
G01 X17.9499 Y12.5377 F350.00
G01 X17.9062 Y12.5702 F350.00
G01 X17.8829 Y12.5874 F350.00
G01 X17.8705 Y12.5955 F350.00
G01 X17.7988 Y12.6382 F350.00
G01 X17.7235 Y12.6741 F350.00
G01 X17.7100 Y12.6799 F350.00
G01 X17.6267 Y12.7095 F350.00
G01 X17.5458 Y12.7300 F350.00
G01 X17.5266 Y12.7338 F350.00
G01 X17.4537 Y12.7446 F350.00
G01 X17.4391 Y12.7462 F350.00
G01 X17.3508 Y12.7504 F350.00
G01 X16.6311 Y12.7504 F350.00
G01 X16.6311 Y17.6294 F350.00
G01 X16.7192 Y17.6517 F350.00
G01 X16.8300 Y17.6913 F350.00
G01 X16.9365 Y17.7417 F350.00
G01 X17.0292 Y17.7970 F350.00
G01 X17.0455 Y17.8079 F350.00
G01 X17.1244 Y17.8663 F350.00
G01 X17.1395 Y17.8788 F350.00
G01 X17.2194 Y17.9515 F350.00
G01 X17.2984 Y18.0387 F350.00
G01 X17.3686 Y18.1333 F350.00
G01 X17.4243 Y18.2258 F350.00
G01 X17.4335 Y18.2431 F350.00
G01 X17.4755 Y18.3318 F350.00
G01 X17.4830 Y18.3499 F350.00
G01 X17.5192 Y18.4517 F350.00
G01 X17.5478 Y18.5659 F350.00
G01 X17.5650 Y18.6824 F350.00
G01 X17.5706 Y18.7902 F350.00
G01 X17.5706 Y18.8098 F350.00
G01 X17.5650 Y18.9176 F350.00
G01 X17.5494 Y19.0244 F350.00
G01 X17.5456 Y19.0437 F350.00
G01 X17.5192 Y19.1483 F350.00
G01 X17.4830 Y19.2501 F350.00
G01 X17.4755 Y19.2682 F350.00
G01 X17.4335 Y19.3569 F350.00
G01 X17.4243 Y19.3742 F350.00
G01 X17.3686 Y19.4667 F350.00
G01 X17.3045 Y19.5535 F350.00
G01 X17.2920 Y19.5687 F350.00
G01 X17.2194 Y19.6485 F350.00
G01 X17.1321 Y19.7276 F350.00
G01 X17.0455 Y19.7921 F350.00
G01 X17.0292 Y19.8030 F350.00
G01 X16.9450 Y19.8535 F350.00
G01 X16.9321 Y19.8606 F350.00
G01 X16.8390 Y19.9047 F350.00
G01 X16.8209 Y19.9122 F350.00
G01 X16.7192 Y19.9483 F350.00
G01 X16.6145 Y19.9748 F350.00
G01 X16.5953 Y19.9786 F350.00
G01 X16.4884 Y19.9942 F350.00
G01 X16.3806 Y19.9998 F350.00
G01 X16.3610 Y19.9998 F350.00
G01 X16.2532 Y19.9942 F350.00
G01 X16.1464 Y19.9786 F350.00
G01 X16.1271 Y19.9748 F350.00
G01 X16.0225 Y19.9483 F350.00
G01 X15.9208 Y19.9122 F350.00
G01 X15.9026 Y19.9047 F350.00
G01 X15.8051 Y19.8583 F350.00
G01 X15.7124 Y19.8030 F350.00
G01 X15.6961 Y19.7921 F350.00
G01 X15.6096 Y19.7276 F350.00
G01 X15.5294 Y19.6553 F350.00
G01 X15.5155 Y19.6414 F350.00
G01 X15.4432 Y19.5613 F350.00
G01 X15.3787 Y19.4747 F350.00
G01 X15.3678 Y19.4584 F350.00
G01 X15.3125 Y19.3657 F350.00
G01 X15.2622 Y19.2592 F350.00
G01 X15.2256 Y19.1577 F350.00
G01 X15.2199 Y19.1389 F350.00
G01 X15.1939 Y19.0341 F350.00
G01 X15.1778 Y18.9274 F350.00
G01 X15.1759 Y18.9078 F350.00
G01 X15.1709 Y18.8049 F350.00
G01 X15.1711 Y18.7902 F350.00
G01 X15.1766 Y18.6824 F350.00
G01 X15.1930 Y18.5707 F350.00
G01 X15.1960 Y18.5563 F350.00
G01 X15.2211 Y18.4564 F350.00
G01 X15.2240 Y18.4470 F350.00
G01 X15.2333 Y18.4207 F350.00
G01 X15.2306 Y18.3600 F350.00
G01 X15.2306 Y12.6907 F350.00
G01 X15.2029 Y12.6601 F350.00
G01 X15.1934 Y12.6488 F350.00
G01 X15.1437 Y12.5818 F350.00
G01 X15.1357 Y12.5695 F350.00
G01 X15.0978 Y12.5064 F350.00
G01 X15.0907 Y12.4935 F350.00
G01 X15.0531 Y12.4135 F350.00
G01 X15.0248 Y12.3351 F350.00
G01 X15.0191 Y12.3163 F350.00
G01 X15.0012 Y12.2449 F350.00
G01 X14.9982 Y12.2305 F350.00
G01 X14.9854 Y12.1431 F350.00
G01 X14.9811 Y12.0598 F350.00
G01 X14.9808 Y11.8125 F350.00
G01 X14.9804 Y11.8000 F350.00
G01 X14.9808 Y11.7875 F350.00
G01 X14.9811 Y11.5402 F350.00
G01 X14.9854 Y11.4569 F350.00
G01 X14.9982 Y11.3695 F350.00
G01 X15.0012 Y11.3551 F350.00
G01 X15.0191 Y11.2837 F350.00
G01 X15.0248 Y11.2649 F350.00
G01 X15.0531 Y11.1865 F350.00
G01 X15.0886 Y11.1109 F350.00
G01 X15.0978 Y11.0936 F350.00
G01 X15.1409 Y11.0222 F350.00
G01 X15.1904 Y10.9551 F350.00
G01 X15.2029 Y10.9399 F350.00
G01 X15.2591 Y10.8782 F350.00
G01 X15.3207 Y10.8221 F350.00
G01 X15.3359 Y10.8096 F350.00
G01 X15.4030 Y10.7601 F350.00
G01 X15.4830 Y10.7122 F350.00
G01 X15.5583 Y10.6763 F350.00
G01 X15.5764 Y10.6688 F350.00
G01 X15.6457 Y10.6440 F350.00
G01 X15.6598 Y10.6395 F350.00
G01 X15.7359 Y10.6204 F350.00
G01 X15.7552 Y10.6166 F350.00
G01 X15.8377 Y10.6046 F350.00
G01 X15.9210 Y10.6002 F350.00
G01 X15.9406 Y10.6002 F350.00
G01 X16.0239 Y10.6046 F350.00
G01 X16.1113 Y10.6174 F350.00
G01 X16.1257 Y10.6204 F350.00
G01 X16.1971 Y10.6383 F350.00
G01 X16.2159 Y10.6440 F350.00
G01 X16.2944 Y10.6723 F350.00
G01 X16.3743 Y10.7099 F350.00
G01 X16.3872 Y10.7170 F350.00
G01 X16.4503 Y10.7549 F350.00
G01 X16.4627 Y10.7629 F350.00
G01 X16.5297 Y10.8126 F350.00
G01 X16.5409 Y10.8221 F350.00
G01 X16.5714 Y10.8496 F350.00
G01 X16.9572 Y10.8496 F350.00
G01 X17.1267 Y10.6801 F350.00
G01 X17.1051 Y10.6698 F350.00
G01 X17.0964 Y10.6652 F350.00
G01 X17.0459 Y10.6349 F350.00
G01 X17.0338 Y10.6266 F350.00
G01 X16.9943 Y10.5973 F350.00
G01 X16.9792 Y10.5849 F350.00
G01 X16.9357 Y10.5452 F350.00
G01 X16.6408 Y10.2503 F350.00
G01 X12.8811 Y10.2503 F350.00
G01 X12.8811 Y11.0500 F350.00
G01 X12.8784 Y11.1088 F350.00
G01 X12.8772 Y11.1235 F350.00
G01 X12.8676 Y11.1866 F350.00
G01 X12.8535 Y11.2438 F350.00
G01 X12.8478 Y11.2626 F350.00
G01 X12.8278 Y11.3180 F350.00
G01 X12.8028 Y11.3713 F350.00
G01 X12.7935 Y11.3886 F350.00
G01 X12.7631 Y11.4390 F350.00
G01 X12.7221 Y11.4942 F350.00
G01 X12.6760 Y11.5452 F350.00
G01 X8.3811 Y15.8401 F350.00
G01 X8.3811 Y20.5997 F350.00
G01 X8.8156 Y20.5997 F350.00
G01 X8.8808 Y20.5517 F350.00
G01 X8.9480 Y20.5111 F350.00
G01 X8.9653 Y20.5019 F350.00
G01 X9.0364 Y20.4685 F350.00
G01 X9.1196 Y20.4388 F350.00
G01 X9.1957 Y20.4194 F350.00
G01 X9.2149 Y20.4156 F350.00
G01 X9.2926 Y20.4043 F350.00
G01 X9.3808 Y20.4000 F350.00
G01 X10.4808 Y20.4000 F350.00
G01 X10.5592 Y20.4036 F350.00
G01 X10.5788 Y20.4055 F350.00
G01 X10.6467 Y20.4156 F350.00
G01 X10.6660 Y20.4194 F350.00
G01 X10.7421 Y20.4388 F350.00
G01 X10.8252 Y20.4685 F350.00
G01 X10.8963 Y20.5019 F350.00
G01 X10.9136 Y20.5111 F350.00
G01 X10.9808 Y20.5517 F350.00
G01 X11.0460 Y20.5997 F350.00
G01 X11.4634 Y20.6000 F350.00
G01 X11.5223 Y20.6031 F350.00
G01 X11.5806 Y20.6115 F350.00
G01 X11.5998 Y20.6154 F350.00
G01 X11.6522 Y20.6285 F350.00
G01 X11.6662 Y20.6330 F350.00
G01 X11.7216 Y20.6531 F350.00
G01 X11.7749 Y20.6780 F350.00
G01 X11.7923 Y20.6873 F350.00
G01 X11.8427 Y20.7178 F350.00
G01 X11.8901 Y20.7527 F350.00
G01 X11.9016 Y20.7619 F350.00
G01 X11.9417 Y20.7981 F350.00
G01 X17.1760 Y26.0321 F350.00
G01 X17.2221 Y26.0830 F350.00
G01 X17.2631 Y26.1382 F350.00
G01 X17.2984 Y26.1971 F350.00
G01 X17.3238 Y26.2503 F350.00
G01 X17.3313 Y26.2684 F350.00
G01 X17.3509 Y26.3239 F350.00
G01 X17.3655 Y26.3810 F350.00
G01 X17.3693 Y26.4003 F350.00
G01 X17.3772 Y26.4537 F350.00
G01 X17.3784 Y26.4684 F350.00
G01 X17.3811 Y26.5272 F350.00
G01 X17.3811 Y27.0215 F350.00
G01 X17.3927 Y27.0344 F350.00
G01 X17.3989 Y27.0420 F350.00
G01 X17.4499 Y27.1111 F350.00
G01 X17.4918 Y27.1804 F350.00
G01 X17.5010 Y27.1977 F350.00
G01 X17.5354 Y27.2710 F350.00
G01 X17.5629 Y27.3472 F350.00
G01 X17.5686 Y27.3659 F350.00
G01 X17.5859 Y27.4350 F350.00
G01 X17.5889 Y27.4494 F350.00
G01 X17.6014 Y27.5343 F350.00
G01 X17.6058 Y27.6201 F350.00
G01 X17.6058 Y27.9799 F350.00
G01 X17.6021 Y28.0559 F350.00
G01 X17.6002 Y28.0754 F350.00
G01 X17.5880 Y28.1555 F350.00
G01 X17.5686 Y28.2341 F350.00
G01 X17.5629 Y28.2528 F350.00
G01 X17.5354 Y28.3290 F350.00
G01 X17.4966 Y28.4110 F350.00
G01 X17.4499 Y28.4889 F350.00
G01 X17.4019 Y28.5541 F350.00
G01 X17.3894 Y28.5692 F350.00
G01 X17.3349 Y28.6291 F350.00
G01 X17.2751 Y28.6836 F350.00
G01 X17.2599 Y28.6961 F350.00
G01 X17.1988 Y28.7413 F350.00
G01 X17.1864 Y28.7494 F350.00
G01 X17.1169 Y28.7908 F350.00
G01 X17.0348 Y28.8296 F350.00
G01 X16.9493 Y28.8602 F350.00
G01 X16.8709 Y28.8801 F350.00
G01 X16.8516 Y28.8839 F350.00
G01 X16.7715 Y28.8955 F350.00
G01 X16.6906 Y28.8998 F350.00
G01 X16.6710 Y28.8998 F350.00
G01 X16.5999 Y28.8963 F350.00
G01 X16.5804 Y28.8943 F350.00
G01 X16.5004 Y28.8822 F350.00
G01 X16.4123 Y28.8602 F350.00
G01 X16.3268 Y28.8296 F350.00
G01 X16.2448 Y28.7908 F350.00
G01 X16.1669 Y28.7441 F350.00
G01 X16.0940 Y28.6900 F350.00
G01 X16.0267 Y28.6291 F350.00
G01 X15.9722 Y28.5692 F350.00
G01 X15.9597 Y28.5541 F350.00
G01 X15.9117 Y28.4889 F350.00
G01 X15.8699 Y28.4196 F350.00
G01 X15.8606 Y28.4023 F350.00
G01 X15.8262 Y28.3290 F350.00
G01 X15.7987 Y28.2528 F350.00
G01 X15.7930 Y28.2341 F350.00
G01 X15.7746 Y28.1603 F350.00
G01 X15.7719 Y28.1458 F350.00
G01 X15.7603 Y28.0657 F350.00
G01 X15.7559 Y27.9799 F350.00
G01 X15.7558 Y27.6250 F350.00
G01 X15.7603 Y27.5343 F350.00
G01 X15.7736 Y27.4445 F350.00
G01 X15.7957 Y27.3565 F350.00
G01 X15.8244 Y27.2756 F350.00
G01 X15.8302 Y27.2620 F350.00
G01 X15.8650 Y27.1890 F350.00
G01 X15.9065 Y27.1194 F350.00
G01 X15.9174 Y27.1031 F350.00
G01 X15.9597 Y27.0459 F350.00
G01 X15.9689 Y27.0344 F350.00
G01 X15.9806 Y27.0215 F350.00
G01 X15.9806 Y26.8173 F350.00
G01 X11.1636 Y22.0003 F350.00
G01 X11.0460 Y22.0003 F350.00
G01 X10.9808 Y22.0483 F350.00
G01 X10.9136 Y22.0889 F350.00
G01 X10.8963 Y22.0981 F350.00
G01 X10.8252 Y22.1315 F350.00
G01 X10.7514 Y22.1582 F350.00
G01 X10.7326 Y22.1639 F350.00
G01 X10.6564 Y22.1827 F350.00
G01 X10.5739 Y22.1951 F350.00
G01 X10.5592 Y22.1964 F350.00
G01 X10.4808 Y22.2000 F350.00
G01 X9.3808 Y22.2000 F350.00
G01 X9.2926 Y22.1957 F350.00
G01 X9.2149 Y22.1844 F350.00
G01 X9.1957 Y22.1806 F350.00
G01 X9.1290 Y22.1639 F350.00
G01 X9.1102 Y22.1582 F350.00
G01 X9.0364 Y22.1315 F350.00
G01 X8.9566 Y22.0937 F350.00
G01 X8.8808 Y22.0483 F350.00
G01 X8.8156 Y22.0003 F350.00
G01 X8.3811 Y22.0003 F350.00
G01 X8.3811 Y23.7862 F350.00
G01 X8.3957 Y23.7951 F350.00
G01 X8.4039 Y23.8005 F350.00
G01 X8.4512 Y23.8356 F350.00
G01 X8.4625 Y23.8451 F350.00
G01 X8.4989 Y23.8781 F350.00
G01 X8.6714 Y24.0502 F350.00
G01 X8.6906 Y24.0502 F350.00
G01 X8.7788 Y24.0548 F350.00
G01 X8.8662 Y24.0675 F350.00
G01 X8.8855 Y24.0714 F350.00
G01 X8.9616 Y24.0904 F350.00
G01 X8.9804 Y24.0961 F350.00
G01 X9.0635 Y24.1261 F350.00
G01 X9.1522 Y24.1681 F350.00
G01 X9.2364 Y24.2185 F350.00
G01 X9.3152 Y24.2770 F350.00
G01 X9.3879 Y24.3429 F350.00
G01 X9.4474 Y24.4082 F350.00
G01 X9.4599 Y24.4233 F350.00
G01 X9.5066 Y24.4864 F350.00
G01 X9.5175 Y24.5027 F350.00
G01 X9.5627 Y24.5786 F350.00
G01 X9.6047 Y24.6673 F350.00
G01 X9.6378 Y24.7597 F350.00
G01 X9.6606 Y24.8501 F350.00
G01 X9.6633 Y24.8646 F350.00
G01 X9.6748 Y24.9422 F350.00
G01 X9.6767 Y24.9618 F350.00
G01 X9.6808 Y25.0500 F350.00
G01 X9.6760 Y25.1480 F350.00
G01 X9.6633 Y25.2354 F350.00
G01 X9.6595 Y25.2547 F350.00
G01 X9.6378 Y25.3403 F350.00
G01 X9.6047 Y25.4327 F350.00
G01 X9.5627 Y25.5214 F350.00
G01 X9.5175 Y25.5973 F350.00
G01 X9.5066 Y25.6136 F350.00
G01 X9.4538 Y25.6844 F350.00
G01 X9.3879 Y25.7571 F350.00
G01 X9.3226 Y25.8166 F350.00
G01 X9.3075 Y25.8290 F350.00
G01 X9.2364 Y25.8815 F350.00
G01 X9.1608 Y25.9271 F350.00
G01 X9.1435 Y25.9363 F350.00
G01 X9.0635 Y25.9739 F350.00
G01 X8.9804 Y26.0039 F350.00
G01 X8.9616 Y26.0096 F350.00
G01 X8.8759 Y26.0308 F350.00
G01 X8.7886 Y26.0440 F350.00
G01 X8.7691 Y26.0459 F350.00
G01 X8.6808 Y26.0500 F350.00
G01 X8.5926 Y26.0459 F350.00
G01 X8.5731 Y26.0440 F350.00
G01 X8.4857 Y26.0308 F350.00
G01 X8.3905 Y26.0069 F350.00
G01 X8.3073 Y25.9774 F350.00
G01 X8.2892 Y25.9699 F350.00
G01 X8.2094 Y25.9319 F350.00
G01 X8.1335 Y25.8867 F350.00
G01 X8.1172 Y25.8758 F350.00
G01 X8.0464 Y25.8230 F350.00
G01 X7.9808 Y25.7639 F350.00
G01 X7.9669 Y25.7500 F350.00
G01 X7.9078 Y25.6844 F350.00
G01 X7.8550 Y25.6136 F350.00
G01 X7.8467 Y25.6015 F350.00
G01 X7.7989 Y25.5214 F350.00
G01 X7.7609 Y25.4417 F350.00
G01 X7.7534 Y25.4235 F350.00
G01 X7.7239 Y25.3403 F350.00
G01 X7.7022 Y25.2547 F350.00
G01 X7.6984 Y25.2354 F350.00
G01 X7.6856 Y25.1480 F350.00
G01 X7.6821 Y25.0803 F350.00
G01 X7.6710 Y25.0800 F350.00
G01 X7.6122 Y25.0769 F350.00
G01 X7.5539 Y25.0685 F350.00
G01 X7.5346 Y25.0646 F350.00
G01 X7.4776 Y25.0501 F350.00
G01 X7.4220 Y25.0305 F350.00
G01 X7.4039 Y25.0230 F350.00
G01 X7.3507 Y24.9976 F350.00
G01 X7.2918 Y24.9622 F350.00
G01 X7.2443 Y24.9273 F350.00
G01 X7.2292 Y24.9149 F350.00
G01 X7.1857 Y24.8752 F350.00
G01 X7.1459 Y24.8317 F350.00
G01 X7.1335 Y24.8165 F350.00
G01 X7.1014 Y24.7731 F350.00
G01 X7.0933 Y24.7607 F350.00
G01 X7.0681 Y24.7186 F350.00
G01 X7.0588 Y24.7013 F350.00
G01 X7.0339 Y24.6480 F350.00
G01 X7.0107 Y24.5833 F350.00
G01 X6.9962 Y24.5262 F350.00
G01 X6.9923 Y24.5069 F350.00
G01 X6.9839 Y24.4486 F350.00
G01 X6.9806 Y24.3849 F350.00
G01 X6.9806 Y15.4712 F350.00
G01 X6.9839 Y15.4075 F350.00
G01 X6.9923 Y15.3492 F350.00
G01 X6.9962 Y15.3299 F350.00
G01 X7.0107 Y15.2729 F350.00
G01 X7.0339 Y15.2082 F350.00
G01 X7.0588 Y15.1548 F350.00
G01 X7.0681 Y15.1375 F350.00
G01 X7.0986 Y15.0871 F350.00
G01 X7.1335 Y15.0396 F350.00
G01 X7.1459 Y15.0245 F350.00
G01 X7.1857 Y14.9810 F350.00
G01 X7.2366 Y14.9348 F350.00
G01 X7.2838 Y14.8995 F350.00
G01 X7.3001 Y14.8886 F350.00
G01 X7.3507 Y14.8586 F350.00
G01 X7.4102 Y14.8303 F350.00
G00 Z0.4000
G00 X7.2814 Y14.9013
G01 F250.00
G01 Z-0.0500
G01 F350.00
G01 X5.4541 Y14.9013 F350.00
G01 X5.3998 Y15.1813 F350.00
G01 X7.0463 Y15.1813 F350.00
G00 Z0.4000
G00 X6.9811 Y15.4613
G01 F250.00
G01 Z-0.0500
G01 F350.00
G01 X5.3806 Y15.4613 F350.00
G01 X5.3806 Y15.7413 F350.00
G01 X6.9806 Y15.7413 F350.00
G01 X6.9806 Y16.0213 F350.00
G01 X5.3806 Y16.0213 F350.00
G01 X5.3806 Y16.3013 F350.00
G01 X6.9806 Y16.3013 F350.00
G01 X6.9806 Y16.5813 F350.00
G01 X5.3806 Y16.5813 F350.00
G01 X5.3806 Y16.8613 F350.00
G01 X6.9806 Y16.8613 F350.00
G01 X6.9806 Y17.1413 F350.00
G01 X5.3806 Y17.1413 F350.00
G01 X5.3806 Y17.4213 F350.00
G01 X6.9806 Y17.4213 F350.00
G01 X6.9806 Y17.7013 F350.00
G01 X5.3806 Y17.7013 F350.00
G01 X5.3806 Y17.9813 F350.00
G01 X6.9806 Y17.9813 F350.00
G01 X6.9806 Y18.2613 F350.00
G01 X5.3806 Y18.2613 F350.00
G01 X5.3806 Y18.5413 F350.00
G01 X6.9806 Y18.5413 F350.00
G01 X6.9806 Y18.8213 F350.00
G01 X5.3806 Y18.8213 F350.00
G01 X5.3806 Y19.1013 F350.00
G01 X6.9806 Y19.1013 F350.00
G01 X6.9806 Y19.3813 F350.00
G01 X5.3806 Y19.3813 F350.00
G01 X5.3806 Y19.6613 F350.00
G01 X6.9806 Y19.6613 F350.00
G01 X6.9806 Y19.9413 F350.00
G01 X5.3806 Y19.9413 F350.00
G01 X5.3806 Y20.2213 F350.00
G01 X6.9806 Y20.2213 F350.00
G01 X6.9806 Y20.5013 F350.00
G01 X5.3806 Y20.5013 F350.00
G01 X5.3806 Y20.7813 F350.00
G01 X6.9806 Y20.7813 F350.00
G01 X6.9806 Y21.0613 F350.00
G01 X5.3806 Y21.0613 F350.00
G01 X5.3806 Y21.3413 F350.00
G01 X6.9806 Y21.3413 F350.00
G01 X6.9806 Y21.6213 F350.00
G01 X5.3806 Y21.6213 F350.00
G01 X5.3806 Y21.9013 F350.00
G01 X6.9806 Y21.9013 F350.00
G01 X6.9806 Y22.1813 F350.00
G01 X5.3806 Y22.1813 F350.00
G01 X5.3806 Y22.4613 F350.00
G01 X6.9806 Y22.4613 F350.00
G01 X6.9806 Y22.7413 F350.00
G01 X5.3806 Y22.7413 F350.00
G01 X5.3806 Y23.0213 F350.00
G01 X6.9806 Y23.0213 F350.00
G01 X6.9806 Y23.3013 F350.00
G01 X5.3806 Y23.3013 F350.00
G01 X5.3806 Y23.5813 F350.00
G01 X6.9806 Y23.5813 F350.00
G01 X6.9806 Y23.8613 F350.00
G01 X5.3806 Y23.8613 F350.00
G01 X5.3806 Y24.1413 F350.00
G01 X6.9806 Y24.1413 F350.00
G00 Z0.4000
G00 X6.9824 Y24.4213
G01 F250.00
G01 Z-0.0500
G01 F350.00
G01 X5.3806 Y24.4213 F350.00
G01 X5.4037 Y24.7013 F350.00
G01 X7.0588 Y24.7013 F350.00
G00 Z0.4000
G00 X7.3231 Y24.9813
G01 F250.00
G01 Z-0.0500
G01 F350.00
G01 X5.4607 Y24.9813 F350.00
G01 X5.5537 Y25.2613 F350.00
G01 X7.7038 Y25.2613 F350.00
G00 Z0.4000
G00 X7.8105 Y25.5413
G01 F250.00
G01 Z-0.0500
G01 F350.00
G01 X5.6958 Y25.5413 F350.00
G01 X5.8867 Y25.8213 F350.00
G01 X8.0444 Y25.8213 F350.00
G00 Z0.4000
G00 X9.3173 Y25.8213
G01 F250.00
G01 Z-0.0500
G01 F350.00
G01 X10.5444 Y25.8213 F350.00
G00 Z0.4000
G00 X10.3105 Y25.5413
G01 F250.00
G01 Z-0.0500
G01 F350.00
G01 X9.5511 Y25.5413 F350.00
G00 Z0.4000
G00 X9.6578 Y25.2613
G01 F250.00
G01 Z-0.0500
G01 F350.00
G01 X10.2038 Y25.2613 F350.00
G00 Z0.4000
G00 X10.1840 Y24.9813
G01 F250.00
G01 Z-0.0500
G01 F350.00
G01 X9.6777 Y24.9813 F350.00
G00 Z0.4000
G00 X9.6171 Y24.7013
G01 F250.00
G01 Z-0.0500
G01 F350.00
G01 X10.2445 Y24.7013 F350.00
G00 Z0.4000
G00 X10.4034 Y24.4213
G01 F250.00
G01 Z-0.0500
G01 F350.00
G01 X9.4583 Y24.4213 F350.00
G00 Z0.4000
G00 X9.0961 Y24.1413
G01 F250.00
G01 Z-0.0500
G01 F350.00
G01 X10.7656 Y24.1413 F350.00
G00 Z0.4000
G00 X11.5961 Y24.1413
G01 F250.00
G01 Z-0.0500
G01 F350.00
G01 X13.3046 Y24.1413 F350.00
G01 X13.5846 Y24.4213 F350.00
G01 X12.2379 Y24.4213 F350.00
G00 Z0.4000
G00 X12.5724 Y24.7013
G01 F250.00
G01 Z-0.0500
G01 F350.00
G01 X13.8646 Y24.7013 F350.00
G01 X14.1446 Y24.9813 F350.00
G01 X12.8524 Y24.9813 F350.00
G01 X13.1324 Y25.2613 F350.00
G01 X14.4246 Y25.2613 F350.00
G01 X14.7046 Y25.5413 F350.00
G01 X13.4124 Y25.5413 F350.00
G01 X13.6924 Y25.8213 F350.00
G01 X14.9846 Y25.8213 F350.00
G01 X15.2646 Y26.1013 F350.00
G01 X13.9724 Y26.1013 F350.00
G01 X14.2524 Y26.3813 F350.00
G01 X15.5446 Y26.3813 F350.00
G01 X15.8246 Y26.6613 F350.00
G01 X14.5324 Y26.6613 F350.00
G00 Z0.4000
G00 X15.3025 Y26.9413
G01 F250.00
G01 Z-0.0500
G01 F350.00
G01 X15.9806 Y26.9413 F350.00
G01 X15.8495 Y27.2213 F350.00
G01 X15.5121 Y27.2213 F350.00
G00 Z0.4000
G00 X15.5967 Y27.5013
G01 F250.00
G01 Z-0.0500
G01 F350.00
G01 X15.7649 Y27.5013 F350.00
G00 Z0.4000
G00 X15.7558 Y27.7813
G01 F250.00
G01 Z-0.0500
G01 F350.00
G01 X15.6058 Y27.7813 F350.00
G00 Z0.4000
G00 X15.6017 Y28.0613
G01 F250.00
G01 Z-0.0500
G01 F350.00
G01 X15.7599 Y28.0613 F350.00
G00 Z0.4000
G00 X15.8318 Y28.3413
G01 F250.00
G01 Z-0.0500
G01 F350.00
G01 X15.5299 Y28.3413 F350.00
G00 Z0.4000
G00 X15.3811 Y28.6213
G01 F250.00
G01 Z-0.0500
G01 F350.00
G01 X16.0193 Y28.6213 F350.00
G01 X15.4996 Y28.9013 F350.00
G01 X20.0893 Y28.9013 F350.00
G01 X20.3693 Y28.6213 F350.00
G01 X17.3423 Y28.6213 F350.00
G00 Z0.4000
G00 X17.5299 Y28.3413
G01 F250.00
G01 Z-0.0500
G01 F350.00
G01 X20.6493 Y28.3413 F350.00
G01 X20.9293 Y28.0613 F350.00
G01 X17.6017 Y28.0613 F350.00
G00 Z0.4000
G00 X17.6058 Y27.7813
G01 F250.00
G01 Z-0.0500
G01 F350.00
G01 X21.2093 Y27.7813 F350.00
G01 X21.2649 Y27.5013 F350.00
G01 X17.5967 Y27.5013 F350.00
G00 Z0.4000
G00 X17.5121 Y27.2213
G01 F250.00
G01 Z-0.0500
G01 F350.00
G01 X21.3495 Y27.2213 F350.00
G00 Z0.4000
G00 X21.5591 Y26.9413
G01 F250.00
G01 Z-0.0500
G01 F350.00
G01 X17.3811 Y26.9413 F350.00
G01 X17.3811 Y26.6613 F350.00
G01 X23.4806 Y26.6613 F350.00
G01 X23.4806 Y26.3813 F350.00
G01 X17.3655 Y26.3813 F350.00
G00 Z0.4000
G00 X17.2360 Y26.1013
G01 F250.00
G01 Z-0.0500
G01 F350.00
G01 X23.4806 Y26.1013 F350.00
G01 X23.4806 Y25.8213 F350.00
G01 X16.9652 Y25.8213 F350.00
G01 X16.6852 Y25.5413 F350.00
G01 X23.4806 Y25.5413 F350.00
G01 X23.4806 Y25.2613 F350.00
G01 X16.4052 Y25.2613 F350.00
G01 X16.1252 Y24.9813 F350.00
G01 X23.4806 Y24.9813 F350.00
G01 X23.4806 Y24.7013 F350.00
G01 X15.8452 Y24.7013 F350.00
G01 X15.5652 Y24.4213 F350.00
G01 X23.4806 Y24.4213 F350.00
G01 X23.4806 Y24.1413 F350.00
G01 X15.2852 Y24.1413 F350.00
G01 X15.0052 Y23.8613 F350.00
G01 X23.2518 Y23.8613 F350.00
G01 X22.9718 Y23.5813 F350.00
G01 X14.7252 Y23.5813 F350.00
G00 Z0.4000
G00 X14.8758 Y23.3013
G01 F250.00
G01 Z-0.0500
G01 F350.00
G01 X14.4452 Y23.3013 F350.00
G01 X14.5955 Y23.0213 F350.00
G01 X14.1652 Y23.0213 F350.00
G01 X14.3155 Y22.7413 F350.00
G01 X13.8852 Y22.7413 F350.00
G01 X14.0355 Y22.4613 F350.00
G01 X13.6052 Y22.4613 F350.00
G01 X13.7555 Y22.1813 F350.00
G01 X13.3252 Y22.1813 F350.00
G01 X13.4755 Y21.9013 F350.00
G01 X13.0452 Y21.9013 F350.00
G01 X13.1955 Y21.6213 F350.00
G01 X12.7652 Y21.6213 F350.00
G01 X12.9155 Y21.3413 F350.00
G01 X12.4852 Y21.3413 F350.00
G01 X12.6355 Y21.0613 F350.00
G01 X12.2052 Y21.0613 F350.00
G01 X12.3555 Y20.7813 F350.00
G01 X11.9231 Y20.7813 F350.00
G01 X12.0755 Y20.5013 F350.00
G01 X10.8951 Y20.5013 F350.00
G01 X11.7955 Y20.2213 F350.00
G01 X8.3811 Y20.2213 F350.00
G01 X8.3811 Y20.5013 F350.00
G01 X8.9666 Y20.5013 F350.00
G00 Z0.4000
G00 X8.7495 Y19.9413
G01 F250.00
G01 Z-0.0500
G01 F350.00
G01 X8.3811 Y19.9413 F350.00
G01 X8.3811 Y19.6613 F350.00
G01 X8.5570 Y19.6613 F350.00
G00 Z0.4000
G00 X8.4846 Y19.3813
G01 F250.00
G01 Z-0.0500
G01 F350.00
G01 X8.3811 Y19.3813 F350.00
G01 X8.3811 Y19.1013 F350.00
G01 X8.5037 Y19.1013 F350.00
G00 Z0.4000
G00 X8.6195 Y18.8213
G01 F250.00
G01 Z-0.0500
G01 F350.00
G01 X8.3811 Y18.8213 F350.00
G01 X8.3811 Y18.5413 F350.00
G01 X8.8977 Y18.5413 F350.00
G01 X8.7936 Y17.9813 F350.00
G01 X8.3811 Y17.9813 F350.00
G01 X8.3811 Y17.7013 F350.00
G01 X8.5760 Y17.7013 F350.00
G00 Z0.4000
G00 X8.4898 Y17.4213
G01 F250.00
G01 Z-0.0500
G01 F350.00
G01 X8.3811 Y17.4213 F350.00
G01 X8.3811 Y17.1413 F350.00
G01 X8.4954 Y17.1413 F350.00
G00 Z0.4000
G00 X8.5955 Y16.8613
G01 F250.00
G01 Z-0.0500
G01 F350.00
G01 X8.3811 Y16.8613 F350.00
G01 X8.3811 Y16.5813 F350.00
G01 X8.8405 Y16.5813 F350.00
G01 X8.3811 Y16.3013 F350.00
G01 X13.2306 Y16.3013 F350.00
G01 X13.2306 Y16.0213 F350.00
G01 X8.3811 Y16.0213 F350.00
G01 X8.4799 Y15.7413 F350.00
G01 X13.2306 Y15.7413 F350.00
G01 X13.2306 Y15.4613 F350.00
G01 X8.7599 Y15.4613 F350.00
G01 X9.0399 Y15.1813 F350.00
G01 X13.2306 Y15.1813 F350.00
G01 X13.2306 Y14.9013 F350.00
G01 X9.3199 Y14.9013 F350.00
G01 X9.5999 Y14.6213 F350.00
G01 X13.2306 Y14.6213 F350.00
G01 X13.2306 Y14.3413 F350.00
G01 X9.8799 Y14.3413 F350.00
G01 X10.1599 Y14.0613 F350.00
G01 X13.2306 Y14.0613 F350.00
G01 X13.2306 Y13.7813 F350.00
G01 X10.4399 Y13.7813 F350.00
G01 X10.7199 Y13.5013 F350.00
G01 X13.2306 Y13.5013 F350.00
G01 X13.2306 Y13.2213 F350.00
G01 X10.9999 Y13.2213 F350.00
G01 X11.2799 Y12.9413 F350.00
G01 X13.2306 Y12.9413 F350.00
G01 X13.2039 Y12.6613 F350.00
G01 X11.5599 Y12.6613 F350.00
G01 X11.8399 Y12.3813 F350.00
G01 X13.0413 Y12.3813 F350.00
G00 Z0.4000
G00 X12.9831 Y12.1013
G01 F250.00
G01 Z-0.0500
G01 F350.00
G01 X12.1199 Y12.1013 F350.00
G01 X12.3999 Y11.8213 F350.00
G01 X12.9808 Y11.8213 F350.00
G00 Z0.4000
G00 X12.9810 Y11.5413
G01 F250.00
G01 Z-0.0500
G01 F350.00
G01 X12.6798 Y11.5413 F350.00
G00 Z0.4000
G00 X12.8483 Y11.2613
G01 F250.00
G01 Z-0.0500
G01 F350.00
G01 X13.0261 Y11.2613 F350.00
G00 Z0.4000
G00 X13.1710 Y10.9813
G01 F250.00
G01 Z-0.0500
G01 F350.00
G01 X12.8811 Y10.9813 F350.00
G01 X12.8811 Y10.7013 F350.00
G01 X13.5055 Y10.7013 F350.00
G01 X12.8811 Y10.4213 F350.00
G01 X16.8118 Y10.4213 F350.00
G00 Z0.4000
G00 X17.1055 Y10.7013
G01 F250.00
G01 Z-0.0500
G01 F350.00
G01 X16.3561 Y10.7013 F350.00
G00 Z0.4000
G00 X15.5055 Y10.7013
G01 F250.00
G01 Z-0.0500
G01 F350.00
G01 X14.3561 Y10.7013 F350.00
G00 Z0.4000
G00 X14.6907 Y10.9813
G01 F250.00
G01 Z-0.0500
G01 F350.00
G01 X15.1710 Y10.9813 F350.00
G00 Z0.4000
G00 X15.0261 Y11.2613
G01 F250.00
G01 Z-0.0500
G01 F350.00
G01 X14.8355 Y11.2613 F350.00
G00 Z0.4000
G00 X14.8806 Y11.5413
G01 F250.00
G01 Z-0.0500
G01 F350.00
G01 X14.9810 Y11.5413 F350.00
G00 Z0.4000
G00 X14.9808 Y11.8213
G01 F250.00
G01 Z-0.0500
G01 F350.00
G01 X14.8808 Y11.8213 F350.00
G00 Z0.4000
G00 X14.8785 Y12.1013
G01 F250.00
G01 Z-0.0500
G01 F350.00
G01 X14.9831 Y12.1013 F350.00
G00 Z0.4000
G00 X15.0413 Y12.3813
G01 F250.00
G01 Z-0.0500
G01 F350.00
G01 X14.8203 Y12.3813 F350.00
G00 Z0.4000
G00 X14.6577 Y12.6613
G01 F250.00
G01 Z-0.0500
G01 F350.00
G01 X15.2039 Y12.6613 F350.00
G01 X15.2306 Y12.9413 F350.00
G01 X14.6311 Y12.9413 F350.00
G01 X14.6311 Y13.2213 F350.00
G01 X15.2306 Y13.2213 F350.00
G01 X15.2306 Y13.5013 F350.00
G01 X14.6311 Y13.5013 F350.00
G01 X14.6311 Y13.7813 F350.00
G01 X15.2306 Y13.7813 F350.00
G01 X15.2306 Y14.0613 F350.00
G01 X14.6311 Y14.0613 F350.00
G01 X14.6311 Y14.3413 F350.00
G01 X15.2306 Y14.3413 F350.00
G01 X15.2306 Y14.6213 F350.00
G01 X14.6311 Y14.6213 F350.00
G01 X14.6311 Y14.9013 F350.00
G01 X15.2306 Y14.9013 F350.00
G01 X15.2306 Y15.1813 F350.00
G01 X14.6311 Y15.1813 F350.00
G01 X14.6311 Y15.4613 F350.00
G01 X15.2306 Y15.4613 F350.00
G01 X15.2306 Y15.7413 F350.00
G01 X14.6311 Y15.7413 F350.00
G01 X14.6311 Y16.0213 F350.00
G01 X15.2306 Y16.0213 F350.00
G01 X15.2306 Y16.3013 F350.00
G01 X14.6311 Y16.3013 F350.00
G01 X14.6311 Y16.5813 F350.00
G01 X15.2306 Y16.5813 F350.00
G01 X15.2306 Y16.8613 F350.00
G01 X14.6311 Y16.8613 F350.00
G01 X14.6311 Y17.1413 F350.00
G01 X15.2306 Y17.1413 F350.00
G01 X15.2306 Y17.4213 F350.00
G01 X14.6311 Y17.4213 F350.00
G01 X14.6311 Y17.7013 F350.00
G01 X15.2306 Y17.7013 F350.00
G01 X15.2306 Y17.9813 F350.00
G01 X14.6311 Y17.9813 F350.00
G01 X14.6311 Y18.2613 F350.00
G01 X15.2306 Y18.2613 F350.00
G01 X15.1998 Y18.5413 F350.00
G01 X14.6311 Y18.5413 F350.00
G01 X14.6311 Y18.8213 F350.00
G01 X15.1716 Y18.8213 F350.00
G00 Z0.4000
G00 X15.2105 Y19.1013
G01 F250.00
G01 Z-0.0500
G01 F350.00
G01 X14.8057 Y19.1013 F350.00
G01 X15.0857 Y19.3813 F350.00
G01 X15.3216 Y19.3813 F350.00
G01 X15.3657 Y19.6613 F350.00
G01 X15.5360 Y19.6613 F350.00
G01 X15.6457 Y19.9413 F350.00
G01 X16.0020 Y19.9413 F350.00
G00 Z0.4000
G00 X16.7396 Y19.9413
G01 F250.00
G01 Z-0.0500
G01 F350.00
G01 X18.9865 Y19.9413 F350.00
G01 X19.2665 Y19.6613 F350.00
G01 X17.2057 Y19.6613 F350.00
G00 Z0.4000
G00 X17.4201 Y19.3813
G01 F250.00
G01 Z-0.0500
G01 F350.00
G01 X19.5465 Y19.3813 F350.00
G01 X19.8265 Y19.1013 F350.00
G01 X17.5312 Y19.1013 F350.00
G00 Z0.4000
G00 X17.5700 Y18.8213
G01 F250.00
G01 Z-0.0500
G01 F350.00
G01 X20.1065 Y18.8213 F350.00
G01 X20.3865 Y18.5413 F350.00
G01 X17.5418 Y18.5413 F350.00
G00 Z0.4000
G00 X17.4421 Y18.2613
G01 F250.00
G01 Z-0.0500
G01 F350.00
G01 X20.6665 Y18.2613 F350.00
G01 X20.9465 Y17.9813 F350.00
G01 X17.2467 Y17.9813 F350.00
G00 Z0.4000
G00 X16.8516 Y17.7013
G01 F250.00
G01 Z-0.0500
G01 F350.00
G01 X21.2265 Y17.7013 F350.00
G01 X21.5065 Y17.4213 F350.00
G01 X16.6311 Y17.4213 F350.00
G01 X16.6311 Y17.1413 F350.00
G01 X21.7865 Y17.1413 F350.00
G01 X22.0665 Y16.8613 F350.00
G01 X16.6311 Y16.8613 F350.00
G01 X16.6311 Y16.5813 F350.00
G01 X22.3465 Y16.5813 F350.00
G01 X22.6265 Y16.3013 F350.00
G01 X16.6311 Y16.3013 F350.00
G01 X16.6311 Y16.0213 F350.00
G01 X22.9065 Y16.0213 F350.00
G01 X23.1865 Y15.7413 F350.00
G01 X16.6311 Y15.7413 F350.00
G01 X16.6311 Y15.4613 F350.00
G01 X23.4665 Y15.4613 F350.00
G01 X23.7465 Y15.1813 F350.00
G01 X16.6311 Y15.1813 F350.00
G01 X16.6311 Y14.9013 F350.00
G01 X24.0265 Y14.9013 F350.00
G01 X24.3065 Y14.6213 F350.00
G01 X16.6311 Y14.6213 F350.00
G01 X16.6311 Y14.3413 F350.00
G01 X24.5865 Y14.3413 F350.00
G01 X24.8665 Y14.0613 F350.00
G01 X16.6311 Y14.0613 F350.00
G01 X16.6311 Y13.7813 F350.00
G01 X25.1465 Y13.7813 F350.00
G01 X25.4265 Y13.5013 F350.00
G01 X16.6311 Y13.5013 F350.00
G01 X16.6311 Y13.2213 F350.00
G01 X25.7065 Y13.2213 F350.00
G01 X25.9865 Y12.9413 F350.00
G01 X16.6311 Y12.9413 F350.00
G00 Z0.4000
G00 X17.7505 Y12.6613
G01 F250.00
G01 Z-0.0500
G01 F350.00
G01 X26.2665 Y12.6613 F350.00
G01 X26.5465 Y12.3813 F350.00
G01 X18.1136 Y12.3813 F350.00
G01 X18.3936 Y12.1013 F350.00
G01 X26.8265 Y12.1013 F350.00
G00 Z0.4000
G00 X27.2829 Y11.8213
G01 F250.00
G01 Z-0.0500
G01 F350.00
G01 X18.6736 Y11.8213 F350.00
G00 Z0.4000
G00 X19.9160 Y11.5413
G01 F250.00
G01 Z-0.0500
G01 F350.00
G01 X28.1598 Y11.5413 F350.00
G00 Z0.4000
G00 X28.0041 Y10.9813
G01 F250.00
G01 Z-0.0500
G01 F350.00
G01 X20.5225 Y10.9813 F350.00
G00 Z0.4000
G00 X20.6711 Y10.7013
G01 F250.00
G01 Z-0.0500
G01 F350.00
G01 X27.7535 Y10.7013 F350.00
G00 Z0.4000
G00 X27.6204 Y10.4213
G01 F250.00
G01 Z-0.0500
G01 F350.00
G01 X20.7585 Y10.4213 F350.00
G00 Z0.4000
G00 X20.7966 Y10.1413
G01 F250.00
G01 Z-0.0500
G01 F350.00
G01 X27.5651 Y10.1413 F350.00
G00 Z0.4000
G00 X27.5769 Y9.8613
G01 F250.00
G01 Z-0.0500
G01 F350.00
G01 X20.7896 Y9.8613 F350.00
G00 Z0.4000
G00 X20.7341 Y9.5813
G01 F250.00
G01 Z-0.0500
G01 F350.00
G01 X27.6564 Y9.5813 F350.00
G00 Z0.4000
G00 X27.8236 Y9.3013
G01 F250.00
G01 Z-0.0500
G01 F350.00
G01 X20.6253 Y9.3013 F350.00
G00 Z0.4000
G00 X20.4521 Y9.0213
G01 F250.00
G01 Z-0.0500
G01 F350.00
G01 X28.1453 Y9.0213 F350.00
G00 Z0.4000
G00 X30.3763 Y9.0213
G01 F250.00
G01 Z-0.0500
G01 F350.00
G01 X32.3653 Y9.0213 F350.00
G01 X32.4585 Y9.3013 F350.00
G01 X30.6980 Y9.3013 F350.00
G00 Z0.4000
G00 X30.8652 Y9.5813
G01 F250.00
G01 Z-0.0500
G01 F350.00
G01 X32.5276 Y9.5813 F350.00
G01 X32.5957 Y9.8613 F350.00
G01 X30.9447 Y9.8613 F350.00
G00 Z0.4000
G00 X30.9566 Y10.1413
G01 F250.00
G01 Z-0.0500
G01 F350.00
G01 X32.6638 Y10.1413 F350.00
G01 X32.7320 Y10.4213 F350.00
G01 X30.9012 Y10.4213 F350.00
G01 X30.9024 Y10.7013 F350.00
G01 X32.8001 Y10.7013 F350.00
G01 X32.8650 Y10.9813 F350.00
G01 X31.1687 Y10.9813 F350.00
G00 Z0.4000
G00 X31.2890 Y11.2613
G01 F250.00
G01 Z-0.0500
G01 F350.00
G01 X32.8969 Y11.2613 F350.00
G01 X32.9101 Y11.5413 F350.00
G01 X31.3011 Y11.5413 F350.00
G01 X31.3011 Y11.8213 F350.00
G01 X32.9231 Y11.8213 F350.00
G01 X32.9362 Y12.1013 F350.00
G01 X31.3011 Y12.1013 F350.00
G01 X31.3011 Y12.3813 F350.00
G01 X32.9492 Y12.3813 F350.00
G01 X32.9623 Y12.6613 F350.00
G01 X31.3011 Y12.6613 F350.00
G01 X31.3011 Y12.9413 F350.00
G01 X32.9753 Y12.9413 F350.00
G01 X32.9884 Y13.2213 F350.00
G01 X31.3011 Y13.2213 F350.00
G00 Z0.4000
G00 X31.2730 Y13.5013
G01 F250.00
G01 Z-0.0500
G01 F350.00
G01 X33.0014 Y13.5013 F350.00
G01 X33.0144 Y13.7813 F350.00
G01 X31.1137 Y13.7813 F350.00
G00 Z0.4000
G00 X30.8352 Y14.0613
G01 F250.00
G01 Z-0.0500
G01 F350.00
G01 X33.0275 Y14.0613 F350.00
G01 X33.0405 Y14.3413 F350.00
G01 X30.5552 Y14.3413 F350.00
G01 X30.2937 Y14.6213 F350.00
G01 X33.0536 Y14.6213 F350.00
G01 X33.0666 Y14.9013 F350.00
G01 X30.3697 Y14.9013 F350.00
G00 Z0.4000
G00 X30.3723 Y15.1813
G01 F250.00
G01 Z-0.0500
G01 F350.00
G01 X33.0797 Y15.1813 F350.00
G01 X33.0927 Y15.4613 F350.00
G01 X30.3008 Y15.4613 F350.00
G00 Z0.4000
G00 X30.1363 Y15.7413
G01 F250.00
G01 Z-0.0500
G01 F350.00
G01 X33.1058 Y15.7413 F350.00
G01 X33.1188 Y16.0213 F350.00
G01 X29.7971 Y16.0213 F350.00
G00 Z0.4000
G00 X29.1183 Y16.5813
G01 F250.00
G01 Z-0.0500
G01 F350.00
G01 X33.1449 Y16.5813 F350.00
G01 X33.1319 Y16.3013 F350.00
G01 X27.8336 Y16.3013 F350.00
G01 X27.5536 Y16.5813 F350.00
G01 X28.2434 Y16.5813 F350.00
G00 Z0.4000
G00 X27.8582 Y16.8613
G01 F250.00
G01 Z-0.0500
G01 F350.00
G01 X27.2736 Y16.8613 F350.00
G01 X26.9936 Y17.1413 F350.00
G01 X27.6774 Y17.1413 F350.00
G00 Z0.4000
G00 X27.6134 Y17.3287
G01 F250.00
G01 Z-0.0500
G01 F350.00
G01 X27.6256 Y17.2801 F350.00
G01 X27.6297 Y17.2660 F350.00
G01 X27.6627 Y17.1736 F350.00
G01 X27.6685 Y17.1601 F350.00
G01 X27.7063 Y17.0802 F350.00
G01 X27.7131 Y17.0672 F350.00
G01 X27.7610 Y16.9872 F350.00
G01 X27.7719 Y16.9708 F350.00
G01 X27.8305 Y16.8922 F350.00
G01 X27.8996 Y16.8157 F350.00
G01 X27.9101 Y16.8054 F350.00
G01 X27.9756 Y16.7461 F350.00
G01 X27.9907 Y16.7336 F350.00
G01 X28.0697 Y16.6754 F350.00
G01 X28.1537 Y16.6247 F350.00
G01 X28.1711 Y16.6155 F350.00
G01 X28.2599 Y16.5737 F350.00
G01 X28.3522 Y16.5404 F350.00
G01 X28.3662 Y16.5360 F350.00
G01 X28.4662 Y16.5111 F350.00
G01 X28.5633 Y16.4965 F350.00
G01 X28.5828 Y16.4946 F350.00
G01 X28.6808 Y16.4900 F350.00
G01 X28.7789 Y16.4946 F350.00
G01 X28.7984 Y16.4965 F350.00
G01 X28.8954 Y16.5111 F350.00
G01 X28.9907 Y16.5347 F350.00
G01 X29.0095 Y16.5404 F350.00
G01 X29.1018 Y16.5737 F350.00
G01 X29.1906 Y16.6155 F350.00
G01 X29.2079 Y16.6247 F350.00
G01 X29.2920 Y16.6754 F350.00
G01 X29.3709 Y16.7336 F350.00
G01 X29.3861 Y16.7461 F350.00
G01 X29.4586 Y16.8122 F350.00
G01 X29.5311 Y16.8922 F350.00
G01 X29.5898 Y16.9708 F350.00
G01 X29.6007 Y16.9872 F350.00
G01 X29.6461 Y17.0629 F350.00
G01 X29.6553 Y17.0802 F350.00
G01 X29.6971 Y17.1690 F350.00
G01 X29.7304 Y17.2614 F350.00
G01 X29.7361 Y17.2801 F350.00
G01 X29.7597 Y17.3754 F350.00
G01 X29.7755 Y17.4822 F350.00
G01 X29.7808 Y17.5900 F350.00
G01 X29.7762 Y17.6880 F350.00
G01 X29.7743 Y17.7076 F350.00
G01 X29.7597 Y17.8046 F350.00
G01 X29.7361 Y17.8999 F350.00
G01 X29.7304 Y17.9186 F350.00
G01 X29.7006 Y18.0018 F350.00
G01 X29.6931 Y18.0199 F350.00
G01 X29.6509 Y18.1085 F350.00
G01 X29.6007 Y18.1928 F350.00
G01 X29.5898 Y18.2092 F350.00
G01 X29.5311 Y18.2878 F350.00
G01 X29.4654 Y18.3607 F350.00
G01 X29.4515 Y18.3746 F350.00
G01 X29.3787 Y18.4403 F350.00
G01 X29.3000 Y18.4990 F350.00
G01 X29.2837 Y18.5099 F350.00
G01 X29.1994 Y18.5601 F350.00
G01 X29.1312 Y18.5926 F350.00
G01 X29.1312 Y19.0396 F350.00
G01 X29.8160 Y19.0396 F350.00
G01 X29.8494 Y18.9844 F350.00
G01 X29.9018 Y18.9133 F350.00
G01 X29.9142 Y18.8982 F350.00
G01 X29.9703 Y18.8364 F350.00
G01 X29.9808 Y18.8261 F350.00
G01 X30.0464 Y18.7670 F350.00
G01 X30.1172 Y18.7142 F350.00
G01 X30.1294 Y18.7059 F350.00
G01 X30.2009 Y18.6629 F350.00
G01 X30.2182 Y18.6537 F350.00
G01 X30.2981 Y18.6161 F350.00
G01 X30.3812 Y18.5861 F350.00
G01 X30.4000 Y18.5804 F350.00
G01 X30.4857 Y18.5592 F350.00
G01 X30.5828 Y18.5448 F350.00
G01 X30.6808 Y18.5400 F350.00
G01 X30.7788 Y18.5448 F350.00
G01 X30.8759 Y18.5592 F350.00
G01 X30.9616 Y18.5804 F350.00
G01 X30.9804 Y18.5861 F350.00
G01 X31.0635 Y18.6161 F350.00
G01 X31.1435 Y18.6537 F350.00
G01 X31.1608 Y18.6629 F350.00
G01 X31.2281 Y18.7033 F350.00
G01 X31.2444 Y18.7142 F350.00
G01 X31.3152 Y18.7670 F350.00
G01 X31.3844 Y18.8295 F350.00
G01 X31.3947 Y18.8400 F350.00
G01 X31.4538 Y18.9056 F350.00
G01 X31.5123 Y18.9844 F350.00
G01 X31.5627 Y19.0686 F350.00
G01 X31.6047 Y19.1573 F350.00
G01 X31.6378 Y19.2497 F350.00
G01 X31.6616 Y19.3449 F350.00
G01 X31.6760 Y19.4420 F350.00
G01 X31.6808 Y19.5400 F350.00
G01 X31.6808 Y20.4449 F350.00
G01 X31.6760 Y20.5380 F350.00
G01 X31.6625 Y20.6303 F350.00
G01 X31.6595 Y20.6447 F350.00
G01 X31.6404 Y20.7208 F350.00
G01 X31.6347 Y20.7396 F350.00
G01 X31.6047 Y20.8227 F350.00
G01 X31.5627 Y20.9114 F350.00
G01 X31.5175 Y20.9873 F350.00
G01 X31.5066 Y21.0036 F350.00
G01 X31.4538 Y21.0744 F350.00
G01 X31.3879 Y21.1471 F350.00
G01 X31.3152 Y21.2130 F350.00
G01 X31.2364 Y21.2715 F350.00
G01 X31.1522 Y21.3219 F350.00
G01 X31.0635 Y21.3639 F350.00
G01 X30.9711 Y21.3969 F350.00
G01 X30.8759 Y21.4208 F350.00
G01 X30.7788 Y21.4352 F350.00
G01 X30.6808 Y21.4400 F350.00
G01 X30.5926 Y21.4359 F350.00
G01 X30.5731 Y21.4340 F350.00
G01 X30.4857 Y21.4208 F350.00
G01 X30.4000 Y21.3996 F350.00
G01 X30.3812 Y21.3939 F350.00
G01 X30.2981 Y21.3639 F350.00
G01 X30.2182 Y21.3263 F350.00
G01 X30.2051 Y21.3196 F350.00
G01 X30.1253 Y21.2715 F350.00
G01 X30.0542 Y21.2190 F350.00
G01 X30.0390 Y21.2066 F350.00
G01 X29.9772 Y21.1505 F350.00
G01 X29.9669 Y21.1400 F350.00
G01 X29.9142 Y21.0818 F350.00
G01 X29.9047 Y21.0706 F350.00
G01 X29.8494 Y20.9956 F350.00
G01 X29.8160 Y20.9404 F350.00
G01 X29.0457 Y20.9404 F350.00
G01 X29.0123 Y20.9956 F350.00
G01 X28.9599 Y21.0667 F350.00
G01 X28.9474 Y21.0818 F350.00
G01 X28.8914 Y21.1436 F350.00
G01 X28.8808 Y21.1539 F350.00
G01 X28.8152 Y21.2130 F350.00
G01 X28.7444 Y21.2658 F350.00
G01 X28.7323 Y21.2741 F350.00
G01 X28.6608 Y21.3171 F350.00
G01 X28.6435 Y21.3263 F350.00
G01 X28.5635 Y21.3639 F350.00
G01 X28.4804 Y21.3939 F350.00
G01 X28.4616 Y21.3996 F350.00
G01 X28.3759 Y21.4208 F350.00
G01 X28.2788 Y21.4352 F350.00
G01 X28.1808 Y21.4400 F350.00
G01 X28.0828 Y21.4352 F350.00
G01 X27.9857 Y21.4208 F350.00
G01 X27.9000 Y21.3996 F350.00
G01 X27.8812 Y21.3939 F350.00
G01 X27.7981 Y21.3639 F350.00
G01 X27.7182 Y21.3263 F350.00
G01 X27.7009 Y21.3171 F350.00
G01 X27.6335 Y21.2767 F350.00
G01 X27.6172 Y21.2658 F350.00
G01 X27.5464 Y21.2130 F350.00
G01 X27.4737 Y21.1471 F350.00
G01 X27.4078 Y21.0744 F350.00
G01 X27.3494 Y20.9956 F350.00
G01 X27.2989 Y20.9114 F350.00
G01 X27.2609 Y20.8317 F350.00
G01 X27.2534 Y20.8135 F350.00
G01 X27.2270 Y20.7396 F350.00
G01 X27.2213 Y20.7208 F350.00
G01 X27.2000 Y20.6351 F350.00
G01 X27.1868 Y20.5478 F350.00
G01 X27.1852 Y20.5331 F350.00
G01 X27.1808 Y20.4400 F350.00
G01 X27.1809 Y19.5351 F350.00
G01 X27.1856 Y19.4420 F350.00
G01 X27.1991 Y19.3497 F350.00
G01 X27.2022 Y19.3353 F350.00
G01 X27.2213 Y19.2592 F350.00
G01 X27.2254 Y19.2450 F350.00
G01 X27.2304 Y19.2307 F350.00
G01 X27.2305 Y18.0851 F350.00
G01 X27.2350 Y17.9968 F350.00
G01 X27.2470 Y17.9143 F350.00
G01 X27.2509 Y17.8950 F350.00
G01 X27.2714 Y17.8141 F350.00
G01 X27.2993 Y17.7355 F350.00
G01 X27.3068 Y17.7173 F350.00
G01 X27.3404 Y17.6464 F350.00
G01 X27.3475 Y17.6335 F350.00
G01 X27.3906 Y17.5620 F350.00
G01 X27.4401 Y17.4948 F350.00
G01 X27.4493 Y17.4833 F350.00
G01 X27.5020 Y17.4251 F350.00
G01 X27.5123 Y17.4146 F350.00
G01 X27.5742 Y17.3585 F350.00
G01 X27.5857 Y17.3493 F350.00
G01 X27.6134 Y17.3287 F350.00
G00 Z0.4000
G00 X27.5056 Y17.4213
G01 F250.00
G01 Z-0.0500
G01 F350.00
G01 X26.7136 Y17.4213 F350.00
G01 X26.4336 Y17.7013 F350.00
G01 X27.3144 Y17.7013 F350.00
G00 Z0.4000
G00 X27.2371 Y17.9813
G01 F250.00
G01 Z-0.0500
G01 F350.00
G01 X26.1536 Y17.9813 F350.00
G01 X25.8736 Y18.2613 F350.00
G01 X27.2304 Y18.2613 F350.00
G01 X27.2304 Y18.5413 F350.00
G01 X25.5936 Y18.5413 F350.00
G01 X25.3136 Y18.8213 F350.00
G01 X27.2304 Y18.8213 F350.00
G01 X27.2304 Y19.1013 F350.00
G01 X25.1512 Y19.1013 F350.00
G00 Z0.4000
G00 X25.0401 Y19.3813
G01 F250.00
G01 Z-0.0500
G01 F350.00
G01 X27.1944 Y19.3813 F350.00
G00 Z0.4000
G00 X27.1808 Y19.6613
G01 F250.00
G01 Z-0.0500
G01 F350.00
G01 X24.8257 Y19.6613 F350.00
G00 Z0.4000
G00 X24.3596 Y19.9413
G01 F250.00
G01 Z-0.0500
G01 F350.00
G01 X27.1808 Y19.9413 F350.00
G01 X27.1808 Y20.2213 F350.00
G01 X22.0924 Y20.2213 F350.00
G01 X22.3724 Y20.5013 F350.00
G01 X27.1836 Y20.5013 F350.00
G00 Z0.4000
G00 X27.2419 Y20.7813
G01 F250.00
G01 Z-0.0500
G01 F350.00
G01 X25.6503 Y20.7813 F350.00
G00 Z0.4000
G00 X25.9324 Y21.0613
G01 F250.00
G01 Z-0.0500
G01 F350.00
G01 X27.3978 Y21.0613 F350.00
G00 Z0.4000
G00 X27.7498 Y21.3413
G01 F250.00
G01 Z-0.0500
G01 F350.00
G01 X26.2124 Y21.3413 F350.00
G01 X26.4924 Y21.6213 F350.00
G01 X33.3662 Y21.6213 F350.00
G01 X33.3549 Y21.3413 F350.00
G01 X31.1119 Y21.3413 F350.00
G00 Z0.4000
G00 X31.4639 Y21.0613
G01 F250.00
G01 Z-0.0500
G01 F350.00
G01 X33.3436 Y21.0613 F350.00
G01 X33.3323 Y20.7813 F350.00
G01 X31.6198 Y20.7813 F350.00
G00 Z0.4000
G00 X31.6781 Y20.5013
G01 F250.00
G01 Z-0.0500
G01 F350.00
G01 X33.3210 Y20.5013 F350.00
G01 X33.3097 Y20.2213 F350.00
G01 X31.6808 Y20.2213 F350.00
G01 X31.6808 Y19.9413 F350.00
G01 X33.2985 Y19.9413 F350.00
G01 X33.2872 Y19.6613 F350.00
G01 X31.6808 Y19.6613 F350.00
G00 Z0.4000
G00 X31.6672 Y19.3813
G01 F250.00
G01 Z-0.0500
G01 F350.00
G01 X33.2754 Y19.3813 F350.00
G01 X33.2623 Y19.1013 F350.00
G01 X31.5785 Y19.1013 F350.00
G00 Z0.4000
G00 X31.3755 Y18.8213
G01 F250.00
G01 Z-0.0500
G01 F350.00
G01 X33.2493 Y18.8213 F350.00
G01 X33.2362 Y18.5413 F350.00
G01 X30.7114 Y18.5413 F350.00
G00 Z0.4000
G00 X30.6502 Y18.5413
G01 F250.00
G01 Z-0.0500
G01 F350.00
G01 X29.2313 Y18.5413 F350.00
G01 X29.1312 Y18.8213 F350.00
G01 X29.9862 Y18.8213 F350.00
G01 X29.5511 Y18.2613 F350.00
G01 X33.2232 Y18.2613 F350.00
G01 X33.2101 Y17.9813 F350.00
G01 X29.7080 Y17.9813 F350.00
G00 Z0.4000
G00 X29.7751 Y17.7013
G01 F250.00
G01 Z-0.0500
G01 F350.00
G01 X33.1971 Y17.7013 F350.00
G01 X33.1841 Y17.4213 F350.00
G01 X29.7667 Y17.4213 F350.00
G00 Z0.4000
G00 X29.6842 Y17.1413
G01 F250.00
G01 Z-0.0500
G01 F350.00
G01 X33.1710 Y17.1413 F350.00
G01 X33.1580 Y16.8613 F350.00
G01 X29.5034 Y16.8613 F350.00
G00 Z0.4000
G00 X29.1345 Y13.7813
G01 F250.00
G01 Z-0.0500
G01 F350.00
G01 X27.1271 Y13.7813 F350.00
G01 X27.4071 Y13.5013 F350.00
G01 X28.2064 Y13.5013 F350.00
G00 Z0.4000
G00 X27.8424 Y13.2213
G01 F250.00
G01 Z-0.0500
G01 F350.00
G01 X27.6871 Y13.2213 F350.00
G01 X27.6011 Y14.0613 F350.00
G01 X26.8471 Y14.0613 F350.00
G01 X27.1090 Y14.3413 F350.00
G01 X26.5671 Y14.3413 F350.00
G01 X26.8255 Y14.6213 F350.00
G01 X26.2871 Y14.6213 F350.00
G01 X26.5455 Y14.9013 F350.00
G01 X26.0071 Y14.9013 F350.00
G01 X26.2655 Y15.1813 F350.00
G01 X25.7271 Y15.1813 F350.00
G01 X25.9855 Y15.4613 F350.00
G01 X25.4471 Y15.4613 F350.00
G01 X25.7055 Y15.7413 F350.00
G01 X25.1671 Y15.7413 F350.00
G01 X25.4255 Y16.0213 F350.00
G01 X24.8871 Y16.0213 F350.00
G01 X25.1455 Y16.3013 F350.00
G01 X24.6071 Y16.3013 F350.00
G01 X24.8655 Y16.5813 F350.00
G01 X24.3271 Y16.5813 F350.00
G01 X24.5855 Y16.8613 F350.00
G01 X24.0471 Y16.8613 F350.00
G01 X24.3055 Y17.1413 F350.00
G01 X23.7671 Y17.1413 F350.00
G01 X24.0255 Y17.4213 F350.00
G01 X23.4871 Y17.4213 F350.00
G01 X23.5101 Y17.7013 F350.00
G01 X23.2071 Y17.7013 F350.00
G01 X23.1150 Y17.9813 F350.00
G01 X22.9271 Y17.9813 F350.00
G01 X22.9195 Y18.2613 F350.00
G01 X22.6471 Y18.2613 F350.00
G01 X22.8198 Y18.5413 F350.00
G01 X22.3671 Y18.5413 F350.00
G01 X22.0871 Y18.8213 F350.00
G01 X22.7916 Y18.8213 F350.00
G00 Z0.4000
G00 X22.8305 Y19.1013
G01 F250.00
G01 Z-0.0500
G01 F350.00
G01 X21.8071 Y19.1013 F350.00
G01 X21.5271 Y19.3813 F350.00
G01 X22.9416 Y19.3813 F350.00
G00 Z0.4000
G00 X23.1560 Y19.6613
G01 F250.00
G01 Z-0.0500
G01 F350.00
G01 X21.5324 Y19.6613 F350.00
G01 X21.8124 Y19.9413 F350.00
G01 X23.6220 Y19.9413 F350.00
G00 Z0.4000
G00 X23.5087 Y22.1813
G01 F250.00
G01 Z-0.0500
G01 F350.00
G01 X25.0718 Y22.1813 F350.00
G01 X25.3518 Y22.4613 F350.00
G01 X23.8324 Y22.4613 F350.00
G01 X24.1124 Y22.7413 F350.00
G01 X25.6318 Y22.7413 F350.00
G01 X25.9118 Y23.0213 F350.00
G01 X24.3924 Y23.0213 F350.00
G01 X24.6724 Y23.3013 F350.00
G01 X26.1918 Y23.3013 F350.00
G01 X26.4718 Y23.5813 F350.00
G01 X24.8456 Y23.5813 F350.00
G00 Z0.4000
G00 X24.8811 Y23.8613
G01 F250.00
G01 Z-0.0500
G01 F350.00
G01 X26.7518 Y23.8613 F350.00
G01 X27.0318 Y24.1413 F350.00
G01 X24.8811 Y24.1413 F350.00
G01 X24.8811 Y24.4213 F350.00
G01 X27.3118 Y24.4213 F350.00
G01 X27.4806 Y24.7013 F350.00
G01 X24.8811 Y24.7013 F350.00
G01 X24.8811 Y24.9813 F350.00
G01 X27.4806 Y24.9813 F350.00
G01 X27.4806 Y25.2613 F350.00
G01 X24.8811 Y25.2613 F350.00
G01 X24.8811 Y25.5413 F350.00
G01 X27.4806 Y25.5413 F350.00
G01 X27.4806 Y25.8213 F350.00
G01 X24.8811 Y25.8213 F350.00
G01 X24.8811 Y26.1013 F350.00
G01 X27.4806 Y26.1013 F350.00
G01 X27.4806 Y26.3813 F350.00
G01 X24.8811 Y26.3813 F350.00
G01 X24.8811 Y26.6613 F350.00
G01 X27.4476 Y26.6613 F350.00
G00 Z0.4000
G00 X27.1845 Y26.9413
G01 F250.00
G01 Z-0.0500
G01 F350.00
G01 X24.8811 Y26.9413 F350.00
G01 X25.0121 Y27.2213 F350.00
G01 X27.0467 Y27.2213 F350.00
G00 Z0.4000
G00 X26.9859 Y27.5013
G01 F250.00
G01 Z-0.0500
G01 F350.00
G01 X25.0967 Y27.5013 F350.00
G00 Z0.4000
G00 X25.1058 Y27.7813
G01 F250.00
G01 Z-0.0500
G01 F350.00
G01 X26.9943 Y27.7813 F350.00
G01 X26.7393 Y28.0613 F350.00
G01 X25.1017 Y28.0613 F350.00
G00 Z0.4000
G00 X25.0299 Y28.3413
G01 F250.00
G01 Z-0.0500
G01 F350.00
G01 X26.4593 Y28.3413 F350.00
G01 X26.1793 Y28.6213 F350.00
G01 X24.8423 Y28.6213 F350.00
G01 X25.8993 Y28.9013 F350.00
G01 X22.9996 Y28.9013 F350.00
G01 X22.8811 Y28.6213 F350.00
G01 X23.5193 Y28.6213 F350.00
G00 Z0.4000
G00 X23.3318 Y28.3413
G01 F250.00
G01 Z-0.0500
G01 F350.00
G01 X23.0299 Y28.3413 F350.00
G00 Z0.4000
G00 X23.1017 Y28.0613
G01 F250.00
G01 Z-0.0500
G01 F350.00
G01 X23.2599 Y28.0613 F350.00
G00 Z0.4000
G00 X23.2558 Y27.7813
G01 F250.00
G01 Z-0.0500
G01 F350.00
G01 X23.1058 Y27.7813 F350.00
G00 Z0.4000
G00 X23.0967 Y27.5013
G01 F250.00
G01 Z-0.0500
G01 F350.00
G01 X23.2649 Y27.5013 F350.00
G00 Z0.4000
G00 X23.3495 Y27.2213
G01 F250.00
G01 Z-0.0500
G01 F350.00
G01 X23.0121 Y27.2213 F350.00
G00 Z0.4000
G00 X22.8025 Y26.9413
G01 F250.00
G01 Z-0.0500
G01 F350.00
G01 X23.4806 Y26.9413 F350.00
G00 Z0.4000
G00 X21.5982 Y29.4613
G01 F250.00
G01 Z-0.0500
G01 F350.00
G01 X21.5099 Y29.4613 F350.00
G01 X21.2299 Y29.7413 F350.00
G01 X21.8590 Y29.7413 F350.00
G01 X22.1390 Y30.0213 F350.00
G01 X20.9499 Y30.0213 F350.00
G00 Z0.4000
G00 X20.6513 Y30.3013
G01 F250.00
G01 Z-0.0500
G01 F350.00
G01 X22.4376 Y30.3013 F350.00
G00 Z0.4000
G00 X26.4613 Y30.3013
G01 F250.00
G01 Z-0.0500
G01 F350.00
G01 X29.9547 Y30.3013 F350.00
G00 Z0.4000
G00 X29.7497 Y30.0213
G01 F250.00
G01 Z-0.0500
G01 F350.00
G01 X26.7599 Y30.0213 F350.00
G01 X27.0399 Y29.7413 F350.00
G01 X29.6449 Y29.7413 F350.00
G00 Z0.4000
G00 X29.6103 Y29.4613
G01 F250.00
G01 Z-0.0500
G01 F350.00
G01 X27.3199 Y29.4613 F350.00
G01 X27.5999 Y29.1813 F350.00
G01 X29.6103 Y29.1813 F350.00
G01 X29.6103 Y28.9013 F350.00
G01 X27.8799 Y28.9013 F350.00
G00 Z0.4000
G00 X28.8255 Y28.6213
G01 F250.00
G01 Z-0.0500
G01 F350.00
G01 X29.6103 Y28.6213 F350.00
G01 X29.6103 Y28.3413 F350.00
G01 X29.1310 Y28.3413 F350.00
G00 Z0.4000
G00 X29.2926 Y28.0613
G01 F250.00
G01 Z-0.0500
G01 F350.00
G01 X29.5691 Y28.0613 F350.00
G00 Z0.4000
G00 X29.6103 Y28.1505
G01 F250.00
G01 Z-0.0500
G01 F350.00
G01 X29.5722 Y28.0692 F350.00
G01 X29.5325 Y27.9583 F350.00
G01 X29.5039 Y27.8441 F350.00
G01 X29.4866 Y27.7276 F350.00
G01 X29.4808 Y27.6100 F350.00
G01 X29.4866 Y27.4924 F350.00
G01 X29.5039 Y27.3759 F350.00
G01 X29.5311 Y27.2664 F350.00
G01 X29.5356 Y27.2523 F350.00
G01 X29.5722 Y27.1508 F350.00
G01 X29.6225 Y27.0443 F350.00
G01 X29.6831 Y26.9433 F350.00
G01 X29.7472 Y26.8565 F350.00
G01 X29.7596 Y26.8413 F350.00
G01 X29.8255 Y26.7686 F350.00
G01 X29.8394 Y26.7547 F350.00
G01 X29.9196 Y26.6824 F350.00
G01 X30.0061 Y26.6179 F350.00
G01 X30.0224 Y26.6070 F350.00
G01 X30.1151 Y26.5517 F350.00
G01 X30.2216 Y26.5013 F350.00
G01 X30.3325 Y26.4617 F350.00
G01 X30.4467 Y26.4331 F350.00
G01 X30.5632 Y26.4158 F350.00
G01 X30.6808 Y26.4100 F350.00
G01 X30.7984 Y26.4158 F350.00
G01 X30.9101 Y26.4322 F350.00
G01 X30.9245 Y26.4352 F350.00
G01 X31.0292 Y26.4617 F350.00
G01 X31.1400 Y26.5013 F350.00
G01 X31.2465 Y26.5517 F350.00
G01 X31.3392 Y26.6070 F350.00
G01 X31.3555 Y26.6179 F350.00
G01 X31.4344 Y26.6763 F350.00
G01 X31.4495 Y26.6888 F350.00
G01 X31.5258 Y26.7580 F350.00
G01 X31.5361 Y26.7686 F350.00
G01 X31.5879 Y26.8257 F350.00
G01 X31.6526 Y26.8843 F350.00
G01 X31.6631 Y26.8946 F350.00
G01 X31.7388 Y26.9784 F350.00
G01 X31.8090 Y27.0730 F350.00
G01 X31.8696 Y27.1741 F350.00
G01 X31.9160 Y27.2716 F350.00
G01 X31.9235 Y27.2897 F350.00
G01 X31.9566 Y27.3822 F350.00
G01 X31.9622 Y27.4010 F350.00
G01 X31.9883 Y27.5058 F350.00
G01 X32.0050 Y27.6175 F350.00
G01 X32.0063 Y27.6321 F350.00
G01 X32.0113 Y27.7400 F350.00
G01 X32.0113 Y29.4600 F350.00
G01 X32.0055 Y29.5777 F350.00
G01 X31.9883 Y29.6942 F350.00
G01 X31.9596 Y29.8085 F350.00
G01 X31.9199 Y29.9194 F350.00
G01 X31.8696 Y30.0259 F350.00
G01 X31.8090 Y30.1270 F350.00
G01 X31.7388 Y30.2216 F350.00
G01 X31.6665 Y30.3018 F350.00
G01 X31.6562 Y30.3123 F350.00
G01 X31.5724 Y30.3880 F350.00
G01 X31.4778 Y30.4582 F350.00
G01 X31.3767 Y30.5187 F350.00
G01 X31.2702 Y30.5691 F350.00
G01 X31.1593 Y30.6088 F350.00
G01 X31.0450 Y30.6374 F350.00
G01 X30.9285 Y30.6547 F350.00
G01 X30.8108 Y30.6605 F350.00
G01 X30.6932 Y30.6547 F350.00
G01 X30.5766 Y30.6374 F350.00
G01 X30.4623 Y30.6088 F350.00
G01 X30.3514 Y30.5691 F350.00
G01 X30.2449 Y30.5187 F350.00
G01 X30.1439 Y30.4582 F350.00
G01 X30.0492 Y30.3880 F350.00
G01 X29.9691 Y30.3157 F350.00
G01 X29.9585 Y30.3054 F350.00
G01 X29.8828 Y30.2216 F350.00
G01 X29.8183 Y30.1350 F350.00
G01 X29.8074 Y30.1187 F350.00
G01 X29.7521 Y30.0259 F350.00
G01 X29.7017 Y29.9194 F350.00
G01 X29.6651 Y29.8178 F350.00
G01 X29.6594 Y29.7990 F350.00
G01 X29.6355 Y29.7038 F350.00
G01 X29.6325 Y29.6894 F350.00
G01 X29.6161 Y29.5777 F350.00
G01 X29.6104 Y29.4649 F350.00
G01 X29.6103 Y28.1505 F350.00
G00 Z0.4000
G00 X29.4943 Y27.7813
G01 F250.00
G01 Z-0.0500
G01 F350.00
G01 X29.3673 Y27.7813 F350.00
G00 Z0.4000
G00 X29.3757 Y27.5013
G01 F250.00
G01 Z-0.0500
G01 F350.00
G01 X29.4859 Y27.5013 F350.00
G00 Z0.4000
G00 X29.5467 Y27.2213
G01 F250.00
G01 Z-0.0500
G01 F350.00
G01 X29.3150 Y27.2213 F350.00
G00 Z0.4000
G00 X29.1772 Y26.9413
G01 F250.00
G01 Z-0.0500
G01 F350.00
G01 X29.6845 Y26.9413 F350.00
G00 Z0.4000
G00 X29.9476 Y26.6613
G01 F250.00
G01 Z-0.0500
G01 F350.00
G01 X28.9140 Y26.6613 F350.00
G01 X28.8811 Y26.3813 F350.00
G01 X33.5580 Y26.3813 F350.00
G01 X33.5467 Y26.1013 F350.00
G01 X28.8811 Y26.1013 F350.00
G01 X28.8811 Y25.8213 F350.00
G01 X33.5355 Y25.8213 F350.00
G01 X33.5242 Y25.5413 F350.00
G01 X28.8811 Y25.5413 F350.00
G01 X28.8811 Y25.2613 F350.00
G01 X33.5129 Y25.2613 F350.00
G01 X33.5016 Y24.9813 F350.00
G01 X28.8811 Y24.9813 F350.00
G01 X28.8811 Y24.7013 F350.00
G01 X33.4903 Y24.7013 F350.00
G01 X33.4790 Y24.4213 F350.00
G01 X28.8811 Y24.4213 F350.00
G00 Z0.4000
G00 X28.8623 Y24.1413
G01 F250.00
G01 Z-0.0500
G01 F350.00
G01 X33.4677 Y24.1413 F350.00
G01 X33.4565 Y23.8613 F350.00
G01 X28.7265 Y23.8613 F350.00
G00 Z0.4000
G00 X28.4524 Y23.5813
G01 F250.00
G01 Z-0.0500
G01 F350.00
G01 X33.4452 Y23.5813 F350.00
G01 X33.4339 Y23.3013 F350.00
G01 X28.1724 Y23.3013 F350.00
G01 X27.8924 Y23.0213 F350.00
G01 X33.4226 Y23.0213 F350.00
G01 X33.4113 Y22.7413 F350.00
G01 X27.6124 Y22.7413 F350.00
G01 X27.3324 Y22.4613 F350.00
G01 X33.4000 Y22.4613 F350.00
G01 X33.3887 Y22.1813 F350.00
G01 X27.0524 Y22.1813 F350.00
G01 X26.7724 Y21.9013 F350.00
G01 X33.3775 Y21.9013 F350.00
G00 Z0.4000
G00 X30.2498 Y21.3413
G01 F250.00
G01 Z-0.0500
G01 F350.00
G01 X28.6119 Y21.3413 F350.00
G00 Z0.4000
G00 X28.9639 Y21.0613
G01 F250.00
G01 Z-0.0500
G01 F350.00
G01 X29.8978 Y21.0613 F350.00
G00 Z0.4000
G00 X31.4140 Y26.6613
G01 F250.00
G01 Z-0.0500
G01 F350.00
G01 X33.5693 Y26.6613 F350.00
G01 X33.5806 Y26.9413 F350.00
G01 X31.7055 Y26.9413 F350.00
G00 Z0.4000
G00 X31.8921 Y27.2213
G01 F250.00
G01 Z-0.0500
G01 F350.00
G01 X33.5919 Y27.2213 F350.00
G01 X33.6032 Y27.5013 F350.00
G01 X31.9873 Y27.5013 F350.00
G00 Z0.4000
G00 X32.0113 Y27.7813
G01 F250.00
G01 Z-0.0500
G01 F350.00
G01 X33.6113 Y27.7813 F350.00
G01 X33.6113 Y28.0613 F350.00
G01 X32.0113 Y28.0613 F350.00
G01 X32.0113 Y28.3413 F350.00
G01 X33.6113 Y28.3413 F350.00
G01 X33.6113 Y28.6213 F350.00
G01 X32.0113 Y28.6213 F350.00
G01 X32.0113 Y28.9013 F350.00
G01 X33.6113 Y28.9013 F350.00
G01 X33.6113 Y29.1813 F350.00
G01 X32.0113 Y29.1813 F350.00
G00 Z0.4000
G00 X32.0113 Y29.4613
G01 F250.00
G01 Z-0.0500
G01 F350.00
G01 X33.6113 Y29.4613 F350.00
G01 X33.5990 Y29.7413 F350.00
G01 X31.9767 Y29.7413 F350.00
G00 Z0.4000
G00 X31.8720 Y30.0213
G01 F250.00
G01 Z-0.0500
G01 F350.00
G01 X33.5560 Y30.0213 F350.00
G01 X33.4829 Y30.3013 F350.00
G01 X31.6669 Y30.3013 F350.00
G00 Z0.4000
G00 X31.2370 Y30.5813
G01 F250.00
G01 Z-0.0500
G01 F350.00
G01 X33.3771 Y30.5813 F350.00
G01 X33.2346 Y30.8613 F350.00
G01 X12.8609 Y30.8613 F350.00
G01 X12.4294 Y30.5813 F350.00
G01 X30.3846 Y30.5813 F350.00
G01 X32.0273 Y31.9813 F350.00
G01 X14.8996 Y31.9813 F350.00
G01 X14.1604 Y31.7013 F350.00
G01 X32.4880 Y31.7013 F350.00
G01 X32.8112 Y31.4213 F350.00
G01 X13.7241 Y31.4213 F350.00
G01 X13.2925 Y31.1413 F350.00
G01 X33.0491 Y31.1413 F350.00
G00 Z0.4000
G00 X21.8231 Y21.9013
G01 F250.00
G01 Z-0.0500
G01 F350.00
G01 X15.4561 Y21.9013 F350.00
G01 X15.1761 Y21.6213 F350.00
G01 X21.5118 Y21.6213 F350.00
G01 X21.2318 Y21.3413 F350.00
G01 X19.5647 Y21.3413 F350.00
G00 Z0.4000
G00 X19.8471 Y21.0613
G01 F250.00
G01 Z-0.0500
G01 F350.00
G01 X20.9518 Y21.0613 F350.00
G01 X20.6718 Y20.7813 F350.00
G01 X20.1271 Y20.7813 F350.00
G00 Z0.4000
G00 X23.8357 Y17.6111
G01 F250.00
G01 Z-0.0500
G01 F350.00
G01 X27.0688 Y14.3780 F350.00
G01 X27.1305 Y14.3218 F350.00
G01 X27.1457 Y14.3093 F350.00
G01 X27.2128 Y14.2598 F350.00
G01 X27.2928 Y14.2118 F350.00
G01 X27.3771 Y14.1720 F350.00
G01 X27.4604 Y14.1420 F350.00
G01 X27.4697 Y14.1354 F350.00
G01 X27.4780 Y14.1301 F350.00
G01 X27.5623 Y14.0799 F350.00
G01 X27.6509 Y14.0377 F350.00
G01 X27.6690 Y14.0302 F350.00
G01 X27.7615 Y13.9974 F350.00
G01 X27.8662 Y13.9711 F350.00
G01 X27.9730 Y13.9553 F350.00
G01 X28.0759 Y13.9501 F350.00
G01 X28.9658 Y13.9500 F350.00
G01 X29.9006 Y13.0152 F350.00
G01 X29.9006 Y11.6801 F350.00
G01 X29.4705 Y11.2500 F350.00
G01 X28.7608 Y11.2500 F350.00
G01 X28.6432 Y11.2442 F350.00
G01 X28.5267 Y11.2269 F350.00
G01 X28.4125 Y11.1983 F350.00
G01 X28.3016 Y11.1587 F350.00
G01 X28.2039 Y11.1127 F350.00
G01 X28.1866 Y11.1035 F350.00
G01 X28.1024 Y11.0530 F350.00
G01 X28.0861 Y11.0421 F350.00
G01 X27.9996 Y10.9776 F350.00
G01 X27.9123 Y10.8985 F350.00
G01 X27.8396 Y10.8187 F350.00
G01 X27.8272 Y10.8035 F350.00
G01 X27.7631 Y10.7167 F350.00
G01 X27.7049 Y10.6200 F350.00
G01 X27.6981 Y10.6069 F350.00
G01 X27.6561 Y10.5182 F350.00
G01 X27.6486 Y10.5001 F350.00
G01 X27.6125 Y10.3983 F350.00
G01 X27.5839 Y10.2841 F350.00
G01 X27.5666 Y10.1676 F350.00
G01 X27.5611 Y10.0598 F350.00
G01 X27.5611 Y10.0402 F350.00
G01 X27.5666 Y9.9324 F350.00
G01 X27.5839 Y9.8159 F350.00
G01 X27.6099 Y9.7111 F350.00
G01 X27.6156 Y9.6923 F350.00
G01 X27.6522 Y9.5908 F350.00
G01 X27.6981 Y9.4931 F350.00
G01 X27.7074 Y9.4758 F350.00
G01 X27.7631 Y9.3833 F350.00
G01 X27.8301 Y9.2926 F350.00
G01 X27.8396 Y9.2813 F350.00
G01 X27.9123 Y9.2015 F350.00
G01 X27.9996 Y9.1224 F350.00
G01 X28.0941 Y9.0522 F350.00
G01 X28.1951 Y8.9917 F350.00
G01 X28.3016 Y8.9413 F350.00
G01 X28.4125 Y8.9017 F350.00
G01 X28.5267 Y8.8731 F350.00
G01 X28.6335 Y8.8570 F350.00
G01 X28.6481 Y8.8554 F350.00
G01 X28.7608 Y8.8500 F350.00
G01 X29.7608 Y8.8500 F350.00
G01 X29.8687 Y8.8551 F350.00
G01 X29.8882 Y8.8570 F350.00
G01 X29.9949 Y8.8731 F350.00
G01 X30.0997 Y8.8991 F350.00
G01 X30.1185 Y8.9048 F350.00
G01 X30.2200 Y8.9413 F350.00
G01 X30.3177 Y8.9873 F350.00
G01 X30.3350 Y8.9965 F350.00
G01 X30.4275 Y9.0522 F350.00
G01 X30.5183 Y9.1193 F350.00
G01 X30.5295 Y9.1288 F350.00
G01 X30.6094 Y9.2015 F350.00
G01 X30.6820 Y9.2813 F350.00
G01 X30.6945 Y9.2965 F350.00
G01 X30.7529 Y9.3753 F350.00
G01 X30.7638 Y9.3916 F350.00
G01 X30.8191 Y9.4843 F350.00
G01 X30.8695 Y9.5908 F350.00
G01 X30.9092 Y9.7017 F350.00
G01 X30.9378 Y9.8159 F350.00
G01 X30.9550 Y9.9324 F350.00
G01 X30.9608 Y10.0500 F350.00
G01 X30.9550 Y10.1676 F350.00
G01 X30.9394 Y10.2744 F350.00
G01 X30.9356 Y10.2937 F350.00
G01 X30.9118 Y10.3889 F350.00
G01 X30.9061 Y10.4077 F350.00
G01 X30.8695 Y10.5092 F350.00
G01 X30.8235 Y10.6069 F350.00
G01 X30.8183 Y10.6172 F350.00
G01 X31.0994 Y10.8984 F350.00
G01 X31.1421 Y10.9458 F350.00
G01 X31.1774 Y10.9929 F350.00
G01 X31.1883 Y11.0093 F350.00
G01 X31.2184 Y11.0599 F350.00
G01 X31.2478 Y11.1220 F350.00
G01 X31.2709 Y11.1867 F350.00
G01 X31.2855 Y11.2438 F350.00
G01 X31.2885 Y11.2582 F350.00
G01 X31.2977 Y11.3214 F350.00
G01 X31.3011 Y11.3900 F350.00
G01 X31.3011 Y13.3053 F350.00
G01 X31.2984 Y13.3641 F350.00
G01 X31.2972 Y13.3788 F350.00
G01 X31.2893 Y13.4322 F350.00
G01 X31.2855 Y13.4515 F350.00
G01 X31.2709 Y13.5086 F350.00
G01 X31.2478 Y13.5733 F350.00
G01 X31.2228 Y13.6266 F350.00
G01 X31.2135 Y13.6439 F350.00
G01 X31.1831 Y13.6943 F350.00
G01 X31.1421 Y13.7495 F350.00
G01 X31.0960 Y13.8004 F350.00
G01 X30.2877 Y14.6087 F350.00
G01 X30.2952 Y14.6245 F350.00
G01 X30.2989 Y14.6336 F350.00
G01 X30.3335 Y14.7307 F350.00
G01 X30.3575 Y14.8258 F350.00
G01 X30.3614 Y14.8451 F350.00
G01 X30.3755 Y14.9422 F350.00
G01 X30.3806 Y15.0402 F350.00
G01 X30.3806 Y15.0598 F350.00
G01 X30.3762 Y15.1480 F350.00
G01 X30.3750 Y15.1627 F350.00
G01 X30.3597 Y15.2646 F350.00
G01 X30.3361 Y15.3599 F350.00
G01 X30.3304 Y15.3786 F350.00
G01 X30.2971 Y15.4710 F350.00
G01 X30.2553 Y15.5598 F350.00
G01 X30.2461 Y15.5771 F350.00
G01 X30.1954 Y15.6611 F350.00
G01 X30.1342 Y15.7440 F350.00
G01 X30.1247 Y15.7553 F350.00
G01 X30.0586 Y15.8278 F350.00
G01 X29.9861 Y15.8939 F350.00
G01 X29.9709 Y15.9064 F350.00
G01 X29.9000 Y15.9590 F350.00
G01 X29.8837 Y15.9699 F350.00
G01 X29.7994 Y16.0201 F350.00
G01 X29.7018 Y16.0663 F350.00
G01 X29.6001 Y16.1026 F350.00
G01 X29.4954 Y16.1289 F350.00
G01 X29.3886 Y16.1447 F350.00
G01 X29.2808 Y16.1500 F350.00
G01 X28.0808 Y16.1500 F350.00
G01 X27.9891 Y16.1457 F350.00
G01 X25.1797 Y18.9551 F350.00
G01 X25.1678 Y19.0341 F350.00
G01 X25.1392 Y19.1483 F350.00
G01 X25.0995 Y19.2592 F350.00
G01 X25.0514 Y19.3613 F350.00
G01 X25.0443 Y19.3742 F350.00
G01 X24.9938 Y19.4584 F350.00
G01 X24.9829 Y19.4747 F350.00
G01 X24.9184 Y19.5613 F350.00
G01 X24.8394 Y19.6485 F350.00
G01 X24.7521 Y19.7276 F350.00
G01 X24.6655 Y19.7921 F350.00
G01 X24.6492 Y19.8030 F350.00
G01 X24.5650 Y19.8535 F350.00
G01 X24.5477 Y19.8627 F350.00
G01 X24.4500 Y19.9087 F350.00
G01 X24.3392 Y19.9483 F350.00
G01 X24.2249 Y19.9769 F350.00
G01 X24.1133 Y19.9937 F350.00
G01 X24.0987 Y19.9949 F350.00
G01 X23.9908 Y20.0000 F350.00
G01 X23.8732 Y19.9942 F350.00
G01 X23.7567 Y19.9769 F350.00
G01 X23.6425 Y19.9483 F350.00
G01 X23.5316 Y19.9087 F350.00
G01 X23.4251 Y19.8583 F350.00
G01 X23.3241 Y19.7978 F350.00
G01 X23.2296 Y19.7276 F350.00
G01 X23.1423 Y19.6485 F350.00
G01 X23.0632 Y19.5613 F350.00
G01 X22.9931 Y19.4667 F350.00
G01 X22.9325 Y19.3657 F350.00
G01 X22.8822 Y19.2592 F350.00
G01 X22.8425 Y19.1483 F350.00
G01 X22.8139 Y19.0341 F350.00
G01 X22.7971 Y18.9225 F350.00
G01 X22.7959 Y18.9078 F350.00
G01 X22.7908 Y18.8000 F350.00
G01 X22.7966 Y18.6824 F350.00
G01 X22.8139 Y18.5659 F350.00
G01 X22.8425 Y18.4517 F350.00
G01 X22.8822 Y18.3408 F350.00
G01 X22.9325 Y18.2343 F350.00
G01 X22.9931 Y18.1333 F350.00
G01 X23.0601 Y18.0426 F350.00
G01 X23.0696 Y18.0313 F350.00
G01 X23.1423 Y17.9515 F350.00
G01 X23.2296 Y17.8724 F350.00
G01 X23.3241 Y17.8022 F350.00
G01 X23.4208 Y17.7441 F350.00
G01 X23.4339 Y17.7373 F350.00
G01 X23.5316 Y17.6913 F350.00
G01 X23.6378 Y17.6532 F350.00
G01 X23.6519 Y17.6491 F350.00
G01 X23.7519 Y17.6241 F350.00
G01 X23.7664 Y17.6214 F350.00
G01 X23.8357 Y17.6111 F350.00
G00 Z0.4000
G00 X29.1552 Y13.5013
G01 F250.00
G01 Z-0.0500
G01 F350.00
G01 X29.4145 Y13.5013 F350.00
G01 X29.5193 Y13.2213 F350.00
G01 X29.6945 Y13.2213 F350.00
G01 X29.6925 Y12.9413 F350.00
G01 X29.9006 Y12.9413 F350.00
G01 X29.9006 Y12.6613 F350.00
G01 X29.7693 Y12.6613 F350.00
G00 Z0.4000
G00 X29.7727 Y12.3813
G01 F250.00
G01 Z-0.0500
G01 F350.00
G01 X29.9006 Y12.3813 F350.00
G01 X29.9006 Y12.1013 F350.00
G01 X29.7017 Y12.1013 F350.00
G00 Z0.4000
G00 X29.5382 Y11.8213
G01 F250.00
G01 Z-0.0500
G01 F350.00
G01 X29.9006 Y11.8213 F350.00
G01 X29.7618 Y11.5413 F350.00
G01 X29.2019 Y11.5413 F350.00
G00 Z0.4000
G00 X29.4818 Y11.2613
G01 F250.00
G01 Z-0.0500
G01 F350.00
G01 X20.2931 Y11.2613 F350.00
G00 Z0.4000
G00 X20.1856 Y8.7413
G01 F250.00
G01 Z-0.0500
G01 F350.00
G01 X32.2379 Y8.7413 F350.00
G01 X32.0671 Y8.4613 F350.00
G01 X19.7014 Y8.4613 F350.00
G01 X19.8095 Y6.7813 F350.00
G01 X18.5669 Y6.7813 F350.00
G01 X19.0988 Y6.7479 F350.00
G01 X18.8420 Y6.7605 F350.00
G01 X12.1819 Y7.2621 F350.00
G01 X11.9816 Y7.2918 F350.00
G01 X11.7625 Y7.3467 F350.00
G01 X11.5497 Y7.4228 F350.00
G01 X11.3455 Y7.5194 F350.00
G01 X11.1517 Y7.6356 F350.00
G01 X10.9702 Y7.7702 F350.00
G01 X10.8355 Y7.8922 F350.00
G01 X10.5231 Y8.2047 F350.00
G01 X10.4205 Y8.3179 F350.00
G01 X5.8656 Y14.0632 F350.00
G01 X5.7664 Y14.1970 F350.00
G01 X5.6503 Y14.3908 F350.00
G01 X5.5537 Y14.5950 F350.00
G01 X5.4775 Y14.8078 F350.00
G01 X5.4226 Y15.0270 F350.00
G01 X5.3895 Y15.2505 F350.00
G01 X5.3806 Y15.4319 F350.00
G01 X5.3806 Y24.4242 F350.00
G01 X5.3895 Y24.6057 F350.00
G01 X5.4226 Y24.8292 F350.00
G01 X5.4775 Y25.0484 F350.00
G01 X5.5537 Y25.2611 F350.00
G01 X5.6503 Y25.4654 F350.00
G01 X5.7664 Y25.6592 F350.00
G01 X5.8971 Y25.8354 F350.00
G01 X6.7243 Y26.7615 F350.00
G01 X6.8408 Y26.8900 F350.00
G01 X7.0300 Y27.0615 F350.00
G01 X7.2094 Y27.1945 F350.00
G01 X14.0973 Y31.6634 F350.00
G01 X14.2427 Y31.7506 F350.00
G01 X14.4469 Y31.8472 F350.00
G01 X14.6597 Y31.9233 F350.00
G01 X14.8789 Y31.9782 F350.00
G01 X15.1024 Y32.0113 F350.00
G01 X15.2699 Y32.0196 F350.00
G01 X30.8411 Y32.2612 F350.00
G01 X31.0855 Y32.2492 F350.00
G01 X31.3576 Y32.2088 F350.00
G01 X31.6244 Y32.1420 F350.00
G01 X31.8834 Y32.0493 F350.00
G01 X32.1320 Y31.9317 F350.00
G01 X32.3679 Y31.7903 F350.00
G01 X32.5888 Y31.6265 F350.00
G01 X32.7926 Y31.4418 F350.00
G01 X32.9773 Y31.2380 F350.00
G01 X33.1412 Y31.0171 F350.00
G01 X33.2826 Y30.7812 F350.00
G01 X33.4002 Y30.5325 F350.00
G01 X33.4928 Y30.2736 F350.00
G01 X33.5596 Y30.0068 F350.00
G01 X33.6000 Y29.7347 F350.00
G01 X33.6113 Y29.5042 F350.00
G01 X33.6113 Y27.7037 F350.00
G01 X33.2791 Y19.4619 F350.00
G01 X32.8990 Y11.3039 F350.00
G01 X32.8922 Y11.1643 F350.00
G01 X32.8599 Y10.9468 F350.00
G01 X32.4891 Y9.4234 F350.00
G01 X32.4423 Y9.2366 F350.00
G01 X32.3497 Y8.9777 F350.00
G01 X32.2321 Y8.7291 F350.00
G01 X32.0907 Y8.4932 F350.00
G01 X31.9269 Y8.2723 F350.00
G01 X31.7423 Y8.0686 F350.00
G01 X31.5385 Y7.8839 F350.00
G01 X31.3176 Y7.7201 F350.00
G01 X31.0818 Y7.5787 F350.00
G01 X30.8332 Y7.4611 F350.00
G01 X30.5743 Y7.3685 F350.00
G01 X30.3075 Y7.3017 F350.00
G01 X30.0355 Y7.2613 F350.00
G01 X29.8472 Y7.2521 F350.00
G01 X19.0988 Y6.7479 F350.00
G01 X17.7495 Y9.0213 F350.00
G01 X17.3893 Y9.0213 F350.00
G00 Z0.4000
G00 X14.8489 Y7.0613
G01 F250.00
G01 Z-0.0500
G01 F350.00
G01 X25.7791 Y7.0613 F350.00
G00 Z0.4000
G00 X30.4656 Y7.3413
G01 F250.00
G01 Z-0.0500
G01 F350.00
G01 X11.7843 Y7.3413 F350.00
G01 X11.1756 Y7.6213 F350.00
G01 X31.1528 Y7.6213 F350.00
G01 X31.5577 Y7.9013 F350.00
G01 X10.8265 Y7.9013 F350.00
G01 X10.5465 Y8.1813 F350.00
G01 X31.8444 Y8.1813 F350.00
G00 Z0.4000
G00 X13.2306 Y16.5813
G01 F250.00
G01 Z-0.0500
G01 F350.00
G01 X11.0211 Y16.5813 F350.00
G00 Z0.4000
G00 X11.2662 Y16.8613
G01 F250.00
G01 Z-0.0500
G01 F350.00
G01 X13.2306 Y16.8613 F350.00
G01 X13.2306 Y17.1413 F350.00
G01 X11.3663 Y17.1413 F350.00
G00 Z0.4000
G00 X11.3718 Y17.4213
G01 F250.00
G01 Z-0.0500
G01 F350.00
G01 X13.2306 Y17.4213 F350.00
G01 X13.2306 Y17.7013 F350.00
G01 X11.2857 Y17.7013 F350.00
G00 Z0.4000
G00 X11.0681 Y17.9813
G01 F250.00
G01 Z-0.0500
G01 F350.00
G01 X13.2306 Y17.9813 F350.00
G01 X13.2306 Y18.2613 F350.00
G01 X8.3811 Y18.2613 F350.00
G00 Z0.4000
G00 X10.9639 Y18.5413
G01 F250.00
G01 Z-0.0500
G01 F350.00
G01 X13.2306 Y18.5413 F350.00
G01 X13.2306 Y18.8213 F350.00
G01 X12.3761 Y18.8213 F350.00
G01 X12.6561 Y19.1013 F350.00
G01 X13.2306 Y19.1013 F350.00
G00 Z0.4000
G00 X13.2508 Y19.3813
G01 F250.00
G01 Z-0.0500
G01 F350.00
G01 X12.9361 Y19.3813 F350.00
G01 X13.2161 Y19.6613 F350.00
G01 X13.3898 Y19.6613 F350.00
G01 X13.4961 Y19.9413 F350.00
G01 X13.6651 Y19.9413 F350.00
G01 X13.7761 Y20.2213 F350.00
G01 X13.9451 Y20.2213 F350.00
G01 X14.0561 Y20.5013 F350.00
G01 X14.2251 Y20.5013 F350.00
G01 X14.3361 Y20.7813 F350.00
G01 X14.5051 Y20.7813 F350.00
G01 X14.6161 Y21.0613 F350.00
G01 X14.7851 Y21.0613 F350.00
G01 X14.8961 Y21.3413 F350.00
G01 X15.0674 Y21.3413 F350.00
G00 Z0.4000
G00 X12.7446 Y23.5813
G01 F250.00
G01 Z-0.0500
G01 F350.00
G01 X8.3811 Y23.5813 F350.00
G01 X8.3811 Y23.3013 F350.00
G01 X12.4646 Y23.3013 F350.00
G01 X12.1846 Y23.0213 F350.00
G01 X8.3811 Y23.0213 F350.00
G01 X8.3811 Y22.7413 F350.00
G01 X11.9046 Y22.7413 F350.00
G01 X11.6246 Y22.4613 F350.00
G01 X8.3811 Y22.4613 F350.00
G01 X8.3811 Y22.1813 F350.00
G01 X9.1986 Y22.1813 F350.00
G00 Z0.4000
G00 X10.6630 Y22.1813
G01 F250.00
G01 Z-0.0500
G01 F350.00
G01 X11.3446 Y22.1813 F350.00
G01 X13.0246 Y23.8613 F350.00
G01 X8.4803 Y23.8613 F350.00
G00 Z0.4000
G00 X6.1346 Y26.1013
G01 F250.00
G01 Z-0.0500
G01 F350.00
G01 X11.9918 Y26.1013 F350.00
G01 X11.7570 Y25.8665 F350.00
G01 X11.7404 Y25.8787 F350.00
G01 X11.7323 Y25.8841 F350.00
G01 X11.6565 Y25.9296 F350.00
G01 X11.6435 Y25.9363 F350.00
G01 X11.5725 Y25.9699 F350.00
G01 X11.5589 Y25.9757 F350.00
G01 X11.4711 Y26.0069 F350.00
G01 X11.3855 Y26.0286 F350.00
G01 X11.3662 Y26.0325 F350.00
G01 X11.2788 Y26.0452 F350.00
G01 X11.1906 Y26.0498 F350.00
G01 X11.1710 Y26.0498 F350.00
G01 X11.0828 Y26.0452 F350.00
G01 X10.9954 Y26.0325 F350.00
G01 X10.9762 Y26.0286 F350.00
G01 X10.8905 Y26.0069 F350.00
G01 X10.8073 Y25.9774 F350.00
G01 X10.7936 Y25.9719 F350.00
G01 X10.7094 Y25.9319 F350.00
G01 X10.6335 Y25.8867 F350.00
G01 X10.6172 Y25.8758 F350.00
G01 X10.5542 Y25.8290 F350.00
G01 X10.5390 Y25.8166 F350.00
G01 X10.4737 Y25.7571 F350.00
G01 X10.4142 Y25.6918 F350.00
G01 X10.4018 Y25.6767 F350.00
G01 X10.3494 Y25.6056 F350.00
G01 X10.2989 Y25.5214 F350.00
G01 X10.2569 Y25.4327 F350.00
G01 X10.2239 Y25.3403 F350.00
G01 X10.2022 Y25.2547 F350.00
G01 X10.1984 Y25.2354 F350.00
G01 X10.1856 Y25.1480 F350.00
G01 X10.1811 Y25.0598 F350.00
G01 X10.1811 Y25.0402 F350.00
G01 X10.1856 Y24.9520 F350.00
G01 X10.2000 Y24.8549 F350.00
G01 X10.2213 Y24.7692 F350.00
G01 X10.2270 Y24.7504 F350.00
G01 X10.2569 Y24.6673 F350.00
G01 X10.2945 Y24.5874 F350.00
G01 X10.3037 Y24.5701 F350.00
G01 X10.3494 Y24.4944 F350.00
G01 X10.4018 Y24.4233 F350.00
G01 X10.4142 Y24.4082 F350.00
G01 X10.4737 Y24.3429 F350.00
G01 X10.5390 Y24.2834 F350.00
G01 X10.5542 Y24.2710 F350.00
G01 X10.6172 Y24.2242 F350.00
G01 X10.6335 Y24.2133 F350.00
G01 X10.7094 Y24.1681 F350.00
G01 X10.7892 Y24.1301 F350.00
G01 X10.8073 Y24.1226 F350.00
G01 X10.8905 Y24.0931 F350.00
G01 X10.9762 Y24.0714 F350.00
G01 X10.9954 Y24.0675 F350.00
G01 X11.0828 Y24.0548 F350.00
G01 X11.1710 Y24.0502 F350.00
G01 X11.1906 Y24.0502 F350.00
G01 X11.2788 Y24.0548 F350.00
G01 X11.3662 Y24.0675 F350.00
G01 X11.3855 Y24.0714 F350.00
G01 X11.4616 Y24.0904 F350.00
G01 X11.4804 Y24.0961 F350.00
G01 X11.5635 Y24.1261 F350.00
G01 X11.6522 Y24.1681 F350.00
G01 X11.7364 Y24.2185 F350.00
G01 X11.8075 Y24.2710 F350.00
G01 X11.8226 Y24.2834 F350.00
G01 X11.8808 Y24.3361 F350.00
G01 X11.8945 Y24.3497 F350.00
G01 X11.9357 Y24.3498 F350.00
G01 X11.9897 Y24.3524 F350.00
G01 X12.0043 Y24.3537 F350.00
G01 X12.0674 Y24.3632 F350.00
G01 X12.1294 Y24.3785 F350.00
G01 X12.1434 Y24.3830 F350.00
G01 X12.1988 Y24.4031 F350.00
G01 X12.2522 Y24.4280 F350.00
G01 X12.2695 Y24.4373 F350.00
G01 X12.3157 Y24.4651 F350.00
G01 X12.3279 Y24.4734 F350.00
G01 X12.3751 Y24.5087 F350.00
G01 X12.4260 Y24.5548 F350.00
G01 X14.5773 Y26.7061 F350.00
G01 X14.5902 Y26.7045 F350.00
G01 X14.5999 Y26.7037 F350.00
G01 X14.6808 Y26.7000 F350.00
G01 X14.7617 Y26.7037 F350.00
G01 X14.7812 Y26.7057 F350.00
G01 X14.8613 Y26.7178 F350.00
G01 X14.9399 Y26.7372 F350.00
G01 X14.9587 Y26.7429 F350.00
G01 X15.0348 Y26.7704 F350.00
G01 X15.1169 Y26.8092 F350.00
G01 X15.1864 Y26.8506 F350.00
G01 X15.2028 Y26.8615 F350.00
G01 X15.2676 Y26.9100 F350.00
G01 X15.3278 Y26.9642 F350.00
G01 X15.3417 Y26.9780 F350.00
G01 X15.3927 Y27.0344 F350.00
G01 X15.4019 Y27.0459 F350.00
G01 X15.4499 Y27.1111 F350.00
G01 X15.4918 Y27.1804 F350.00
G01 X15.5010 Y27.1977 F350.00
G01 X15.5354 Y27.2710 F350.00
G01 X15.5629 Y27.3472 F350.00
G01 X15.5686 Y27.3659 F350.00
G01 X15.5870 Y27.4397 F350.00
G01 X15.5897 Y27.4542 F350.00
G01 X15.6014 Y27.5343 F350.00
G01 X15.6058 Y27.6201 F350.00
G01 X15.6058 Y27.9750 F350.00
G01 X15.6014 Y28.0657 F350.00
G01 X15.5880 Y28.1555 F350.00
G01 X15.5660 Y28.2435 F350.00
G01 X15.5372 Y28.3244 F350.00
G01 X15.5314 Y28.3380 F350.00
G01 X15.4966 Y28.4110 F350.00
G01 X15.4552 Y28.4806 F350.00
G01 X15.4443 Y28.4969 F350.00
G01 X15.4019 Y28.5541 F350.00
G01 X15.3927 Y28.5656 F350.00
G01 X15.3811 Y28.5785 F350.00
G01 X15.3811 Y28.7827 F350.00
G01 X15.6181 Y29.0197 F350.00
G01 X19.9708 Y29.0197 F350.00
G01 X21.2558 Y27.7347 F350.00
G01 X21.2559 Y27.6201 F350.00
G01 X21.2603 Y27.5343 F350.00
G01 X21.2736 Y27.4445 F350.00
G01 X21.2930 Y27.3659 F350.00
G01 X21.2987 Y27.3472 F350.00
G01 X21.3227 Y27.2802 F350.00
G01 X21.3302 Y27.2620 F350.00
G01 X21.3650 Y27.1890 F350.00
G01 X21.4065 Y27.1194 F350.00
G01 X21.4174 Y27.1031 F350.00
G01 X21.4658 Y27.0382 F350.00
G01 X21.5233 Y26.9744 F350.00
G01 X21.5339 Y26.9642 F350.00
G01 X21.5940 Y26.9100 F350.00
G01 X21.6669 Y26.8559 F350.00
G01 X21.7448 Y26.8092 F350.00
G01 X21.8268 Y26.7704 F350.00
G01 X21.9123 Y26.7398 F350.00
G01 X22.0004 Y26.7178 F350.00
G01 X22.0902 Y26.7045 F350.00
G01 X22.1808 Y26.7000 F350.00
G01 X22.2715 Y26.7045 F350.00
G01 X22.3516 Y26.7161 F350.00
G01 X22.3709 Y26.7199 F350.00
G01 X22.4493 Y26.7398 F350.00
G01 X22.5256 Y26.7669 F350.00
G01 X22.5438 Y26.7744 F350.00
G01 X22.6169 Y26.8092 F350.00
G01 X22.6947 Y26.8559 F350.00
G01 X22.7599 Y26.9039 F350.00
G01 X22.7751 Y26.9164 F350.00
G01 X22.8349 Y26.9709 F350.00
G01 X22.8959 Y27.0382 F350.00
G01 X22.9499 Y27.1111 F350.00
G01 X22.9918 Y27.1804 F350.00
G01 X23.0010 Y27.1977 F350.00
G01 X23.0354 Y27.2710 F350.00
G01 X23.0660 Y27.3565 F350.00
G01 X23.0859 Y27.4350 F350.00
G01 X23.0897 Y27.4542 F350.00
G01 X23.1002 Y27.5246 F350.00
G01 X23.1018 Y27.5392 F350.00
G01 X23.1058 Y27.6250 F350.00
G01 X23.1058 Y27.9750 F350.00
G01 X23.1014 Y28.0657 F350.00
G01 X23.0880 Y28.1555 F350.00
G01 X23.0686 Y28.2341 F350.00
G01 X23.0629 Y28.2528 F350.00
G01 X23.0389 Y28.3198 F350.00
G01 X23.0335 Y28.3335 F350.00
G01 X22.9966 Y28.4110 F350.00
G01 X22.9526 Y28.4848 F350.00
G01 X22.9443 Y28.4969 F350.00
G01 X22.8989 Y28.5580 F350.00
G01 X22.8927 Y28.5656 F350.00
G01 X22.8811 Y28.5785 F350.00
G01 X22.8811 Y28.7827 F350.00
G01 X23.1181 Y29.0197 F350.00
G01 X25.7808 Y29.0197 F350.00
G01 X26.9975 Y27.8030 F350.00
G01 X26.9866 Y27.7276 F350.00
G01 X26.9809 Y27.6149 F350.00
G01 X26.9811 Y27.6002 F350.00
G01 X26.9859 Y27.5022 F350.00
G01 X26.9871 Y27.4875 F350.00
G01 X27.0039 Y27.3759 F350.00
G01 X27.0299 Y27.2711 F350.00
G01 X27.0356 Y27.2523 F350.00
G01 X27.0722 Y27.1508 F350.00
G01 X27.1181 Y27.0531 F350.00
G01 X27.1274 Y27.0358 F350.00
G01 X27.1831 Y26.9433 F350.00
G01 X27.2501 Y26.8526 F350.00
G01 X27.2596 Y26.8413 F350.00
G01 X27.3255 Y26.7686 F350.00
G01 X27.3358 Y26.7580 F350.00
G01 X27.4196 Y26.6824 F350.00
G01 X27.4806 Y26.6368 F350.00
G01 X27.4806 Y24.5901 F350.00
G01 X24.8908 Y22.0003 F350.00
G01 X22.1808 Y22.0003 F350.00
G01 X22.1122 Y21.9969 F350.00
G01 X22.0539 Y21.9885 F350.00
G01 X22.0346 Y21.9846 F350.00
G01 X21.9870 Y21.9727 F350.00
G01 X21.9729 Y21.9686 F350.00
G01 X21.9128 Y21.9469 F350.00
G01 X21.8595 Y21.9220 F350.00
G01 X21.8422 Y21.9127 F350.00
G01 X21.7918 Y21.8822 F350.00
G01 X21.7443 Y21.8473 F350.00
G01 X21.7328 Y21.8381 F350.00
G01 X21.6928 Y21.8019 F350.00
G01 X20.3994 Y20.5089 F350.00
G01 X19.5932 Y21.3152 F350.00
G01 X19.5460 Y21.3581 F350.00
G01 X19.5345 Y21.3673 F350.00
G01 X19.4871 Y21.4022 F350.00
G01 X19.4367 Y21.4327 F350.00
G01 X19.4194 Y21.4420 F350.00
G01 X19.3660 Y21.4669 F350.00
G01 X19.3106 Y21.4870 F350.00
G01 X19.2918 Y21.4927 F350.00
G01 X19.2346 Y21.5068 F350.00
G01 X19.1667 Y21.5169 F350.00
G01 X19.0980 Y21.5203 F350.00
G01 X15.5341 Y21.5203 F350.00
G01 X15.4655 Y21.5169 F350.00
G01 X15.3975 Y21.5068 F350.00
G01 X15.3308 Y21.4901 F350.00
G01 X15.2753 Y21.4705 F350.00
G01 X15.2572 Y21.4630 F350.00
G01 X15.2040 Y21.4376 F350.00
G01 X15.1534 Y21.4075 F350.00
G01 X15.1370 Y21.3966 F350.00
G01 X15.0899 Y21.3613 F350.00
G01 X15.0461 Y21.3219 F350.00
G01 X13.4357 Y19.7119 F350.00
G01 X13.3895 Y19.6609 F350.00
G01 X13.3542 Y19.6138 F350.00
G01 X13.3459 Y19.6016 F350.00
G01 X13.3181 Y19.5553 F350.00
G01 X13.3088 Y19.5380 F350.00
G01 X13.2839 Y19.4847 F350.00
G01 X13.2607 Y19.4200 F350.00
G01 X13.2462 Y19.3629 F350.00
G01 X13.2423 Y19.3437 F350.00
G01 X13.2339 Y19.2853 F350.00
G01 X13.2306 Y19.2216 F350.00
G01 X13.2306 Y12.6907 F350.00
G01 X13.2029 Y12.6601 F350.00
G01 X13.1934 Y12.6488 F350.00
G01 X13.1437 Y12.5818 F350.00
G01 X13.1357 Y12.5695 F350.00
G01 X13.0978 Y12.5064 F350.00
G01 X13.0907 Y12.4935 F350.00
G01 X13.0531 Y12.4135 F350.00
G01 X13.0248 Y12.3351 F350.00
G01 X13.0191 Y12.3163 F350.00
G01 X13.0012 Y12.2449 F350.00
G01 X12.9982 Y12.2305 F350.00
G01 X12.9854 Y12.1431 F350.00
G01 X12.9809 Y12.0549 F350.00
G01 X12.9808 Y11.5500 F350.00
G01 X12.9854 Y11.4569 F350.00
G01 X12.9974 Y11.3743 F350.00
G01 X13.0001 Y11.3599 F350.00
G01 X13.0217 Y11.2742 F350.00
G01 X13.0531 Y11.1865 F350.00
G01 X13.0930 Y11.1022 F350.00
G01 X13.1357 Y11.0305 F350.00
G01 X13.1466 Y11.0142 F350.00
G01 X13.1904 Y10.9551 F350.00
G01 X13.2029 Y10.9399 F350.00
G01 X13.2591 Y10.8782 F350.00
G01 X13.3281 Y10.8156 F350.00
G01 X13.4030 Y10.7601 F350.00
G01 X13.4745 Y10.7170 F350.00
G01 X13.4918 Y10.7078 F350.00
G01 X13.5583 Y10.6763 F350.00
G01 X13.5764 Y10.6688 F350.00
G01 X13.6551 Y10.6409 F350.00
G01 X13.7455 Y10.6183 F350.00
G01 X13.8377 Y10.6046 F350.00
G01 X13.9210 Y10.6002 F350.00
G01 X13.9406 Y10.6002 F350.00
G01 X14.0141 Y10.6039 F350.00
G01 X14.0337 Y10.6058 F350.00
G01 X14.1162 Y10.6183 F350.00
G01 X14.2066 Y10.6409 F350.00
G01 X14.2944 Y10.6723 F350.00
G01 X14.3699 Y10.7078 F350.00
G01 X14.3872 Y10.7170 F350.00
G01 X14.4503 Y10.7549 F350.00
G01 X14.4666 Y10.7658 F350.00
G01 X14.5335 Y10.8156 F350.00
G01 X14.6026 Y10.8782 F350.00
G01 X14.6652 Y10.9473 F350.00
G01 X14.7151 Y11.0142 F350.00
G01 X14.7260 Y11.0305 F350.00
G01 X14.7638 Y11.0936 F350.00
G01 X14.7731 Y11.1109 F350.00
G01 X14.8085 Y11.1865 F350.00
G01 X14.8384 Y11.2696 F350.00
G01 X14.8425 Y11.2837 F350.00
G01 X14.8604 Y11.3551 F350.00
G01 X14.8642 Y11.3743 F350.00
G01 X14.8762 Y11.4569 F350.00
G01 X14.8806 Y11.5402 F350.00
G01 X14.8808 Y12.0500 F350.00
G01 X14.8770 Y12.1333 F350.00
G01 X14.8750 Y12.1529 F350.00
G01 X14.8626 Y12.2353 F350.00
G01 X14.8425 Y12.3163 F350.00
G01 X14.8368 Y12.3351 F350.00
G01 X14.8120 Y12.4044 F350.00
G01 X14.8066 Y12.4181 F350.00
G01 X14.7686 Y12.4978 F350.00
G01 X14.7234 Y12.5737 F350.00
G01 X14.7151 Y12.5858 F350.00
G01 X14.6683 Y12.6488 F350.00
G01 X14.6588 Y12.6601 F350.00
G01 X14.6311 Y12.6907 F350.00
G01 X14.6311 Y18.9267 F350.00
G01 X15.8242 Y20.1197 F350.00
G01 X18.8080 Y20.1197 F350.00
G01 X26.9129 Y12.0148 F350.00
G01 X26.9564 Y11.9751 F350.00
G01 X26.9676 Y11.9656 F350.00
G01 X27.0110 Y11.9334 F350.00
G01 X27.0273 Y11.9225 F350.00
G01 X27.0779 Y11.8924 F350.00
G01 X27.1311 Y11.8670 F350.00
G01 X27.1492 Y11.8595 F350.00
G01 X27.2048 Y11.8399 F350.00
G01 X27.2618 Y11.8254 F350.00
G01 X27.2762 Y11.8223 F350.00
G01 X27.3394 Y11.8131 F350.00
G01 X27.4031 Y11.8098 F350.00
G01 X27.8325 Y11.8097 F350.00
G01 X27.9030 Y11.7322 F350.00
G01 X27.9830 Y11.6597 F350.00
G01 X28.0697 Y11.5954 F350.00
G01 X28.1623 Y11.5399 F350.00
G01 X28.2599 Y11.4937 F350.00
G01 X28.3615 Y11.4574 F350.00
G01 X28.4662 Y11.4311 F350.00
G01 X28.5730 Y11.4153 F350.00
G01 X28.6808 Y11.4100 F350.00
G01 X28.7886 Y11.4153 F350.00
G01 X28.8954 Y11.4311 F350.00
G01 X28.9907 Y11.4547 F350.00
G01 X29.0095 Y11.4604 F350.00
G01 X29.0926 Y11.4902 F350.00
G01 X29.1107 Y11.4977 F350.00
G01 X29.1994 Y11.5399 F350.00
G01 X29.2837 Y11.5901 F350.00
G01 X29.3000 Y11.6010 F350.00
G01 X29.3787 Y11.6597 F350.00
G01 X29.4551 Y11.7288 F350.00
G01 X29.4654 Y11.7393 F350.00
G01 X29.5311 Y11.8122 F350.00
G01 X29.5954 Y11.8989 F350.00
G01 X29.6509 Y11.9915 F350.00
G01 X29.6971 Y12.0890 F350.00
G01 X29.7335 Y12.1907 F350.00
G01 X29.7597 Y12.2954 F350.00
G01 X29.7755 Y12.4022 F350.00
G01 X29.7808 Y12.5100 F350.00
G01 X29.7755 Y12.6178 F350.00
G01 X29.7597 Y12.7246 F350.00
G01 X29.7335 Y12.8293 F350.00
G01 X29.6971 Y12.9310 F350.00
G01 X29.6509 Y13.0285 F350.00
G01 X29.5954 Y13.1211 F350.00
G01 X29.5311 Y13.2078 F350.00
G01 X29.4654 Y13.2807 F350.00
G01 X29.4551 Y13.2912 F350.00
G01 X29.3787 Y13.3603 F350.00
G01 X29.2920 Y13.4246 F350.00
G01 X29.1994 Y13.4801 F350.00
G01 X29.1018 Y13.5263 F350.00
G01 X29.0001 Y13.5626 F350.00
G01 X28.8954 Y13.5889 F350.00
G01 X28.7886 Y13.6047 F350.00
G01 X28.6906 Y13.6098 F350.00
G01 X28.6710 Y13.6098 F350.00
G01 X28.5730 Y13.6047 F350.00
G01 X28.4662 Y13.5889 F350.00
G01 X28.3615 Y13.5626 F350.00
G01 X28.2599 Y13.5263 F350.00
G01 X28.1623 Y13.4801 F350.00
G01 X28.0780 Y13.4299 F350.00
G01 X28.0617 Y13.4190 F350.00
G01 X27.9830 Y13.3603 F350.00
G01 X27.9101 Y13.2946 F350.00
G01 X27.8962 Y13.2807 F350.00
G01 X27.8325 Y13.2103 F350.00
G01 X27.6981 Y13.2103 F350.00
G01 X21.3897 Y19.5186 F350.00
G01 X22.4709 Y20.5997 F350.00
G01 X25.1857 Y20.5998 F350.00
G01 X25.2397 Y20.6024 F350.00
G01 X25.2592 Y20.6043 F350.00
G01 X25.3174 Y20.6132 F350.00
G01 X25.3746 Y20.6273 F350.00
G01 X25.3934 Y20.6330 F350.00
G01 X25.4488 Y20.6531 F350.00
G01 X25.5022 Y20.6780 F350.00
G01 X25.5195 Y20.6873 F350.00
G01 X25.5699 Y20.7178 F350.00
G01 X25.6173 Y20.7527 F350.00
G01 X25.6325 Y20.7651 F350.00
G01 X25.6760 Y20.8048 F350.00
G01 X28.6760 Y23.8048 F350.00
G01 X28.7190 Y23.8520 F350.00
G01 X28.7282 Y23.8635 F350.00
G01 X28.7574 Y23.9029 F350.00
G01 X28.7683 Y23.9193 F350.00
G01 X28.7984 Y23.9699 F350.00
G01 X28.8278 Y24.0320 F350.00
G01 X28.8509 Y24.0967 F350.00
G01 X28.8655 Y24.1538 F350.00
G01 X28.8685 Y24.1682 F350.00
G01 X28.8765 Y24.2216 F350.00
G01 X28.8784 Y24.2412 F350.00
G01 X28.8811 Y24.3000 F350.00
G01 X28.8811 Y26.6368 F350.00
G01 X28.9421 Y26.6824 F350.00
G01 X29.0222 Y26.7547 F350.00
G01 X29.0361 Y26.7686 F350.00
G01 X29.1053 Y26.8450 F350.00
G01 X29.1145 Y26.8565 F350.00
G01 X29.1786 Y26.9433 F350.00
G01 X29.2368 Y27.0400 F350.00
G01 X29.2435 Y27.0531 F350.00
G01 X29.2895 Y27.1508 F350.00
G01 X29.3292 Y27.2617 F350.00
G01 X29.3578 Y27.3759 F350.00
G01 X29.3738 Y27.4826 F350.00
G01 X29.3755 Y27.4973 F350.00
G01 X29.3808 Y27.6100 F350.00
G01 X29.3758 Y27.7178 F350.00
G01 X29.3738 Y27.7374 F350.00
G01 X29.3578 Y27.8441 F350.00
G01 X29.3318 Y27.9489 F350.00
G01 X29.3261 Y27.9677 F350.00
G01 X29.2930 Y28.0601 F350.00
G01 X29.2855 Y28.0782 F350.00
G01 X29.2391 Y28.1757 F350.00
G01 X29.1786 Y28.2767 F350.00
G01 X29.1084 Y28.3713 F350.00
G01 X29.0328 Y28.4550 F350.00
G01 X29.0222 Y28.4653 F350.00
G01 X28.9421 Y28.5376 F350.00
G01 X28.8555 Y28.6021 F350.00
G01 X28.8392 Y28.6130 F350.00
G01 X28.7465 Y28.6683 F350.00
G01 X28.6490 Y28.7147 F350.00
G01 X28.6309 Y28.7222 F350.00
G01 X28.5338 Y28.7568 F350.00
G01 X28.5197 Y28.7609 F350.00
G01 X28.4149 Y28.7869 F350.00
G01 X28.3082 Y28.8030 F350.00
G01 X28.2936 Y28.8046 F350.00
G01 X28.1906 Y28.8098 F350.00
G01 X28.1710 Y28.8098 F350.00
G01 X28.0632 Y28.8042 F350.00
G01 X27.9878 Y28.7933 F350.00
G01 X26.5660 Y30.2152 F350.00
G01 X26.5188 Y30.2581 F350.00
G01 X26.5073 Y30.2673 F350.00
G01 X26.4679 Y30.2966 F350.00
G01 X26.4516 Y30.3075 F350.00
G01 X26.4009 Y30.3376 F350.00
G01 X26.3388 Y30.3669 F350.00
G01 X26.2834 Y30.3870 F350.00
G01 X26.2646 Y30.3927 F350.00
G01 X26.2074 Y30.4068 F350.00
G01 X26.1492 Y30.4157 F350.00
G01 X26.1297 Y30.4176 F350.00
G01 X26.0708 Y30.4203 F350.00
G01 X22.8280 Y30.4203 F350.00
G01 X22.7594 Y30.4169 F350.00
G01 X22.7011 Y30.4085 F350.00
G01 X22.6866 Y30.4058 F350.00
G01 X22.6342 Y30.3927 F350.00
G01 X22.6154 Y30.3870 F350.00
G01 X22.5601 Y30.3669 F350.00
G01 X22.5067 Y30.3420 F350.00
G01 X22.4894 Y30.3327 F350.00
G01 X22.4390 Y30.3022 F350.00
G01 X22.3915 Y30.2673 F350.00
G01 X22.3764 Y30.2549 F350.00
G01 X22.3329 Y30.2152 F350.00
G01 X21.6822 Y29.5644 F350.00
G01 X21.6395 Y29.5170 F350.00
G01 X21.6042 Y29.4699 F350.00
G01 X21.5933 Y29.4535 F350.00
G01 X21.5650 Y29.4061 F350.00
G01 X20.7560 Y30.2152 F350.00
G01 X20.7088 Y30.2581 F350.00
G01 X20.6973 Y30.2673 F350.00
G01 X20.6579 Y30.2966 F350.00
G01 X20.6416 Y30.3075 F350.00
G01 X20.5909 Y30.3376 F350.00
G01 X20.5378 Y30.3630 F350.00
G01 X20.5196 Y30.3705 F350.00
G01 X20.4641 Y30.3901 F350.00
G01 X20.4070 Y30.4046 F350.00
G01 X20.3878 Y30.4085 F350.00
G01 X20.3295 Y30.4169 F350.00
G01 X20.2608 Y30.4203 F350.00
G01 X15.3280 Y30.4203 F350.00
G01 X15.2594 Y30.4169 F350.00
G01 X15.1914 Y30.4068 F350.00
G01 X15.1342 Y30.3927 F350.00
G01 X15.1154 Y30.3870 F350.00
G01 X15.0601 Y30.3669 F350.00
G01 X14.9979 Y30.3376 F350.00
G01 X14.9473 Y30.3075 F350.00
G01 X14.9310 Y30.2966 F350.00
G01 X14.8915 Y30.2673 F350.00
G01 X14.8800 Y30.2581 F350.00
G01 X14.8329 Y30.2152 F350.00
G01 X14.1822 Y29.5644 F350.00
G01 X14.1459 Y29.5245 F350.00
G01 X14.1335 Y29.5093 F350.00
G01 X14.0986 Y29.4618 F350.00
G01 X14.0681 Y29.4114 F350.00
G01 X14.0588 Y29.3941 F350.00
G01 X14.0339 Y29.3408 F350.00
G01 X14.0107 Y29.2761 F350.00
G01 X13.9940 Y29.2094 F350.00
G01 X13.9839 Y29.1414 F350.00
G01 X13.9806 Y29.0728 F350.00
G01 X13.9806 Y28.5785 F350.00
G01 X13.9689 Y28.5656 F350.00
G01 X13.9627 Y28.5580 F350.00
G01 X13.9145 Y28.4930 F350.00
G01 X13.9065 Y28.4806 F350.00
G01 X13.8674 Y28.4153 F350.00
G01 X13.8606 Y28.4023 F350.00
G01 X13.8262 Y28.3290 F350.00
G01 X13.7957 Y28.2435 F350.00
G01 X13.7736 Y28.1555 F350.00
G01 X13.7603 Y28.0657 F350.00
G01 X13.7559 Y27.9799 F350.00
G01 X13.7558 Y27.8653 F350.00
G01 X11.7570 Y25.8665 F350.00
G01 X12.2718 Y26.3813 F350.00
G01 X6.3847 Y26.3813 F350.00
G01 X6.6348 Y26.6613 F350.00
G01 X12.5518 Y26.6613 F350.00
G01 X12.8318 Y26.9413 F350.00
G01 X6.8974 Y26.9413 F350.00
G01 X7.2506 Y27.2213 F350.00
G01 X13.1118 Y27.2213 F350.00
G01 X13.3918 Y27.5013 F350.00
G01 X7.6822 Y27.5013 F350.00
G01 X8.1137 Y27.7813 F350.00
G01 X13.6718 Y27.7813 F350.00
G01 X13.7599 Y28.0613 F350.00
G01 X8.5453 Y28.0613 F350.00
G01 X8.9768 Y28.3413 F350.00
G01 X13.8318 Y28.3413 F350.00
G00 Z0.4000
G00 X13.9806 Y28.6213
G01 F250.00
G01 Z-0.0500
G01 F350.00
G01 X9.4084 Y28.6213 F350.00
G01 X9.8400 Y28.9013 F350.00
G01 X13.9806 Y28.9013 F350.00
G00 Z0.4000
G00 X13.9896 Y29.1813
G01 F250.00
G01 Z-0.0500
G01 F350.00
G01 X10.2715 Y29.1813 F350.00
G01 X10.7031 Y29.4613 F350.00
G01 X14.0982 Y29.4613 F350.00
G00 Z0.4000
G00 X14.3590 Y29.7413
G01 F250.00
G01 Z-0.0500
G01 F350.00
G01 X11.1347 Y29.7413 F350.00
G01 X11.5662 Y30.0213 F350.00
G01 X14.6390 Y30.0213 F350.00
G00 Z0.4000
G00 X14.9376 Y30.3013
G01 F250.00
G01 Z-0.0500
G01 F350.00
G01 X11.9978 Y30.3013 F350.00
G00 Z0.4000
G00 X11.0460 Y18.5997
G01 F250.00
G01 Z-0.0500
G01 F350.00
G01 X11.8645 Y18.5997 F350.00
G01 X11.9234 Y18.6024 F350.00
G01 X11.9380 Y18.6037 F350.00
G01 X12.0011 Y18.6132 F350.00
G01 X12.0583 Y18.6273 F350.00
G01 X12.0771 Y18.6330 F350.00
G01 X12.1325 Y18.6531 F350.00
G01 X12.1858 Y18.6780 F350.00
G01 X12.2031 Y18.6873 F350.00
G01 X12.2535 Y18.7178 F350.00
G01 X12.3010 Y18.7527 F350.00
G01 X12.3162 Y18.7651 F350.00
G01 X12.3597 Y18.8048 F350.00
G01 X15.6546 Y22.0997 F350.00
G01 X23.1857 Y22.0998 F350.00
G01 X23.2495 Y22.1031 F350.00
G01 X23.3078 Y22.1115 F350.00
G01 X23.3270 Y22.1154 F350.00
G01 X23.3841 Y22.1299 F350.00
G01 X23.4488 Y22.1531 F350.00
G01 X23.5022 Y22.1780 F350.00
G01 X23.5195 Y22.1873 F350.00
G01 X23.5616 Y22.2125 F350.00
G01 X23.5739 Y22.2205 F350.00
G01 X23.6251 Y22.2587 F350.00
G01 X23.6760 Y22.3048 F350.00
G01 X24.6760 Y23.3048 F350.00
G01 X24.7157 Y23.3483 F350.00
G01 X24.7282 Y23.3635 F350.00
G01 X24.7631 Y23.4110 F350.00
G01 X24.7935 Y23.4614 F350.00
G01 X24.8028 Y23.4787 F350.00
G01 X24.8278 Y23.5320 F350.00
G01 X24.8478 Y23.5874 F350.00
G01 X24.8535 Y23.6062 F350.00
G01 X24.8666 Y23.6586 F350.00
G01 X24.8693 Y23.6731 F350.00
G01 X24.8777 Y23.7314 F350.00
G01 X24.8811 Y23.8000 F350.00
G01 X24.8811 Y27.0215 F350.00
G01 X24.8927 Y27.0344 F350.00
G01 X24.9019 Y27.0459 F350.00
G01 X24.9443 Y27.1031 F350.00
G01 X24.9552 Y27.1194 F350.00
G01 X24.9966 Y27.1890 F350.00
G01 X25.0314 Y27.2620 F350.00
G01 X25.0372 Y27.2756 F350.00
G01 X25.0660 Y27.3565 F350.00
G01 X25.0880 Y27.4445 F350.00
G01 X25.1014 Y27.5343 F350.00
G01 X25.1058 Y27.6201 F350.00
G01 X25.1058 Y27.9799 F350.00
G01 X25.1014 Y28.0657 F350.00
G01 X25.0889 Y28.1506 F350.00
G01 X25.0859 Y28.1650 F350.00
G01 X25.0660 Y28.2435 F350.00
G01 X25.0354 Y28.3290 F350.00
G01 X24.9966 Y28.4110 F350.00
G01 X24.9552 Y28.4806 F350.00
G01 X24.9472 Y28.4930 F350.00
G01 X24.8959 Y28.5618 F350.00
G01 X24.8417 Y28.6220 F350.00
G01 X24.8278 Y28.6358 F350.00
G01 X24.7676 Y28.6900 F350.00
G01 X24.7028 Y28.7385 F350.00
G01 X24.6864 Y28.7494 F350.00
G01 X24.6169 Y28.7908 F350.00
G01 X24.5438 Y28.8256 F350.00
G01 X24.5256 Y28.8331 F350.00
G01 X24.4493 Y28.8602 F350.00
G01 X24.3709 Y28.8801 F350.00
G01 X24.3516 Y28.8839 F350.00
G01 X24.2715 Y28.8955 F350.00
G01 X24.1906 Y28.8998 F350.00
G01 X24.1710 Y28.8998 F350.00
G01 X24.0902 Y28.8955 F350.00
G01 X24.0100 Y28.8839 F350.00
G01 X23.9908 Y28.8801 F350.00
G01 X23.9123 Y28.8602 F350.00
G01 X23.8268 Y28.8296 F350.00
G01 X23.7535 Y28.7952 F350.00
G01 X23.7362 Y28.7859 F350.00
G01 X23.6669 Y28.7441 F350.00
G01 X23.6017 Y28.6961 F350.00
G01 X23.5866 Y28.6836 F350.00
G01 X23.5267 Y28.6291 F350.00
G01 X23.4722 Y28.5692 F350.00
G01 X23.4597 Y28.5541 F350.00
G01 X23.4117 Y28.4889 F350.00
G01 X23.3699 Y28.4196 F350.00
G01 X23.3606 Y28.4023 F350.00
G01 X23.3262 Y28.3290 F350.00
G01 X23.2957 Y28.2435 F350.00
G01 X23.2757 Y28.1650 F350.00
G01 X23.2719 Y28.1458 F350.00
G01 X23.2615 Y28.0754 F350.00
G01 X23.2599 Y28.0608 F350.00
G01 X23.2558 Y27.9750 F350.00
G01 X23.2558 Y27.6250 F350.00
G01 X23.2596 Y27.5441 F350.00
G01 X23.2608 Y27.5295 F350.00
G01 X23.2736 Y27.4445 F350.00
G01 X23.2930 Y27.3659 F350.00
G01 X23.2987 Y27.3472 F350.00
G01 X23.3227 Y27.2802 F350.00
G01 X23.3282 Y27.2665 F350.00
G01 X23.3650 Y27.1890 F350.00
G01 X23.4090 Y27.1152 F350.00
G01 X23.4174 Y27.1031 F350.00
G01 X23.4627 Y27.0420 F350.00
G01 X23.4689 Y27.0344 F350.00
G01 X23.4806 Y27.0215 F350.00
G01 X23.4806 Y24.0901 F350.00
G01 X22.8908 Y23.5003 F350.00
G01 X15.3645 Y23.5003 F350.00
G01 X15.2959 Y23.4969 F350.00
G01 X15.2279 Y23.4868 F350.00
G01 X15.1612 Y23.4701 F350.00
G01 X15.0965 Y23.4469 F350.00
G01 X15.0344 Y23.4176 F350.00
G01 X14.9755 Y23.3822 F350.00
G01 X14.9203 Y23.3413 F350.00
G01 X14.8694 Y23.2952 F350.00
G01 X11.5745 Y20.0003 F350.00
G01 X11.0460 Y20.0003 F350.00
G01 X10.9808 Y20.0483 F350.00
G01 X10.9136 Y20.0889 F350.00
G01 X10.8963 Y20.0981 F350.00
G01 X10.8252 Y20.1315 F350.00
G01 X10.7421 Y20.1612 F350.00
G01 X10.6660 Y20.1806 F350.00
G01 X10.6467 Y20.1844 F350.00
G01 X10.5788 Y20.1945 F350.00
G01 X10.5641 Y20.1961 F350.00
G01 X10.4808 Y20.2000 F350.00
G01 X9.3808 Y20.2000 F350.00
G01 X9.3024 Y20.1964 F350.00
G01 X9.2877 Y20.1951 F350.00
G01 X9.2052 Y20.1827 F350.00
G01 X9.1290 Y20.1639 F350.00
G01 X9.1102 Y20.1582 F350.00
G01 X9.0364 Y20.1315 F350.00
G01 X8.9653 Y20.0981 F350.00
G01 X8.9480 Y20.0889 F350.00
G01 X8.8808 Y20.0483 F350.00
G01 X8.8176 Y20.0017 F350.00
G01 X8.8024 Y19.9893 F350.00
G01 X8.7444 Y19.9364 F350.00
G01 X8.6915 Y19.8784 F350.00
G01 X8.6791 Y19.8632 F350.00
G01 X8.6325 Y19.8000 F350.00
G01 X8.5919 Y19.7328 F350.00
G01 X8.5827 Y19.7155 F350.00
G01 X8.5493 Y19.6444 F350.00
G01 X8.5196 Y19.5613 F350.00
G01 X8.4981 Y19.4756 F350.00
G01 X8.4852 Y19.3882 F350.00
G01 X8.4808 Y19.3000 F350.00
G01 X8.4852 Y19.2118 F350.00
G01 X8.4981 Y19.1244 F350.00
G01 X8.5196 Y19.0387 F350.00
G01 X8.5493 Y18.9556 F350.00
G01 X8.5871 Y18.8757 F350.00
G01 X8.6325 Y18.8000 F350.00
G01 X8.6851 Y18.7290 F350.00
G01 X8.7444 Y18.6636 F350.00
G01 X8.8099 Y18.6043 F350.00
G01 X8.8808 Y18.5517 F350.00
G01 X8.9566 Y18.5063 F350.00
G01 X9.0364 Y18.4685 F350.00
G01 X9.1196 Y18.4388 F350.00
G01 X9.2052 Y18.4173 F350.00
G01 X9.2926 Y18.4043 F350.00
G01 X9.3710 Y18.4002 F350.00
G01 X10.4808 Y18.4000 F350.00
G01 X10.5641 Y18.4039 F350.00
G01 X10.5788 Y18.4055 F350.00
G01 X10.6467 Y18.4156 F350.00
G01 X10.6660 Y18.4194 F350.00
G01 X10.7421 Y18.4388 F350.00
G01 X10.8252 Y18.4685 F350.00
G01 X10.8963 Y18.5019 F350.00
G01 X10.9136 Y18.5111 F350.00
G01 X10.9808 Y18.5517 F350.00
G01 X11.0460 Y18.5997 F350.00
G00 Z0.4000
G00 X10.4808 Y16.4000
G01 F250.00
G01 Z-0.0500
G01 F350.00
G01 X10.5592 Y16.4036 F350.00
G01 X10.5788 Y16.4055 F350.00
G01 X10.6564 Y16.4173 F350.00
G01 X10.7421 Y16.4388 F350.00
G01 X10.8161 Y16.4650 F350.00
G01 X10.8342 Y16.4725 F350.00
G01 X10.9051 Y16.5063 F350.00
G01 X10.9808 Y16.5517 F350.00
G01 X11.0440 Y16.5983 F350.00
G01 X11.0592 Y16.6107 F350.00
G01 X11.1172 Y16.6636 F350.00
G01 X11.1765 Y16.7290 F350.00
G01 X11.2291 Y16.8000 F350.00
G01 X11.2697 Y16.8672 F350.00
G01 X11.2790 Y16.8845 F350.00
G01 X11.3083 Y16.9466 F350.00
G01 X11.3158 Y16.9647 F350.00
G01 X11.3421 Y17.0387 F350.00
G01 X11.3635 Y17.1244 F350.00
G01 X11.3765 Y17.2118 F350.00
G01 X11.3806 Y17.2902 F350.00
G01 X11.3806 Y17.3098 F350.00
G01 X11.3772 Y17.3784 F350.00
G01 X11.3753 Y17.3980 F350.00
G01 X11.3635 Y17.4756 F350.00
G01 X11.3447 Y17.5518 F350.00
G01 X11.3390 Y17.5706 F350.00
G01 X11.3158 Y17.6353 F350.00
G01 X11.3083 Y17.6534 F350.00
G01 X11.2746 Y17.7243 F350.00
G01 X11.2291 Y17.8000 F350.00
G01 X11.1826 Y17.8632 F350.00
G01 X11.1701 Y17.8784 F350.00
G01 X11.1172 Y17.9364 F350.00
G01 X11.0518 Y17.9957 F350.00
G01 X10.9808 Y18.0483 F350.00
G01 X10.9136 Y18.0889 F350.00
G01 X10.8963 Y18.0981 F350.00
G01 X10.8252 Y18.1315 F350.00
G01 X10.7514 Y18.1582 F350.00
G01 X10.7326 Y18.1639 F350.00
G01 X10.6564 Y18.1827 F350.00
G01 X10.5739 Y18.1951 F350.00
G01 X10.5592 Y18.1964 F350.00
G01 X10.4808 Y18.2000 F350.00
G01 X9.3808 Y18.2000 F350.00
G01 X9.3024 Y18.1964 F350.00
G01 X9.2829 Y18.1945 F350.00
G01 X9.2052 Y18.1827 F350.00
G01 X9.1196 Y18.1612 F350.00
G01 X9.0364 Y18.1315 F350.00
G01 X8.9566 Y18.0937 F350.00
G01 X8.8808 Y18.0483 F350.00
G01 X8.8099 Y17.9957 F350.00
G01 X8.7444 Y17.9364 F350.00
G01 X8.6851 Y17.8710 F350.00
G01 X8.6325 Y17.8000 F350.00
G01 X8.5871 Y17.7243 F350.00
G01 X8.5493 Y17.6444 F350.00
G01 X8.5196 Y17.5613 F350.00
G01 X8.4981 Y17.4756 F350.00
G01 X8.4852 Y17.3882 F350.00
G01 X8.4808 Y17.3000 F350.00
G01 X8.4852 Y17.2118 F350.00
G01 X8.4981 Y17.1244 F350.00
G01 X8.5196 Y17.0387 F350.00
G01 X8.5493 Y16.9556 F350.00
G01 X8.5871 Y16.8757 F350.00
G01 X8.6325 Y16.8000 F350.00
G01 X8.6851 Y16.7290 F350.00
G01 X8.7444 Y16.6636 F350.00
G01 X8.8099 Y16.6043 F350.00
G01 X8.8808 Y16.5517 F350.00
G01 X8.9480 Y16.5111 F350.00
G01 X8.9653 Y16.5019 F350.00
G01 X9.0364 Y16.4685 F350.00
G01 X9.1102 Y16.4418 F350.00
G01 X9.1290 Y16.4361 F350.00
G01 X9.2052 Y16.4173 F350.00
G01 X9.2877 Y16.4049 F350.00
G01 X9.3024 Y16.4036 F350.00
G01 X9.3808 Y16.4000 F350.00
G01 X10.4808 Y16.4000 F350.00
G00 Z0.4000
M05
G00 Z0.4000
G00 Z40.00


