%
(; SHAPEOKO POSTPROCESSED v1)
( Source: BACK_NCC_2mm_cnc.nc )
( Stripped: M30 only - kept T#/M6/M0/M1/MSG for Shapeoko/Carbide Motion )
( Wrapped with Shapeoko start/end blocks - mirrors 1001.nc structure )
G90        ( absolute positioning )
G17        ( XY plane select )
G21        ( mm units )
G94        ( feedrate units/min )
G28 G91 Z0 ( safe Z home - assumes machine has been homed )
G90        ( back to absolute )
G54        ( work coordinate system 1 )
M5         ( ensure spindle off at start )

(G-CODE GENERATED BY FLATCAM v8.994 - www.flatcam.org - Version Date: 2020/11/7)

(Name: BACK_NCC_2mm_cnc)
(Type: G-code from Geometry)
(Units: MM)

(Created on Friday, 26 June 2026 at 06:09)

(This preprocessor is used with a motion controller loaded with GRBL firmware.)
(It is configured to be compatible with almost any version of GRBL firmware.)

(TOOL DIAMETER: 2.0 mm)
(Feedrate_XY: 350.0 mm/min)
(Feedrate_Z: 250.0 mm/min)
(Feedrate rapids 1500.0 mm/min)

(Z_Cut: -0.05 mm)
(Z_Move: 0.5 mm)
(Z Start: None mm)
(Z End: 40.0 mm)
(X,Y End: None mm)
(Steps per circle: 64)
(Steps per circle: 64)
(Preprocessor Geometry: grbl_11)

(X range:    2.2021 ...  129.0849  mm)
(Y range:   -2.3497 ...   66.2503  mm)

(Spindle Speed: 0.0 RPM)
G21
G90
G17
G94


G01 F350.00

M5             
G00 Z40.0000
G00 X0.0000 Y0.0000                
T1 M6
(MSG, Change to Tool Dia = 2.0000)
M0
G00 Z40.0000

M03
G01 F350.00
G00 X7.2676 Y8.8503
G01 F250.00
G01 Z-0.0500
G01 F350.00
G01 X16.6882 Y8.8503 F350.00
G00 Z0.5000
G00 X16.1999 Y7.4503
G01 F250.00
G01 Z-0.0500
G01 F350.00
G01 X10.0133 Y7.4503 F350.00
G01 X12.7591 Y6.0503 F350.00
G01 X16.1912 Y6.0503 F350.00
G00 Z0.5000
G00 X16.3143 Y4.6503
G01 F250.00
G01 Z-0.0500
G01 F350.00
G01 X15.5048 Y4.6503 F350.00
G00 Z0.5000
G00 X20.9964 Y1.8503
G01 F250.00
G01 Z-0.0500
G01 F350.00
G01 X26.2818 Y1.8503 F350.00
G00 Z0.5000
G00 X26.2806 Y3.2503
G01 F250.00
G01 Z-0.0500
G01 F350.00
G01 X22.6300 Y3.2503 F350.00
G01 X23.7421 Y0.4503 F350.00
G01 X26.6612 Y0.4503 F350.00
G01 X26.4879 Y-0.9497 F350.00
G01 X27.8976 Y-0.9497 F350.00
G00 Z0.5000
G00 X26.2806 Y10.2503
G01 F250.00
G01 Z-0.0500
G01 F350.00
G01 X23.4084 Y10.2503 F350.00
G00 Z0.5000
G00 X25.9204 Y11.6503
G01 F250.00
G01 Z-0.0500
G01 F350.00
G01 X26.2806 Y11.6503 F350.00
G00 Z0.5000
G00 X32.3842 Y23.8999
G01 F250.00
G01 Z-0.0500
G01 F350.00
G01 X32.4210 Y23.8999 F350.00
G00 Z0.5000
G00 X35.1842 Y26.6999
G01 F250.00
G01 Z-0.0500
G01 F350.00
G01 X73.3380 Y26.6999 F350.00
G01 X71.9380 Y28.0999 F350.00
G01 X36.5842 Y28.0999 F350.00
G01 X37.9842 Y29.4999 F350.00
G01 X70.5380 Y29.4999 F350.00
G01 X69.1380 Y30.8999 F350.00
G01 X39.3842 Y30.8999 F350.00
G01 X40.7842 Y32.2999 F350.00
G01 X67.7380 Y32.2999 F350.00
G00 Z0.5000
G00 X66.3386 Y33.6999
G01 F250.00
G01 Z-0.0500
G01 F350.00
G01 X62.9089 Y33.6999 F350.00
G00 Z0.5000
G00 X63.4616 Y35.0999
G01 F250.00
G01 Z-0.0500
G01 F350.00
G01 X65.5640 Y35.0999 F350.00
G00 Z0.5000
G00 X56.5528 Y33.6999
G01 F250.00
G01 Z-0.0500
G01 F350.00
G01 X42.1842 Y33.6999 F350.00
G01 X43.5842 Y35.0999 F350.00
G01 X46.3155 Y35.0999 F350.00
G00 Z0.5000
G00 X48.0462 Y35.0999
G01 F250.00
G01 Z-0.0500
G01 F350.00
G01 X56.0001 Y35.0999 F350.00
G00 Z0.5000
G00 X55.9809 Y36.4999
G01 F250.00
G01 Z-0.0500
G01 F350.00
G01 X50.0583 Y36.4999 F350.00
G00 Z0.5000
G00 X50.6299 Y37.8999
G01 F250.00
G01 Z-0.0500
G01 F350.00
G01 X56.0725 Y37.8999 F350.00
G00 Z0.5000
G00 X56.2578 Y39.2999
G01 F250.00
G01 Z-0.0500
G01 F350.00
G01 X50.5849 Y39.2999 F350.00
G01 X50.6635 Y40.6999 F350.00
G01 X56.2713 Y40.6999 F350.00
G00 Z0.5000
G00 X56.7032 Y42.0999
G01 F250.00
G01 Z-0.0500
G01 F350.00
G01 X50.5119 Y42.0999 F350.00
G00 Z0.5000
G00 X50.6791 Y43.4999
G01 F250.00
G01 Z-0.0500
G01 F350.00
G01 X58.1531 Y43.4999 F350.00
G01 X50.4639 Y44.8999 F350.00
G01 X67.0877 Y44.8999 F350.00
G01 X68.4877 Y46.2999 F350.00
G01 X50.6745 Y46.2999 F350.00
G00 Z0.5000
G00 X45.7702 Y52.1499
G01 F250.00
G01 Z-0.0500
G01 F350.00
G01 X56.9917 Y52.1499 F350.00
G01 X55.5917 Y53.5499 F350.00
G01 X44.3702 Y53.5499 F350.00
G00 Z0.5000
G00 X49.6380 Y59.3997
G01 F250.00
G01 Z-0.0500
G01 F350.00
G01 X56.2559 Y59.3997 F350.00
G00 Z0.5000
G00 X30.0059 Y63.9499
G01 F250.00
G01 Z-0.0500
G01 F350.00
G01 X30.0059 Y53.3501 F350.00
G01 X31.4059 Y53.3501 F350.00
G01 X31.4059 Y63.9499 F350.00
G01 X32.8059 Y63.9499 F350.00
G01 X32.8059 Y62.3969 F350.00
G01 X28.6059 Y62.6285 F350.00
G01 X28.6059 Y63.5358 F350.00
G00 Z0.5000
G00 X14.4232 Y66.2503
G01 F250.00
G01 Z-0.0500
G01 F350.00
G01 X15.4806 Y66.2503 F350.00
G01 X15.4806 Y64.8503 F350.00
G01 X13.3122 Y64.8503 F350.00
G01 X12.2012 Y63.4503 F350.00
G01 X15.4806 Y63.4503 F350.00
G01 X15.4806 Y62.0503 F350.00
G01 X11.0902 Y62.0503 F350.00
G01 X9.9792 Y60.6503 F350.00
G01 X15.4806 Y60.6503 F350.00
G01 X15.4806 Y59.2503 F350.00
G01 X8.8682 Y59.2503 F350.00
G01 X7.7572 Y57.8503 F350.00
G01 X15.4806 Y57.8503 F350.00
G01 X15.4806 Y56.4503 F350.00
G01 X6.6462 Y56.4503 F350.00
G01 X5.5352 Y55.0503 F350.00
G01 X15.4806 Y55.0503 F350.00
G01 X15.4806 Y53.6503 F350.00
G01 X4.4242 Y53.6503 F350.00
G01 X3.3132 Y52.2503 F350.00
G01 X15.2461 Y52.2503 F350.00
G00 Z0.5000
G00 X14.5972 Y50.8503
G01 F250.00
G01 Z-0.0500
G01 F350.00
G01 X2.2021 Y50.8503 F350.00
G00 Z0.5000
G00 X11.6025 Y49.4503
G01 F250.00
G01 Z-0.0500
G01 F350.00
G01 X4.7342 Y49.4503 F350.00
G00 Z0.5000
G00 X5.6871 Y48.0503
G01 F250.00
G01 Z-0.0500
G01 F350.00
G01 X10.6497 Y48.0503 F350.00
G00 Z0.5000
G00 X10.3580 Y46.6503
G01 F250.00
G01 Z-0.0500
G01 F350.00
G01 X5.9787 Y46.6503 F350.00
G00 Z0.5000
G00 X6.8139 Y40.3499
G01 F250.00
G01 Z-0.0500
G01 F350.00
G01 X6.8139 Y38.2129 F350.00
G01 X9.6139 Y38.1925 F350.00
G01 X9.6139 Y40.3499 F350.00
G01 X8.2139 Y40.3499 F350.00
G01 X8.2139 Y36.7648 F350.00
G00 Z0.5000
G00 X8.2139 Y32.8352
G01 F250.00
G01 Z-0.0500
G01 F350.00
G01 X8.2139 Y27.7760 F350.00
G00 Z0.5000
G00 X9.6139 Y30.0860
G01 F250.00
G01 Z-0.0500
G01 F350.00
G01 X9.6139 Y31.4075 F350.00
G00 Z0.5000
G00 X11.0139 Y30.8661
G01 F250.00
G01 Z-0.0500
G01 F350.00
G01 X11.0139 Y30.7241 F350.00
G01 X6.8139 Y30.1111 F350.00
G01 X6.8139 Y31.3871 F350.00
G00 Z0.5000
G00 X5.4139 Y30.8597
G01 F250.00
G01 Z-0.0500
G01 F350.00
G01 X5.4139 Y30.7309 F350.00
G00 Z0.5000
G00 X20.6165 Y38.6336
G01 F250.00
G01 Z-0.0500
G01 F350.00
G01 X20.6165 Y46.5190 F350.00
G00 Z0.5000
G00 X22.0165 Y37.8913
G01 F250.00
G01 Z-0.0500
G01 F350.00
G01 X22.0165 Y47.8750 F350.00
G00 Z0.5000
G00 X19.2165 Y45.9698
G01 F250.00
G01 Z-0.0500
G01 F350.00
G01 X19.2165 Y43.9615 F350.00
G00 Z0.5000
G00 X23.4165 Y44.3137
G01 F250.00
G01 Z-0.0500
G01 F350.00
G01 X23.4165 Y41.7863 F350.00
G00 Z0.5000
G00 X29.0165 Y42.8313
G01 F250.00
G01 Z-0.0500
G01 F350.00
G01 X29.0165 Y43.2687 F350.00
G00 Z0.5000
G00 X30.4165 Y41.0998
G01 F250.00
G01 Z-0.0500
G01 F350.00
G01 X30.4165 Y45.0002 F350.00
G01 X31.8165 Y46.7499 F350.00
G01 X31.8165 Y37.6249 F350.00
G01 X30.4165 Y38.0002 F350.00
G01 X30.4165 Y36.2249 F350.00
G01 X29.0165 Y35.0086 F350.00
G01 X29.0165 Y34.8249 F350.00
G01 X27.6165 Y33.4249 F350.00
G01 X27.6165 Y33.5927 F350.00
G00 Z0.5000
G00 X48.8709 Y18.3997
G01 F250.00
G01 Z-0.0500
G01 F350.00
G01 X90.8376 Y18.3997 F350.00
G00 Z0.5000
G00 X88.3741 Y7.4503
G01 F250.00
G01 Z-0.0500
G01 F350.00
G01 X128.7760 Y7.4503 F350.00
G00 Z0.5000
G00 X124.6408 Y6.0503
G01 F250.00
G01 Z-0.0500
G01 F350.00
G01 X118.3209 Y6.0503 F350.00
G00 Z0.5000
G00 X119.4527 Y4.6503
G01 F250.00
G01 Z-0.0500
G01 F350.00
G01 X123.5091 Y4.6503 F350.00
G00 Z0.5000
G00 X123.2052 Y3.2503
G01 F250.00
G01 Z-0.0500
G01 F350.00
G01 X119.7565 Y3.2503 F350.00
G00 Z0.5000
G00 X119.7537 Y1.8503
G01 F250.00
G01 Z-0.0500
G01 F350.00
G01 X123.2080 Y1.8503 F350.00
G00 Z0.5000
G00 X123.5556 Y0.4503
G01 F250.00
G01 Z-0.0500
G01 F350.00
G01 X119.4061 Y0.4503 F350.00
G00 Z0.5000
G00 X113.1076 Y0.4503
G01 F250.00
G01 Z-0.0500
G01 F350.00
G01 X45.2311 Y0.4503 F350.00
G00 Z0.5000
G00 X45.0609 Y-0.9497
G01 F250.00
G01 Z-0.0500
G01 F350.00
G01 X102.0024 Y-0.9497 F350.00
G01 X114.1928 Y6.0503 F350.00
G01 X86.9442 Y6.0503 F350.00
G00 Z0.5000
G00 X64.5765 Y-2.3497
G01 F250.00
G01 Z-0.0500
G01 F350.00
G01 X44.8691 Y-2.3497 F350.00
G00 Z0.5000
G00 X45.2311 Y4.6503
G01 F250.00
G01 Z-0.0500
G01 F350.00
G01 X113.0611 Y4.6503 F350.00
G00 Z0.5000
G00 X112.7572 Y3.2503
G01 F250.00
G01 Z-0.0500
G01 F350.00
G01 X45.2311 Y3.2503 F350.00
G01 X45.2311 Y1.8503 F350.00
G01 X112.7600 Y1.8503 F350.00
G00 Z0.5000
G00 X113.4767 Y8.8503
G01 F250.00
G01 Z-0.0500
G01 F350.00
G01 X89.7741 Y8.8503 F350.00
G01 X91.1741 Y10.2503 F350.00
G01 X112.8343 Y10.2503 F350.00
G00 Z0.5000
G00 X112.7569 Y11.6503
G01 F250.00
G01 Z-0.0500
G01 F350.00
G01 X92.5741 Y11.6503 F350.00
G01 X93.9741 Y13.0503 F350.00
G01 X112.8567 Y13.0503 F350.00
G00 Z0.5000
G00 X113.5577 Y14.4503
G01 F250.00
G01 Z-0.0500
G01 F350.00
G01 X95.3741 Y14.4503 F350.00
G01 X96.7741 Y15.8503 F350.00
G01 X128.8850 Y15.8503 F350.00
G01 X128.9032 Y17.2503 F350.00
G01 X127.1400 Y17.2503 F350.00
G00 Z0.5000
G00 X128.9054 Y18.6503
G01 F250.00
G01 Z-0.0500
G01 F350.00
G01 X128.9214 Y18.6503 F350.00
G00 Z0.5000
G00 X124.8217 Y17.2503
G01 F250.00
G01 Z-0.0500
G01 F350.00
G01 X124.6400 Y17.2503 F350.00
G00 Z0.5000
G00 X122.3217 Y17.2503
G01 F250.00
G01 Z-0.0500
G01 F350.00
G01 X122.1400 Y17.2503 F350.00
G00 Z0.5000
G00 X119.8217 Y17.2503
G01 F250.00
G01 Z-0.0500
G01 F350.00
G01 X98.1741 Y17.2503 F350.00
G01 X99.5741 Y18.6503 F350.00
G01 X118.0564 Y18.6503 F350.00
G00 Z0.5000
G00 X117.5394 Y20.0503
G01 F250.00
G01 Z-0.0500
G01 F350.00
G01 X100.9741 Y20.0503 F350.00
G01 X105.1658 Y21.4503 F350.00
G01 X117.5059 Y21.4503 F350.00
G00 Z0.5000
G00 X116.0989 Y22.8503
G01 F250.00
G01 Z-0.0500
G01 F350.00
G01 X107.0241 Y22.8503 F350.00
G01 X108.4241 Y24.2503 F350.00
G01 X114.8436 Y24.2503 F350.00
G00 Z0.5000
G00 X114.4852 Y25.6503
G01 F250.00
G01 Z-0.0500
G01 F350.00
G01 X109.3413 Y25.6503 F350.00
G00 Z0.5000
G00 X109.4811 Y27.0503
G01 F250.00
G01 Z-0.0500
G01 F350.00
G01 X114.7126 Y27.0503 F350.00
G00 Z0.5000
G00 X115.3885 Y28.4503
G01 F250.00
G01 Z-0.0500
G01 F350.00
G01 X109.4811 Y28.4503 F350.00
G01 X109.4811 Y29.8503 F350.00
G01 X114.6134 Y29.8503 F350.00
G00 Z0.5000
G00 X114.5108 Y31.2503
G01 F250.00
G01 Z-0.0500
G01 F350.00
G01 X109.4811 Y31.2503 F350.00
G01 X109.4811 Y32.6503 F350.00
G01 X113.3503 Y32.6503 F350.00
G00 Z0.5000
G00 X112.2327 Y34.0503
G01 F250.00
G01 Z-0.0500
G01 F350.00
G01 X109.4811 Y34.0503 F350.00
G01 X109.4811 Y35.4503 F350.00
G01 X111.9852 Y35.4503 F350.00
G01 X112.0129 Y36.8503 F350.00
G01 X109.4811 Y36.8503 F350.00
G01 X109.4811 Y38.2503 F350.00
G01 X112.1248 Y38.2503 F350.00
G00 Z0.5000
G00 X112.9875 Y39.6503
G01 F250.00
G01 Z-0.0500
G01 F350.00
G01 X109.4811 Y39.6503 F350.00
G01 X109.4811 Y41.0503 F350.00
G01 X124.5397 Y41.0503 F350.00
G01 X123.3508 Y39.6503 F350.00
G01 X118.9742 Y39.6503 F350.00
G00 Z0.5000
G00 X119.8370 Y38.2503
G01 F250.00
G01 Z-0.0500
G01 F350.00
G01 X121.9764 Y38.2503 F350.00
G00 Z0.5000
G00 X121.6327 Y36.8503
G01 F250.00
G01 Z-0.0500
G01 F350.00
G01 X119.9488 Y36.8503 F350.00
G01 X119.9765 Y35.4503 F350.00
G01 X121.6989 Y35.4503 F350.00
G00 Z0.5000
G00 X121.7199 Y34.0503
G01 F250.00
G01 Z-0.0500
G01 F350.00
G01 X120.2753 Y34.0503 F350.00
G00 Z0.5000
G00 X121.9508 Y32.6503
G01 F250.00
G01 Z-0.0500
G01 F350.00
G01 X122.4529 Y32.6503 F350.00
G01 X122.4510 Y31.2503 F350.00
G01 X129.0849 Y31.2503 F350.00
G01 X129.0667 Y29.8503 F350.00
G01 X122.3484 Y29.8503 F350.00
G00 Z0.5000
G00 X121.5732 Y28.4503
G01 F250.00
G01 Z-0.0500
G01 F350.00
G01 X129.0485 Y28.4503 F350.00
G01 X129.0304 Y27.0503 F350.00
G01 X122.2491 Y27.0503 F350.00
G00 Z0.5000
G00 X122.4765 Y25.6503
G01 F250.00
G01 Z-0.0500
G01 F350.00
G01 X129.0122 Y25.6503 F350.00
G01 X128.9940 Y24.2503 F350.00
G01 X128.1959 Y24.2503 F350.00
G00 Z0.5000
G00 X122.6374 Y42.4503
G01 F250.00
G01 Z-0.0500
G01 F350.00
G01 X109.4811 Y42.4503 F350.00
G01 X109.4811 Y43.8503 F350.00
G01 X120.7352 Y43.8503 F350.00
G01 X118.8329 Y45.2503 F350.00
G01 X109.4811 Y45.2503 F350.00
G01 X109.4811 Y46.6503 F350.00
G01 X116.9306 Y46.6503 F350.00
G01 X115.0283 Y48.0503 F350.00
G01 X109.2837 Y48.0503 F350.00
G00 Z0.5000
G00 X108.2556 Y49.4503
G01 F250.00
G01 Z-0.0500
G01 F350.00
G01 X113.1261 Y49.4503 F350.00
G01 X111.2238 Y50.8503 F350.00
G01 X106.8556 Y50.8503 F350.00
G01 X105.4556 Y52.2503 F350.00
G01 X109.3215 Y52.2503 F350.00
G01 X107.4192 Y53.6503 F350.00
G01 X104.0556 Y53.6503 F350.00
G01 X102.6556 Y55.0503 F350.00
G01 X105.5170 Y55.0503 F350.00
G01 X103.6147 Y56.4503 F350.00
G01 X101.2556 Y56.4503 F350.00
G01 X101.7124 Y57.8503 F350.00
G01 X99.8556 Y57.8503 F350.00
G01 X99.8101 Y59.2503 F350.00
G01 X98.4556 Y59.2503 F350.00
G01 X97.9079 Y60.6503 F350.00
G01 X97.0556 Y60.6503 F350.00
G01 X96.0056 Y62.0503 F350.00
G01 X95.6556 Y62.0503 F350.00
G00 Z0.5000
G00 X90.7688 Y58.0382
G01 F250.00
G01 Z-0.0500
G01 F350.00
G01 X91.1816 Y58.0382 F350.00
G01 X95.3816 Y53.8382 F350.00
G01 X84.6582 Y53.8382 F350.00
G00 Z0.5000
G00 X85.6296 Y52.4382
G01 F250.00
G01 Z-0.0500
G01 F350.00
G01 X87.4378 Y52.4382 F350.00
G00 Z0.5000
G00 X89.1839 Y52.4382
G01 F250.00
G01 Z-0.0500
G01 F350.00
G01 X96.7816 Y52.4382 F350.00
G01 X98.1816 Y51.0382 F350.00
G01 X91.1896 Y51.0382 F350.00
G00 Z0.5000
G00 X91.7603 Y49.6382
G01 F250.00
G01 Z-0.0500
G01 F350.00
G01 X99.5816 Y49.6382 F350.00
G01 X100.9816 Y48.2382 F350.00
G01 X91.7144 Y48.2382 F350.00
G00 Z0.5000
G00 X91.3111 Y46.8382
G01 F250.00
G01 Z-0.0500
G01 F350.00
G01 X102.3816 Y46.8382 F350.00
G01 X103.4806 Y45.4382 F350.00
G01 X91.3111 Y45.4382 F350.00
G00 Z0.5000
G00 X91.0181 Y44.0382
G01 F250.00
G01 Z-0.0500
G01 F350.00
G01 X103.4806 Y44.0382 F350.00
G01 X103.4806 Y42.6382 F350.00
G01 X100.5362 Y42.6382 F350.00
G00 Z0.5000
G00 X101.2503 Y41.2382
G01 F250.00
G01 Z-0.0500
G01 F350.00
G01 X103.4806 Y41.2382 F350.00
G01 X103.4806 Y39.8382 F350.00
G01 X101.3559 Y39.8382 F350.00
G00 Z0.5000
G00 X101.2227 Y38.4382
G01 F250.00
G01 Z-0.0500
G01 F350.00
G01 X103.4806 Y38.4382 F350.00
G00 Z0.5000
G00 X99.5695 Y35.6382
G01 F250.00
G01 Z-0.0500
G01 F350.00
G01 X95.6319 Y35.6382 F350.00
G00 Z0.5000
G00 X89.3698 Y56.6382
G01 F250.00
G01 Z-0.0500
G01 F350.00
G01 X92.5816 Y56.6382 F350.00
G01 X93.9816 Y55.2382 F350.00
G01 X83.3730 Y55.2382 F350.00
G00 Z0.5000
G00 X48.8410 Y16.9997
G01 F250.00
G01 Z-0.0500
G01 F350.00
G01 X89.4376 Y16.9997 F350.00
G01 X88.0376 Y15.5997 F350.00
G01 X48.3408 Y15.5997 F350.00
G00 Z0.5000
G00 X46.6653 Y14.1997
G01 F250.00
G01 Z-0.0500
G01 F350.00
G01 X86.6376 Y14.1997 F350.00
G01 X85.2376 Y12.7997 F350.00
G01 X45.2302 Y12.7997 F350.00
G00 Z0.5000
M05
G00 Z0.5000
G00 Z40.00
M5         ( spindle off )
M9         ( coolant off - ignored by Shapeoko if unused )
G28 G91 Z0 ( safe Z home )
G90        ( absolute )
G28 G91 X0 Y0 ( XY home )
G90        ( absolute )
M30        ( program end )
%
