%
(; SHAPEOKO POSTPROCESSED v1)
( Source: BACK_NCC_2.4mm_0.4mm_cnc.nc )
( Stripped: M30 only - kept T#/M6/M0/M1/MSG for Shapeoko/Carbide Motion )
( Wrapped with Shapeoko start/end blocks - mirrors 1001.nc structure )
G90        ( absolute positioning )
G17        ( XY plane select )
G21        ( mm units )
G94        ( feedrate units/min )
G28 G91 Z0 ( safe Z home - assumes machine has been homed )
G90        ( back to absolute )
G54        ( work coordinate system 1 )
M5         ( ensure spindle off at start )

(G-CODE GENERATED BY FLATCAM v8.994 - www.flatcam.org - Version Date: 2020/11/7)

(Name: BACK_NCC_2.4mm_0.4mm_cnc)
(Type: G-code from Geometry)
(Units: MM)

(Created on Friday, 26 June 2026 at 05:20)

(This preprocessor is used with a motion controller loaded with GRBL firmware.)
(It is configured to be compatible with almost any version of GRBL firmware.)

(TOOL DIAMETER: 2.4 mm)
(Feedrate_XY: 350.0 mm/min)
(Feedrate_Z: 250.0 mm/min)
(Feedrate rapids 1500.0 mm/min)

(Z_Cut: -0.05 mm)
(Z_Move: 0.5 mm)
(Z Start: None mm)
(Z End: 40.0 mm)
(X,Y End: None mm)
(Steps per circle: 64)
(Steps per circle: 64)
(Preprocessor Geometry: grbl_11)

(X range:   -2.8593 ...  129.9309  mm)
(Y range:   -4.0100 ...   71.2503  mm)

(Spindle Speed: 0.0 RPM)
G21
G90
G17
G94


G01 F350.00

M5             
G00 Z40.0000
G00 X0.0000 Y0.0000                
T1 M6
(MSG, Change to Tool Dia = 2.4000)
M0
G00 Z40.0000

M03
G01 F350.00
G00 X5.5064 Y8.8503
G01 F250.00
G01 Z-0.0500
G01 F350.00
G01 X27.5806 Y8.8503 F350.00
G01 X27.5806 Y10.4103 F350.00
G01 X2.4468 Y10.4103 F350.00
G00 Z0.5000
G00 X0.8599 Y11.9703
G01 F250.00
G01 Z-0.0500
G01 F350.00
G01 X0.0113 Y11.9703 F350.00
G01 X-0.7002 Y13.5303 F350.00
G01 X-1.5487 Y13.5303 F350.00
G00 Z0.5000
G00 X-2.1291 Y15.0903
G01 F250.00
G01 Z-0.0500
G01 F350.00
G01 X-2.7716 Y15.0903 F350.00
G01 X-2.8593 Y16.6503 F350.00
G01 X-2.2593 Y16.6503 F350.00
G01 X-2.2593 Y18.2103 F350.00
G01 X-2.8593 Y18.2103 F350.00
G01 X-2.8593 Y19.7703 F350.00
G01 X-2.2593 Y19.7703 F350.00
G01 X-2.2593 Y21.3303 F350.00
G01 X-2.8593 Y21.3303 F350.00
G01 X-2.8593 Y22.8903 F350.00
G01 X-2.2593 Y22.8903 F350.00
G01 X-2.2593 Y24.4503 F350.00
G01 X-2.8593 Y24.4503 F350.00
G01 X-2.8593 Y26.0103 F350.00
G01 X-2.2593 Y26.0103 F350.00
G01 X-2.2593 Y27.5703 F350.00
G01 X-2.8593 Y27.5703 F350.00
G01 X-2.8593 Y29.1303 F350.00
G01 X-2.2593 Y29.1303 F350.00
G01 X-2.2593 Y30.6903 F350.00
G01 X-2.8593 Y30.6903 F350.00
G01 X-2.8593 Y32.2503 F350.00
G01 X-2.2593 Y32.2503 F350.00
G01 X-2.2593 Y33.8103 F350.00
G01 X-2.8593 Y33.8103 F350.00
G01 X-2.8593 Y35.3703 F350.00
G01 X-2.2593 Y35.3703 F350.00
G01 X-2.2593 Y36.9303 F350.00
G01 X-2.8593 Y36.9303 F350.00
G01 X-2.8593 Y38.4903 F350.00
G01 X-2.2593 Y38.4903 F350.00
G01 X-2.2593 Y40.0503 F350.00
G01 X-2.8593 Y40.0503 F350.00
G01 X-2.8593 Y41.6103 F350.00
G01 X-2.2593 Y41.6103 F350.00
G00 Z0.5000
G00 X-2.2573 Y43.1703
G01 F250.00
G01 Z-0.0500
G01 F350.00
G01 X-2.8580 Y43.1703 F350.00
G01 X-2.3512 Y44.7303 F350.00
G01 X-0.0113 Y44.7303 F350.00
G00 Z0.5000
G00 X-0.7066 Y46.2903
G01 F250.00
G01 Z-0.0500
G01 F350.00
G01 X-1.7018 Y46.2903 F350.00
G01 X-1.0524 Y47.8503 F350.00
G01 X-0.3851 Y47.8503 F350.00
G01 X0.0381 Y49.4103 F350.00
G01 X15.8261 Y49.4103 F350.00
G00 Z0.5000
G00 X16.0025 Y50.9703
G01 F250.00
G01 Z-0.0500
G01 F350.00
G01 X1.2761 Y50.9703 F350.00
G01 X2.5141 Y52.5303 F350.00
G01 X16.7806 Y52.5303 F350.00
G01 X16.7806 Y54.0903 F350.00
G01 X3.7520 Y54.0903 F350.00
G01 X4.9900 Y55.6503 F350.00
G01 X16.7806 Y55.6503 F350.00
G01 X16.7806 Y57.2103 F350.00
G01 X6.2280 Y57.2103 F350.00
G01 X7.4660 Y58.7703 F350.00
G01 X16.7806 Y58.7703 F350.00
G01 X16.7806 Y60.3303 F350.00
G01 X8.7040 Y60.3303 F350.00
G01 X9.9419 Y61.8903 F350.00
G01 X16.7806 Y61.8903 F350.00
G01 X16.7806 Y63.4503 F350.00
G01 X11.1799 Y63.4503 F350.00
G01 X12.4179 Y65.0103 F350.00
G01 X16.7806 Y65.0103 F350.00
G01 X16.7806 Y66.5703 F350.00
G01 X13.6559 Y66.5703 F350.00
G01 X14.8939 Y68.1303 F350.00
G01 X16.7806 Y68.1303 F350.00
G00 Z0.5000
G00 X16.9508 Y69.6903
G01 F250.00
G01 Z-0.0500
G01 F350.00
G01 X16.1318 Y69.6903 F350.00
G01 X18.4367 Y71.2503 F350.00
G01 X67.8428 Y71.2503 F350.00
G00 Z0.5000
G00 X71.5688 Y69.6903
G01 F250.00
G01 Z-0.0500
G01 F350.00
G01 X86.9743 Y69.6903 F350.00
G01 X87.7371 Y68.1303 F350.00
G01 X89.0940 Y68.1303 F350.00
G01 X89.2971 Y66.5703 F350.00
G01 X91.2136 Y66.5703 F350.00
G01 X90.8571 Y65.0103 F350.00
G01 X93.3333 Y65.0103 F350.00
G01 X92.4171 Y63.4503 F350.00
G01 X95.4530 Y63.4503 F350.00
G01 X93.9771 Y61.8903 F350.00
G01 X97.5727 Y61.8903 F350.00
G01 X95.5371 Y60.3303 F350.00
G01 X99.6923 Y60.3303 F350.00
G01 X101.8120 Y58.7703 F350.00
G01 X97.0971 Y58.7703 F350.00
G01 X98.6571 Y57.2103 F350.00
G01 X103.9317 Y57.2103 F350.00
G01 X106.0514 Y55.6503 F350.00
G01 X100.2171 Y55.6503 F350.00
G01 X101.7771 Y54.0903 F350.00
G01 X108.1711 Y54.0903 F350.00
G01 X110.2907 Y52.5303 F350.00
G01 X103.3371 Y52.5303 F350.00
G01 X104.8971 Y50.9703 F350.00
G01 X112.4104 Y50.9703 F350.00
G01 X114.5301 Y49.4103 F350.00
G01 X106.4571 Y49.4103 F350.00
G00 Z0.5000
G00 X107.9420 Y47.8503
G01 F250.00
G01 Z-0.0500
G01 F350.00
G01 X116.6498 Y47.8503 F350.00
G01 X118.7694 Y46.2903 F350.00
G01 X108.1811 Y46.2903 F350.00
G01 X108.1811 Y44.7303 F350.00
G01 X120.8891 Y44.7303 F350.00
G01 X123.0088 Y43.1703 F350.00
G01 X108.1811 Y43.1703 F350.00
G01 X108.1811 Y41.6103 F350.00
G01 X125.1285 Y41.6103 F350.00
G01 X127.2482 Y40.0503 F350.00
G01 X108.1811 Y40.0503 F350.00
G01 X108.1811 Y38.4903 F350.00
G01 X113.6870 Y38.4903 F350.00
G00 Z0.5000
G00 X113.3163 Y36.9303
G01 F250.00
G01 Z-0.0500
G01 F350.00
G01 X108.1811 Y36.9303 F350.00
G01 X108.1811 Y35.3703 F350.00
G01 X113.2829 Y35.3703 F350.00
G00 Z0.5000
G00 X113.5578 Y36.3000
G01 F250.00
G01 Z-0.0500
G01 F350.00
G01 X113.5253 Y36.2450 F350.00
G01 X113.5111 Y36.2192 F350.00
G01 X113.4976 Y36.1931 F350.00
G01 X113.4846 Y36.1666 F350.00
G01 X113.4532 Y36.1001 F350.00
G01 X113.4409 Y36.0733 F350.00
G01 X113.4293 Y36.0462 F350.00
G01 X113.4184 Y36.0189 F350.00
G01 X113.4081 Y35.9913 F350.00
G01 X113.3833 Y35.9220 F350.00
G01 X113.3737 Y35.8941 F350.00
G01 X113.3648 Y35.8661 F350.00
G01 X113.3566 Y35.8378 F350.00
G01 X113.3491 Y35.8093 F350.00
G01 X113.3312 Y35.7379 F350.00
G01 X113.3244 Y35.7092 F350.00
G01 X113.3183 Y35.6804 F350.00
G01 X113.3129 Y35.6515 F350.00
G01 X113.3083 Y35.6224 F350.00
G01 X113.2975 Y35.5496 F350.00
G01 X113.2935 Y35.5204 F350.00
G01 X113.2903 Y35.4911 F350.00
G01 X113.2877 Y35.4618 F350.00
G01 X113.2859 Y35.4324 F350.00
G01 X113.2823 Y35.3589 F350.00
G01 X113.2812 Y35.3294 F350.00
G01 X113.2809 Y35.3000 F350.00
G01 X113.2812 Y35.2706 F350.00
G01 X113.2823 Y35.2411 F350.00
G01 X113.2859 Y35.1676 F350.00
G01 X113.2877 Y35.1382 F350.00
G01 X113.2903 Y35.1089 F350.00
G01 X113.2935 Y35.0796 F350.00
G01 X113.2975 Y35.0504 F350.00
G01 X113.3083 Y34.9776 F350.00
G01 X113.3129 Y34.9485 F350.00
G01 X113.3183 Y34.9196 F350.00
G01 X113.3244 Y34.8908 F350.00
G01 X113.3312 Y34.8621 F350.00
G01 X113.3491 Y34.7907 F350.00
G01 X113.3566 Y34.7622 F350.00
G01 X113.3648 Y34.7339 F350.00
G01 X113.3737 Y34.7059 F350.00
G01 X113.3833 Y34.6780 F350.00
G01 X113.4081 Y34.6087 F350.00
G01 X113.4184 Y34.5811 F350.00
G01 X113.4293 Y34.5538 F350.00
G01 X113.4409 Y34.5267 F350.00
G01 X113.4532 Y34.4999 F350.00
G01 X113.4846 Y34.4334 F350.00
G01 X113.4976 Y34.4069 F350.00
G01 X113.5111 Y34.3808 F350.00
G01 X113.5253 Y34.3550 F350.00
G01 X113.5401 Y34.3295 F350.00
G01 X113.5780 Y34.2664 F350.00
G01 X113.5934 Y34.2413 F350.00
G01 X113.6095 Y34.2166 F350.00
G01 X113.6262 Y34.1924 F350.00
G01 X113.6434 Y34.1685 F350.00
G01 X113.6873 Y34.1094 F350.00
G01 X113.7051 Y34.0859 F350.00
G01 X113.7235 Y34.0629 F350.00
G01 X113.7425 Y34.0404 F350.00
G01 X113.7620 Y34.0183 F350.00
G01 X113.8114 Y33.9638 F350.00
G01 X113.8314 Y33.9422 F350.00
G01 X113.8520 Y33.9211 F350.00
G01 X113.8731 Y33.9006 F350.00
G01 X113.8947 Y33.8805 F350.00
G01 X113.9492 Y33.8311 F350.00
G01 X113.9713 Y33.8116 F350.00
G01 X113.9938 Y33.7926 F350.00
G01 X114.0168 Y33.7742 F350.00
G01 X114.0402 Y33.7564 F350.00
G01 X114.0993 Y33.7125 F350.00
G01 X114.1232 Y33.6953 F350.00
G01 X114.1475 Y33.6786 F350.00
G01 X114.1722 Y33.6626 F350.00
G01 X114.1973 Y33.6471 F350.00
G01 X114.2604 Y33.6093 F350.00
G01 X114.2858 Y33.5945 F350.00
G01 X114.3116 Y33.5803 F350.00
G01 X114.3378 Y33.5667 F350.00
G01 X114.3642 Y33.5538 F350.00
G01 X114.4308 Y33.5223 F350.00
G01 X114.4576 Y33.5100 F350.00
G01 X114.4846 Y33.4984 F350.00
G01 X114.5120 Y33.4875 F350.00
G01 X114.5396 Y33.4772 F350.00
G01 X114.6089 Y33.4524 F350.00
G01 X114.6367 Y33.4429 F350.00
G01 X114.6648 Y33.4340 F350.00
G01 X114.6931 Y33.4258 F350.00
G01 X114.7216 Y33.4183 F350.00
G01 X114.7930 Y33.4004 F350.00
G01 X114.8216 Y33.3936 F350.00
G01 X114.8504 Y33.3875 F350.00
G01 X114.8794 Y33.3821 F350.00
G01 X114.9085 Y33.3774 F350.00
G01 X114.9813 Y33.3666 F350.00
G01 X115.0105 Y33.3626 F350.00
G01 X115.0397 Y33.3594 F350.00
G01 X115.0691 Y33.3569 F350.00
G01 X115.0985 Y33.3551 F350.00
G01 X115.1720 Y33.3514 F350.00
G01 X115.2014 Y33.3504 F350.00
G01 X115.2309 Y33.3500 F350.00
G01 X116.7309 Y33.3500 F350.00
G01 X116.7603 Y33.3504 F350.00
G01 X116.7897 Y33.3514 F350.00
G01 X116.8633 Y33.3551 F350.00
G01 X116.8927 Y33.3569 F350.00
G01 X116.9220 Y33.3594 F350.00
G01 X116.9513 Y33.3626 F350.00
G01 X116.9805 Y33.3666 F350.00
G01 X117.0533 Y33.3774 F350.00
G01 X117.0823 Y33.3821 F350.00
G01 X117.1113 Y33.3875 F350.00
G01 X117.1401 Y33.3936 F350.00
G01 X117.1688 Y33.4004 F350.00
G01 X117.2402 Y33.4183 F350.00
G01 X117.2686 Y33.4258 F350.00
G01 X117.2969 Y33.4340 F350.00
G01 X117.3250 Y33.4429 F350.00
G01 X117.3528 Y33.4524 F350.00
G01 X117.4221 Y33.4772 F350.00
G01 X117.4497 Y33.4875 F350.00
G01 X117.4771 Y33.4984 F350.00
G01 X117.5042 Y33.5100 F350.00
G01 X117.5309 Y33.5223 F350.00
G01 X117.5975 Y33.5538 F350.00
G01 X117.6239 Y33.5667 F350.00
G01 X117.6501 Y33.5803 F350.00
G01 X117.6759 Y33.5945 F350.00
G01 X117.7013 Y33.6093 F350.00
G01 X117.7645 Y33.6471 F350.00
G01 X117.7895 Y33.6626 F350.00
G01 X117.8142 Y33.6786 F350.00
G01 X117.8385 Y33.6953 F350.00
G01 X117.8624 Y33.7125 F350.00
G01 X117.9215 Y33.7564 F350.00
G01 X117.9449 Y33.7742 F350.00
G01 X117.9679 Y33.7926 F350.00
G01 X117.9905 Y33.8116 F350.00
G01 X118.0125 Y33.8311 F350.00
G01 X118.0671 Y33.8805 F350.00
G01 X118.0886 Y33.9006 F350.00
G01 X118.1097 Y33.9211 F350.00
G01 X118.1303 Y33.9422 F350.00
G01 X118.1503 Y33.9638 F350.00
G01 X118.1998 Y34.0183 F350.00
G01 X118.2193 Y34.0404 F350.00
G01 X118.2382 Y34.0629 F350.00
G01 X118.2566 Y34.0859 F350.00
G01 X118.2745 Y34.1094 F350.00
G01 X118.3183 Y34.1685 F350.00
G01 X118.3356 Y34.1924 F350.00
G01 X118.3522 Y34.2166 F350.00
G01 X118.3683 Y34.2413 F350.00
G01 X118.3837 Y34.2664 F350.00
G01 X118.4216 Y34.3295 F350.00
G01 X118.4364 Y34.3550 F350.00
G01 X118.4506 Y34.3808 F350.00
G01 X118.4642 Y34.4069 F350.00
G01 X118.4771 Y34.4334 F350.00
G01 X118.5086 Y34.4999 F350.00
G01 X118.5208 Y34.5267 F350.00
G01 X118.5324 Y34.5538 F350.00
G01 X118.5434 Y34.5811 F350.00
G01 X118.5536 Y34.6087 F350.00
G01 X118.5784 Y34.6780 F350.00
G01 X118.5880 Y34.7059 F350.00
G01 X118.5969 Y34.7339 F350.00
G01 X118.6051 Y34.7622 F350.00
G01 X118.6126 Y34.7907 F350.00
G01 X118.6305 Y34.8621 F350.00
G01 X118.6373 Y34.8908 F350.00
G01 X118.6434 Y34.9196 F350.00
G01 X118.6488 Y34.9485 F350.00
G01 X118.6535 Y34.9776 F350.00
G01 X118.6643 Y35.0504 F350.00
G01 X118.6682 Y35.0796 F350.00
G01 X118.6715 Y35.1089 F350.00
G01 X118.6740 Y35.1382 F350.00
G01 X118.6758 Y35.1676 F350.00
G01 X118.6794 Y35.2411 F350.00
G01 X118.6805 Y35.2706 F350.00
G01 X118.6809 Y35.3000 F350.00
G01 X118.6805 Y35.3294 F350.00
G01 X118.6794 Y35.3589 F350.00
G01 X118.6758 Y35.4324 F350.00
G01 X118.6740 Y35.4618 F350.00
G01 X118.6715 Y35.4911 F350.00
G01 X118.6682 Y35.5204 F350.00
G01 X118.6643 Y35.5496 F350.00
G01 X118.6535 Y35.6224 F350.00
G01 X118.6488 Y35.6515 F350.00
G01 X118.6434 Y35.6804 F350.00
G01 X118.6373 Y35.7092 F350.00
G01 X118.6305 Y35.7379 F350.00
G01 X118.6126 Y35.8093 F350.00
G01 X118.6051 Y35.8378 F350.00
G01 X118.5969 Y35.8661 F350.00
G01 X118.5880 Y35.8941 F350.00
G01 X118.5784 Y35.9220 F350.00
G01 X118.5536 Y35.9913 F350.00
G01 X118.5434 Y36.0189 F350.00
G01 X118.5324 Y36.0462 F350.00
G01 X118.5208 Y36.0733 F350.00
G01 X118.5086 Y36.1001 F350.00
G01 X118.4771 Y36.1666 F350.00
G01 X118.4642 Y36.1931 F350.00
G01 X118.4506 Y36.2192 F350.00
G01 X118.4364 Y36.2450 F350.00
G01 X118.4039 Y36.3000 F350.00
G01 X118.4364 Y36.3550 F350.00
G01 X118.4506 Y36.3808 F350.00
G01 X118.4642 Y36.4069 F350.00
G01 X118.4771 Y36.4334 F350.00
G01 X118.5086 Y36.4999 F350.00
G01 X118.5208 Y36.5267 F350.00
G01 X118.5324 Y36.5538 F350.00
G01 X118.5434 Y36.5811 F350.00
G01 X118.5536 Y36.6087 F350.00
G01 X118.5784 Y36.6780 F350.00
G01 X118.5880 Y36.7059 F350.00
G01 X118.5969 Y36.7339 F350.00
G01 X118.6051 Y36.7622 F350.00
G01 X118.6126 Y36.7907 F350.00
G01 X118.6305 Y36.8621 F350.00
G01 X118.6373 Y36.8908 F350.00
G01 X118.6434 Y36.9196 F350.00
G01 X118.6488 Y36.9485 F350.00
G01 X118.6535 Y36.9776 F350.00
G01 X118.6643 Y37.0504 F350.00
G01 X118.6682 Y37.0796 F350.00
G01 X118.6715 Y37.1089 F350.00
G01 X118.6740 Y37.1382 F350.00
G01 X118.6758 Y37.1676 F350.00
G01 X118.6794 Y37.2411 F350.00
G01 X118.6805 Y37.2706 F350.00
G01 X118.6809 Y37.3000 F350.00
G01 X118.6805 Y37.3294 F350.00
G01 X118.6794 Y37.3589 F350.00
G01 X118.6758 Y37.4324 F350.00
G01 X118.6740 Y37.4618 F350.00
G01 X118.6715 Y37.4911 F350.00
G01 X118.6682 Y37.5204 F350.00
G01 X118.6643 Y37.5496 F350.00
G01 X118.6535 Y37.6224 F350.00
G01 X118.6488 Y37.6515 F350.00
G01 X118.6434 Y37.6804 F350.00
G01 X118.6373 Y37.7092 F350.00
G01 X118.6305 Y37.7379 F350.00
G01 X118.6126 Y37.8093 F350.00
G01 X118.6051 Y37.8378 F350.00
G01 X118.5969 Y37.8661 F350.00
G01 X118.5880 Y37.8941 F350.00
G01 X118.5784 Y37.9220 F350.00
G01 X118.5536 Y37.9913 F350.00
G01 X118.5434 Y38.0189 F350.00
G01 X118.5324 Y38.0462 F350.00
G01 X118.5208 Y38.0733 F350.00
G01 X118.5086 Y38.1001 F350.00
G01 X118.4771 Y38.1666 F350.00
G01 X118.4642 Y38.1931 F350.00
G01 X118.4506 Y38.2192 F350.00
G01 X118.4364 Y38.2450 F350.00
G01 X118.4216 Y38.2705 F350.00
G01 X118.3837 Y38.3336 F350.00
G01 X118.3683 Y38.3587 F350.00
G01 X118.3522 Y38.3834 F350.00
G01 X118.3356 Y38.4076 F350.00
G01 X118.3183 Y38.4315 F350.00
G01 X118.2745 Y38.4906 F350.00
G01 X118.2566 Y38.5141 F350.00
G01 X118.2382 Y38.5371 F350.00
G01 X118.2193 Y38.5596 F350.00
G01 X118.1998 Y38.5817 F350.00
G01 X118.1503 Y38.6362 F350.00
G01 X118.1303 Y38.6578 F350.00
G01 X118.1097 Y38.6789 F350.00
G01 X118.0886 Y38.6994 F350.00
G01 X118.0671 Y38.7195 F350.00
G01 X118.0125 Y38.7689 F350.00
G01 X117.9905 Y38.7884 F350.00
G01 X117.9679 Y38.8074 F350.00
G01 X117.9449 Y38.8258 F350.00
G01 X117.9215 Y38.8436 F350.00
G01 X117.8624 Y38.8875 F350.00
G01 X117.8385 Y38.9047 F350.00
G01 X117.8142 Y38.9214 F350.00
G01 X117.7895 Y38.9374 F350.00
G01 X117.7645 Y38.9529 F350.00
G01 X117.7013 Y38.9907 F350.00
G01 X117.6759 Y39.0055 F350.00
G01 X117.6501 Y39.0197 F350.00
G01 X117.6239 Y39.0333 F350.00
G01 X117.5975 Y39.0462 F350.00
G01 X117.5309 Y39.0777 F350.00
G01 X117.5042 Y39.0900 F350.00
G01 X117.4771 Y39.1016 F350.00
G01 X117.4497 Y39.1125 F350.00
G01 X117.4221 Y39.1228 F350.00
G01 X117.3528 Y39.1476 F350.00
G01 X117.3250 Y39.1571 F350.00
G01 X117.2969 Y39.1660 F350.00
G01 X117.2686 Y39.1742 F350.00
G01 X117.2402 Y39.1817 F350.00
G01 X117.1688 Y39.1996 F350.00
G01 X117.1401 Y39.2064 F350.00
G01 X117.1113 Y39.2125 F350.00
G01 X117.0823 Y39.2179 F350.00
G01 X117.0533 Y39.2226 F350.00
G01 X116.9805 Y39.2334 F350.00
G01 X116.9513 Y39.2374 F350.00
G01 X116.9220 Y39.2406 F350.00
G01 X116.8927 Y39.2431 F350.00
G01 X116.8633 Y39.2449 F350.00
G01 X116.7897 Y39.2486 F350.00
G01 X116.7603 Y39.2496 F350.00
G01 X116.7309 Y39.2500 F350.00
G01 X115.2309 Y39.2500 F350.00
G01 X115.2014 Y39.2496 F350.00
G01 X115.1720 Y39.2486 F350.00
G01 X115.0985 Y39.2449 F350.00
G01 X115.0691 Y39.2431 F350.00
G01 X115.0397 Y39.2406 F350.00
G01 X115.0105 Y39.2374 F350.00
G01 X114.9813 Y39.2334 F350.00
G01 X114.9085 Y39.2226 F350.00
G01 X114.8794 Y39.2179 F350.00
G01 X114.8504 Y39.2125 F350.00
G01 X114.8216 Y39.2064 F350.00
G01 X114.7930 Y39.1996 F350.00
G01 X114.7216 Y39.1817 F350.00
G01 X114.6931 Y39.1742 F350.00
G01 X114.6648 Y39.1660 F350.00
G01 X114.6367 Y39.1571 F350.00
G01 X114.6089 Y39.1476 F350.00
G01 X114.5396 Y39.1228 F350.00
G01 X114.5120 Y39.1125 F350.00
G01 X114.4846 Y39.1016 F350.00
G01 X114.4576 Y39.0900 F350.00
G01 X114.4308 Y39.0777 F350.00
G01 X114.3642 Y39.0462 F350.00
G01 X114.3378 Y39.0333 F350.00
G01 X114.3116 Y39.0197 F350.00
G01 X114.2858 Y39.0055 F350.00
G01 X114.2604 Y38.9907 F350.00
G01 X114.1973 Y38.9529 F350.00
G01 X114.1722 Y38.9374 F350.00
G01 X114.1475 Y38.9214 F350.00
G01 X114.1232 Y38.9047 F350.00
G01 X114.0993 Y38.8875 F350.00
G01 X114.0402 Y38.8436 F350.00
G01 X114.0168 Y38.8258 F350.00
G01 X113.9938 Y38.8074 F350.00
G01 X113.9713 Y38.7884 F350.00
G01 X113.9492 Y38.7689 F350.00
G01 X113.8947 Y38.7195 F350.00
G01 X113.8731 Y38.6994 F350.00
G01 X113.8520 Y38.6789 F350.00
G01 X113.8314 Y38.6578 F350.00
G01 X113.8114 Y38.6362 F350.00
G01 X113.7620 Y38.5817 F350.00
G01 X113.7425 Y38.5596 F350.00
G01 X113.7235 Y38.5371 F350.00
G01 X113.7051 Y38.5141 F350.00
G01 X113.6873 Y38.4906 F350.00
G01 X113.6434 Y38.4315 F350.00
G01 X113.6262 Y38.4076 F350.00
G01 X113.6095 Y38.3834 F350.00
G01 X113.5934 Y38.3587 F350.00
G01 X113.5780 Y38.3336 F350.00
G01 X113.5401 Y38.2705 F350.00
G01 X113.5253 Y38.2450 F350.00
G01 X113.5111 Y38.2192 F350.00
G01 X113.4976 Y38.1931 F350.00
G01 X113.4846 Y38.1666 F350.00
G01 X113.4532 Y38.1001 F350.00
G01 X113.4409 Y38.0733 F350.00
G01 X113.4293 Y38.0462 F350.00
G01 X113.4184 Y38.0189 F350.00
G01 X113.4081 Y37.9913 F350.00
G01 X113.3833 Y37.9220 F350.00
G01 X113.3737 Y37.8941 F350.00
G01 X113.3648 Y37.8661 F350.00
G01 X113.3566 Y37.8378 F350.00
G01 X113.3491 Y37.8093 F350.00
G01 X113.3312 Y37.7379 F350.00
G01 X113.3244 Y37.7092 F350.00
G01 X113.3183 Y37.6804 F350.00
G01 X113.3129 Y37.6515 F350.00
G01 X113.3083 Y37.6224 F350.00
G01 X113.2975 Y37.5496 F350.00
G01 X113.2935 Y37.5204 F350.00
G01 X113.2903 Y37.4911 F350.00
G01 X113.2877 Y37.4618 F350.00
G01 X113.2859 Y37.4324 F350.00
G01 X113.2823 Y37.3589 F350.00
G01 X113.2812 Y37.3294 F350.00
G01 X113.2809 Y37.3000 F350.00
G01 X113.2812 Y37.2706 F350.00
G01 X113.2823 Y37.2411 F350.00
G01 X113.2859 Y37.1676 F350.00
G01 X113.2877 Y37.1382 F350.00
G01 X113.2903 Y37.1089 F350.00
G01 X113.2935 Y37.0796 F350.00
G01 X113.2975 Y37.0504 F350.00
G01 X113.3083 Y36.9776 F350.00
G01 X113.3129 Y36.9485 F350.00
G01 X113.3183 Y36.9196 F350.00
G01 X113.3244 Y36.8908 F350.00
G01 X113.3312 Y36.8621 F350.00
G01 X113.3491 Y36.7907 F350.00
G01 X113.3566 Y36.7622 F350.00
G01 X113.3648 Y36.7339 F350.00
G01 X113.3737 Y36.7059 F350.00
G01 X113.3833 Y36.6780 F350.00
G01 X113.4081 Y36.6087 F350.00
G01 X113.4184 Y36.5811 F350.00
G01 X113.4293 Y36.5538 F350.00
G01 X113.4409 Y36.5267 F350.00
G01 X113.4532 Y36.4999 F350.00
G01 X113.4846 Y36.4334 F350.00
G01 X113.4976 Y36.4069 F350.00
G01 X113.5111 Y36.3808 F350.00
G01 X113.5253 Y36.3550 F350.00
G01 X113.5578 Y36.3000 F350.00
G00 Z0.5000
G00 X113.9729 Y33.8103
G01 F250.00
G01 Z-0.0500
G01 F350.00
G01 X108.1811 Y33.8103 F350.00
G01 X108.1811 Y32.2503 F350.00
G01 X116.3278 Y32.2503 F350.00
G00 Z0.5000
G00 X115.7848 Y30.6903
G01 F250.00
G01 Z-0.0500
G01 F350.00
G01 X108.1811 Y30.6903 F350.00
G01 X108.1811 Y29.1303 F350.00
G01 X116.5492 Y29.1303 F350.00
G00 Z0.5000
G00 X116.6767 Y27.5703
G01 F250.00
G01 Z-0.0500
G01 F350.00
G01 X108.1811 Y27.5703 F350.00
G00 Z0.5000
G00 X108.0928 Y26.0103
G01 F250.00
G01 Z-0.0500
G01 F350.00
G01 X115.7910 Y26.0103 F350.00
G00 Z0.5000
G00 X116.2444 Y24.4503
G01 F250.00
G01 Z-0.0500
G01 F350.00
G01 X106.7856 Y24.4503 F350.00
G00 Z0.5000
G00 X105.1812 Y22.8903
G01 F250.00
G01 Z-0.0500
G01 F350.00
G01 X119.2499 Y22.8903 F350.00
G00 Z0.5000
G00 X118.8059 Y21.3303
G01 F250.00
G01 Z-0.0500
G01 F350.00
G01 X100.4156 Y21.3303 F350.00
G01 X98.8556 Y19.7703 F350.00
G01 X118.9421 Y19.7703 F350.00
G00 Z0.5000
G00 X122.2309 Y23.3542
G01 F250.00
G01 Z-0.0500
G01 F350.00
G01 X122.2135 Y23.3668 F350.00
G01 X122.1892 Y23.3834 F350.00
G01 X122.1645 Y23.3995 F350.00
G01 X122.1395 Y23.4150 F350.00
G01 X122.0574 Y23.4641 F350.00
G01 X122.0320 Y23.4790 F350.00
G01 X122.0061 Y23.4932 F350.00
G01 X121.9800 Y23.5067 F350.00
G01 X121.9535 Y23.5197 F350.00
G01 X121.8670 Y23.5606 F350.00
G01 X121.8403 Y23.5728 F350.00
G01 X121.8132 Y23.5844 F350.00
G01 X121.7859 Y23.5954 F350.00
G01 X121.7582 Y23.6056 F350.00
G01 X121.6682 Y23.6379 F350.00
G01 X121.6403 Y23.6475 F350.00
G01 X121.6122 Y23.6563 F350.00
G01 X121.5839 Y23.6645 F350.00
G01 X121.5555 Y23.6721 F350.00
G01 X121.4627 Y23.6953 F350.00
G01 X121.4340 Y23.7021 F350.00
G01 X121.4052 Y23.7082 F350.00
G01 X121.3762 Y23.7136 F350.00
G01 X121.3472 Y23.7183 F350.00
G01 X121.2525 Y23.7323 F350.00
G01 X121.2233 Y23.7363 F350.00
G01 X121.1940 Y23.7395 F350.00
G01 X121.1647 Y23.7421 F350.00
G01 X121.1353 Y23.7439 F350.00
G01 X121.0397 Y23.7486 F350.00
G01 X121.0103 Y23.7496 F350.00
G01 X120.9809 Y23.7500 F350.00
G01 X120.9514 Y23.7496 F350.00
G01 X120.9220 Y23.7486 F350.00
G01 X120.8264 Y23.7439 F350.00
G01 X120.7970 Y23.7421 F350.00
G01 X120.7677 Y23.7395 F350.00
G01 X120.7384 Y23.7363 F350.00
G01 X120.7092 Y23.7323 F350.00
G01 X120.6146 Y23.7183 F350.00
G01 X120.5855 Y23.7136 F350.00
G01 X120.5565 Y23.7082 F350.00
G01 X120.5277 Y23.7021 F350.00
G01 X120.4991 Y23.6953 F350.00
G01 X120.4063 Y23.6721 F350.00
G01 X120.3778 Y23.6645 F350.00
G01 X120.3495 Y23.6563 F350.00
G01 X120.3214 Y23.6475 F350.00
G01 X120.2936 Y23.6379 F350.00
G01 X120.2035 Y23.6056 F350.00
G01 X120.1759 Y23.5954 F350.00
G01 X120.1485 Y23.5844 F350.00
G01 X120.1215 Y23.5728 F350.00
G01 X120.0947 Y23.5606 F350.00
G01 X120.0082 Y23.5197 F350.00
G01 X119.9817 Y23.5067 F350.00
G01 X119.9556 Y23.4932 F350.00
G01 X119.9298 Y23.4790 F350.00
G01 X119.9043 Y23.4641 F350.00
G01 X119.8223 Y23.4150 F350.00
G01 X119.7972 Y23.3995 F350.00
G01 X119.7725 Y23.3834 F350.00
G01 X119.7482 Y23.3668 F350.00
G01 X119.7243 Y23.3495 F350.00
G01 X119.6475 Y23.2925 F350.00
G01 X119.6240 Y23.2747 F350.00
G01 X119.6011 Y23.2563 F350.00
G01 X119.5785 Y23.2373 F350.00
G01 X119.5565 Y23.2178 F350.00
G01 X119.4856 Y23.1536 F350.00
G01 X119.4640 Y23.1335 F350.00
G01 X119.4429 Y23.1130 F350.00
G01 X119.4223 Y23.0919 F350.00
G01 X119.4023 Y23.0703 F350.00
G01 X119.3380 Y22.9994 F350.00
G01 X119.3185 Y22.9773 F350.00
G01 X119.2996 Y22.9548 F350.00
G01 X119.2812 Y22.9318 F350.00
G01 X119.2633 Y22.9084 F350.00
G01 X119.2063 Y22.8315 F350.00
G01 X119.1891 Y22.8077 F350.00
G01 X119.1724 Y22.7834 F350.00
G01 X119.1564 Y22.7587 F350.00
G01 X119.1409 Y22.7336 F350.00
G01 X119.0917 Y22.6515 F350.00
G01 X119.0769 Y22.6261 F350.00
G01 X119.0627 Y22.6003 F350.00
G01 X119.0491 Y22.5741 F350.00
G01 X119.0362 Y22.5477 F350.00
G01 X118.9953 Y22.4612 F350.00
G01 X118.9830 Y22.4344 F350.00
G01 X118.9714 Y22.4073 F350.00
G01 X118.9605 Y22.3800 F350.00
G01 X118.9502 Y22.3524 F350.00
G01 X118.9180 Y22.2623 F350.00
G01 X118.9084 Y22.2344 F350.00
G01 X118.8995 Y22.2064 F350.00
G01 X118.8913 Y22.1781 F350.00
G01 X118.8838 Y22.1496 F350.00
G01 X118.8606 Y22.0568 F350.00
G01 X118.8538 Y22.0281 F350.00
G01 X118.8477 Y21.9993 F350.00
G01 X118.8423 Y21.9704 F350.00
G01 X118.8376 Y21.9413 F350.00
G01 X118.8235 Y21.8466 F350.00
G01 X118.8196 Y21.8175 F350.00
G01 X118.8163 Y21.7882 F350.00
G01 X118.8138 Y21.7588 F350.00
G01 X118.8120 Y21.7294 F350.00
G01 X118.8073 Y21.6339 F350.00
G01 X118.8062 Y21.6044 F350.00
G01 X118.8059 Y21.5750 F350.00
G01 X118.8059 Y20.5250 F350.00
G01 X118.8062 Y20.4956 F350.00
G01 X118.8073 Y20.4661 F350.00
G01 X118.8120 Y20.3706 F350.00
G01 X118.8138 Y20.3412 F350.00
G01 X118.8163 Y20.3118 F350.00
G01 X118.8196 Y20.2825 F350.00
G01 X118.8235 Y20.2534 F350.00
G01 X118.8376 Y20.1587 F350.00
G01 X118.8423 Y20.1296 F350.00
G01 X118.8477 Y20.1007 F350.00
G01 X118.8538 Y20.0719 F350.00
G01 X118.8606 Y20.0432 F350.00
G01 X118.8838 Y19.9504 F350.00
G01 X118.8913 Y19.9219 F350.00
G01 X118.8995 Y19.8936 F350.00
G01 X118.9084 Y19.8656 F350.00
G01 X118.9180 Y19.8377 F350.00
G01 X118.9502 Y19.7476 F350.00
G01 X118.9605 Y19.7200 F350.00
G01 X118.9714 Y19.6927 F350.00
G01 X118.9830 Y19.6656 F350.00
G01 X118.9953 Y19.6388 F350.00
G01 X119.0362 Y19.5523 F350.00
G01 X119.0491 Y19.5259 F350.00
G01 X119.0627 Y19.4997 F350.00
G01 X119.0769 Y19.4739 F350.00
G01 X119.0917 Y19.4485 F350.00
G01 X119.1409 Y19.3664 F350.00
G01 X119.1564 Y19.3413 F350.00
G01 X119.1724 Y19.3166 F350.00
G01 X119.1891 Y19.2923 F350.00
G01 X119.2063 Y19.2685 F350.00
G01 X119.2633 Y19.1916 F350.00
G01 X119.2812 Y19.1682 F350.00
G01 X119.2996 Y19.1452 F350.00
G01 X119.3185 Y19.1227 F350.00
G01 X119.3380 Y19.1006 F350.00
G01 X119.4023 Y19.0297 F350.00
G01 X119.4223 Y19.0081 F350.00
G01 X119.4429 Y18.9870 F350.00
G01 X119.4640 Y18.9665 F350.00
G01 X119.4856 Y18.9464 F350.00
G01 X119.5565 Y18.8822 F350.00
G01 X119.5785 Y18.8627 F350.00
G01 X119.6011 Y18.8437 F350.00
G01 X119.6240 Y18.8253 F350.00
G01 X119.6475 Y18.8075 F350.00
G01 X119.7243 Y18.7505 F350.00
G01 X119.7482 Y18.7332 F350.00
G01 X119.7725 Y18.7166 F350.00
G01 X119.7972 Y18.7005 F350.00
G01 X119.8223 Y18.6850 F350.00
G01 X119.9043 Y18.6359 F350.00
G01 X119.9298 Y18.6210 F350.00
G01 X119.9556 Y18.6068 F350.00
G01 X119.9817 Y18.5933 F350.00
G01 X120.0082 Y18.5803 F350.00
G01 X120.0947 Y18.5394 F350.00
G01 X120.1215 Y18.5272 F350.00
G01 X120.1485 Y18.5156 F350.00
G01 X120.1759 Y18.5046 F350.00
G01 X120.2035 Y18.4944 F350.00
G01 X120.2936 Y18.4621 F350.00
G01 X120.3214 Y18.4525 F350.00
G01 X120.3495 Y18.4437 F350.00
G01 X120.3778 Y18.4355 F350.00
G01 X120.4063 Y18.4279 F350.00
G01 X120.4991 Y18.4047 F350.00
G01 X120.5277 Y18.3979 F350.00
G01 X120.5565 Y18.3918 F350.00
G01 X120.5855 Y18.3864 F350.00
G01 X120.6146 Y18.3817 F350.00
G01 X120.7092 Y18.3677 F350.00
G01 X120.7384 Y18.3637 F350.00
G01 X120.7677 Y18.3605 F350.00
G01 X120.7970 Y18.3579 F350.00
G01 X120.8264 Y18.3561 F350.00
G01 X120.9220 Y18.3514 F350.00
G01 X120.9514 Y18.3504 F350.00
G01 X120.9809 Y18.3500 F350.00
G01 X121.0103 Y18.3504 F350.00
G01 X121.0397 Y18.3514 F350.00
G01 X121.1353 Y18.3561 F350.00
G01 X121.1647 Y18.3579 F350.00
G01 X121.1940 Y18.3605 F350.00
G01 X121.2233 Y18.3637 F350.00
G01 X121.2525 Y18.3677 F350.00
G01 X121.3472 Y18.3817 F350.00
G01 X121.3762 Y18.3864 F350.00
G01 X121.4052 Y18.3918 F350.00
G01 X121.4340 Y18.3979 F350.00
G01 X121.4627 Y18.4047 F350.00
G01 X121.5555 Y18.4279 F350.00
G01 X121.5839 Y18.4355 F350.00
G01 X121.6122 Y18.4437 F350.00
G01 X121.6403 Y18.4525 F350.00
G01 X121.6682 Y18.4621 F350.00
G01 X121.7582 Y18.4944 F350.00
G01 X121.7859 Y18.5046 F350.00
G01 X121.8132 Y18.5156 F350.00
G01 X121.8403 Y18.5272 F350.00
G01 X121.8670 Y18.5394 F350.00
G01 X121.9535 Y18.5803 F350.00
G01 X121.9800 Y18.5933 F350.00
G01 X122.0061 Y18.6068 F350.00
G01 X122.0320 Y18.6210 F350.00
G01 X122.0574 Y18.6359 F350.00
G01 X122.1395 Y18.6850 F350.00
G01 X122.1645 Y18.7005 F350.00
G01 X122.1892 Y18.7166 F350.00
G01 X122.2135 Y18.7332 F350.00
G01 X122.2309 Y18.7458 F350.00
G01 X122.2482 Y18.7332 F350.00
G01 X122.2725 Y18.7166 F350.00
G01 X122.2972 Y18.7005 F350.00
G01 X122.3223 Y18.6850 F350.00
G01 X122.4043 Y18.6359 F350.00
G01 X122.4298 Y18.6210 F350.00
G01 X122.4556 Y18.6068 F350.00
G01 X122.4817 Y18.5933 F350.00
G01 X122.5082 Y18.5803 F350.00
G01 X122.5947 Y18.5394 F350.00
G01 X122.6215 Y18.5272 F350.00
G01 X122.6485 Y18.5156 F350.00
G01 X122.6759 Y18.5046 F350.00
G01 X122.7035 Y18.4944 F350.00
G01 X122.7936 Y18.4621 F350.00
G01 X122.8214 Y18.4525 F350.00
G01 X122.8495 Y18.4437 F350.00
G01 X122.8778 Y18.4355 F350.00
G01 X122.9063 Y18.4279 F350.00
G01 X122.9991 Y18.4047 F350.00
G01 X123.0277 Y18.3979 F350.00
G01 X123.0565 Y18.3918 F350.00
G01 X123.0855 Y18.3864 F350.00
G01 X123.1146 Y18.3817 F350.00
G01 X123.2092 Y18.3677 F350.00
G01 X123.2384 Y18.3637 F350.00
G01 X123.2677 Y18.3605 F350.00
G01 X123.2970 Y18.3579 F350.00
G01 X123.3264 Y18.3561 F350.00
G01 X123.4220 Y18.3514 F350.00
G01 X123.4514 Y18.3504 F350.00
G01 X123.4809 Y18.3500 F350.00
G01 X123.5103 Y18.3504 F350.00
G01 X123.5397 Y18.3514 F350.00
G01 X123.6353 Y18.3561 F350.00
G01 X123.6647 Y18.3579 F350.00
G01 X123.6940 Y18.3605 F350.00
G01 X123.7233 Y18.3637 F350.00
G01 X123.7525 Y18.3677 F350.00
G01 X123.8472 Y18.3817 F350.00
G01 X123.8762 Y18.3864 F350.00
G01 X123.9052 Y18.3918 F350.00
G01 X123.9340 Y18.3979 F350.00
G01 X123.9627 Y18.4047 F350.00
G01 X124.0555 Y18.4279 F350.00
G01 X124.0839 Y18.4355 F350.00
G01 X124.1122 Y18.4437 F350.00
G01 X124.1403 Y18.4525 F350.00
G01 X124.1682 Y18.4621 F350.00
G01 X124.2582 Y18.4944 F350.00
G01 X124.2859 Y18.5046 F350.00
G01 X124.3132 Y18.5156 F350.00
G01 X124.3403 Y18.5272 F350.00
G01 X124.3670 Y18.5394 F350.00
G01 X124.4535 Y18.5803 F350.00
G01 X124.4800 Y18.5933 F350.00
G01 X124.5061 Y18.6068 F350.00
G01 X124.5320 Y18.6210 F350.00
G01 X124.5574 Y18.6359 F350.00
G01 X124.6395 Y18.6850 F350.00
G01 X124.6645 Y18.7005 F350.00
G01 X124.6892 Y18.7166 F350.00
G01 X124.7135 Y18.7332 F350.00
G01 X124.7309 Y18.7458 F350.00
G01 X124.7482 Y18.7332 F350.00
G01 X124.7725 Y18.7166 F350.00
G01 X124.7972 Y18.7005 F350.00
G01 X124.8223 Y18.6850 F350.00
G01 X124.9043 Y18.6359 F350.00
G01 X124.9298 Y18.6210 F350.00
G01 X124.9556 Y18.6068 F350.00
G01 X124.9817 Y18.5933 F350.00
G01 X125.0082 Y18.5803 F350.00
G01 X125.0947 Y18.5394 F350.00
G01 X125.1215 Y18.5272 F350.00
G01 X125.1485 Y18.5156 F350.00
G01 X125.1759 Y18.5046 F350.00
G01 X125.2035 Y18.4944 F350.00
G01 X125.2936 Y18.4621 F350.00
G01 X125.3214 Y18.4525 F350.00
G01 X125.3495 Y18.4437 F350.00
G01 X125.3778 Y18.4355 F350.00
G01 X125.4063 Y18.4279 F350.00
G01 X125.4991 Y18.4047 F350.00
G01 X125.5277 Y18.3979 F350.00
G01 X125.5565 Y18.3918 F350.00
G01 X125.5855 Y18.3864 F350.00
G01 X125.6146 Y18.3817 F350.00
G01 X125.7092 Y18.3677 F350.00
G01 X125.7384 Y18.3637 F350.00
G01 X125.7677 Y18.3605 F350.00
G01 X125.7970 Y18.3579 F350.00
G01 X125.8264 Y18.3561 F350.00
G01 X125.9220 Y18.3514 F350.00
G01 X125.9514 Y18.3504 F350.00
G01 X125.9809 Y18.3500 F350.00
G01 X126.0103 Y18.3504 F350.00
G01 X126.0397 Y18.3514 F350.00
G01 X126.1353 Y18.3561 F350.00
G01 X126.1647 Y18.3579 F350.00
G01 X126.1940 Y18.3605 F350.00
G01 X126.2233 Y18.3637 F350.00
G01 X126.2525 Y18.3677 F350.00
G01 X126.3472 Y18.3817 F350.00
G01 X126.3762 Y18.3864 F350.00
G01 X126.4052 Y18.3918 F350.00
G01 X126.4340 Y18.3979 F350.00
G01 X126.4627 Y18.4047 F350.00
G01 X126.5555 Y18.4279 F350.00
G01 X126.5839 Y18.4355 F350.00
G01 X126.6122 Y18.4437 F350.00
G01 X126.6403 Y18.4525 F350.00
G01 X126.6682 Y18.4621 F350.00
G01 X126.7582 Y18.4944 F350.00
G01 X126.7859 Y18.5046 F350.00
G01 X126.8132 Y18.5156 F350.00
G01 X126.8403 Y18.5272 F350.00
G01 X126.8670 Y18.5394 F350.00
G01 X126.9535 Y18.5803 F350.00
G01 X126.9800 Y18.5933 F350.00
G01 X127.0061 Y18.6068 F350.00
G01 X127.0320 Y18.6210 F350.00
G01 X127.0574 Y18.6359 F350.00
G01 X127.1395 Y18.6850 F350.00
G01 X127.1645 Y18.7005 F350.00
G01 X127.1892 Y18.7166 F350.00
G01 X127.2135 Y18.7332 F350.00
G01 X127.2374 Y18.7505 F350.00
G01 X127.3142 Y18.8075 F350.00
G01 X127.3377 Y18.8253 F350.00
G01 X127.3607 Y18.8437 F350.00
G01 X127.3832 Y18.8627 F350.00
G01 X127.4053 Y18.8822 F350.00
G01 X127.4762 Y18.9464 F350.00
G01 X127.4977 Y18.9665 F350.00
G01 X127.5188 Y18.9870 F350.00
G01 X127.5394 Y19.0081 F350.00
G01 X127.5594 Y19.0297 F350.00
G01 X127.6237 Y19.1006 F350.00
G01 X127.6432 Y19.1227 F350.00
G01 X127.6622 Y19.1452 F350.00
G01 X127.6806 Y19.1682 F350.00
G01 X127.6984 Y19.1916 F350.00
G01 X127.7554 Y19.2685 F350.00
G01 X127.7726 Y19.2923 F350.00
G01 X127.7893 Y19.3166 F350.00
G01 X127.8054 Y19.3413 F350.00
G01 X127.8208 Y19.3664 F350.00
G01 X127.8700 Y19.4485 F350.00
G01 X127.8848 Y19.4739 F350.00
G01 X127.8990 Y19.4997 F350.00
G01 X127.9126 Y19.5259 F350.00
G01 X127.9255 Y19.5523 F350.00
G01 X127.9664 Y19.6388 F350.00
G01 X127.9787 Y19.6656 F350.00
G01 X127.9903 Y19.6927 F350.00
G01 X128.0012 Y19.7200 F350.00
G01 X128.0115 Y19.7476 F350.00
G01 X128.0437 Y19.8377 F350.00
G01 X128.0533 Y19.8656 F350.00
G01 X128.0622 Y19.8936 F350.00
G01 X128.0704 Y19.9219 F350.00
G01 X128.0779 Y19.9504 F350.00
G01 X128.1012 Y20.0432 F350.00
G01 X128.1080 Y20.0719 F350.00
G01 X128.1141 Y20.1007 F350.00
G01 X128.1195 Y20.1296 F350.00
G01 X128.1241 Y20.1587 F350.00
G01 X128.1382 Y20.2534 F350.00
G01 X128.1421 Y20.2825 F350.00
G01 X128.1454 Y20.3118 F350.00
G01 X128.1479 Y20.3412 F350.00
G01 X128.1497 Y20.3706 F350.00
G01 X128.1544 Y20.4661 F350.00
G01 X128.1555 Y20.4956 F350.00
G01 X128.1559 Y20.5250 F350.00
G01 X128.1559 Y21.5750 F350.00
G01 X128.1555 Y21.6044 F350.00
G01 X128.1544 Y21.6339 F350.00
G01 X128.1497 Y21.7294 F350.00
G01 X128.1479 Y21.7588 F350.00
G01 X128.1454 Y21.7882 F350.00
G01 X128.1421 Y21.8175 F350.00
G01 X128.1382 Y21.8466 F350.00
G01 X128.1241 Y21.9413 F350.00
G01 X128.1195 Y21.9704 F350.00
G01 X128.1141 Y21.9993 F350.00
G01 X128.1080 Y22.0281 F350.00
G01 X128.1012 Y22.0568 F350.00
G01 X128.0779 Y22.1496 F350.00
G01 X128.0704 Y22.1781 F350.00
G01 X128.0622 Y22.2064 F350.00
G01 X128.0533 Y22.2344 F350.00
G01 X128.0437 Y22.2623 F350.00
G01 X128.0115 Y22.3524 F350.00
G01 X128.0012 Y22.3800 F350.00
G01 X127.9903 Y22.4073 F350.00
G01 X127.9787 Y22.4344 F350.00
G01 X127.9664 Y22.4612 F350.00
G01 X127.9255 Y22.5477 F350.00
G01 X127.9126 Y22.5741 F350.00
G01 X127.8990 Y22.6003 F350.00
G01 X127.8848 Y22.6261 F350.00
G01 X127.8700 Y22.6515 F350.00
G01 X127.8208 Y22.7336 F350.00
G01 X127.8054 Y22.7587 F350.00
G01 X127.7893 Y22.7834 F350.00
G01 X127.7726 Y22.8077 F350.00
G01 X127.7554 Y22.8315 F350.00
G01 X127.6984 Y22.9084 F350.00
G01 X127.6806 Y22.9318 F350.00
G01 X127.6622 Y22.9548 F350.00
G01 X127.6432 Y22.9773 F350.00
G01 X127.6237 Y22.9994 F350.00
G01 X127.5594 Y23.0703 F350.00
G01 X127.5394 Y23.0919 F350.00
G01 X127.5188 Y23.1130 F350.00
G01 X127.4977 Y23.1335 F350.00
G01 X127.4762 Y23.1536 F350.00
G01 X127.4053 Y23.2178 F350.00
G01 X127.3832 Y23.2373 F350.00
G01 X127.3607 Y23.2563 F350.00
G01 X127.3377 Y23.2747 F350.00
G01 X127.3142 Y23.2925 F350.00
G01 X127.2374 Y23.3495 F350.00
G01 X127.2135 Y23.3668 F350.00
G01 X127.1892 Y23.3834 F350.00
G01 X127.1645 Y23.3995 F350.00
G01 X127.1395 Y23.4150 F350.00
G01 X127.0574 Y23.4641 F350.00
G01 X127.0320 Y23.4790 F350.00
G01 X127.0061 Y23.4932 F350.00
G01 X126.9800 Y23.5067 F350.00
G01 X126.9535 Y23.5197 F350.00
G01 X126.8670 Y23.5606 F350.00
G01 X126.8403 Y23.5728 F350.00
G01 X126.8132 Y23.5844 F350.00
G01 X126.7859 Y23.5954 F350.00
G01 X126.7582 Y23.6056 F350.00
G01 X126.6682 Y23.6379 F350.00
G01 X126.6403 Y23.6475 F350.00
G01 X126.6122 Y23.6563 F350.00
G01 X126.5839 Y23.6645 F350.00
G01 X126.5555 Y23.6721 F350.00
G01 X126.4627 Y23.6953 F350.00
G01 X126.4340 Y23.7021 F350.00
G01 X126.4052 Y23.7082 F350.00
G01 X126.3762 Y23.7136 F350.00
G01 X126.3472 Y23.7183 F350.00
G01 X126.2525 Y23.7323 F350.00
G01 X126.2233 Y23.7363 F350.00
G01 X126.1940 Y23.7395 F350.00
G01 X126.1647 Y23.7421 F350.00
G01 X126.1353 Y23.7439 F350.00
G01 X126.0397 Y23.7486 F350.00
G01 X126.0103 Y23.7496 F350.00
G01 X125.9809 Y23.7500 F350.00
G01 X125.9514 Y23.7496 F350.00
G01 X125.9220 Y23.7486 F350.00
G01 X125.8264 Y23.7439 F350.00
G01 X125.7970 Y23.7421 F350.00
G01 X125.7677 Y23.7395 F350.00
G01 X125.7384 Y23.7363 F350.00
G01 X125.7092 Y23.7323 F350.00
G01 X125.6146 Y23.7183 F350.00
G01 X125.5855 Y23.7136 F350.00
G01 X125.5565 Y23.7082 F350.00
G01 X125.5277 Y23.7021 F350.00
G01 X125.4991 Y23.6953 F350.00
G01 X125.4063 Y23.6721 F350.00
G01 X125.3778 Y23.6645 F350.00
G01 X125.3495 Y23.6563 F350.00
G01 X125.3214 Y23.6475 F350.00
G01 X125.2936 Y23.6379 F350.00
G01 X125.2035 Y23.6056 F350.00
G01 X125.1759 Y23.5954 F350.00
G01 X125.1485 Y23.5844 F350.00
G01 X125.1215 Y23.5728 F350.00
G01 X125.0947 Y23.5606 F350.00
G01 X125.0082 Y23.5197 F350.00
G01 X124.9817 Y23.5067 F350.00
G01 X124.9556 Y23.4932 F350.00
G01 X124.9298 Y23.4790 F350.00
G01 X124.9043 Y23.4641 F350.00
G01 X124.8223 Y23.4150 F350.00
G01 X124.7972 Y23.3995 F350.00
G01 X124.7725 Y23.3834 F350.00
G01 X124.7482 Y23.3668 F350.00
G01 X124.7309 Y23.3542 F350.00
G01 X124.7135 Y23.3668 F350.00
G01 X124.6892 Y23.3834 F350.00
G01 X124.6645 Y23.3995 F350.00
G01 X124.6395 Y23.4150 F350.00
G01 X124.5574 Y23.4641 F350.00
G01 X124.5320 Y23.4790 F350.00
G01 X124.5061 Y23.4932 F350.00
G01 X124.4800 Y23.5067 F350.00
G01 X124.4535 Y23.5197 F350.00
G01 X124.3670 Y23.5606 F350.00
G01 X124.3403 Y23.5728 F350.00
G01 X124.3132 Y23.5844 F350.00
G01 X124.2859 Y23.5954 F350.00
G01 X124.2582 Y23.6056 F350.00
G01 X124.1682 Y23.6379 F350.00
G01 X124.1403 Y23.6475 F350.00
G01 X124.1122 Y23.6563 F350.00
G01 X124.0839 Y23.6645 F350.00
G01 X124.0555 Y23.6721 F350.00
G01 X123.9627 Y23.6953 F350.00
G01 X123.9340 Y23.7021 F350.00
G01 X123.9052 Y23.7082 F350.00
G01 X123.8762 Y23.7136 F350.00
G01 X123.8472 Y23.7183 F350.00
G01 X123.7525 Y23.7323 F350.00
G01 X123.7233 Y23.7363 F350.00
G01 X123.6940 Y23.7395 F350.00
G01 X123.6647 Y23.7421 F350.00
G01 X123.6353 Y23.7439 F350.00
G01 X123.5397 Y23.7486 F350.00
G01 X123.5103 Y23.7496 F350.00
G01 X123.4809 Y23.7500 F350.00
G01 X123.4514 Y23.7496 F350.00
G01 X123.4220 Y23.7486 F350.00
G01 X123.3264 Y23.7439 F350.00
G01 X123.2970 Y23.7421 F350.00
G01 X123.2677 Y23.7395 F350.00
G01 X123.2384 Y23.7363 F350.00
G01 X123.2092 Y23.7323 F350.00
G01 X123.1146 Y23.7183 F350.00
G01 X123.0855 Y23.7136 F350.00
G01 X123.0565 Y23.7082 F350.00
G01 X123.0277 Y23.7021 F350.00
G01 X122.9991 Y23.6953 F350.00
G01 X122.9063 Y23.6721 F350.00
G01 X122.8778 Y23.6645 F350.00
G01 X122.8495 Y23.6563 F350.00
G01 X122.8214 Y23.6475 F350.00
G01 X122.7936 Y23.6379 F350.00
G01 X122.7035 Y23.6056 F350.00
G01 X122.6759 Y23.5954 F350.00
G01 X122.6485 Y23.5844 F350.00
G01 X122.6215 Y23.5728 F350.00
G01 X122.5947 Y23.5606 F350.00
G01 X122.5082 Y23.5197 F350.00
G01 X122.4817 Y23.5067 F350.00
G01 X122.4556 Y23.4932 F350.00
G01 X122.4298 Y23.4790 F350.00
G01 X122.4043 Y23.4641 F350.00
G01 X122.3223 Y23.4150 F350.00
G01 X122.2972 Y23.3995 F350.00
G01 X122.2725 Y23.3834 F350.00
G01 X122.2482 Y23.3668 F350.00
G01 X122.2309 Y23.3542 F350.00
G00 Z0.5000
G00 X120.7173 Y24.4503
G01 F250.00
G01 Z-0.0500
G01 F350.00
G01 X129.7967 Y24.4503 F350.00
G01 X129.7764 Y22.8903 F350.00
G01 X127.7118 Y22.8903 F350.00
G00 Z0.5000
G00 X128.1559 Y21.3303
G01 F250.00
G01 Z-0.0500
G01 F350.00
G01 X129.7562 Y21.3303 F350.00
G01 X129.7360 Y19.7703 F350.00
G01 X128.0196 Y19.7703 F350.00
G01 X129.7157 Y18.2103 F350.00
G01 X97.2956 Y18.2103 F350.00
G01 X95.7356 Y16.6503 F350.00
G01 X129.6955 Y16.6503 F350.00
G01 X129.6752 Y15.0903 F350.00
G01 X94.1756 Y15.0903 F350.00
G01 X92.6156 Y13.5303 F350.00
G01 X114.4874 Y13.5303 F350.00
G00 Z0.5000
G00 X114.0569 Y11.9703
G01 F250.00
G01 Z-0.0500
G01 F350.00
G01 X91.0556 Y11.9703 F350.00
G01 X89.4956 Y10.4103 F350.00
G01 X114.1316 Y10.4103 F350.00
G00 Z0.5000
G00 X115.6901 Y8.8503
G01 F250.00
G01 Z-0.0500
G01 F350.00
G01 X87.9356 Y8.8503 F350.00
G01 X86.3756 Y7.2903 F350.00
G01 X129.5740 Y7.2903 F350.00
G01 X129.5537 Y5.7303 F350.00
G01 X43.9311 Y5.7303 F350.00
G01 X43.9311 Y4.1703 F350.00
G01 X114.2716 Y4.1703 F350.00
G00 Z0.5000
G00 X114.0569 Y2.6103
G01 F250.00
G01 Z-0.0500
G01 F350.00
G01 X43.9311 Y2.6103 F350.00
G01 X43.9311 Y1.0503 F350.00
G01 X114.2619 Y1.0503 F350.00
G00 Z0.5000
G00 X118.2518 Y1.0503
G01 F250.00
G01 Z-0.0500
G01 F350.00
G01 X124.7099 Y1.0503 F350.00
G00 Z0.5000
G00 X124.5049 Y2.6103
G01 F250.00
G01 Z-0.0500
G01 F350.00
G01 X118.4569 Y2.6103 F350.00
G00 Z0.5000
G00 X118.4391 Y1.7009
G01 F250.00
G01 Z-0.0500
G01 F350.00
G01 X118.4430 Y1.7301 F350.00
G01 X118.4463 Y1.7594 F350.00
G01 X118.4488 Y1.7887 F350.00
G01 X118.4506 Y1.8181 F350.00
G01 X118.4554 Y1.9161 F350.00
G01 X118.4565 Y1.9456 F350.00
G01 X118.4569 Y1.9750 F350.00
G01 X118.4569 Y3.2250 F350.00
G01 X118.4565 Y3.2544 F350.00
G01 X118.4554 Y3.2839 F350.00
G01 X118.4506 Y3.3819 F350.00
G01 X118.4488 Y3.4113 F350.00
G01 X118.4463 Y3.4406 F350.00
G01 X118.4430 Y3.4699 F350.00
G01 X118.4391 Y3.4991 F350.00
G01 X118.4247 Y3.5962 F350.00
G01 X118.4200 Y3.6252 F350.00
G01 X118.4146 Y3.6542 F350.00
G01 X118.4085 Y3.6830 F350.00
G01 X118.4017 Y3.7117 F350.00
G01 X118.3778 Y3.8069 F350.00
G01 X118.3703 Y3.8353 F350.00
G01 X118.3621 Y3.8636 F350.00
G01 X118.3532 Y3.8917 F350.00
G01 X118.3437 Y3.9196 F350.00
G01 X118.3106 Y4.0120 F350.00
G01 X118.3003 Y4.0396 F350.00
G01 X118.2894 Y4.0669 F350.00
G01 X118.2778 Y4.0940 F350.00
G01 X118.2655 Y4.1207 F350.00
G01 X118.2236 Y4.2095 F350.00
G01 X118.2107 Y4.2359 F350.00
G01 X118.1971 Y4.2621 F350.00
G01 X118.1829 Y4.2879 F350.00
G01 X118.1681 Y4.3133 F350.00
G01 X118.1176 Y4.3975 F350.00
G01 X118.1022 Y4.4226 F350.00
G01 X118.0861 Y4.4473 F350.00
G01 X118.0694 Y4.4715 F350.00
G01 X118.0522 Y4.4954 F350.00
G01 X117.9937 Y4.5742 F350.00
G01 X117.9759 Y4.5977 F350.00
G01 X117.9575 Y4.6207 F350.00
G01 X117.9385 Y4.6432 F350.00
G01 X117.9190 Y4.6653 F350.00
G01 X117.8531 Y4.7380 F350.00
G01 X117.8331 Y4.7596 F350.00
G01 X117.8125 Y4.7806 F350.00
G01 X117.7914 Y4.8012 F350.00
G01 X117.7698 Y4.8212 F350.00
G01 X117.6971 Y4.8872 F350.00
G01 X117.6751 Y4.9067 F350.00
G01 X117.6525 Y4.9256 F350.00
G01 X117.6295 Y4.9440 F350.00
G01 X117.6061 Y4.9619 F350.00
G01 X117.5273 Y5.0203 F350.00
G01 X117.5034 Y5.0376 F350.00
G01 X117.4791 Y5.0542 F350.00
G01 X117.4544 Y5.0703 F350.00
G01 X117.4294 Y5.0857 F350.00
G01 X117.3452 Y5.1362 F350.00
G01 X117.3197 Y5.1510 F350.00
G01 X117.2939 Y5.1652 F350.00
G01 X117.2678 Y5.1788 F350.00
G01 X117.2413 Y5.1917 F350.00
G01 X117.1526 Y5.2337 F350.00
G01 X117.1258 Y5.2459 F350.00
G01 X117.0988 Y5.2575 F350.00
G01 X117.0714 Y5.2685 F350.00
G01 X117.0438 Y5.2787 F350.00
G01 X116.9514 Y5.3118 F350.00
G01 X116.9236 Y5.3214 F350.00
G01 X116.8955 Y5.3303 F350.00
G01 X116.8672 Y5.3385 F350.00
G01 X116.8387 Y5.3460 F350.00
G01 X116.7435 Y5.3698 F350.00
G01 X116.7149 Y5.3766 F350.00
G01 X116.6861 Y5.3827 F350.00
G01 X116.6571 Y5.3881 F350.00
G01 X116.6280 Y5.3928 F350.00
G01 X116.5310 Y5.4072 F350.00
G01 X116.5018 Y5.4112 F350.00
G01 X116.4725 Y5.4144 F350.00
G01 X116.4432 Y5.4169 F350.00
G01 X116.4138 Y5.4187 F350.00
G01 X116.3157 Y5.4236 F350.00
G01 X116.2863 Y5.4246 F350.00
G01 X116.2569 Y5.4250 F350.00
G01 X116.2274 Y5.4246 F350.00
G01 X116.1980 Y5.4236 F350.00
G01 X116.1000 Y5.4187 F350.00
G01 X116.0706 Y5.4169 F350.00
G01 X116.0412 Y5.4144 F350.00
G01 X116.0120 Y5.4112 F350.00
G01 X115.9828 Y5.4072 F350.00
G01 X115.8857 Y5.3928 F350.00
G01 X115.8566 Y5.3881 F350.00
G01 X115.8277 Y5.3827 F350.00
G01 X115.7988 Y5.3766 F350.00
G01 X115.7702 Y5.3698 F350.00
G01 X115.6750 Y5.3460 F350.00
G01 X115.6465 Y5.3385 F350.00
G01 X115.6182 Y5.3303 F350.00
G01 X115.5902 Y5.3214 F350.00
G01 X115.5623 Y5.3118 F350.00
G01 X115.4699 Y5.2787 F350.00
G01 X115.4423 Y5.2685 F350.00
G01 X115.4150 Y5.2575 F350.00
G01 X115.3879 Y5.2459 F350.00
G01 X115.3611 Y5.2337 F350.00
G01 X115.2724 Y5.1917 F350.00
G01 X115.2459 Y5.1788 F350.00
G01 X115.2198 Y5.1652 F350.00
G01 X115.1940 Y5.1510 F350.00
G01 X115.1685 Y5.1362 F350.00
G01 X115.0844 Y5.0857 F350.00
G01 X115.0593 Y5.0703 F350.00
G01 X115.0346 Y5.0542 F350.00
G01 X115.0103 Y5.0376 F350.00
G01 X114.9865 Y5.0203 F350.00
G01 X114.9076 Y4.9619 F350.00
G01 X114.8842 Y4.9440 F350.00
G01 X114.8612 Y4.9256 F350.00
G01 X114.8387 Y4.9067 F350.00
G01 X114.8166 Y4.8872 F350.00
G01 X114.7439 Y4.8212 F350.00
G01 X114.7223 Y4.8012 F350.00
G01 X114.7012 Y4.7806 F350.00
G01 X114.6807 Y4.7596 F350.00
G01 X114.6606 Y4.7380 F350.00
G01 X114.5947 Y4.6653 F350.00
G01 X114.5752 Y4.6432 F350.00
G01 X114.5562 Y4.6207 F350.00
G01 X114.5378 Y4.5977 F350.00
G01 X114.5200 Y4.5742 F350.00
G01 X114.4615 Y4.4954 F350.00
G01 X114.4443 Y4.4715 F350.00
G01 X114.4276 Y4.4473 F350.00
G01 X114.4116 Y4.4226 F350.00
G01 X114.3961 Y4.3975 F350.00
G01 X114.3457 Y4.3133 F350.00
G01 X114.3308 Y4.2879 F350.00
G01 X114.3166 Y4.2621 F350.00
G01 X114.3031 Y4.2359 F350.00
G01 X114.2902 Y4.2095 F350.00
G01 X114.2482 Y4.1207 F350.00
G01 X114.2359 Y4.0940 F350.00
G01 X114.2243 Y4.0669 F350.00
G01 X114.2134 Y4.0396 F350.00
G01 X114.2031 Y4.0120 F350.00
G01 X114.1701 Y3.9196 F350.00
G01 X114.1605 Y3.8917 F350.00
G01 X114.1516 Y3.8636 F350.00
G01 X114.1434 Y3.8353 F350.00
G01 X114.1359 Y3.8069 F350.00
G01 X114.1120 Y3.7117 F350.00
G01 X114.1052 Y3.6830 F350.00
G01 X114.0991 Y3.6542 F350.00
G01 X114.0937 Y3.6252 F350.00
G01 X114.0891 Y3.5962 F350.00
G01 X114.0747 Y3.4991 F350.00
G01 X114.0707 Y3.4699 F350.00
G01 X114.0675 Y3.4406 F350.00
G01 X114.0649 Y3.4113 F350.00
G01 X114.0631 Y3.3819 F350.00
G01 X114.0583 Y3.2839 F350.00
G01 X114.0572 Y3.2544 F350.00
G01 X114.0569 Y3.2250 F350.00
G01 X114.0569 Y1.9750 F350.00
G01 X114.0572 Y1.9456 F350.00
G01 X114.0583 Y1.9161 F350.00
G01 X114.0631 Y1.8181 F350.00
G01 X114.0649 Y1.7887 F350.00
G01 X114.0675 Y1.7594 F350.00
G01 X114.0707 Y1.7301 F350.00
G01 X114.0747 Y1.7009 F350.00
G01 X114.0891 Y1.6038 F350.00
G01 X114.0937 Y1.5748 F350.00
G01 X114.0991 Y1.5458 F350.00
G01 X114.1052 Y1.5170 F350.00
G01 X114.1120 Y1.4883 F350.00
G01 X114.1359 Y1.3931 F350.00
G01 X114.1434 Y1.3647 F350.00
G01 X114.1516 Y1.3364 F350.00
G01 X114.1605 Y1.3083 F350.00
G01 X114.1701 Y1.2804 F350.00
G01 X114.2031 Y1.1880 F350.00
G01 X114.2134 Y1.1604 F350.00
G01 X114.2243 Y1.1331 F350.00
G01 X114.2359 Y1.1060 F350.00
G01 X114.2482 Y1.0793 F350.00
G01 X114.2902 Y0.9905 F350.00
G01 X114.3031 Y0.9641 F350.00
G01 X114.3166 Y0.9379 F350.00
G01 X114.3308 Y0.9121 F350.00
G01 X114.3457 Y0.8867 F350.00
G01 X114.3961 Y0.8025 F350.00
G01 X114.4116 Y0.7774 F350.00
G01 X114.4276 Y0.7527 F350.00
G01 X114.4443 Y0.7285 F350.00
G01 X114.4615 Y0.7046 F350.00
G01 X114.5200 Y0.6258 F350.00
G01 X114.5378 Y0.6023 F350.00
G01 X114.5562 Y0.5793 F350.00
G01 X114.5752 Y0.5568 F350.00
G01 X114.5947 Y0.5347 F350.00
G01 X114.6606 Y0.4620 F350.00
G01 X114.6807 Y0.4404 F350.00
G01 X114.7012 Y0.4194 F350.00
G01 X114.7223 Y0.3988 F350.00
G01 X114.7439 Y0.3788 F350.00
G01 X114.8166 Y0.3128 F350.00
G01 X114.8387 Y0.2933 F350.00
G01 X114.8612 Y0.2744 F350.00
G01 X114.8842 Y0.2560 F350.00
G01 X114.9076 Y0.2381 F350.00
G01 X114.9865 Y0.1797 F350.00
G01 X115.0103 Y0.1624 F350.00
G01 X115.0346 Y0.1458 F350.00
G01 X115.0593 Y0.1297 F350.00
G01 X115.0844 Y0.1143 F350.00
G01 X115.1685 Y0.0638 F350.00
G01 X115.1940 Y0.0490 F350.00
G01 X115.2198 Y0.0348 F350.00
G01 X115.2459 Y0.0212 F350.00
G01 X115.2724 Y0.0083 F350.00
G01 X115.3611 Y-0.0337 F350.00
G01 X115.3879 Y-0.0459 F350.00
G01 X115.4150 Y-0.0575 F350.00
G01 X115.4423 Y-0.0685 F350.00
G01 X115.4699 Y-0.0787 F350.00
G01 X115.5623 Y-0.1118 F350.00
G01 X115.5902 Y-0.1214 F350.00
G01 X115.6182 Y-0.1303 F350.00
G01 X115.6465 Y-0.1385 F350.00
G01 X115.6750 Y-0.1460 F350.00
G01 X115.7702 Y-0.1698 F350.00
G01 X115.7988 Y-0.1766 F350.00
G01 X115.8277 Y-0.1827 F350.00
G01 X115.8566 Y-0.1881 F350.00
G01 X115.8857 Y-0.1928 F350.00
G01 X115.9828 Y-0.2072 F350.00
G01 X116.0120 Y-0.2112 F350.00
G01 X116.0412 Y-0.2144 F350.00
G01 X116.0706 Y-0.2169 F350.00
G01 X116.1000 Y-0.2187 F350.00
G01 X116.1980 Y-0.2236 F350.00
G01 X116.2274 Y-0.2246 F350.00
G01 X116.2569 Y-0.2250 F350.00
G01 X116.2863 Y-0.2246 F350.00
G01 X116.3157 Y-0.2236 F350.00
G01 X116.4138 Y-0.2187 F350.00
G01 X116.4432 Y-0.2169 F350.00
G01 X116.4725 Y-0.2144 F350.00
G01 X116.5018 Y-0.2112 F350.00
G01 X116.5310 Y-0.2072 F350.00
G01 X116.6280 Y-0.1928 F350.00
G01 X116.6571 Y-0.1881 F350.00
G01 X116.6861 Y-0.1827 F350.00
G01 X116.7149 Y-0.1766 F350.00
G01 X116.7435 Y-0.1698 F350.00
G01 X116.8387 Y-0.1460 F350.00
G01 X116.8672 Y-0.1385 F350.00
G01 X116.8955 Y-0.1303 F350.00
G01 X116.9236 Y-0.1214 F350.00
G01 X116.9514 Y-0.1118 F350.00
G01 X117.0438 Y-0.0787 F350.00
G01 X117.0714 Y-0.0685 F350.00
G01 X117.0988 Y-0.0575 F350.00
G01 X117.1258 Y-0.0459 F350.00
G01 X117.1526 Y-0.0337 F350.00
G01 X117.2413 Y0.0083 F350.00
G01 X117.2678 Y0.0212 F350.00
G01 X117.2939 Y0.0348 F350.00
G01 X117.3197 Y0.0490 F350.00
G01 X117.3452 Y0.0638 F350.00
G01 X117.4294 Y0.1143 F350.00
G01 X117.4544 Y0.1297 F350.00
G01 X117.4791 Y0.1458 F350.00
G01 X117.5034 Y0.1624 F350.00
G01 X117.5273 Y0.1797 F350.00
G01 X117.6061 Y0.2381 F350.00
G01 X117.6295 Y0.2560 F350.00
G01 X117.6525 Y0.2744 F350.00
G01 X117.6751 Y0.2933 F350.00
G01 X117.6971 Y0.3128 F350.00
G01 X117.7698 Y0.3788 F350.00
G01 X117.7914 Y0.3988 F350.00
G01 X117.8125 Y0.4194 F350.00
G01 X117.8331 Y0.4404 F350.00
G01 X117.8531 Y0.4620 F350.00
G01 X117.9190 Y0.5347 F350.00
G01 X117.9385 Y0.5568 F350.00
G01 X117.9575 Y0.5793 F350.00
G01 X117.9759 Y0.6023 F350.00
G01 X117.9937 Y0.6258 F350.00
G01 X118.0522 Y0.7046 F350.00
G01 X118.0694 Y0.7285 F350.00
G01 X118.0861 Y0.7527 F350.00
G01 X118.1022 Y0.7774 F350.00
G01 X118.1176 Y0.8025 F350.00
G01 X118.1681 Y0.8867 F350.00
G01 X118.1829 Y0.9121 F350.00
G01 X118.1971 Y0.9379 F350.00
G01 X118.2107 Y0.9641 F350.00
G01 X118.2236 Y0.9905 F350.00
G01 X118.2655 Y1.0793 F350.00
G01 X118.2778 Y1.1060 F350.00
G01 X118.2894 Y1.1331 F350.00
G01 X118.3003 Y1.1604 F350.00
G01 X118.3106 Y1.1880 F350.00
G01 X118.3437 Y1.2804 F350.00
G01 X118.3532 Y1.3083 F350.00
G01 X118.3621 Y1.3364 F350.00
G01 X118.3703 Y1.3647 F350.00
G01 X118.3778 Y1.3931 F350.00
G01 X118.4017 Y1.4883 F350.00
G01 X118.4085 Y1.5170 F350.00
G01 X118.4146 Y1.5458 F350.00
G01 X118.4200 Y1.5748 F350.00
G01 X118.4247 Y1.6038 F350.00
G01 X118.4391 Y1.7009 F350.00
G00 Z0.5000
G00 X118.2421 Y4.1703
G01 F250.00
G01 Z-0.0500
G01 F350.00
G01 X124.7196 Y4.1703 F350.00
G00 Z0.5000
G00 X128.6901 Y4.1703
G01 F250.00
G01 Z-0.0500
G01 F350.00
G01 X129.5335 Y4.1703 F350.00
G01 X129.5133 Y2.6103 F350.00
G01 X128.9049 Y2.6103 F350.00
G00 Z0.5000
G00 X128.8871 Y1.7009
G01 F250.00
G01 Z-0.0500
G01 F350.00
G01 X128.8910 Y1.7301 F350.00
G01 X128.8943 Y1.7594 F350.00
G01 X128.8968 Y1.7887 F350.00
G01 X128.8986 Y1.8181 F350.00
G01 X128.9034 Y1.9161 F350.00
G01 X128.9045 Y1.9456 F350.00
G01 X128.9049 Y1.9750 F350.00
G01 X128.9049 Y3.2250 F350.00
G01 X128.9045 Y3.2544 F350.00
G01 X128.9034 Y3.2839 F350.00
G01 X128.8986 Y3.3819 F350.00
G01 X128.8968 Y3.4113 F350.00
G01 X128.8943 Y3.4406 F350.00
G01 X128.8910 Y3.4699 F350.00
G01 X128.8871 Y3.4991 F350.00
G01 X128.8727 Y3.5962 F350.00
G01 X128.8680 Y3.6252 F350.00
G01 X128.8626 Y3.6542 F350.00
G01 X128.8565 Y3.6830 F350.00
G01 X128.8497 Y3.7117 F350.00
G01 X128.8258 Y3.8069 F350.00
G01 X128.8183 Y3.8353 F350.00
G01 X128.8101 Y3.8636 F350.00
G01 X128.8012 Y3.8917 F350.00
G01 X128.7917 Y3.9196 F350.00
G01 X128.7586 Y4.0120 F350.00
G01 X128.7483 Y4.0396 F350.00
G01 X128.7374 Y4.0669 F350.00
G01 X128.7258 Y4.0940 F350.00
G01 X128.7135 Y4.1207 F350.00
G01 X128.6716 Y4.2095 F350.00
G01 X128.6587 Y4.2359 F350.00
G01 X128.6451 Y4.2621 F350.00
G01 X128.6309 Y4.2879 F350.00
G01 X128.6161 Y4.3133 F350.00
G01 X128.5656 Y4.3975 F350.00
G01 X128.5502 Y4.4226 F350.00
G01 X128.5341 Y4.4473 F350.00
G01 X128.5174 Y4.4715 F350.00
G01 X128.5002 Y4.4954 F350.00
G01 X128.4417 Y4.5742 F350.00
G01 X128.4239 Y4.5977 F350.00
G01 X128.4055 Y4.6207 F350.00
G01 X128.3865 Y4.6432 F350.00
G01 X128.3670 Y4.6653 F350.00
G01 X128.3011 Y4.7380 F350.00
G01 X128.2811 Y4.7596 F350.00
G01 X128.2605 Y4.7806 F350.00
G01 X128.2394 Y4.8012 F350.00
G01 X128.2178 Y4.8212 F350.00
G01 X128.1451 Y4.8872 F350.00
G01 X128.1231 Y4.9067 F350.00
G01 X128.1005 Y4.9256 F350.00
G01 X128.0775 Y4.9440 F350.00
G01 X128.0541 Y4.9619 F350.00
G01 X127.9753 Y5.0203 F350.00
G01 X127.9514 Y5.0376 F350.00
G01 X127.9271 Y5.0542 F350.00
G01 X127.9024 Y5.0703 F350.00
G01 X127.8774 Y5.0857 F350.00
G01 X127.7932 Y5.1362 F350.00
G01 X127.7677 Y5.1510 F350.00
G01 X127.7419 Y5.1652 F350.00
G01 X127.7158 Y5.1788 F350.00
G01 X127.6893 Y5.1917 F350.00
G01 X127.6006 Y5.2337 F350.00
G01 X127.5738 Y5.2459 F350.00
G01 X127.5468 Y5.2575 F350.00
G01 X127.5194 Y5.2685 F350.00
G01 X127.4918 Y5.2787 F350.00
G01 X127.3994 Y5.3118 F350.00
G01 X127.3716 Y5.3214 F350.00
G01 X127.3435 Y5.3303 F350.00
G01 X127.3152 Y5.3385 F350.00
G01 X127.2867 Y5.3460 F350.00
G01 X127.1915 Y5.3698 F350.00
G01 X127.1629 Y5.3766 F350.00
G01 X127.1341 Y5.3827 F350.00
G01 X127.1051 Y5.3881 F350.00
G01 X127.0760 Y5.3928 F350.00
G01 X126.9790 Y5.4072 F350.00
G01 X126.9498 Y5.4112 F350.00
G01 X126.9205 Y5.4144 F350.00
G01 X126.8912 Y5.4169 F350.00
G01 X126.8618 Y5.4187 F350.00
G01 X126.7637 Y5.4236 F350.00
G01 X126.7343 Y5.4246 F350.00
G01 X126.7049 Y5.4250 F350.00
G01 X126.6754 Y5.4246 F350.00
G01 X126.6460 Y5.4236 F350.00
G01 X126.5480 Y5.4187 F350.00
G01 X126.5186 Y5.4169 F350.00
G01 X126.4892 Y5.4144 F350.00
G01 X126.4600 Y5.4112 F350.00
G01 X126.4308 Y5.4072 F350.00
G01 X126.3337 Y5.3928 F350.00
G01 X126.3046 Y5.3881 F350.00
G01 X126.2757 Y5.3827 F350.00
G01 X126.2468 Y5.3766 F350.00
G01 X126.2182 Y5.3698 F350.00
G01 X126.1230 Y5.3460 F350.00
G01 X126.0945 Y5.3385 F350.00
G01 X126.0662 Y5.3303 F350.00
G01 X126.0382 Y5.3214 F350.00
G01 X126.0103 Y5.3118 F350.00
G01 X125.9179 Y5.2787 F350.00
G01 X125.8903 Y5.2685 F350.00
G01 X125.8630 Y5.2575 F350.00
G01 X125.8359 Y5.2459 F350.00
G01 X125.8091 Y5.2337 F350.00
G01 X125.7204 Y5.1917 F350.00
G01 X125.6939 Y5.1788 F350.00
G01 X125.6678 Y5.1652 F350.00
G01 X125.6420 Y5.1510 F350.00
G01 X125.6165 Y5.1362 F350.00
G01 X125.5324 Y5.0857 F350.00
G01 X125.5073 Y5.0703 F350.00
G01 X125.4826 Y5.0542 F350.00
G01 X125.4583 Y5.0376 F350.00
G01 X125.4345 Y5.0203 F350.00
G01 X125.3556 Y4.9619 F350.00
G01 X125.3322 Y4.9440 F350.00
G01 X125.3092 Y4.9256 F350.00
G01 X125.2867 Y4.9067 F350.00
G01 X125.2646 Y4.8872 F350.00
G01 X125.1919 Y4.8212 F350.00
G01 X125.1703 Y4.8012 F350.00
G01 X125.1492 Y4.7806 F350.00
G01 X125.1287 Y4.7596 F350.00
G01 X125.1086 Y4.7380 F350.00
G01 X125.0427 Y4.6653 F350.00
G01 X125.0232 Y4.6432 F350.00
G01 X125.0042 Y4.6207 F350.00
G01 X124.9858 Y4.5977 F350.00
G01 X124.9680 Y4.5742 F350.00
G01 X124.9095 Y4.4954 F350.00
G01 X124.8923 Y4.4715 F350.00
G01 X124.8756 Y4.4473 F350.00
G01 X124.8596 Y4.4226 F350.00
G01 X124.8441 Y4.3975 F350.00
G01 X124.7937 Y4.3133 F350.00
G01 X124.7788 Y4.2879 F350.00
G01 X124.7646 Y4.2621 F350.00
G01 X124.7511 Y4.2359 F350.00
G01 X124.7382 Y4.2095 F350.00
G01 X124.6962 Y4.1207 F350.00
G01 X124.6839 Y4.0940 F350.00
G01 X124.6723 Y4.0669 F350.00
G01 X124.6614 Y4.0396 F350.00
G01 X124.6511 Y4.0120 F350.00
G01 X124.6181 Y3.9196 F350.00
G01 X124.6085 Y3.8917 F350.00
G01 X124.5996 Y3.8636 F350.00
G01 X124.5914 Y3.8353 F350.00
G01 X124.5839 Y3.8069 F350.00
G01 X124.5600 Y3.7117 F350.00
G01 X124.5532 Y3.6830 F350.00
G01 X124.5471 Y3.6542 F350.00
G01 X124.5417 Y3.6252 F350.00
G01 X124.5371 Y3.5962 F350.00
G01 X124.5227 Y3.4991 F350.00
G01 X124.5187 Y3.4699 F350.00
G01 X124.5155 Y3.4406 F350.00
G01 X124.5129 Y3.4113 F350.00
G01 X124.5111 Y3.3819 F350.00
G01 X124.5063 Y3.2839 F350.00
G01 X124.5052 Y3.2544 F350.00
G01 X124.5049 Y3.2250 F350.00
G01 X124.5049 Y1.9750 F350.00
G01 X124.5052 Y1.9456 F350.00
G01 X124.5063 Y1.9161 F350.00
G01 X124.5111 Y1.8181 F350.00
G01 X124.5129 Y1.7887 F350.00
G01 X124.5155 Y1.7594 F350.00
G01 X124.5187 Y1.7301 F350.00
G01 X124.5227 Y1.7009 F350.00
G01 X124.5371 Y1.6038 F350.00
G01 X124.5417 Y1.5748 F350.00
G01 X124.5471 Y1.5458 F350.00
G01 X124.5532 Y1.5170 F350.00
G01 X124.5600 Y1.4883 F350.00
G01 X124.5839 Y1.3931 F350.00
G01 X124.5914 Y1.3647 F350.00
G01 X124.5996 Y1.3364 F350.00
G01 X124.6085 Y1.3083 F350.00
G01 X124.6181 Y1.2804 F350.00
G01 X124.6511 Y1.1880 F350.00
G01 X124.6614 Y1.1604 F350.00
G01 X124.6723 Y1.1331 F350.00
G01 X124.6839 Y1.1060 F350.00
G01 X124.6962 Y1.0793 F350.00
G01 X124.7382 Y0.9905 F350.00
G01 X124.7511 Y0.9641 F350.00
G01 X124.7646 Y0.9379 F350.00
G01 X124.7788 Y0.9121 F350.00
G01 X124.7937 Y0.8867 F350.00
G01 X124.8441 Y0.8025 F350.00
G01 X124.8596 Y0.7774 F350.00
G01 X124.8756 Y0.7527 F350.00
G01 X124.8923 Y0.7285 F350.00
G01 X124.9095 Y0.7046 F350.00
G01 X124.9680 Y0.6258 F350.00
G01 X124.9858 Y0.6023 F350.00
G01 X125.0042 Y0.5793 F350.00
G01 X125.0232 Y0.5568 F350.00
G01 X125.0427 Y0.5347 F350.00
G01 X125.1086 Y0.4620 F350.00
G01 X125.1287 Y0.4404 F350.00
G01 X125.1492 Y0.4194 F350.00
G01 X125.1703 Y0.3988 F350.00
G01 X125.1919 Y0.3788 F350.00
G01 X125.2646 Y0.3128 F350.00
G01 X125.2867 Y0.2933 F350.00
G01 X125.3092 Y0.2744 F350.00
G01 X125.3322 Y0.2560 F350.00
G01 X125.3556 Y0.2381 F350.00
G01 X125.4345 Y0.1797 F350.00
G01 X125.4583 Y0.1624 F350.00
G01 X125.4826 Y0.1458 F350.00
G01 X125.5073 Y0.1297 F350.00
G01 X125.5324 Y0.1143 F350.00
G01 X125.6165 Y0.0638 F350.00
G01 X125.6420 Y0.0490 F350.00
G01 X125.6678 Y0.0348 F350.00
G01 X125.6939 Y0.0212 F350.00
G01 X125.7204 Y0.0083 F350.00
G01 X125.8091 Y-0.0337 F350.00
G01 X125.8359 Y-0.0459 F350.00
G01 X125.8630 Y-0.0575 F350.00
G01 X125.8903 Y-0.0685 F350.00
G01 X125.9179 Y-0.0787 F350.00
G01 X126.0103 Y-0.1118 F350.00
G01 X126.0382 Y-0.1214 F350.00
G01 X126.0662 Y-0.1303 F350.00
G01 X126.0945 Y-0.1385 F350.00
G01 X126.1230 Y-0.1460 F350.00
G01 X126.2182 Y-0.1698 F350.00
G01 X126.2468 Y-0.1766 F350.00
G01 X126.2757 Y-0.1827 F350.00
G01 X126.3046 Y-0.1881 F350.00
G01 X126.3337 Y-0.1928 F350.00
G01 X126.4308 Y-0.2072 F350.00
G01 X126.4600 Y-0.2112 F350.00
G01 X126.4892 Y-0.2144 F350.00
G01 X126.5186 Y-0.2169 F350.00
G01 X126.5480 Y-0.2187 F350.00
G01 X126.6460 Y-0.2236 F350.00
G01 X126.6754 Y-0.2246 F350.00
G01 X126.7049 Y-0.2250 F350.00
G01 X126.7343 Y-0.2246 F350.00
G01 X126.7637 Y-0.2236 F350.00
G01 X126.8618 Y-0.2187 F350.00
G01 X126.8912 Y-0.2169 F350.00
G01 X126.9205 Y-0.2144 F350.00
G01 X126.9498 Y-0.2112 F350.00
G01 X126.9790 Y-0.2072 F350.00
G01 X127.0760 Y-0.1928 F350.00
G01 X127.1051 Y-0.1881 F350.00
G01 X127.1341 Y-0.1827 F350.00
G01 X127.1629 Y-0.1766 F350.00
G01 X127.1915 Y-0.1698 F350.00
G01 X127.2867 Y-0.1460 F350.00
G01 X127.3152 Y-0.1385 F350.00
G01 X127.3435 Y-0.1303 F350.00
G01 X127.3716 Y-0.1214 F350.00
G01 X127.3994 Y-0.1118 F350.00
G01 X127.4918 Y-0.0787 F350.00
G01 X127.5194 Y-0.0685 F350.00
G01 X127.5468 Y-0.0575 F350.00
G01 X127.5738 Y-0.0459 F350.00
G01 X127.6006 Y-0.0337 F350.00
G01 X127.6893 Y0.0083 F350.00
G01 X127.7158 Y0.0212 F350.00
G01 X127.7419 Y0.0348 F350.00
G01 X127.7677 Y0.0490 F350.00
G01 X127.7932 Y0.0638 F350.00
G01 X127.8774 Y0.1143 F350.00
G01 X127.9024 Y0.1297 F350.00
G01 X127.9271 Y0.1458 F350.00
G01 X127.9514 Y0.1624 F350.00
G01 X127.9753 Y0.1797 F350.00
G01 X128.0541 Y0.2381 F350.00
G01 X128.0775 Y0.2560 F350.00
G01 X128.1005 Y0.2744 F350.00
G01 X128.1231 Y0.2933 F350.00
G01 X128.1451 Y0.3128 F350.00
G01 X128.2178 Y0.3788 F350.00
G01 X128.2394 Y0.3988 F350.00
G01 X128.2605 Y0.4194 F350.00
G01 X128.2811 Y0.4404 F350.00
G01 X128.3011 Y0.4620 F350.00
G01 X128.3670 Y0.5347 F350.00
G01 X128.3865 Y0.5568 F350.00
G01 X128.4055 Y0.5793 F350.00
G01 X128.4239 Y0.6023 F350.00
G01 X128.4417 Y0.6258 F350.00
G01 X128.5002 Y0.7046 F350.00
G01 X128.5174 Y0.7285 F350.00
G01 X128.5341 Y0.7527 F350.00
G01 X128.5502 Y0.7774 F350.00
G01 X128.5656 Y0.8025 F350.00
G01 X128.6161 Y0.8867 F350.00
G01 X128.6309 Y0.9121 F350.00
G01 X128.6451 Y0.9379 F350.00
G01 X128.6587 Y0.9641 F350.00
G01 X128.6716 Y0.9905 F350.00
G01 X128.7135 Y1.0793 F350.00
G01 X128.7258 Y1.1060 F350.00
G01 X128.7374 Y1.1331 F350.00
G01 X128.7483 Y1.1604 F350.00
G01 X128.7586 Y1.1880 F350.00
G01 X128.7917 Y1.2804 F350.00
G01 X128.8012 Y1.3083 F350.00
G01 X128.8101 Y1.3364 F350.00
G01 X128.8183 Y1.3647 F350.00
G01 X128.8258 Y1.3931 F350.00
G01 X128.8497 Y1.4883 F350.00
G01 X128.8565 Y1.5170 F350.00
G01 X128.8626 Y1.5458 F350.00
G01 X128.8680 Y1.5748 F350.00
G01 X128.8727 Y1.6038 F350.00
G01 X128.8871 Y1.7009 F350.00
G00 Z0.5000
G00 X128.6998 Y1.0503
G01 F250.00
G01 Z-0.0500
G01 F350.00
G01 X129.3465 Y1.0503 F350.00
G01 X127.9973 Y-0.5097 F350.00
G01 X43.7609 Y-0.5097 F350.00
G00 Z0.5000
G00 X43.5857 Y-2.0697
G01 F250.00
G01 Z-0.0500
G01 F350.00
G01 X93.4628 Y-2.0697 F350.00
G00 Z0.5000
G00 X84.6866 Y10.4103
G01 F250.00
G01 Z-0.0500
G01 F350.00
G01 X43.9311 Y10.4103 F350.00
G01 X43.9311 Y11.9703 F350.00
G01 X86.2466 Y11.9703 F350.00
G01 X87.8066 Y13.5303 F350.00
G01 X43.7414 Y13.5303 F350.00
G00 Z0.5000
G00 X42.2951 Y15.0903
G01 F250.00
G01 Z-0.0500
G01 F350.00
G01 X89.3666 Y15.0903 F350.00
G01 X90.9266 Y16.6503 F350.00
G01 X47.4198 Y16.6503 F350.00
G00 Z0.5000
G00 X47.5709 Y18.2103
G01 F250.00
G01 Z-0.0500
G01 F350.00
G01 X92.4866 Y18.2103 F350.00
G01 X94.0466 Y19.7703 F350.00
G01 X47.5462 Y19.7703 F350.00
G00 Z0.5000
G00 X38.5906 Y15.4166
G01 F250.00
G01 Z-0.0500
G01 F350.00
G01 X38.5906 Y14.6900 F350.00
G01 X38.5910 Y14.6606 F350.00
G01 X38.5945 Y14.5821 F350.00
G01 X38.5963 Y14.5527 F350.00
G01 X38.5988 Y14.5233 F350.00
G01 X38.6020 Y14.4941 F350.00
G01 X38.6060 Y14.4649 F350.00
G01 X38.6179 Y14.3873 F350.00
G01 X38.6233 Y14.3583 F350.00
G01 X38.6294 Y14.3295 F350.00
G01 X38.6481 Y14.2532 F350.00
G01 X38.6556 Y14.2247 F350.00
G01 X38.6638 Y14.1964 F350.00
G01 X38.6727 Y14.1684 F350.00
G01 X38.6823 Y14.1405 F350.00
G01 X38.7091 Y14.0667 F350.00
G01 X38.7200 Y14.0393 F350.00
G01 X38.7316 Y14.0123 F350.00
G01 X38.7649 Y13.9411 F350.00
G01 X38.7778 Y13.9147 F350.00
G01 X38.7914 Y13.8885 F350.00
G01 X38.8056 Y13.8627 F350.00
G01 X38.8456 Y13.7952 F350.00
G01 X38.8611 Y13.7701 F350.00
G01 X38.8772 Y13.7454 F350.00
G01 X38.8938 Y13.7211 F350.00
G01 X38.9111 Y13.6972 F350.00
G01 X38.9581 Y13.6344 F350.00
G01 X38.9765 Y13.6114 F350.00
G01 X38.9955 Y13.5888 F350.00
G01 X39.0150 Y13.5668 F350.00
G01 X39.0680 Y13.5088 F350.00
G01 X39.0886 Y13.4877 F350.00
G01 X40.5306 Y12.0457 F350.00
G01 X40.5306 Y9.3150 F350.00
G01 X40.5107 Y9.3428 F350.00
G01 X40.4814 Y9.3822 F350.00
G01 X40.4636 Y9.4056 F350.00
G01 X40.4452 Y9.4286 F350.00
G01 X40.4262 Y9.4512 F350.00
G01 X40.3737 Y9.5096 F350.00
G01 X40.3537 Y9.5312 F350.00
G01 X40.3331 Y9.5523 F350.00
G01 X36.9111 Y12.9743 F350.00
G01 X36.9111 Y15.4166 F350.00
G01 X36.9363 Y15.4065 F350.00
G01 X36.9639 Y15.3963 F350.00
G01 X37.0563 Y15.3632 F350.00
G01 X37.0842 Y15.3536 F350.00
G01 X37.1122 Y15.3447 F350.00
G01 X37.1405 Y15.3365 F350.00
G01 X37.1690 Y15.3290 F350.00
G01 X37.2642 Y15.3052 F350.00
G01 X37.2928 Y15.2984 F350.00
G01 X37.3217 Y15.2923 F350.00
G01 X37.3506 Y15.2869 F350.00
G01 X37.3797 Y15.2822 F350.00
G01 X37.4768 Y15.2678 F350.00
G01 X37.5060 Y15.2638 F350.00
G01 X37.5352 Y15.2606 F350.00
G01 X37.5646 Y15.2581 F350.00
G01 X37.5940 Y15.2563 F350.00
G01 X37.6920 Y15.2514 F350.00
G01 X37.7214 Y15.2504 F350.00
G01 X37.7509 Y15.2500 F350.00
G01 X37.7803 Y15.2504 F350.00
G01 X37.8097 Y15.2514 F350.00
G01 X37.9078 Y15.2563 F350.00
G01 X37.9372 Y15.2581 F350.00
G01 X37.9665 Y15.2606 F350.00
G01 X37.9958 Y15.2638 F350.00
G01 X38.0250 Y15.2678 F350.00
G01 X38.1220 Y15.2822 F350.00
G01 X38.1511 Y15.2869 F350.00
G01 X38.1801 Y15.2923 F350.00
G01 X38.2089 Y15.2984 F350.00
G01 X38.2375 Y15.3052 F350.00
G01 X38.3327 Y15.3290 F350.00
G01 X38.3612 Y15.3365 F350.00
G01 X38.3895 Y15.3447 F350.00
G01 X38.4176 Y15.3536 F350.00
G01 X38.4454 Y15.3632 F350.00
G01 X38.5378 Y15.3963 F350.00
G01 X38.5654 Y15.4065 F350.00
G01 X38.5906 Y15.4166 F350.00
G01 X38.5906 Y15.0903 F350.00
G01 X36.9111 Y15.0903 F350.00
G01 X36.9111 Y13.5303 F350.00
G01 X39.0481 Y13.5303 F350.00
G01 X37.9151 Y11.9703 F350.00
G01 X40.5306 Y11.9703 F350.00
G01 X40.5306 Y10.4103 F350.00
G01 X39.4751 Y10.4103 F350.00
G00 Z0.5000
G00 X36.2261 Y8.8503
G01 F250.00
G01 Z-0.0500
G01 F350.00
G01 X35.6309 Y8.8503 F350.00
G01 X35.6309 Y9.4455 F350.00
G01 X37.4306 Y7.6457 F350.00
G01 X37.4306 Y6.7548 F350.00
G01 X35.6309 Y8.5545 F350.00
G01 X35.6309 Y9.4455 F350.00
G01 X36.8951 Y7.2903 F350.00
G01 X37.4306 Y7.2903 F350.00
G00 Z0.5000
G00 X33.6461 Y5.7303
G01 F250.00
G01 Z-0.0500
G01 F350.00
G01 X30.9811 Y5.7303 F350.00
G01 X30.9811 Y6.9681 F350.00
G01 X30.9951 Y6.9467 F350.00
G01 X31.0117 Y6.9224 F350.00
G01 X31.0290 Y6.8986 F350.00
G01 X31.0683 Y6.8461 F350.00
G01 X31.0867 Y6.8231 F350.00
G01 X31.1057 Y6.8006 F350.00
G01 X31.1494 Y6.7518 F350.00
G01 X31.1694 Y6.7302 F350.00
G01 X31.1900 Y6.7092 F350.00
G01 X31.2111 Y6.6886 F350.00
G01 X31.2327 Y6.6685 F350.00
G01 X31.2815 Y6.6248 F350.00
G01 X31.3040 Y6.6058 F350.00
G01 X31.3270 Y6.5874 F350.00
G01 X31.3794 Y6.5481 F350.00
G01 X31.4033 Y6.5309 F350.00
G01 X31.4276 Y6.5142 F350.00
G01 X31.4523 Y6.4981 F350.00
G01 X31.5083 Y6.4641 F350.00
G01 X31.5337 Y6.4493 F350.00
G01 X31.5595 Y6.4351 F350.00
G01 X31.5857 Y6.4215 F350.00
G01 X31.6121 Y6.4086 F350.00
G01 X31.6715 Y6.3809 F350.00
G01 X31.6986 Y6.3693 F350.00
G01 X31.7259 Y6.3584 F350.00
G01 X31.7535 Y6.3481 F350.00
G01 X31.8154 Y6.3264 F350.00
G01 X31.8434 Y6.3175 F350.00
G01 X31.8717 Y6.3093 F350.00
G01 X31.9002 Y6.3018 F350.00
G01 X31.9639 Y6.2862 F350.00
G01 X31.9927 Y6.2801 F350.00
G01 X32.0216 Y6.2747 F350.00
G01 X32.0507 Y6.2701 F350.00
G01 X32.1156 Y6.2608 F350.00
G01 X32.1449 Y6.2575 F350.00
G01 X32.1742 Y6.2550 F350.00
G01 X32.2036 Y6.2532 F350.00
G01 X32.2691 Y6.2504 F350.00
G01 X32.2985 Y6.2500 F350.00
G01 X33.1263 Y6.2500 F350.00
G01 X34.7806 Y4.5957 F350.00
G01 X34.7806 Y2.8234 F350.00
G01 X34.7554 Y2.8335 F350.00
G01 X34.7278 Y2.8437 F350.00
G01 X34.6354 Y2.8768 F350.00
G01 X34.6076 Y2.8864 F350.00
G01 X34.5795 Y2.8953 F350.00
G01 X34.5512 Y2.9035 F350.00
G01 X34.5227 Y2.9110 F350.00
G01 X34.4275 Y2.9348 F350.00
G01 X34.3989 Y2.9416 F350.00
G01 X34.3701 Y2.9477 F350.00
G01 X34.3411 Y2.9531 F350.00
G01 X34.3120 Y2.9578 F350.00
G01 X34.2150 Y2.9722 F350.00
G01 X34.1858 Y2.9762 F350.00
G01 X34.1565 Y2.9794 F350.00
G01 X34.1272 Y2.9819 F350.00
G01 X34.0978 Y2.9837 F350.00
G01 X33.9997 Y2.9886 F350.00
G01 X33.9703 Y2.9896 F350.00
G01 X33.9409 Y2.9900 F350.00
G01 X33.9114 Y2.9896 F350.00
G01 X33.8820 Y2.9886 F350.00
G01 X33.7840 Y2.9837 F350.00
G01 X33.7546 Y2.9819 F350.00
G01 X33.7252 Y2.9794 F350.00
G01 X33.6960 Y2.9762 F350.00
G01 X33.6668 Y2.9722 F350.00
G01 X33.5697 Y2.9578 F350.00
G01 X33.5406 Y2.9531 F350.00
G01 X33.5117 Y2.9477 F350.00
G01 X33.4828 Y2.9416 F350.00
G01 X33.4542 Y2.9348 F350.00
G01 X33.3590 Y2.9110 F350.00
G01 X33.3305 Y2.9035 F350.00
G01 X33.3022 Y2.8953 F350.00
G01 X33.2742 Y2.8864 F350.00
G01 X33.2463 Y2.8768 F350.00
G01 X33.1539 Y2.8437 F350.00
G01 X33.1263 Y2.8335 F350.00
G01 X33.0990 Y2.8225 F350.00
G01 X33.0719 Y2.8109 F350.00
G01 X33.0451 Y2.7987 F350.00
G01 X32.9564 Y2.7567 F350.00
G01 X32.9299 Y2.7438 F350.00
G01 X32.9038 Y2.7302 F350.00
G01 X32.8780 Y2.7160 F350.00
G01 X32.8525 Y2.7012 F350.00
G01 X32.7684 Y2.6507 F350.00
G01 X32.7433 Y2.6353 F350.00
G01 X32.7186 Y2.6192 F350.00
G01 X32.6943 Y2.6026 F350.00
G01 X32.6709 Y2.5856 F350.00
G01 X32.6474 Y2.6026 F350.00
G01 X32.6231 Y2.6192 F350.00
G01 X32.5984 Y2.6353 F350.00
G01 X32.5734 Y2.6507 F350.00
G01 X32.4892 Y2.7012 F350.00
G01 X32.4637 Y2.7160 F350.00
G01 X32.4379 Y2.7302 F350.00
G01 X32.4118 Y2.7438 F350.00
G01 X32.3853 Y2.7567 F350.00
G01 X32.2966 Y2.7987 F350.00
G01 X32.2698 Y2.8109 F350.00
G01 X32.2428 Y2.8225 F350.00
G01 X32.2154 Y2.8335 F350.00
G01 X32.1878 Y2.8437 F350.00
G01 X32.0954 Y2.8768 F350.00
G01 X32.0676 Y2.8864 F350.00
G01 X32.0395 Y2.8953 F350.00
G01 X32.0112 Y2.9035 F350.00
G01 X31.9827 Y2.9110 F350.00
G01 X31.8875 Y2.9348 F350.00
G01 X31.8589 Y2.9416 F350.00
G01 X31.8301 Y2.9477 F350.00
G01 X31.8011 Y2.9531 F350.00
G01 X31.7720 Y2.9578 F350.00
G01 X31.6750 Y2.9722 F350.00
G01 X31.6458 Y2.9762 F350.00
G01 X31.6165 Y2.9794 F350.00
G01 X31.5872 Y2.9819 F350.00
G01 X31.5578 Y2.9837 F350.00
G01 X31.4597 Y2.9886 F350.00
G01 X31.4303 Y2.9896 F350.00
G01 X31.4009 Y2.9900 F350.00
G01 X31.3714 Y2.9896 F350.00
G01 X31.3420 Y2.9886 F350.00
G01 X31.2440 Y2.9837 F350.00
G01 X31.2146 Y2.9819 F350.00
G01 X31.1852 Y2.9794 F350.00
G01 X31.1560 Y2.9762 F350.00
G01 X31.1268 Y2.9722 F350.00
G01 X31.0297 Y2.9578 F350.00
G01 X31.0006 Y2.9531 F350.00
G01 X30.9811 Y2.9495 F350.00
G01 X30.9811 Y6.9681 F350.00
G01 X30.9811 Y4.1703 F350.00
G01 X34.7806 Y4.1703 F350.00
G00 Z0.5000
G00 X32.7055 Y2.6103
G01 F250.00
G01 Z-0.0500
G01 F350.00
G01 X32.6362 Y2.6103 F350.00
G00 Z0.5000
G00 X29.2009 Y-0.5097
G01 F250.00
G01 Z-0.0500
G01 F350.00
G01 X23.8637 Y-0.5097 F350.00
G01 X26.9233 Y-2.0697 F350.00
G01 X29.3760 Y-2.0697 F350.00
G01 X29.9829 Y-3.6297 F350.00
G01 X51.7597 Y-3.6297 F350.00
G01 X31.3567 Y-4.0100 F350.00
G01 X31.1262 Y-3.9987 F350.00
G01 X30.8542 Y-3.9583 F350.00
G01 X30.5874 Y-3.8915 F350.00
G01 X30.3285 Y-3.7989 F350.00
G01 X30.1357 Y-3.7077 F350.00
G01 X0.8904 Y11.2038 F350.00
G01 X0.7407 Y11.2936 F350.00
G01 X0.5789 Y11.4136 F350.00
G01 X0.4624 Y11.5191 F350.00
G01 X-2.2900 Y14.2716 F350.00
G01 X-2.3956 Y14.3880 F350.00
G01 X-2.5156 Y14.5498 F350.00
G01 X-2.6191 Y14.7226 F350.00
G01 X-2.7052 Y14.9046 F350.00
G01 X-2.7731 Y15.0942 F350.00
G01 X-2.8220 Y15.2896 F350.00
G01 X-2.8516 Y15.4888 F350.00
G01 X-2.8593 Y15.6458 F350.00
G01 X-2.8593 Y43.1442 F350.00
G01 X-2.8516 Y43.3012 F350.00
G01 X-2.8220 Y43.5004 F350.00
G01 X-2.7731 Y43.6958 F350.00
G01 X-2.7196 Y43.8452 F350.00
G01 X-1.0504 Y47.8551 F350.00
G01 X-0.9314 Y48.1066 F350.00
G01 X-0.7648 Y48.3846 F350.00
G01 X-0.6069 Y48.5975 F350.00
G01 X16.7208 Y70.4325 F350.00
G01 X16.8528 Y70.5781 F350.00
G01 X17.0202 Y70.7298 F350.00
G01 X17.2017 Y70.8644 F350.00
G01 X17.3955 Y70.9806 F350.00
G01 X17.5998 Y71.0772 F350.00
G01 X17.8125 Y71.1533 F350.00
G01 X18.0317 Y71.2082 F350.00
G01 X18.2552 Y71.2413 F350.00
G01 X18.4367 Y71.2503 F350.00
G01 X67.8428 Y71.2503 F350.00
G01 X67.9405 Y71.2455 F350.00
G01 X70.2628 Y71.1196 F350.00
G01 X85.9034 Y70.0891 F350.00
G01 X86.1120 Y70.0582 F350.00
G01 X86.3312 Y70.0033 F350.00
G01 X86.5439 Y69.9272 F350.00
G01 X86.7482 Y69.8306 F350.00
G01 X86.9392 Y69.7161 F350.00
G01 X128.8782 Y38.8506 F350.00
G01 X129.0091 Y38.7535 F350.00
G01 X129.1928 Y38.5870 F350.00
G01 X129.3594 Y38.4032 F350.00
G01 X129.5071 Y38.2040 F350.00
G01 X129.6346 Y37.9913 F350.00
G01 X129.7407 Y37.7671 F350.00
G01 X129.8242 Y37.5336 F350.00
G01 X129.8845 Y37.2930 F350.00
G01 X129.9209 Y37.0477 F350.00
G01 X129.9309 Y36.8442 F350.00
G01 X129.9309 Y34.7883 F350.00
G01 X129.5043 Y1.9191 F350.00
G01 X129.4935 Y1.7003 F350.00
G01 X129.4532 Y1.4283 F350.00
G01 X129.3864 Y1.1616 F350.00
G01 X129.2937 Y0.9027 F350.00
G01 X129.1762 Y0.6541 F350.00
G01 X129.0348 Y0.4182 F350.00
G01 X128.8710 Y0.1973 F350.00
G01 X128.6863 Y-0.0064 F350.00
G01 X128.4825 Y-0.1911 F350.00
G01 X128.2617 Y-0.3549 F350.00
G01 X128.0258 Y-0.4963 F350.00
G01 X127.7772 Y-0.6139 F350.00
G01 X127.5183 Y-0.7065 F350.00
G01 X127.2515 Y-0.7733 F350.00
G01 X126.9795 Y-0.8137 F350.00
G01 X126.7827 Y-0.8233 F350.00
G01 X41.5945 Y-4.0100 F350.00
G01 X31.3567 Y-4.0100 F350.00
G00 Z0.5000
G00 X27.8146 Y1.0503
G01 F250.00
G01 Z-0.0500
G01 F350.00
G01 X20.8042 Y1.0503 F350.00
G01 X21.6923 Y4.1703 F350.00
G01 X27.5806 Y4.1703 F350.00
G01 X27.5806 Y2.6103 F350.00
G01 X17.7446 Y2.6103 F350.00
G01 X18.1901 Y4.1703 F350.00
G01 X14.6851 Y4.1703 F350.00
G01 X17.4912 Y5.7303 F350.00
G01 X11.6255 Y5.7303 F350.00
G01 X8.5659 Y7.2903 F350.00
G01 X17.4923 Y7.2903 F350.00
G00 Z0.5000
G00 X24.4018 Y11.9703
G01 F250.00
G01 Z-0.0500
G01 F350.00
G01 X27.5806 Y11.9703 F350.00
G01 X27.1461 Y13.5303 F350.00
G01 X25.9619 Y13.5303 F350.00
G00 Z0.5000
G00 X30.3951 Y15.0903
G01 F250.00
G01 Z-0.0500
G01 F350.00
G01 X30.9706 Y15.0903 F350.00
G01 X30.9706 Y15.4166 F350.00
G01 X30.9706 Y13.9875 F350.00
G01 X30.9657 Y14.0251 F350.00
G01 X30.9538 Y14.1027 F350.00
G01 X30.9484 Y14.1317 F350.00
G01 X30.9423 Y14.1605 F350.00
G01 X30.9236 Y14.2368 F350.00
G01 X30.9161 Y14.2653 F350.00
G01 X30.9079 Y14.2936 F350.00
G01 X30.8990 Y14.3216 F350.00
G01 X30.8894 Y14.3495 F350.00
G01 X30.8626 Y14.4233 F350.00
G01 X30.8517 Y14.4507 F350.00
G01 X30.8401 Y14.4777 F350.00
G01 X30.8068 Y14.5489 F350.00
G01 X30.7939 Y14.5753 F350.00
G01 X30.7803 Y14.6015 F350.00
G01 X30.7661 Y14.6273 F350.00
G01 X30.7513 Y14.6527 F350.00
G01 X30.7106 Y14.7199 F350.00
G01 X30.6946 Y14.7446 F350.00
G01 X30.6779 Y14.7689 F350.00
G01 X30.6607 Y14.7928 F350.00
G01 X30.6136 Y14.8556 F350.00
G01 X30.5952 Y14.8786 F350.00
G01 X30.5762 Y14.9012 F350.00
G01 X30.5237 Y14.9596 F350.00
G01 X30.5037 Y14.9812 F350.00
G01 X30.4831 Y15.0023 F350.00
G01 X30.2319 Y15.2535 F350.00
G01 X30.3172 Y15.2581 F350.00
G01 X30.3465 Y15.2606 F350.00
G01 X30.3758 Y15.2638 F350.00
G01 X30.4050 Y15.2678 F350.00
G01 X30.5020 Y15.2822 F350.00
G01 X30.5311 Y15.2869 F350.00
G01 X30.5601 Y15.2923 F350.00
G01 X30.5889 Y15.2984 F350.00
G01 X30.6175 Y15.3052 F350.00
G01 X30.7127 Y15.3290 F350.00
G01 X30.7412 Y15.3365 F350.00
G01 X30.7695 Y15.3447 F350.00
G01 X30.7976 Y15.3536 F350.00
G01 X30.8254 Y15.3632 F350.00
G01 X30.9178 Y15.3963 F350.00
G01 X30.9454 Y15.4065 F350.00
G01 X30.9706 Y15.4166 F350.00
G00 Z0.5000
G00 X31.2708 Y21.3303
G01 F250.00
G01 Z-0.0500
G01 F350.00
G01 X31.5309 Y21.3303 F350.00
G01 X33.5136 Y22.8903 F350.00
G01 X29.5361 Y22.8903 F350.00
G01 X28.9909 Y21.3303 F350.00
G01 X28.7308 Y21.3303 F350.00
G01 X31.0961 Y24.4503 F350.00
G01 X34.8040 Y24.4503 F350.00
G01 X32.6561 Y26.0103 F350.00
G01 X75.8661 Y26.0103 F350.00
G01 X74.3061 Y27.5703 F350.00
G01 X34.2161 Y27.5703 F350.00
G01 X35.7761 Y29.1303 F350.00
G01 X72.7461 Y29.1303 F350.00
G01 X71.1861 Y30.6903 F350.00
G01 X37.3361 Y30.6903 F350.00
G01 X38.8961 Y32.2503 F350.00
G01 X69.6261 Y32.2503 F350.00
G01 X68.0661 Y33.8103 F350.00
G01 X40.4561 Y33.8103 F350.00
G01 X42.0161 Y35.3703 F350.00
G01 X57.2819 Y35.3703 F350.00
G00 Z0.5000
G00 X57.2809 Y36.9303
G01 F250.00
G01 Z-0.0500
G01 F350.00
G01 X48.7323 Y36.9303 F350.00
G00 Z0.5000
G00 X49.3809 Y38.4903
G01 F250.00
G01 Z-0.0500
G01 F350.00
G01 X57.7491 Y38.4903 F350.00
G00 Z0.5000
G00 X57.5559 Y40.0503
G01 F250.00
G01 Z-0.0500
G01 F350.00
G01 X49.1498 Y40.0503 F350.00
G00 Z0.5000
G00 X49.3022 Y41.6103
G01 F250.00
G01 Z-0.0500
G01 F350.00
G01 X57.9253 Y41.6103 F350.00
G00 Z0.5000
G00 X62.1809 Y36.9303
G01 F250.00
G01 Z-0.0500
G01 F350.00
G01 X66.7806 Y36.9303 F350.00
G00 Z0.5000
G00 X66.8364 Y35.3703
G01 F250.00
G01 Z-0.0500
G01 F350.00
G01 X62.1798 Y35.3703 F350.00
G00 Z0.5000
G00 X66.6664 Y41.6103
G01 F250.00
G01 Z-0.0500
G01 F350.00
G01 X66.7806 Y41.6103 F350.00
G00 Z0.5000
G00 X67.2024 Y43.1703
G01 F250.00
G01 Z-0.0500
G01 F350.00
G01 X49.3441 Y43.1703 F350.00
G00 Z0.5000
G00 X49.0489 Y44.7303
G01 F250.00
G01 Z-0.0500
G01 F350.00
G01 X68.7566 Y44.7303 F350.00
G01 X70.3166 Y46.2903 F350.00
G01 X49.3732 Y46.2903 F350.00
G00 Z0.5000
G00 X43.1557 Y46.2903
G01 F250.00
G01 Z-0.0500
G01 F350.00
G01 X41.6810 Y46.2903 F350.00
G01 X41.6810 Y44.7303 F350.00
G01 X43.1557 Y44.7303 F350.00
G01 X43.1557 Y43.1703 F350.00
G01 X41.6810 Y43.1703 F350.00
G01 X41.6810 Y41.6103 F350.00
G01 X43.1557 Y41.6103 F350.00
G01 X42.5945 Y40.0503 F350.00
G01 X41.6810 Y40.0503 F350.00
G01 X41.6810 Y39.1367 F350.00
G01 X41.6810 Y46.5500 F350.00
G01 X41.6806 Y46.5794 F350.00
G01 X41.6795 Y46.6089 F350.00
G01 X41.6765 Y46.6628 F350.00
G01 X41.6740 Y46.6921 F350.00
G01 X41.6708 Y46.7214 F350.00
G01 X41.6632 Y46.7749 F350.00
G01 X41.6585 Y46.8040 F350.00
G01 X41.6531 Y46.8329 F350.00
G01 X41.6470 Y46.8617 F350.00
G01 X41.6343 Y46.9142 F350.00
G01 X41.6267 Y46.9427 F350.00
G01 X41.6185 Y46.9709 F350.00
G01 X41.6096 Y46.9990 F350.00
G01 X41.5918 Y47.0500 F350.00
G01 X41.5815 Y47.0776 F350.00
G01 X41.5706 Y47.1049 F350.00
G01 X41.5590 Y47.1320 F350.00
G01 X41.5362 Y47.1810 F350.00
G01 X41.5233 Y47.2074 F350.00
G01 X41.5098 Y47.2336 F350.00
G01 X41.4956 Y47.2594 F350.00
G01 X41.4681 Y47.3059 F350.00
G01 X41.4527 Y47.3310 F350.00
G01 X41.4366 Y47.3556 F350.00
G01 X41.4199 Y47.3799 F350.00
G01 X41.3881 Y47.4235 F350.00
G01 X41.3702 Y47.4470 F350.00
G01 X41.3518 Y47.4699 F350.00
G01 X41.3329 Y47.4925 F350.00
G01 X41.2969 Y47.5327 F350.00
G01 X41.2768 Y47.5543 F350.00
G01 X41.2563 Y47.5754 F350.00
G01 X37.8902 Y50.9414 F350.00
G01 X37.9254 Y50.9738 F350.00
G01 X37.9465 Y50.9944 F350.00
G01 X37.9671 Y51.0154 F350.00
G01 X37.9871 Y51.0370 F350.00
G01 X38.0530 Y51.1097 F350.00
G01 X38.0725 Y51.1318 F350.00
G01 X38.0915 Y51.1543 F350.00
G01 X38.1099 Y51.1773 F350.00
G01 X38.1277 Y51.2008 F350.00
G01 X38.1862 Y51.2796 F350.00
G01 X38.2034 Y51.3035 F350.00
G01 X38.2201 Y51.3277 F350.00
G01 X38.2362 Y51.3524 F350.00
G01 X38.2516 Y51.3775 F350.00
G01 X38.3021 Y51.4617 F350.00
G01 X38.3169 Y51.4871 F350.00
G01 X38.3311 Y51.5129 F350.00
G01 X38.3447 Y51.5391 F350.00
G01 X38.3576 Y51.5655 F350.00
G01 X38.3995 Y51.6543 F350.00
G01 X38.4118 Y51.6810 F350.00
G01 X38.4234 Y51.7081 F350.00
G01 X38.4343 Y51.7354 F350.00
G01 X38.4446 Y51.7630 F350.00
G01 X38.4777 Y51.8554 F350.00
G01 X38.4872 Y51.8833 F350.00
G01 X38.4961 Y51.9114 F350.00
G01 X38.5043 Y51.9397 F350.00
G01 X38.5118 Y51.9681 F350.00
G01 X38.5357 Y52.0633 F350.00
G01 X38.5425 Y52.0920 F350.00
G01 X38.5486 Y52.1208 F350.00
G01 X38.5540 Y52.1498 F350.00
G01 X38.5587 Y52.1788 F350.00
G01 X38.5731 Y52.2759 F350.00
G01 X38.5770 Y52.3051 F350.00
G01 X38.5803 Y52.3344 F350.00
G01 X38.5828 Y52.3637 F350.00
G01 X38.5846 Y52.3931 F350.00
G01 X38.5894 Y52.4911 F350.00
G01 X38.5905 Y52.5206 F350.00
G01 X38.5909 Y52.5500 F350.00
G01 X38.5905 Y52.5794 F350.00
G01 X38.5894 Y52.6089 F350.00
G01 X38.5846 Y52.7069 F350.00
G01 X38.5828 Y52.7363 F350.00
G01 X38.5803 Y52.7656 F350.00
G01 X38.5770 Y52.7949 F350.00
G01 X38.5731 Y52.8241 F350.00
G01 X38.5587 Y52.9212 F350.00
G01 X38.5540 Y52.9502 F350.00
G01 X38.5486 Y52.9792 F350.00
G01 X38.5425 Y53.0080 F350.00
G01 X38.5357 Y53.0367 F350.00
G01 X38.5118 Y53.1319 F350.00
G01 X38.5043 Y53.1603 F350.00
G01 X38.4961 Y53.1886 F350.00
G01 X38.4872 Y53.2167 F350.00
G01 X38.4777 Y53.2446 F350.00
G01 X38.4446 Y53.3370 F350.00
G01 X38.4343 Y53.3646 F350.00
G01 X38.4234 Y53.3919 F350.00
G01 X38.4118 Y53.4190 F350.00
G01 X38.3995 Y53.4457 F350.00
G01 X38.3576 Y53.5345 F350.00
G01 X38.3447 Y53.5609 F350.00
G01 X38.3311 Y53.5871 F350.00
G01 X38.3169 Y53.6129 F350.00
G01 X38.3021 Y53.6383 F350.00
G01 X38.2420 Y53.7381 F350.00
G01 X43.1557 Y48.8243 F350.00
G01 X43.1557 Y40.6114 F350.00
G01 X41.6810 Y39.1367 F350.00
G00 Z0.5000
G00 X43.5761 Y36.9303
G01 F250.00
G01 Z-0.0500
G01 F350.00
G01 X45.6294 Y36.9303 F350.00
G00 Z0.5000
G00 X38.7807 Y40.0503
G01 F250.00
G01 Z-0.0500
G01 F350.00
G01 X36.2052 Y40.0503 F350.00
G01 X36.2052 Y41.6103 F350.00
G01 X38.7807 Y41.6103 F350.00
G01 X38.7807 Y43.1703 F350.00
G01 X36.2052 Y43.1703 F350.00
G01 X36.2052 Y44.7303 F350.00
G01 X38.7807 Y44.7303 F350.00
G01 X38.4389 Y46.2903 F350.00
G01 X36.2052 Y46.2903 F350.00
G01 X36.2052 Y47.8503 F350.00
G01 X36.8768 Y47.8503 F350.00
G01 X36.2052 Y48.5210 F350.00
G01 X38.7807 Y45.9489 F350.00
G01 X38.7807 Y39.1007 F350.00
G01 X36.1965 Y36.5164 F350.00
G01 X36.1982 Y36.5321 F350.00
G01 X36.2007 Y36.5614 F350.00
G01 X36.2025 Y36.5908 F350.00
G01 X36.2048 Y36.6448 F350.00
G01 X36.2052 Y36.6742 F350.00
G01 X36.2052 Y48.5210 F350.00
G00 Z0.5000
G00 X33.3049 Y47.8503
G01 F250.00
G01 Z-0.0500
G01 F350.00
G01 X29.0969 Y47.8503 F350.00
G00 Z0.5000
G00 X29.4183 Y46.2903
G01 F250.00
G01 Z-0.0500
G01 F350.00
G01 X33.3049 Y46.2903 F350.00
G01 X33.3049 Y44.7303 F350.00
G01 X28.7231 Y44.7303 F350.00
G00 Z0.5000
G00 X28.4752 Y41.6103
G01 F250.00
G01 Z-0.0500
G01 F350.00
G01 X33.3049 Y41.6103 F350.00
G01 X33.3049 Y43.1703 F350.00
G01 X18.0540 Y43.1703 F350.00
G00 Z0.5000
G00 X18.0560 Y41.6103
G01 F250.00
G01 Z-0.0500
G01 F350.00
G01 X24.9865 Y41.6103 F350.00
G00 Z0.5000
G00 X24.0778 Y40.0503
G01 F250.00
G01 Z-0.0500
G01 F350.00
G01 X18.0560 Y40.0503 F350.00
G01 X18.0560 Y38.4903 F350.00
G01 X24.2477 Y38.4903 F350.00
G01 X24.3066 Y36.9303 F350.00
G01 X21.1380 Y36.9303 F350.00
G00 Z0.5000
G00 X22.1194 Y35.3703
G01 F250.00
G01 Z-0.0500
G01 F350.00
G01 X22.7466 Y35.3703 F350.00
G00 Z0.5000
G00 X21.7806 Y33.3885
G01 F250.00
G01 Z-0.0500
G01 F350.00
G01 X21.7806 Y32.0043 F350.00
G01 X19.2658 Y29.4895 F350.00
G01 X19.2360 Y29.4862 F350.00
G01 X19.2068 Y29.4822 F350.00
G01 X19.1097 Y29.4678 F350.00
G01 X19.0806 Y29.4631 F350.00
G01 X19.0517 Y29.4577 F350.00
G01 X19.0228 Y29.4516 F350.00
G01 X18.9942 Y29.4448 F350.00
G01 X18.8990 Y29.4210 F350.00
G01 X18.8705 Y29.4135 F350.00
G01 X18.8422 Y29.4053 F350.00
G01 X18.8142 Y29.3964 F350.00
G01 X18.7863 Y29.3868 F350.00
G01 X18.6939 Y29.3537 F350.00
G01 X18.6663 Y29.3435 F350.00
G01 X18.6390 Y29.3325 F350.00
G01 X18.6119 Y29.3209 F350.00
G01 X18.5851 Y29.3087 F350.00
G01 X18.4964 Y29.2667 F350.00
G01 X18.4699 Y29.2538 F350.00
G01 X18.4438 Y29.2402 F350.00
G01 X18.4180 Y29.2260 F350.00
G01 X18.3925 Y29.2112 F350.00
G01 X18.3084 Y29.1607 F350.00
G01 X18.2833 Y29.1453 F350.00
G01 X18.2586 Y29.1292 F350.00
G01 X18.2343 Y29.1126 F350.00
G01 X18.2105 Y29.0953 F350.00
G01 X18.1316 Y29.0369 F350.00
G01 X18.1082 Y29.0190 F350.00
G01 X18.0852 Y29.0006 F350.00
G01 X18.0560 Y28.9758 F350.00
G01 X18.0560 Y32.5083 F350.00
G01 X18.1568 Y32.4478 F350.00
G01 X18.1823 Y32.4330 F350.00
G01 X18.2081 Y32.4188 F350.00
G01 X18.2342 Y32.4052 F350.00
G01 X18.2607 Y32.3923 F350.00
G01 X18.3938 Y32.3294 F350.00
G01 X18.4205 Y32.3171 F350.00
G01 X18.4476 Y32.3055 F350.00
G01 X18.4750 Y32.2946 F350.00
G01 X18.5026 Y32.2843 F350.00
G01 X18.6412 Y32.2347 F350.00
G01 X18.6690 Y32.2252 F350.00
G01 X18.6971 Y32.2163 F350.00
G01 X18.7254 Y32.2081 F350.00
G01 X18.7539 Y32.2006 F350.00
G01 X18.8966 Y32.1648 F350.00
G01 X18.9253 Y32.1580 F350.00
G01 X18.9541 Y32.1519 F350.00
G01 X18.9831 Y32.1465 F350.00
G01 X19.0121 Y32.1418 F350.00
G01 X19.1578 Y32.1202 F350.00
G01 X19.1869 Y32.1162 F350.00
G01 X19.2162 Y32.1130 F350.00
G01 X19.2456 Y32.1105 F350.00
G01 X19.2750 Y32.1087 F350.00
G01 X19.4220 Y32.1014 F350.00
G01 X19.4514 Y32.1004 F350.00
G01 X19.4809 Y32.1000 F350.00
G01 X19.5103 Y32.1004 F350.00
G01 X19.5397 Y32.1014 F350.00
G01 X19.6868 Y32.1087 F350.00
G01 X19.7162 Y32.1105 F350.00
G01 X19.7455 Y32.1130 F350.00
G01 X19.7748 Y32.1162 F350.00
G01 X19.8040 Y32.1202 F350.00
G01 X19.9496 Y32.1418 F350.00
G01 X19.9787 Y32.1465 F350.00
G01 X20.0076 Y32.1519 F350.00
G01 X20.0364 Y32.1580 F350.00
G01 X20.0651 Y32.1648 F350.00
G01 X20.2079 Y32.2006 F350.00
G01 X20.2363 Y32.2081 F350.00
G01 X20.2646 Y32.2163 F350.00
G01 X20.2927 Y32.2252 F350.00
G01 X20.3206 Y32.2347 F350.00
G01 X20.4592 Y32.2843 F350.00
G01 X20.4868 Y32.2946 F350.00
G01 X20.5141 Y32.3055 F350.00
G01 X20.5412 Y32.3171 F350.00
G01 X20.5680 Y32.3294 F350.00
G01 X20.7010 Y32.3923 F350.00
G01 X20.7275 Y32.4052 F350.00
G01 X20.7536 Y32.4188 F350.00
G01 X20.7794 Y32.4330 F350.00
G01 X20.8049 Y32.4478 F350.00
G01 X20.9311 Y32.5235 F350.00
G01 X20.9562 Y32.5390 F350.00
G01 X20.9809 Y32.5550 F350.00
G01 X21.0052 Y32.5717 F350.00
G01 X21.0291 Y32.5889 F350.00
G01 X21.1473 Y32.6766 F350.00
G01 X21.1707 Y32.6945 F350.00
G01 X21.1937 Y32.7129 F350.00
G01 X21.2163 Y32.7318 F350.00
G01 X21.2383 Y32.7513 F350.00
G01 X21.3474 Y32.8502 F350.00
G01 X21.3690 Y32.8702 F350.00
G01 X21.3900 Y32.8908 F350.00
G01 X21.4106 Y32.9119 F350.00
G01 X21.4307 Y32.9335 F350.00
G01 X21.5295 Y33.0425 F350.00
G01 X21.5490 Y33.0646 F350.00
G01 X21.5680 Y33.0871 F350.00
G01 X21.5864 Y33.1101 F350.00
G01 X21.6042 Y33.1336 F350.00
G01 X21.6919 Y33.2518 F350.00
G01 X21.7092 Y33.2757 F350.00
G01 X21.7258 Y33.3000 F350.00
G01 X21.7419 Y33.3246 F350.00
G01 X21.7806 Y33.3885 F350.00
G01 X21.7806 Y32.2503 F350.00
G01 X20.3639 Y32.2503 F350.00
G01 X20.4666 Y30.6903 F350.00
G01 X18.0560 Y30.6903 F350.00
G01 X18.0560 Y29.1303 F350.00
G01 X18.2602 Y29.1303 F350.00
G01 X18.0560 Y32.2503 F350.00
G01 X18.5978 Y32.2503 F350.00
G00 Z0.5000
G00 X12.7806 Y32.2503
G01 F250.00
G01 Z-0.0500
G01 F350.00
G01 X12.6139 Y32.2503 F350.00
G01 X12.7806 Y30.6903 F350.00
G01 X3.2451 Y30.6903 F350.00
G01 X2.9311 Y32.2503 F350.00
G01 X3.8478 Y32.2503 F350.00
G00 Z0.5000
G00 X5.6139 Y32.2503
G01 F250.00
G01 Z-0.0500
G01 F350.00
G01 X10.8478 Y32.2503 F350.00
G00 Z0.5000
G00 X9.2194 Y33.8103
G01 F250.00
G01 Z-0.0500
G01 F350.00
G01 X7.2423 Y33.8103 F350.00
G00 Z0.5000
G00 X7.3694 Y35.3703
G01 F250.00
G01 Z-0.0500
G01 F350.00
G01 X9.0923 Y35.3703 F350.00
G00 Z0.5000
G00 X10.0737 Y36.9303
G01 F250.00
G01 Z-0.0500
G01 F350.00
G01 X6.3880 Y36.9303 F350.00
G01 X4.4640 Y38.4903 F350.00
G01 X11.8727 Y38.4903 F350.00
G00 Z0.5000
G00 X11.7028 Y40.0503
G01 F250.00
G01 Z-0.0500
G01 F350.00
G01 X4.6339 Y40.0503 F350.00
G00 Z0.5000
G00 X3.7252 Y41.6103
G01 F250.00
G01 Z-0.0500
G01 F350.00
G01 X12.6115 Y41.6103 F350.00
G00 Z0.5000
G00 X12.6589 Y41.6499
G01 F250.00
G01 Z-0.0500
G01 F350.00
G01 X12.6430 Y41.6371 F350.00
G01 X12.6205 Y41.6182 F350.00
G01 X12.5984 Y41.5987 F350.00
G01 X12.4893 Y41.4998 F350.00
G01 X12.4678 Y41.4798 F350.00
G01 X12.4467 Y41.4592 F350.00
G01 X12.4261 Y41.4381 F350.00
G01 X12.4061 Y41.4165 F350.00
G01 X12.3072 Y41.3075 F350.00
G01 X12.2877 Y41.2854 F350.00
G01 X12.2687 Y41.2629 F350.00
G01 X12.2503 Y41.2399 F350.00
G01 X12.2325 Y41.2164 F350.00
G01 X12.1448 Y41.0982 F350.00
G01 X12.1276 Y41.0743 F350.00
G01 X12.1109 Y41.0500 F350.00
G01 X12.0948 Y41.0254 F350.00
G01 X12.0794 Y41.0003 F350.00
G01 X12.0037 Y40.8740 F350.00
G01 X11.9889 Y40.8486 F350.00
G01 X11.9747 Y40.8228 F350.00
G01 X11.9611 Y40.7966 F350.00
G01 X11.9482 Y40.7702 F350.00
G01 X11.8853 Y40.6371 F350.00
G01 X11.8730 Y40.6103 F350.00
G01 X11.8614 Y40.5832 F350.00
G01 X11.8505 Y40.5559 F350.00
G01 X11.8402 Y40.5283 F350.00
G01 X11.7906 Y40.3897 F350.00
G01 X11.7810 Y40.3618 F350.00
G01 X11.7721 Y40.3338 F350.00
G01 X11.7639 Y40.3055 F350.00
G01 X11.7564 Y40.2770 F350.00
G01 X11.7206 Y40.1342 F350.00
G01 X11.7138 Y40.1056 F350.00
G01 X11.7077 Y40.0767 F350.00
G01 X11.7024 Y40.0478 F350.00
G01 X11.6977 Y40.0187 F350.00
G01 X11.6761 Y39.8731 F350.00
G01 X11.6721 Y39.8439 F350.00
G01 X11.6689 Y39.8146 F350.00
G01 X11.6663 Y39.7853 F350.00
G01 X11.6645 Y39.7559 F350.00
G01 X11.6573 Y39.6089 F350.00
G01 X11.6562 Y39.5794 F350.00
G01 X11.6559 Y39.5500 F350.00
G01 X11.6562 Y39.5206 F350.00
G01 X11.6573 Y39.4911 F350.00
G01 X11.6645 Y39.3441 F350.00
G01 X11.6663 Y39.3147 F350.00
G01 X11.6689 Y39.2854 F350.00
G01 X11.6721 Y39.2561 F350.00
G01 X11.6761 Y39.2269 F350.00
G01 X11.6977 Y39.0813 F350.00
G01 X11.7023 Y39.0522 F350.00
G01 X11.7077 Y39.0233 F350.00
G01 X11.7138 Y38.9944 F350.00
G01 X11.7206 Y38.9658 F350.00
G01 X11.7564 Y38.8230 F350.00
G01 X11.7639 Y38.7945 F350.00
G01 X11.7721 Y38.7662 F350.00
G01 X11.7810 Y38.7382 F350.00
G01 X11.7906 Y38.7103 F350.00
G01 X11.8402 Y38.5717 F350.00
G01 X11.8505 Y38.5441 F350.00
G01 X11.8614 Y38.5168 F350.00
G01 X11.8730 Y38.4897 F350.00
G01 X11.8853 Y38.4629 F350.00
G01 X11.9482 Y38.3298 F350.00
G01 X11.9611 Y38.3034 F350.00
G01 X11.9747 Y38.2772 F350.00
G01 X11.9889 Y38.2514 F350.00
G01 X12.0037 Y38.2260 F350.00
G01 X12.0794 Y38.0997 F350.00
G01 X12.0948 Y38.0746 F350.00
G01 X12.1109 Y38.0500 F350.00
G01 X12.1276 Y38.0257 F350.00
G01 X12.1448 Y38.0018 F350.00
G01 X12.2325 Y37.8836 F350.00
G01 X12.2503 Y37.8601 F350.00
G01 X12.2687 Y37.8371 F350.00
G01 X12.2877 Y37.8146 F350.00
G01 X12.3072 Y37.7925 F350.00
G01 X12.4061 Y37.6835 F350.00
G01 X12.4261 Y37.6619 F350.00
G01 X12.4467 Y37.6408 F350.00
G01 X12.4678 Y37.6202 F350.00
G01 X12.4893 Y37.6002 F350.00
G01 X12.5984 Y37.5013 F350.00
G01 X12.6205 Y37.4818 F350.00
G01 X12.6430 Y37.4629 F350.00
G01 X12.6660 Y37.4445 F350.00
G01 X12.6894 Y37.4266 F350.00
G01 X12.7806 Y37.3590 F350.00
G01 X12.7806 Y37.2874 F350.00
G01 X12.7641 Y37.2945 F350.00
G01 X12.7368 Y37.3054 F350.00
G01 X12.7092 Y37.3157 F350.00
G01 X12.5706 Y37.3653 F350.00
G01 X12.5427 Y37.3748 F350.00
G01 X12.5146 Y37.3837 F350.00
G01 X12.4863 Y37.3919 F350.00
G01 X12.4579 Y37.3994 F350.00
G01 X12.3151 Y37.4352 F350.00
G01 X12.2864 Y37.4420 F350.00
G01 X12.2576 Y37.4481 F350.00
G01 X12.2287 Y37.4535 F350.00
G01 X12.1996 Y37.4582 F350.00
G01 X12.0540 Y37.4798 F350.00
G01 X12.0248 Y37.4838 F350.00
G01 X11.9955 Y37.4870 F350.00
G01 X11.9662 Y37.4895 F350.00
G01 X11.9368 Y37.4913 F350.00
G01 X11.7897 Y37.4986 F350.00
G01 X11.7603 Y37.4996 F350.00
G01 X11.7309 Y37.5000 F350.00
G01 X11.7014 Y37.4996 F350.00
G01 X11.6720 Y37.4986 F350.00
G01 X11.5250 Y37.4913 F350.00
G01 X11.4956 Y37.4895 F350.00
G01 X11.4662 Y37.4870 F350.00
G01 X11.4369 Y37.4838 F350.00
G01 X11.4078 Y37.4798 F350.00
G01 X11.2621 Y37.4582 F350.00
G01 X11.2331 Y37.4535 F350.00
G01 X11.2041 Y37.4481 F350.00
G01 X11.1753 Y37.4420 F350.00
G01 X11.1466 Y37.4352 F350.00
G01 X11.0039 Y37.3994 F350.00
G01 X10.9754 Y37.3919 F350.00
G01 X10.9471 Y37.3837 F350.00
G01 X10.9190 Y37.3748 F350.00
G01 X10.8912 Y37.3653 F350.00
G01 X10.7526 Y37.3157 F350.00
G01 X10.7250 Y37.3054 F350.00
G01 X10.6976 Y37.2945 F350.00
G01 X10.6705 Y37.2829 F350.00
G01 X10.6438 Y37.2706 F350.00
G01 X10.5107 Y37.2077 F350.00
G01 X10.4842 Y37.1948 F350.00
G01 X10.4581 Y37.1812 F350.00
G01 X10.4323 Y37.1670 F350.00
G01 X10.4068 Y37.1522 F350.00
G01 X10.2806 Y37.0765 F350.00
G01 X10.2555 Y37.0610 F350.00
G01 X10.2308 Y37.0450 F350.00
G01 X10.2065 Y37.0283 F350.00
G01 X10.1827 Y37.0111 F350.00
G01 X10.0644 Y36.9234 F350.00
G01 X10.0410 Y36.9055 F350.00
G01 X10.0180 Y36.8871 F350.00
G01 X9.9955 Y36.8682 F350.00
G01 X9.9734 Y36.8487 F350.00
G01 X9.8643 Y36.7498 F350.00
G01 X9.8428 Y36.7298 F350.00
G01 X9.8217 Y36.7092 F350.00
G01 X9.8011 Y36.6881 F350.00
G01 X9.7811 Y36.6665 F350.00
G01 X9.6822 Y36.5575 F350.00
G01 X9.6627 Y36.5354 F350.00
G01 X9.6437 Y36.5129 F350.00
G01 X9.6253 Y36.4899 F350.00
G01 X9.6075 Y36.4664 F350.00
G01 X9.5198 Y36.3482 F350.00
G01 X9.5026 Y36.3243 F350.00
G01 X9.4859 Y36.3000 F350.00
G01 X9.4698 Y36.2754 F350.00
G01 X9.4544 Y36.2503 F350.00
G01 X9.3787 Y36.1240 F350.00
G01 X9.3639 Y36.0986 F350.00
G01 X9.3497 Y36.0728 F350.00
G01 X9.3361 Y36.0466 F350.00
G01 X9.3232 Y36.0202 F350.00
G01 X9.2603 Y35.8871 F350.00
G01 X9.2480 Y35.8603 F350.00
G01 X9.2364 Y35.8332 F350.00
G01 X9.2255 Y35.8059 F350.00
G01 X9.2152 Y35.7783 F350.00
G01 X9.1656 Y35.6397 F350.00
G01 X9.1560 Y35.6118 F350.00
G01 X9.1471 Y35.5838 F350.00
G01 X9.1389 Y35.5555 F350.00
G01 X9.1314 Y35.5270 F350.00
G01 X9.0956 Y35.3842 F350.00
G01 X9.0888 Y35.3556 F350.00
G01 X9.0827 Y35.3267 F350.00
G01 X9.0774 Y35.2978 F350.00
G01 X9.0727 Y35.2687 F350.00
G01 X9.0511 Y35.1231 F350.00
G01 X9.0471 Y35.0939 F350.00
G01 X9.0439 Y35.0646 F350.00
G01 X9.0413 Y35.0353 F350.00
G01 X9.0395 Y35.0059 F350.00
G01 X9.0323 Y34.8589 F350.00
G01 X9.0312 Y34.8294 F350.00
G01 X9.0309 Y34.8000 F350.00
G01 X9.0312 Y34.7706 F350.00
G01 X9.0323 Y34.7411 F350.00
G01 X9.0395 Y34.5941 F350.00
G01 X9.0413 Y34.5647 F350.00
G01 X9.0439 Y34.5354 F350.00
G01 X9.0471 Y34.5061 F350.00
G01 X9.0511 Y34.4769 F350.00
G01 X9.0727 Y34.3313 F350.00
G01 X9.0773 Y34.3022 F350.00
G01 X9.0827 Y34.2733 F350.00
G01 X9.0888 Y34.2444 F350.00
G01 X9.0956 Y34.2158 F350.00
G01 X9.1314 Y34.0730 F350.00
G01 X9.1389 Y34.0445 F350.00
G01 X9.1471 Y34.0162 F350.00
G01 X9.1560 Y33.9882 F350.00
G01 X9.1656 Y33.9603 F350.00
G01 X9.2152 Y33.8217 F350.00
G01 X9.2255 Y33.7941 F350.00
G01 X9.2364 Y33.7668 F350.00
G01 X9.2480 Y33.7397 F350.00
G01 X9.2603 Y33.7129 F350.00
G01 X9.3232 Y33.5798 F350.00
G01 X9.3361 Y33.5534 F350.00
G01 X9.3497 Y33.5272 F350.00
G01 X9.3639 Y33.5014 F350.00
G01 X9.3787 Y33.4760 F350.00
G01 X9.4544 Y33.3497 F350.00
G01 X9.4698 Y33.3246 F350.00
G01 X9.4859 Y33.3000 F350.00
G01 X9.5026 Y33.2757 F350.00
G01 X9.5198 Y33.2518 F350.00
G01 X9.6075 Y33.1336 F350.00
G01 X9.6253 Y33.1101 F350.00
G01 X9.6437 Y33.0871 F350.00
G01 X9.6627 Y33.0646 F350.00
G01 X9.6822 Y33.0425 F350.00
G01 X9.7811 Y32.9335 F350.00
G01 X9.8011 Y32.9119 F350.00
G01 X9.8217 Y32.8908 F350.00
G01 X9.8428 Y32.8702 F350.00
G01 X9.8643 Y32.8502 F350.00
G01 X9.9734 Y32.7513 F350.00
G01 X9.9955 Y32.7318 F350.00
G01 X10.0180 Y32.7129 F350.00
G01 X10.0410 Y32.6945 F350.00
G01 X10.0644 Y32.6766 F350.00
G01 X10.1827 Y32.5889 F350.00
G01 X10.2065 Y32.5717 F350.00
G01 X10.2308 Y32.5550 F350.00
G01 X10.2555 Y32.5390 F350.00
G01 X10.2806 Y32.5235 F350.00
G01 X10.4068 Y32.4478 F350.00
G01 X10.4323 Y32.4330 F350.00
G01 X10.4581 Y32.4188 F350.00
G01 X10.4842 Y32.4052 F350.00
G01 X10.5107 Y32.3923 F350.00
G01 X10.6438 Y32.3294 F350.00
G01 X10.6705 Y32.3171 F350.00
G01 X10.6976 Y32.3055 F350.00
G01 X10.7250 Y32.2946 F350.00
G01 X10.7526 Y32.2843 F350.00
G01 X10.8912 Y32.2347 F350.00
G01 X10.9190 Y32.2252 F350.00
G01 X10.9471 Y32.2163 F350.00
G01 X10.9754 Y32.2081 F350.00
G01 X11.0039 Y32.2006 F350.00
G01 X11.1466 Y32.1648 F350.00
G01 X11.1753 Y32.1580 F350.00
G01 X11.2041 Y32.1519 F350.00
G01 X11.2331 Y32.1465 F350.00
G01 X11.2621 Y32.1418 F350.00
G01 X11.4078 Y32.1202 F350.00
G01 X11.4369 Y32.1162 F350.00
G01 X11.4662 Y32.1130 F350.00
G01 X11.4956 Y32.1105 F350.00
G01 X11.5250 Y32.1087 F350.00
G01 X11.6720 Y32.1014 F350.00
G01 X11.7014 Y32.1004 F350.00
G01 X11.7309 Y32.1000 F350.00
G01 X11.7603 Y32.1004 F350.00
G01 X11.7897 Y32.1014 F350.00
G01 X11.9368 Y32.1087 F350.00
G01 X11.9662 Y32.1105 F350.00
G01 X11.9955 Y32.1130 F350.00
G01 X12.0248 Y32.1162 F350.00
G01 X12.0540 Y32.1202 F350.00
G01 X12.1996 Y32.1418 F350.00
G01 X12.2287 Y32.1465 F350.00
G01 X12.2576 Y32.1519 F350.00
G01 X12.2864 Y32.1580 F350.00
G01 X12.3151 Y32.1648 F350.00
G01 X12.4579 Y32.2006 F350.00
G01 X12.4863 Y32.2081 F350.00
G01 X12.5146 Y32.2163 F350.00
G01 X12.5427 Y32.2252 F350.00
G01 X12.5706 Y32.2347 F350.00
G01 X12.7092 Y32.2843 F350.00
G01 X12.7368 Y32.2946 F350.00
G01 X12.7641 Y32.3055 F350.00
G01 X12.7806 Y32.3126 F350.00
G01 X12.7806 Y30.5043 F350.00
G01 X11.7754 Y29.4991 F350.00
G01 X11.7309 Y29.5000 F350.00
G01 X11.7014 Y29.4996 F350.00
G01 X11.6720 Y29.4986 F350.00
G01 X11.5740 Y29.4937 F350.00
G01 X11.5446 Y29.4919 F350.00
G01 X11.5152 Y29.4894 F350.00
G01 X11.4860 Y29.4862 F350.00
G01 X11.4568 Y29.4822 F350.00
G01 X11.3597 Y29.4678 F350.00
G01 X11.3306 Y29.4631 F350.00
G01 X11.3017 Y29.4577 F350.00
G01 X11.2728 Y29.4516 F350.00
G01 X11.2442 Y29.4448 F350.00
G01 X11.1490 Y29.4210 F350.00
G01 X11.1205 Y29.4135 F350.00
G01 X11.0922 Y29.4053 F350.00
G01 X11.0642 Y29.3964 F350.00
G01 X11.0363 Y29.3868 F350.00
G01 X10.9439 Y29.3537 F350.00
G01 X10.9163 Y29.3435 F350.00
G01 X10.8890 Y29.3325 F350.00
G01 X10.8619 Y29.3209 F350.00
G01 X10.8351 Y29.3087 F350.00
G01 X10.7464 Y29.2667 F350.00
G01 X10.7199 Y29.2538 F350.00
G01 X10.6938 Y29.2402 F350.00
G01 X10.6680 Y29.2260 F350.00
G01 X10.6425 Y29.2112 F350.00
G01 X10.5584 Y29.1607 F350.00
G01 X10.5333 Y29.1453 F350.00
G01 X10.5086 Y29.1292 F350.00
G01 X10.4843 Y29.1126 F350.00
G01 X10.4605 Y29.0953 F350.00
G01 X10.3816 Y29.0369 F350.00
G01 X10.3582 Y29.0190 F350.00
G01 X10.3352 Y29.0006 F350.00
G01 X10.3127 Y28.9817 F350.00
G01 X10.2906 Y28.9622 F350.00
G01 X10.2179 Y28.8962 F350.00
G01 X10.1963 Y28.8762 F350.00
G01 X10.1752 Y28.8556 F350.00
G01 X10.1547 Y28.8346 F350.00
G01 X10.1346 Y28.8130 F350.00
G01 X10.0687 Y28.7403 F350.00
G01 X10.0492 Y28.7182 F350.00
G01 X10.0302 Y28.6957 F350.00
G01 X10.0118 Y28.6727 F350.00
G01 X9.9940 Y28.6492 F350.00
G01 X9.9355 Y28.5704 F350.00
G01 X9.9183 Y28.5465 F350.00
G01 X9.9016 Y28.5223 F350.00
G01 X9.8856 Y28.4976 F350.00
G01 X9.8701 Y28.4725 F350.00
G01 X9.8197 Y28.3883 F350.00
G01 X9.8048 Y28.3629 F350.00
G01 X9.7906 Y28.3371 F350.00
G01 X9.7771 Y28.3109 F350.00
G01 X9.7642 Y28.2845 F350.00
G01 X9.7222 Y28.1957 F350.00
G01 X9.7099 Y28.1690 F350.00
G01 X9.6983 Y28.1419 F350.00
G01 X9.6874 Y28.1146 F350.00
G01 X9.6771 Y28.0870 F350.00
G01 X9.6441 Y27.9946 F350.00
G01 X9.6345 Y27.9667 F350.00
G01 X9.6256 Y27.9386 F350.00
G01 X9.6174 Y27.9103 F350.00
G01 X9.6099 Y27.8819 F350.00
G01 X9.5860 Y27.7867 F350.00
G01 X9.5792 Y27.7580 F350.00
G01 X9.5731 Y27.7292 F350.00
G01 X9.5677 Y27.7002 F350.00
G01 X9.5631 Y27.6712 F350.00
G01 X9.5487 Y27.5741 F350.00
G01 X9.5447 Y27.5449 F350.00
G01 X9.5415 Y27.5156 F350.00
G01 X9.5389 Y27.4863 F350.00
G01 X9.5371 Y27.4569 F350.00
G01 X9.5323 Y27.3589 F350.00
G01 X9.5312 Y27.3294 F350.00
G01 X9.5309 Y27.2545 F350.00
G01 X7.9886 Y25.7123 F350.00
G01 X7.9680 Y25.6912 F350.00
G01 X7.9480 Y25.6696 F350.00
G01 X7.8955 Y25.6112 F350.00
G01 X7.8765 Y25.5886 F350.00
G01 X7.8581 Y25.5656 F350.00
G01 X7.8111 Y25.5028 F350.00
G01 X7.7938 Y25.4789 F350.00
G01 X7.7772 Y25.4546 F350.00
G01 X7.7611 Y25.4299 F350.00
G01 X7.7456 Y25.4048 F350.00
G01 X7.7056 Y25.3373 F350.00
G01 X7.6914 Y25.3115 F350.00
G01 X7.6778 Y25.2853 F350.00
G01 X7.6439 Y25.2145 F350.00
G01 X7.6316 Y25.1877 F350.00
G01 X7.6200 Y25.1607 F350.00
G01 X7.6091 Y25.1333 F350.00
G01 X7.5988 Y25.1057 F350.00
G01 X7.5727 Y25.0316 F350.00
G01 X7.5638 Y25.0036 F350.00
G01 X7.5556 Y24.9753 F350.00
G01 X7.5481 Y24.9468 F350.00
G01 X7.5294 Y24.8705 F350.00
G01 X7.5233 Y24.8417 F350.00
G01 X7.5179 Y24.8127 F350.00
G01 X7.5060 Y24.7351 F350.00
G01 X7.5020 Y24.7059 F350.00
G01 X7.4988 Y24.6767 F350.00
G01 X7.4963 Y24.6473 F350.00
G01 X7.4921 Y24.5689 F350.00
G01 X7.4910 Y24.5394 F350.00
G01 X7.4906 Y24.5100 F350.00
G01 X7.4906 Y21.9041 F350.00
G01 X7.4527 Y21.9196 F350.00
G01 X7.4251 Y21.9299 F350.00
G01 X7.3973 Y21.9394 F350.00
G01 X7.3692 Y21.9483 F350.00
G01 X7.3409 Y21.9565 F350.00
G01 X7.3124 Y21.9640 F350.00
G01 X7.2838 Y21.9708 F350.00
G01 X7.2550 Y21.9769 F350.00
G01 X7.2260 Y21.9823 F350.00
G01 X7.1969 Y21.9870 F350.00
G01 X7.1678 Y21.9910 F350.00
G01 X7.1385 Y21.9942 F350.00
G01 X7.1091 Y21.9967 F350.00
G01 X7.0797 Y21.9986 F350.00
G01 X7.0503 Y21.9996 F350.00
G01 X7.0209 Y22.0000 F350.00
G01 X5.0209 Y22.0000 F350.00
G01 X4.9914 Y21.9996 F350.00
G01 X4.9620 Y21.9986 F350.00
G01 X4.9326 Y21.9967 F350.00
G01 X4.9032 Y21.9942 F350.00
G01 X4.8740 Y21.9910 F350.00
G01 X4.8448 Y21.9870 F350.00
G01 X4.8157 Y21.9823 F350.00
G01 X4.7868 Y21.9769 F350.00
G01 X4.7579 Y21.9708 F350.00
G01 X4.7293 Y21.9640 F350.00
G01 X4.7008 Y21.9565 F350.00
G01 X4.6725 Y21.9483 F350.00
G01 X4.6444 Y21.9394 F350.00
G01 X4.6166 Y21.9299 F350.00
G01 X4.5890 Y21.9196 F350.00
G01 X4.5616 Y21.9087 F350.00
G01 X4.5346 Y21.8971 F350.00
G01 X4.5078 Y21.8848 F350.00
G01 X4.4813 Y21.8719 F350.00
G01 X4.4552 Y21.8583 F350.00
G01 X4.4294 Y21.8441 F350.00
G01 X4.4039 Y21.8293 F350.00
G01 X4.3733 Y21.8102 F350.00
G01 X4.3498 Y21.8209 F350.00
G01 X4.3228 Y21.8325 F350.00
G01 X4.2954 Y21.8435 F350.00
G01 X4.2678 Y21.8537 F350.00
G01 X4.1754 Y21.8868 F350.00
G01 X4.1476 Y21.8964 F350.00
G01 X4.1195 Y21.9053 F350.00
G01 X4.0912 Y21.9135 F350.00
G01 X4.0627 Y21.9210 F350.00
G01 X3.9675 Y21.9448 F350.00
G01 X3.9389 Y21.9516 F350.00
G01 X3.9101 Y21.9577 F350.00
G01 X3.8811 Y21.9631 F350.00
G01 X3.8520 Y21.9678 F350.00
G01 X3.7550 Y21.9822 F350.00
G01 X3.7258 Y21.9862 F350.00
G01 X3.6965 Y21.9894 F350.00
G01 X3.6672 Y21.9919 F350.00
G01 X3.6378 Y21.9937 F350.00
G01 X3.5397 Y21.9986 F350.00
G01 X3.5103 Y21.9996 F350.00
G01 X3.4809 Y22.0000 F350.00
G01 X3.4514 Y21.9996 F350.00
G01 X3.4220 Y21.9986 F350.00
G01 X3.3240 Y21.9937 F350.00
G01 X3.2946 Y21.9919 F350.00
G01 X3.2652 Y21.9894 F350.00
G01 X3.2360 Y21.9862 F350.00
G01 X3.2068 Y21.9822 F350.00
G01 X3.1097 Y21.9678 F350.00
G01 X3.0806 Y21.9631 F350.00
G01 X3.0517 Y21.9577 F350.00
G01 X3.0228 Y21.9516 F350.00
G01 X2.9942 Y21.9448 F350.00
G01 X2.8990 Y21.9210 F350.00
G01 X2.8705 Y21.9135 F350.00
G01 X2.8422 Y21.9053 F350.00
G01 X2.8142 Y21.8964 F350.00
G01 X2.7863 Y21.8868 F350.00
G01 X2.6939 Y21.8537 F350.00
G01 X2.6663 Y21.8435 F350.00
G01 X2.6411 Y21.8334 F350.00
G01 X2.6411 Y22.3057 F350.00
G01 X4.4536 Y24.1183 F350.00
G01 X4.4860 Y24.1138 F350.00
G01 X4.5152 Y24.1106 F350.00
G01 X4.5446 Y24.1081 F350.00
G01 X4.5740 Y24.1063 F350.00
G01 X4.6720 Y24.1014 F350.00
G01 X4.7014 Y24.1004 F350.00
G01 X4.7309 Y24.1000 F350.00
G01 X4.7603 Y24.1004 F350.00
G01 X4.7897 Y24.1014 F350.00
G01 X4.8878 Y24.1063 F350.00
G01 X4.9172 Y24.1081 F350.00
G01 X4.9465 Y24.1106 F350.00
G01 X4.9758 Y24.1138 F350.00
G01 X5.0050 Y24.1178 F350.00
G01 X5.1020 Y24.1322 F350.00
G01 X5.1311 Y24.1369 F350.00
G01 X5.1601 Y24.1423 F350.00
G01 X5.1889 Y24.1484 F350.00
G01 X5.2175 Y24.1552 F350.00
G01 X5.3127 Y24.1790 F350.00
G01 X5.3412 Y24.1865 F350.00
G01 X5.3695 Y24.1947 F350.00
G01 X5.3976 Y24.2036 F350.00
G01 X5.4254 Y24.2132 F350.00
G01 X5.5178 Y24.2463 F350.00
G01 X5.5454 Y24.2565 F350.00
G01 X5.5728 Y24.2675 F350.00
G01 X5.5998 Y24.2791 F350.00
G01 X5.6266 Y24.2913 F350.00
G01 X5.7153 Y24.3333 F350.00
G01 X5.7418 Y24.3462 F350.00
G01 X5.7679 Y24.3598 F350.00
G01 X5.7937 Y24.3740 F350.00
G01 X5.8192 Y24.3888 F350.00
G01 X5.9034 Y24.4393 F350.00
G01 X5.9284 Y24.4547 F350.00
G01 X5.9531 Y24.4708 F350.00
G01 X5.9774 Y24.4874 F350.00
G01 X6.0013 Y24.5047 F350.00
G01 X6.0801 Y24.5631 F350.00
G01 X6.1035 Y24.5810 F350.00
G01 X6.1265 Y24.5994 F350.00
G01 X6.1491 Y24.6183 F350.00
G01 X6.1711 Y24.6378 F350.00
G01 X6.2438 Y24.7038 F350.00
G01 X6.2654 Y24.7238 F350.00
G01 X6.2865 Y24.7444 F350.00
G01 X6.3071 Y24.7654 F350.00
G01 X6.3271 Y24.7870 F350.00
G01 X6.3930 Y24.8597 F350.00
G01 X6.4125 Y24.8818 F350.00
G01 X6.4315 Y24.9043 F350.00
G01 X6.4499 Y24.9273 F350.00
G01 X6.4677 Y24.9508 F350.00
G01 X6.5262 Y25.0296 F350.00
G01 X6.5434 Y25.0535 F350.00
