%
(; SHAPEOKO POSTPROCESSED v1)
( Source: BACK_0.4mm_ISOLATION_cnc.nc )
( Stripped: M30 only - kept T#/M6/M0/M1/MSG for Shapeoko/Carbide Motion )
( Wrapped with Shapeoko start/end blocks - mirrors 1001.nc structure )
G90        ( absolute positioning )
G17        ( XY plane select )
G21        ( mm units )
G94        ( feedrate units/min )
G28 G91 Z0 ( safe Z home - assumes machine has been homed )
G90        ( back to absolute )
G54        ( work coordinate system 1 )
M5         ( ensure spindle off at start )

(G-CODE GENERATED BY FLATCAM v8.994 - www.flatcam.org - Version Date: 2020/11/7)

(Name: BACK_0.4mm_ISOLATION_cnc)
(Type: G-code from Geometry)
(Units: MM)

(Created on Friday, 26 June 2026 at 06:11)

(This preprocessor is used with a motion controller loaded with GRBL firmware.)
(It is configured to be compatible with almost any version of GRBL firmware.)

(TOOL DIAMETER: 0.4 mm)
(Feedrate_XY: 350.0 mm/min)
(Feedrate_Z: 250.0 mm/min)
(Feedrate rapids 1500.0 mm/min)

(Z_Cut: -0.05 mm)
(Z_Move: 0.5 mm)
(Z Start: None mm)
(Z End: 40.0 mm)
(X,Y End: None mm)
(Steps per circle: 64)
(Steps per circle: 64)
(Preprocessor Geometry: grbl_11)

(X range:   -1.2593 ...  128.3309  mm)
(Y range:   -2.4100 ...   69.6503  mm)

(Spindle Speed: 0.0 RPM)
G21
G90
G17
G94


G01 F350.00

M5             
G00 Z40.0000
G00 X0.0000 Y0.0000                
T1 M6
(MSG, Change to Tool Dia = 0.4000)
M0
G00 Z40.0000

M03
G01 F350.00
G00 X3.0307 Y17.6878
G01 F250.00
G01 Z-0.0500
G01 F350.00
G01 X3.0307 Y14.3000 F350.00
G01 X3.0329 Y14.2559 F350.00
G01 X3.0385 Y14.2170 F350.00
G01 X3.0415 Y14.2026 F350.00
G01 X3.0501 Y14.1693 F350.00
G01 X3.0650 Y14.1277 F350.00
G01 X3.0839 Y14.0878 F350.00
G01 X3.1013 Y14.0582 F350.00
G01 X3.1122 Y14.0419 F350.00
G01 X3.1298 Y14.0183 F350.00
G01 X3.1393 Y14.0070 F350.00
G01 X3.1626 Y13.9817 F350.00
G01 X3.1953 Y13.9520 F350.00
G01 X3.2308 Y13.9257 F350.00
G01 X3.2601 Y13.9079 F350.00
G01 X3.2730 Y13.9008 F350.00
G01 X3.2996 Y13.8881 F350.00
G01 X3.3178 Y13.8806 F350.00
G01 X3.3502 Y13.8693 F350.00
G01 X3.3930 Y13.8585 F350.00
G01 X3.4367 Y13.8520 F350.00
G01 X3.4809 Y13.8499 F350.00
G01 X21.1074 Y13.8499 F350.00
G01 X21.1515 Y13.8520 F350.00
G01 X21.1904 Y13.8576 F350.00
G01 X21.2048 Y13.8607 F350.00
G01 X21.2381 Y13.8693 F350.00
G01 X21.2705 Y13.8806 F350.00
G01 X21.2842 Y13.8861 F350.00
G01 X21.3196 Y13.9030 F350.00
G01 X21.3575 Y13.9257 F350.00
G01 X21.3852 Y13.9460 F350.00
G01 X21.3967 Y13.9552 F350.00
G01 X21.4257 Y13.9817 F350.00
G01 X24.0991 Y16.6552 F350.00
G01 X24.1288 Y16.6879 F350.00
G01 X24.1551 Y16.7234 F350.00
G01 X24.1778 Y16.7613 F350.00
G01 X24.1948 Y16.7967 F350.00
G01 X24.2003 Y16.8104 F350.00
G01 X24.2116 Y16.8428 F350.00
G01 X24.2223 Y16.8856 F350.00
G01 X24.2288 Y16.9293 F350.00
G01 X24.2310 Y16.9735 F350.00
G01 X24.2310 Y21.8636 F350.00
G01 X40.5491 Y38.1817 F350.00
G01 X40.5788 Y38.2144 F350.00
G01 X40.5995 Y38.2419 F350.00
G01 X40.6104 Y38.2582 F350.00
G01 X40.6255 Y38.2835 F350.00
G01 X40.6301 Y38.2922 F350.00
G01 X40.6448 Y38.3232 F350.00
G01 X40.6503 Y38.3369 F350.00
G01 X40.6616 Y38.3693 F350.00
G01 X40.6702 Y38.4026 F350.00
G01 X40.6732 Y38.4170 F350.00
G01 X40.6788 Y38.4559 F350.00
G01 X40.6810 Y38.5000 F350.00
G01 X40.6810 Y46.5500 F350.00
G01 X40.6788 Y46.5941 F350.00
G01 X40.6740 Y46.6281 F350.00
G01 X40.6713 Y46.6426 F350.00
G01 X40.6616 Y46.6807 F350.00
G01 X40.6503 Y46.7131 F350.00
G01 X40.6448 Y46.7268 F350.00
G01 X40.6278 Y46.7622 F350.00
G01 X40.6078 Y46.7960 F350.00
G01 X40.5995 Y46.8081 F350.00
G01 X40.5788 Y46.8356 F350.00
G01 X40.5526 Y46.8648 F350.00
G01 X36.5883 Y50.8291 F350.00
G01 X36.5911 Y50.8900 F350.00
G01 X36.5911 Y51.3678 F350.00
G01 X36.6201 Y51.3722 F350.00
G01 X36.6298 Y51.3741 F350.00
G01 X36.7297 Y51.3991 F350.00
G01 X36.7439 Y51.4032 F350.00
G01 X36.8501 Y51.4413 F350.00
G01 X36.9522 Y51.4894 F350.00
G01 X36.9651 Y51.4965 F350.00
G01 X37.0493 Y51.5470 F350.00
G01 X37.0656 Y51.5579 F350.00
G01 X37.1521 Y51.6224 F350.00
G01 X37.2359 Y51.6980 F350.00
G01 X37.2462 Y51.7086 F350.00
G01 X37.3121 Y51.7813 F350.00
G01 X37.3245 Y51.7965 F350.00
G01 X37.3886 Y51.8833 F350.00
G01 X37.4492 Y51.9843 F350.00
G01 X37.4955 Y52.0818 F350.00
G01 X37.5030 Y52.0999 F350.00
G01 X37.5392 Y52.2017 F350.00
G01 X37.5668 Y52.3111 F350.00
G01 X37.5695 Y52.3256 F350.00
G01 X37.5839 Y52.4226 F350.00
G01 X37.5858 Y52.4422 F350.00
G01 X37.5909 Y52.5500 F350.00
G01 X37.5858 Y52.6578 F350.00
G01 X37.5839 Y52.6774 F350.00
G01 X37.5678 Y52.7841 F350.00
G01 X37.5418 Y52.8889 F350.00
G01 X37.5361 Y52.9077 F350.00
G01 X37.4995 Y53.0092 F350.00
G01 X37.4536 Y53.1069 F350.00
G01 X37.4443 Y53.1242 F350.00
G01 X37.3886 Y53.2167 F350.00
G01 X37.3185 Y53.3113 F350.00
G01 X37.2462 Y53.3914 F350.00
G01 X37.2323 Y53.4053 F350.00
G01 X37.1521 Y53.4776 F350.00
G01 X37.0575 Y53.5478 F350.00
G01 X36.9651 Y53.6035 F350.00
G01 X36.9478 Y53.6127 F350.00
G01 X36.8501 Y53.6587 F350.00
G01 X36.7485 Y53.6952 F350.00
G01 X36.7297 Y53.7009 F350.00
G01 X36.6250 Y53.7269 F350.00
G01 X36.5182 Y53.7430 F350.00
G01 X36.4987 Y53.7449 F350.00
G01 X36.3909 Y53.7500 F350.00
G01 X35.3909 Y53.7500 F350.00
G01 X35.2781 Y53.7446 F350.00
G01 X35.2635 Y53.7430 F350.00
G01 X35.1568 Y53.7269 F350.00
G01 X35.0425 Y53.6983 F350.00
G01 X34.9316 Y53.6587 F350.00
G01 X34.8252 Y53.6083 F350.00
G01 X34.7242 Y53.5478 F350.00
G01 X34.6296 Y53.4776 F350.00
G01 X34.5423 Y53.3985 F350.00
G01 X34.4632 Y53.3113 F350.00
G01 X34.3987 Y53.2247 F350.00
G01 X34.3878 Y53.2084 F350.00
G01 X34.3326 Y53.1157 F350.00
G01 X34.2862 Y53.0182 F350.00
G01 X34.2787 Y53.0001 F350.00
G01 X34.2425 Y52.8983 F350.00
G01 X34.2139 Y52.7841 F350.00
G01 X34.1978 Y52.6774 F350.00
G01 X34.1959 Y52.6578 F350.00
G01 X34.1909 Y52.5500 F350.00
G01 X34.1959 Y52.4422 F350.00
G01 X34.1978 Y52.4226 F350.00
G01 X34.2139 Y52.3159 F350.00
G01 X34.2399 Y52.2111 F350.00
G01 X34.2440 Y52.1970 F350.00
G01 X34.2822 Y52.0908 F350.00
G01 X34.3281 Y51.9931 F350.00
G01 X34.3374 Y51.9758 F350.00
G01 X34.3931 Y51.8833 F350.00
G01 X34.4572 Y51.7965 F350.00
G01 X34.4697 Y51.7813 F350.00
G01 X34.5423 Y51.7015 F350.00
G01 X34.6258 Y51.6255 F350.00
G01 X34.6373 Y51.6163 F350.00
G01 X34.7162 Y51.5579 F350.00
G01 X34.7325 Y51.5470 F350.00
G01 X34.8252 Y51.4917 F350.00
G01 X34.9271 Y51.4433 F350.00
G01 X34.9408 Y51.4378 F350.00
G01 X35.0332 Y51.4048 F350.00
G01 X35.0472 Y51.4003 F350.00
G01 X35.1520 Y51.3741 F350.00
G01 X35.1616 Y51.3722 F350.00
G01 X35.1906 Y51.3678 F350.00
G01 X35.1906 Y51.0501 F350.00
G01 X24.7815 Y51.0501 F350.00
G01 X22.9310 Y52.9007 F350.00
G01 X22.9310 Y61.1136 F350.00
G01 X28.0673 Y66.2499 F350.00
G01 X60.1944 Y66.2499 F350.00
G01 X60.7126 Y65.7317 F350.00
G01 X60.7415 Y65.7052 F350.00
G01 X60.7530 Y65.6960 F350.00
G01 X60.7808 Y65.6757 F350.00
G01 X60.8144 Y65.6554 F350.00
G01 X60.8274 Y65.6486 F350.00
G01 X60.8586 Y65.6341 F350.00
G01 X60.8909 Y65.6223 F350.00
G01 X60.9049 Y65.6179 F350.00
G01 X60.9382 Y65.6095 F350.00
G01 X60.9527 Y65.6068 F350.00
G01 X60.9867 Y65.6020 F350.00
G01 X61.0309 Y65.5999 F350.00
G01 X63.0986 Y65.5999 F350.00
G01 X63.0866 Y65.5176 F350.00
G01 X63.0811 Y65.4098 F350.00
G01 X63.0811 Y65.3902 F350.00
G01 X63.0859 Y65.2922 F350.00
G01 X63.0878 Y65.2726 F350.00
G01 X63.1039 Y65.1659 F350.00
G01 X63.1312 Y65.0564 F350.00
G01 X63.1356 Y65.0423 F350.00
G01 X63.1722 Y64.9408 F350.00
G01 X63.2226 Y64.8343 F350.00
G01 X63.2831 Y64.7333 F350.00
G01 X63.3472 Y64.6465 F350.00
G01 X63.3564 Y64.6350 F350.00
G01 X63.4323 Y64.5515 F350.00
G01 X63.5122 Y64.4788 F350.00
G01 X63.5273 Y64.4663 F350.00
G01 X63.6142 Y64.4022 F350.00
G01 X63.7066 Y64.3465 F350.00
G01 X63.7240 Y64.3373 F350.00
G01 X63.8127 Y64.2953 F350.00
G01 X63.8308 Y64.2878 F350.00
G01 X63.9325 Y64.2517 F350.00
G01 X64.0468 Y64.2231 F350.00
G01 X64.1632 Y64.2058 F350.00
G01 X64.2809 Y64.2000 F350.00
G01 X65.2858 Y64.2001 F350.00
G01 X65.3985 Y64.2058 F350.00
G01 X65.5150 Y64.2231 F350.00
G01 X65.6292 Y64.2517 F350.00
G01 X65.7309 Y64.2878 F350.00
G01 X65.7491 Y64.2953 F350.00
G01 X65.8465 Y64.3417 F350.00
G01 X65.9475 Y64.4022 F350.00
G01 X66.0344 Y64.4663 F350.00
G01 X66.0496 Y64.4788 F350.00
G01 X66.1294 Y64.5515 F350.00
G01 X66.2085 Y64.6387 F350.00
G01 X66.2786 Y64.7333 F350.00
G01 X66.3392 Y64.8343 F350.00
G01 X66.3855 Y64.9318 F350.00
G01 X66.3930 Y64.9499 F350.00
G01 X66.4261 Y65.0423 F350.00
G01 X66.4318 Y65.0611 F350.00
G01 X66.4578 Y65.1659 F350.00
G01 X66.4739 Y65.2726 F350.00
G01 X66.4758 Y65.2922 F350.00
G01 X66.4809 Y65.4000 F350.00
G01 X66.4751 Y65.5176 F350.00
G01 X66.4578 Y65.6341 F350.00
G01 X66.4292 Y65.7483 F350.00
G01 X66.3895 Y65.8592 F350.00
G01 X66.3392 Y65.9657 F350.00
G01 X66.2786 Y66.0667 F350.00
G01 X66.2115 Y66.1574 F350.00
G01 X66.2021 Y66.1687 F350.00
G01 X66.1294 Y66.2485 F350.00
G01 X66.0421 Y66.3276 F350.00
G01 X65.9475 Y66.3978 F350.00
G01 X65.8465 Y66.4583 F350.00
G01 X65.7401 Y66.5087 F350.00
G01 X65.6292 Y66.5483 F350.00
G01 X65.5150 Y66.5769 F350.00
G01 X65.4082 Y66.5930 F350.00
G01 X65.3936 Y66.5946 F350.00
G01 X65.2809 Y66.6000 F350.00
G01 X64.2809 Y66.6000 F350.00
G01 X64.1730 Y66.5949 F350.00
G01 X64.1535 Y66.5930 F350.00
G01 X64.0468 Y66.5769 F350.00
G01 X63.9420 Y66.5509 F350.00
G01 X63.9232 Y66.5452 F350.00
G01 X63.8308 Y66.5122 F350.00
G01 X63.8171 Y66.5067 F350.00
G01 X63.8030 Y66.5001 F350.00
G01 X61.2173 Y66.5001 F350.00
G01 X60.6991 Y67.0183 F350.00
G01 X60.6739 Y67.0415 F350.00
G01 X60.6626 Y67.0510 F350.00
G01 X60.6309 Y67.0743 F350.00
G01 X60.5973 Y67.0946 F350.00
G01 X60.5887 Y67.0992 F350.00
G01 X60.5621 Y67.1119 F350.00
G01 X60.5440 Y67.1194 F350.00
G01 X60.5115 Y67.1307 F350.00
G01 X60.4687 Y67.1415 F350.00
G01 X60.4250 Y67.1480 F350.00
G01 X60.3858 Y67.1501 F350.00
G01 X27.8809 Y67.1501 F350.00
G01 X27.8367 Y67.1480 F350.00
G01 X27.8027 Y67.1432 F350.00
G01 X27.7835 Y67.1393 F350.00
G01 X27.7549 Y67.1321 F350.00
G01 X27.7409 Y67.1277 F350.00
G01 X27.7086 Y67.1159 F350.00
G01 X27.6687 Y67.0970 F350.00
G01 X27.6308 Y67.0743 F350.00
G01 X27.5991 Y67.0510 F350.00
G01 X27.5879 Y67.0415 F350.00
G01 X27.5626 Y67.0183 F350.00
G01 X22.1626 Y61.6183 F350.00
G01 X22.1329 Y61.5856 F350.00
G01 X22.1066 Y61.5501 F350.00
G01 X22.0839 Y61.5122 F350.00
G01 X22.0690 Y61.4812 F350.00
G01 X22.0632 Y61.4677 F350.00
G01 X22.0501 Y61.4307 F350.00
G01 X22.0394 Y61.3878 F350.00
G01 X22.0329 Y61.3441 F350.00
G01 X22.0307 Y61.3000 F350.00
G01 X22.0307 Y52.7142 F350.00
G01 X22.0329 Y52.6701 F350.00
G01 X22.0394 Y52.6264 F350.00
G01 X22.0501 Y52.5835 F350.00
G01 X22.0615 Y52.5511 F350.00
G01 X22.0669 Y52.5374 F350.00
G01 X22.0839 Y52.5020 F350.00
G01 X22.1066 Y52.4641 F350.00
G01 X22.1329 Y52.4287 F350.00
G01 X22.1626 Y52.3959 F350.00
G01 X24.2803 Y50.2783 F350.00
G01 X24.3095 Y50.2520 F350.00
G01 X24.3370 Y50.2314 F350.00
G01 X24.3491 Y50.2231 F350.00
G01 X24.3829 Y50.2030 F350.00
G01 X24.4228 Y50.1841 F350.00
G01 X24.4551 Y50.1723 F350.00
G01 X24.4739 Y50.1666 F350.00
G01 X24.5025 Y50.1595 F350.00
G01 X24.5121 Y50.1576 F350.00
G01 X24.5510 Y50.1520 F350.00
G01 X24.5951 Y50.1499 F350.00
G01 X35.8909 Y50.1499 F350.00
G01 X35.9350 Y50.1520 F350.00
G01 X35.9690 Y50.1568 F350.00
G01 X35.9845 Y50.1598 F350.00
G01 X39.7807 Y46.3636 F350.00
G01 X39.7807 Y38.6864 F350.00
G01 X23.4626 Y22.3683 F350.00
G01 X23.4393 Y22.3430 F350.00
G01 X23.4298 Y22.3317 F350.00
G01 X23.4066 Y22.3001 F350.00
G01 X23.3863 Y22.2665 F350.00
G01 X23.3816 Y22.2578 F350.00
G01 X23.3690 Y22.2312 F350.00
G01 X23.3615 Y22.2131 F350.00
G01 X23.3501 Y22.1807 F350.00
G01 X23.3394 Y22.1378 F350.00
G01 X23.3329 Y22.0941 F350.00
G01 X23.3308 Y22.0549 F350.00
G01 X23.3307 Y17.1599 F350.00
G01 X20.9210 Y14.7501 F350.00
G01 X3.9310 Y14.7501 F350.00
G01 X3.9310 Y17.6878 F350.00
G01 X3.9491 Y17.6953 F350.00
G01 X4.0465 Y17.7417 F350.00
G01 X4.1475 Y17.8022 F350.00
G01 X4.2421 Y17.8724 F350.00
G01 X4.3223 Y17.9447 F350.00
G01 X4.3362 Y17.9586 F350.00
G01 X4.4085 Y18.0387 F350.00
G01 X4.4730 Y18.1253 F350.00
G01 X4.4839 Y18.1416 F350.00
G01 X4.5343 Y18.2258 F350.00
G01 X4.5436 Y18.2431 F350.00
G01 X4.5895 Y18.3408 F350.00
G01 X4.6261 Y18.4423 F350.00
G01 X4.6318 Y18.4611 F350.00
G01 X4.6557 Y18.5563 F350.00
G01 X4.6595 Y18.5756 F350.00
G01 X4.6751 Y18.6824 F350.00
G01 X4.6806 Y18.7902 F350.00
G01 X4.6808 Y19.8049 F350.00
G01 X4.6751 Y19.9176 F350.00
G01 X4.6578 Y20.0341 F350.00
G01 X4.6292 Y20.1483 F350.00
G01 X4.5930 Y20.2501 F350.00
G01 X4.5855 Y20.2682 F350.00
G01 X4.5436 Y20.3569 F350.00
G01 X4.5343 Y20.3742 F350.00
G01 X4.4786 Y20.4667 F350.00
G01 X4.4085 Y20.5613 F350.00
G01 X4.3294 Y20.6485 F350.00
G01 X4.2421 Y20.7276 F350.00
G01 X4.1475 Y20.7978 F350.00
G01 X4.0551 Y20.8535 F350.00
G01 X4.0378 Y20.8627 F350.00
G01 X3.9491 Y20.9047 F350.00
G01 X3.9309 Y20.9122 F350.00
G01 X3.8292 Y20.9483 F350.00
G01 X3.7245 Y20.9748 F350.00
G01 X3.7101 Y20.9778 F350.00
G01 X3.5985 Y20.9942 F350.00
G01 X3.4809 Y21.0000 F350.00
G01 X3.3632 Y20.9942 F350.00
G01 X3.2468 Y20.9769 F350.00
G01 X3.1325 Y20.9483 F350.00
G01 X3.0216 Y20.9087 F350.00
G01 X2.9152 Y20.8583 F350.00
G01 X2.8142 Y20.7978 F350.00
G01 X2.7196 Y20.7276 F350.00
G01 X2.6323 Y20.6485 F350.00
G01 X2.5532 Y20.5613 F350.00
G01 X2.4831 Y20.4667 F350.00
G01 X2.4226 Y20.3657 F350.00
G01 X2.3722 Y20.2592 F350.00
G01 X2.3325 Y20.1483 F350.00
G01 X2.3039 Y20.0341 F350.00
G01 X2.2866 Y19.9176 F350.00
G01 X2.2809 Y19.8049 F350.00
G01 X2.2809 Y18.7951 F350.00
G01 X2.2866 Y18.6824 F350.00
G01 X2.3022 Y18.5756 F350.00
G01 X2.3061 Y18.5563 F350.00
G01 X2.3325 Y18.4517 F350.00
G01 X2.3722 Y18.3408 F350.00
G01 X2.4181 Y18.2431 F350.00
G01 X2.4274 Y18.2258 F350.00
G01 X2.4778 Y18.1416 F350.00
G01 X2.4887 Y18.1253 F350.00
G01 X2.5532 Y18.0387 F350.00
G01 X2.6256 Y17.9586 F350.00
G01 X2.6394 Y17.9447 F350.00
G01 X2.7196 Y17.8724 F350.00
G01 X2.8142 Y17.8022 F350.00
G01 X2.9152 Y17.7417 F350.00
G01 X3.0127 Y17.6953 F350.00
G01 X3.0307 Y17.6878 F350.00
G00 Z0.5000
G00 X7.0209 Y17.6000
G01 F250.00
G01 Z-0.0500
G01 F350.00
G01 X7.0405 Y17.6010 F350.00
G01 X7.0599 Y17.6038 F350.00
G01 X7.0789 Y17.6086 F350.00
G01 X7.0974 Y17.6152 F350.00
G01 X7.1151 Y17.6236 F350.00
G01 X7.1320 Y17.6337 F350.00
G01 X7.1439 Y17.6423 F350.00
G01 X7.1588 Y17.6552 F350.00
G01 X7.1723 Y17.6694 F350.00
G01 X7.1844 Y17.6848 F350.00
G01 X7.1949 Y17.7014 F350.00
G01 X7.2037 Y17.7190 F350.00
G01 X7.2108 Y17.7373 F350.00
G01 X7.2149 Y17.7514 F350.00
G01 X7.2187 Y17.7707 F350.00
G01 X7.2206 Y17.7902 F350.00
G01 X7.2209 Y20.8000 F350.00
G01 X7.2203 Y20.8147 F350.00
G01 X7.2187 Y20.8293 F350.00
G01 X7.2160 Y20.8438 F350.00
G01 X7.2122 Y20.8581 F350.00
G01 X7.2075 Y20.8720 F350.00
G01 X7.2037 Y20.8810 F350.00
G01 X7.1972 Y20.8943 F350.00
G01 X7.1898 Y20.9070 F350.00
G01 X7.1815 Y20.9191 F350.00
G01 X7.1755 Y20.9269 F350.00
G01 X7.1691 Y20.9343 F350.00
G01 X7.1588 Y20.9448 F350.00
G01 X7.1477 Y20.9546 F350.00
G01 X7.1400 Y20.9606 F350.00
G01 X7.1279 Y20.9690 F350.00
G01 X7.1194 Y20.9740 F350.00
G01 X7.1064 Y20.9808 F350.00
G01 X7.0974 Y20.9848 F350.00
G01 X7.0882 Y20.9883 F350.00
G01 X7.0742 Y20.9928 F350.00
G01 X7.0599 Y20.9962 F350.00
G01 X7.0502 Y20.9978 F350.00
G01 X7.0405 Y20.9990 F350.00
G01 X7.0258 Y20.9999 F350.00
G01 X5.0160 Y20.9999 F350.00
G01 X5.0013 Y20.9990 F350.00
G01 X4.9867 Y20.9971 F350.00
G01 X4.9723 Y20.9940 F350.00
G01 X4.9628 Y20.9914 F350.00
G01 X4.9489 Y20.9866 F350.00
G01 X4.9398 Y20.9828 F350.00
G01 X4.9266 Y20.9764 F350.00
G01 X4.9139 Y20.9690 F350.00
G01 X4.9057 Y20.9635 F350.00
G01 X4.8940 Y20.9546 F350.00
G01 X4.8830 Y20.9448 F350.00
G01 X4.8760 Y20.9379 F350.00
G01 X4.8694 Y20.9306 F350.00
G01 X4.8602 Y20.9191 F350.00
G01 X4.8519 Y20.9070 F350.00
G01 X4.8468 Y20.8986 F350.00
G01 X4.8401 Y20.8855 F350.00
G01 X4.8361 Y20.8765 F350.00
G01 X4.8310 Y20.8627 F350.00
G01 X4.8281 Y20.8533 F350.00
G01 X4.8257 Y20.8438 F350.00
G01 X4.8230 Y20.8293 F350.00
G01 X4.8218 Y20.8196 F350.00
G01 X4.8209 Y20.8049 F350.00
G01 X4.8209 Y17.8000 F350.00
G01 X4.8214 Y17.7853 F350.00
G01 X4.8230 Y17.7707 F350.00
G01 X4.8247 Y17.7610 F350.00
G01 X4.8281 Y17.7467 F350.00
G01 X4.8326 Y17.7326 F350.00
G01 X4.8380 Y17.7190 F350.00
G01 X4.8445 Y17.7057 F350.00
G01 X4.8519 Y17.6930 F350.00
G01 X4.8573 Y17.6848 F350.00
G01 X4.8663 Y17.6731 F350.00
G01 X4.8727 Y17.6657 F350.00
G01 X4.8830 Y17.6552 F350.00
G01 X4.8902 Y17.6486 F350.00
G01 X4.9017 Y17.6394 F350.00
G01 X4.9139 Y17.6310 F350.00
G01 X4.9223 Y17.6260 F350.00
G01 X4.9354 Y17.6192 F350.00
G01 X4.9443 Y17.6152 F350.00
G01 X4.9535 Y17.6117 F350.00
G01 X4.9675 Y17.6072 F350.00
G01 X4.9818 Y17.6038 F350.00
G01 X4.9915 Y17.6022 F350.00
G01 X5.0110 Y17.6002 F350.00
G01 X7.0209 Y17.6000 F350.00
G00 Z0.5000
G00 X8.4906 Y20.9544
G01 F250.00
G01 Z-0.0500
G01 F350.00
G01 X8.4722 Y20.9497 F350.00
G01 X8.4628 Y20.9468 F350.00
G01 X8.3566 Y20.9087 F350.00
G01 X8.2590 Y20.8627 F350.00
G01 X8.2459 Y20.8559 F350.00
G01 X8.1492 Y20.7978 F350.00
G01 X8.0623 Y20.7337 F350.00
G01 X8.0472 Y20.7212 F350.00
G01 X7.9708 Y20.6520 F350.00
G01 X7.9606 Y20.6414 F350.00
G01 X7.8882 Y20.5613 F350.00
G01 X7.8237 Y20.4747 F350.00
G01 X7.8128 Y20.4584 F350.00
G01 X7.7576 Y20.3657 F350.00
G01 X7.7112 Y20.2682 F350.00
G01 X7.7037 Y20.2501 F350.00
G01 X7.6706 Y20.1577 F350.00
G01 X7.6649 Y20.1389 F350.00
G01 X7.6411 Y20.0437 F350.00
G01 X7.6372 Y20.0244 F350.00
G01 X7.6216 Y19.9176 F350.00
G01 X7.6159 Y19.8049 F350.00
G01 X7.6159 Y18.7951 F350.00
G01 X7.6216 Y18.6824 F350.00
G01 X7.6380 Y18.5707 F350.00
G01 X7.6411 Y18.5563 F350.00
G01 X7.6675 Y18.4517 F350.00
G01 X7.7072 Y18.3408 F350.00
G01 X7.7576 Y18.2343 F350.00
G01 X7.8181 Y18.1333 F350.00
G01 X7.8882 Y18.0387 F350.00
G01 X7.9673 Y17.9515 F350.00
G01 X8.0546 Y17.8724 F350.00
G01 X8.1492 Y17.8022 F350.00
G01 X8.2502 Y17.7417 F350.00
G01 X8.3566 Y17.6913 F350.00
G01 X8.4675 Y17.6517 F350.00
G01 X8.5818 Y17.6231 F350.00
G01 X8.6982 Y17.6058 F350.00
G01 X8.8159 Y17.6000 F350.00
G01 X8.9335 Y17.6058 F350.00
G01 X9.0451 Y17.6222 F350.00
G01 X9.0595 Y17.6252 F350.00
G01 X9.1547 Y17.6491 F350.00
G01 X9.1735 Y17.6548 F350.00
G01 X9.2751 Y17.6913 F350.00
G01 X9.3815 Y17.7417 F350.00
G01 X9.4825 Y17.8022 F350.00
G01 X9.5694 Y17.8663 F350.00
G01 X9.5846 Y17.8788 F350.00
G01 X9.6573 Y17.9447 F350.00
G01 X9.6712 Y17.9586 F350.00
G01 X9.7435 Y18.0387 F350.00
G01 X9.8136 Y18.1333 F350.00
G01 X9.8742 Y18.2343 F350.00
G01 X9.9205 Y18.3318 F350.00
G01 X9.9280 Y18.3499 F350.00
G01 X9.9611 Y18.4423 F350.00
G01 X9.9668 Y18.4611 F350.00
G01 X9.9928 Y18.5659 F350.00
G01 X10.0095 Y18.6775 F350.00
G01 X10.0108 Y18.6922 F350.00
G01 X10.0159 Y18.8000 F350.00
G01 X10.0159 Y19.8000 F350.00
G01 X10.0105 Y19.9127 F350.00
G01 X10.0089 Y19.9274 F350.00
G01 X9.9928 Y20.0341 F350.00
G01 X9.9656 Y20.1436 F350.00
G01 X9.9611 Y20.1577 F350.00
G01 X9.9263 Y20.2547 F350.00
G01 X9.9205 Y20.2682 F350.00
G01 X9.8911 Y20.3304 F350.00
G01 X9.8911 Y24.2199 F350.00
G01 X11.0119 Y25.3407 F350.00
G01 X11.0562 Y25.3079 F350.00
G01 X11.0683 Y25.2996 F350.00
G01 X11.1566 Y25.2465 F350.00
G01 X11.1695 Y25.2394 F350.00
G01 X11.2716 Y25.1913 F350.00
G01 X11.3732 Y25.1548 F350.00
G01 X11.3872 Y25.1503 F350.00
G01 X11.4968 Y25.1231 F350.00
G01 X11.6132 Y25.1058 F350.00
G01 X11.7309 Y25.1000 F350.00
G01 X11.8436 Y25.1054 F350.00
G01 X11.8582 Y25.1070 F350.00
G01 X11.9650 Y25.1231 F350.00
G01 X12.0697 Y25.1491 F350.00
G01 X12.0885 Y25.1548 F350.00
G01 X12.1809 Y25.1878 F350.00
G01 X12.1991 Y25.1953 F350.00
G01 X12.2965 Y25.2417 F350.00
G01 X12.3975 Y25.3022 F350.00
G01 X12.4921 Y25.3724 F350.00
G01 X12.5794 Y25.4515 F350.00
G01 X12.6521 Y25.5313 F350.00
G01 X12.6645 Y25.5465 F350.00
G01 X12.7286 Y25.6333 F350.00
G01 X12.7892 Y25.7343 F350.00
G01 X12.8355 Y25.8318 F350.00
G01 X12.8430 Y25.8499 F350.00
G01 X12.8792 Y25.9517 F350.00
G01 X12.9078 Y26.0659 F350.00
G01 X12.9251 Y26.1824 F350.00
G01 X12.9308 Y26.2951 F350.00
G01 X12.9309 Y27.2597 F350.00
G01 X14.9794 Y29.3084 F350.00
G01 X15.0157 Y29.3483 F350.00
G01 X15.0282 Y29.3635 F350.00
G01 X15.0631 Y29.4110 F350.00
G01 X15.0936 Y29.4614 F350.00
G01 X15.1028 Y29.4787 F350.00
G01 X15.1278 Y29.5320 F350.00
G01 X15.1510 Y29.5967 F350.00
G01 X15.1677 Y29.6634 F350.00
G01 X15.1765 Y29.7216 F350.00
G01 X15.1785 Y29.7412 F350.00
G01 X15.1811 Y29.8000 F350.00
G01 X15.1811 Y38.0648 F350.00
G01 X15.3003 Y38.1365 F350.00
G01 X15.4266 Y38.2298 F350.00
G01 X15.4418 Y38.2423 F350.00
G01 X15.5579 Y38.3479 F350.00
G01 X15.6636 Y38.4641 F350.00
G01 X15.6760 Y38.4793 F350.00
G01 X15.7694 Y38.6055 F350.00
G01 X15.8503 Y38.7401 F350.00
G01 X15.8595 Y38.7574 F350.00
G01 X15.9265 Y38.8994 F350.00
G01 X15.9796 Y39.0472 F350.00
G01 X15.9853 Y39.0660 F350.00
G01 X16.0232 Y39.2183 F350.00
G01 X16.0465 Y39.3736 F350.00
G01 X16.0484 Y39.3932 F350.00
G01 X16.0556 Y39.5402 F350.00
G01 X16.0558 Y39.5549 F350.00
G01 X16.0477 Y39.7166 F350.00
G01 X16.0249 Y39.8720 F350.00
G01 X16.0210 Y39.8912 F350.00
G01 X15.9853 Y40.0340 F350.00
G01 X15.9796 Y40.0528 F350.00
G01 X15.9265 Y40.2006 F350.00
G01 X15.8551 Y40.3514 F350.00
G01 X15.7694 Y40.4945 F350.00
G01 X15.6760 Y40.6207 F350.00
G01 X15.6636 Y40.6359 F350.00
G01 X15.5647 Y40.7450 F350.00
G01 X15.5508 Y40.7589 F350.00
G01 X15.4343 Y40.8641 F350.00
G01 X15.3003 Y40.9635 F350.00
G01 X15.1572 Y41.0493 F350.00
G01 X15.0154 Y41.1166 F350.00
G01 X14.9973 Y41.1241 F350.00
G01 X14.8493 Y41.1768 F350.00
G01 X14.6875 Y41.2173 F350.00
G01 X14.5322 Y41.2406 F350.00
G01 X14.5127 Y41.2425 F350.00
G01 X14.3657 Y41.2498 F350.00
G01 X14.3460 Y41.2498 F350.00
G01 X14.1892 Y41.2418 F350.00
G01 X14.0339 Y41.2190 F350.00
G01 X14.0146 Y41.2152 F350.00
G01 X13.8624 Y41.1768 F350.00
G01 X13.7053 Y41.1206 F350.00
G01 X13.5545 Y41.0493 F350.00
G01 X13.4114 Y40.9635 F350.00
G01 X13.2774 Y40.8641 F350.00
G01 X13.1609 Y40.7589 F350.00
G01 X13.1470 Y40.7450 F350.00
G01 X13.0417 Y40.6285 F350.00
G01 X12.9480 Y40.5025 F350.00
G01 X12.9371 Y40.4862 F350.00
G01 X12.8614 Y40.3599 F350.00
G01 X12.8522 Y40.3426 F350.00
G01 X12.7853 Y40.2006 F350.00
G01 X12.7291 Y40.0435 F350.00
G01 X12.6885 Y39.8817 F350.00
G01 X12.6640 Y39.7166 F350.00
G01 X12.6559 Y39.5500 F350.00
G01 X12.6633 Y39.3932 F350.00
G01 X12.6652 Y39.3736 F350.00
G01 X12.6868 Y39.2280 F350.00
G01 X12.6907 Y39.2088 F350.00
G01 X12.7291 Y39.0565 F350.00
G01 X12.7853 Y38.8994 F350.00
G01 X12.8566 Y38.7486 F350.00
G01 X12.9397 Y38.6096 F350.00
G01 X12.9480 Y38.5975 F350.00
G01 X13.0417 Y38.4715 F350.00
G01 X13.1470 Y38.3550 F350.00
G01 X13.1609 Y38.3411 F350.00
G01 X13.2700 Y38.2423 F350.00
G01 X13.2812 Y38.2328 F350.00
G01 X13.4114 Y38.1365 F350.00
G01 X13.5502 Y38.0531 F350.00
G01 X13.5633 Y38.0463 F350.00
G01 X13.7008 Y37.9813 F350.00
G01 X13.7145 Y37.9759 F350.00
G01 X13.7806 Y37.9522 F350.00
G01 X13.7806 Y30.0901 F350.00
G01 X12.1233 Y28.4328 F350.00
G01 X12.0885 Y28.4452 F350.00
G01 X12.0745 Y28.4497 F350.00
G01 X11.9698 Y28.4759 F350.00
G01 X11.9553 Y28.4786 F350.00
G01 X11.8582 Y28.4930 F350.00
G01 X11.8436 Y28.4946 F350.00
G01 X11.7309 Y28.5000 F350.00
G01 X11.6230 Y28.4949 F350.00
G01 X11.6035 Y28.4930 F350.00
G01 X11.5064 Y28.4786 F350.00
G01 X11.4920 Y28.4759 F350.00
G01 X11.3825 Y28.4483 F350.00
G01 X11.2808 Y28.4122 F350.00
G01 X11.2627 Y28.4047 F350.00
G01 X11.1652 Y28.3583 F350.00
G01 X11.0642 Y28.2978 F350.00
G01 X10.9773 Y28.2337 F350.00
G01 X10.9622 Y28.2212 F350.00
G01 X10.8823 Y28.1485 F350.00
G01 X10.8097 Y28.0687 F350.00
G01 X10.7972 Y28.0535 F350.00
G01 X10.7331 Y27.9667 F350.00
G01 X10.6774 Y27.8742 F350.00
G01 X10.6681 Y27.8569 F350.00
G01 X10.6222 Y27.7592 F350.00
G01 X10.5856 Y27.6577 F350.00
G01 X10.5812 Y27.6436 F350.00
G01 X10.5539 Y27.5341 F350.00
G01 X10.5378 Y27.4274 F350.00
G01 X10.5362 Y27.4127 F350.00
G01 X10.5309 Y27.3000 F350.00
G01 X10.5309 Y26.8403 F350.00
G01 X8.6957 Y25.0052 F350.00
G01 X8.6560 Y24.9617 F350.00
G01 X8.6435 Y24.9465 F350.00
G01 X8.6086 Y24.8990 F350.00
G01 X8.5757 Y24.8444 F350.00
G01 X8.5689 Y24.8313 F350.00
G01 X8.5439 Y24.7780 F350.00
G01 X8.5238 Y24.7226 F350.00
G01 X8.5181 Y24.7038 F350.00
G01 X8.5041 Y24.6466 F350.00
G01 X8.4952 Y24.5884 F350.00
G01 X8.4933 Y24.5688 F350.00
G01 X8.4907 Y24.5149 F350.00
G01 X8.4906 Y20.9544 F350.00
G00 Z0.5000
G00 X10.9057 Y20.9122
G01 F250.00
G01 Z-0.0500
G01 F350.00
G01 X10.8877 Y20.9047 F350.00
G01 X10.7902 Y20.8583 F350.00
G01 X10.6892 Y20.7978 F350.00
G01 X10.5946 Y20.7276 F350.00
G01 X10.5144 Y20.6553 F350.00
G01 X10.5006 Y20.6414 F350.00
G01 X10.4282 Y20.5613 F350.00
G01 X10.3637 Y20.4747 F350.00
G01 X10.3528 Y20.4584 F350.00
G01 X10.3024 Y20.3742 F350.00
G01 X10.2931 Y20.3569 F350.00
G01 X10.2472 Y20.2592 F350.00
G01 X10.2075 Y20.1483 F350.00
G01 X10.1811 Y20.0437 F350.00
G01 X10.1772 Y20.0244 F350.00
G01 X10.1616 Y19.9176 F350.00
G01 X10.1559 Y19.8049 F350.00
G01 X10.1559 Y18.7951 F350.00
G01 X10.1616 Y18.6824 F350.00
G01 X10.1789 Y18.5659 F350.00
G01 X10.2075 Y18.4517 F350.00
G01 X10.2472 Y18.3408 F350.00
G01 X10.2976 Y18.2343 F350.00
G01 X10.3581 Y18.1333 F350.00
G01 X10.4282 Y18.0387 F350.00
G01 X10.5073 Y17.9515 F350.00
G01 X10.5946 Y17.8724 F350.00
G01 X10.6892 Y17.8022 F350.00
G01 X10.7902 Y17.7417 F350.00
G01 X10.8966 Y17.6913 F350.00
G01 X11.0075 Y17.6517 F350.00
G01 X11.1218 Y17.6231 F350.00
G01 X11.2382 Y17.6058 F350.00
G01 X11.3559 Y17.6000 F350.00
G01 X11.4735 Y17.6058 F350.00
G01 X11.5900 Y17.6231 F350.00
G01 X11.7042 Y17.6517 F350.00
G01 X11.8059 Y17.6878 F350.00
G01 X11.8241 Y17.6953 F350.00
G01 X11.9128 Y17.7373 F350.00
G01 X11.9301 Y17.7465 F350.00
G01 X12.0225 Y17.8022 F350.00
G01 X12.1171 Y17.8724 F350.00
G01 X12.2044 Y17.9515 F350.00
G01 X12.2771 Y18.0313 F350.00
G01 X12.2895 Y18.0465 F350.00
G01 X12.3480 Y18.1253 F350.00
G01 X12.3589 Y18.1416 F350.00
G01 X12.4142 Y18.2343 F350.00
G01 X12.4645 Y18.3408 F350.00
G01 X12.5042 Y18.4517 F350.00
G01 X12.5307 Y18.5563 F350.00
G01 X12.5345 Y18.5756 F350.00
G01 X12.5489 Y18.6726 F350.00
G01 X12.5508 Y18.6922 F350.00
G01 X12.5559 Y18.8000 F350.00
G01 X12.5558 Y19.8049 F350.00
G01 X12.5501 Y19.9176 F350.00
G01 X12.5345 Y20.0244 F350.00
G01 X12.5307 Y20.0437 F350.00
G01 X12.5042 Y20.1483 F350.00
G01 X12.4680 Y20.2501 F350.00
G01 X12.4605 Y20.2682 F350.00
G01 X12.4186 Y20.3569 F350.00
G01 X12.4093 Y20.3742 F350.00
G01 X12.3536 Y20.4667 F350.00
G01 X12.2835 Y20.5613 F350.00
G01 X12.2112 Y20.6414 F350.00
G01 X12.1973 Y20.6553 F350.00
G01 X12.1171 Y20.7276 F350.00
G01 X12.0306 Y20.7921 F350.00
G01 X12.0143 Y20.8030 F350.00
G01 X11.9215 Y20.8583 F350.00
G01 X11.8241 Y20.9047 F350.00
G01 X11.8060 Y20.9122 F350.00
G01 X11.8060 Y21.7886 F350.00
G01 X16.9241 Y26.9067 F350.00
G01 X16.9507 Y26.9357 F350.00
G01 X16.9599 Y26.9472 F350.00
G01 X16.9801 Y26.9749 F350.00
G01 X16.9980 Y27.0043 F350.00
G01 X17.0051 Y27.0172 F350.00
G01 X17.0217 Y27.0527 F350.00
G01 X17.0335 Y27.0850 F350.00
G01 X17.0380 Y27.0991 F350.00
G01 X17.0473 Y27.1372 F350.00
G01 X17.0526 Y27.1711 F350.00
G01 X17.0542 Y27.1858 F350.00
G01 X17.0560 Y27.2250 F350.00
G01 X17.0560 Y43.1000 F350.00
G01 X17.0538 Y43.1441 F350.00
G01 X17.0482 Y43.1830 F350.00
G01 X17.0452 Y43.1974 F350.00
G01 X17.0366 Y43.2307 F350.00
G01 X17.0253 Y43.2631 F350.00
G01 X17.0198 Y43.2768 F350.00
G01 X17.0028 Y43.3122 F350.00
G01 X16.9828 Y43.3460 F350.00
G01 X16.9745 Y43.3581 F350.00
G01 X16.9538 Y43.3856 F350.00
G01 X16.9309 Y43.4112 F350.00
G01 X16.9206 Y43.4217 F350.00
G01 X16.8914 Y43.4480 F350.00
G01 X16.8600 Y43.4715 F350.00
G01 X16.8476 Y43.4795 F350.00
G01 X16.8180 Y43.4970 F350.00
G01 X16.7871 Y43.5119 F350.00
G01 X16.7736 Y43.5177 F350.00
G01 X16.7365 Y43.5307 F350.00
G01 X16.6985 Y43.5405 F350.00
G01 X16.6840 Y43.5432 F350.00
G01 X16.6500 Y43.5480 F350.00
G01 X16.6059 Y43.5501 F350.00
G01 X-0.8091 Y43.5501 F350.00
G01 X-0.8533 Y43.5480 F350.00
G01 X-0.8921 Y43.5424 F350.00
G01 X-0.9065 Y43.5393 F350.00
G01 X-0.9398 Y43.5307 F350.00
G01 X-0.9722 Y43.5194 F350.00
G01 X-0.9859 Y43.5139 F350.00
G01 X-1.0213 Y43.4970 F350.00
G01 X-1.0551 Y43.4769 F350.00
G01 X-1.0672 Y43.4686 F350.00
G01 X-1.0947 Y43.4480 F350.00
G01 X-1.1203 Y43.4251 F350.00
G01 X-1.1309 Y43.4148 F350.00
G01 X-1.1571 Y43.3856 F350.00
G01 X-1.1806 Y43.3541 F350.00
G01 X-1.1887 Y43.3418 F350.00
G01 X-1.2061 Y43.3122 F350.00
G01 X-1.2210 Y43.2812 F350.00
G01 X-1.2268 Y43.2677 F350.00
G01 X-1.2399 Y43.2307 F350.00
G01 X-1.2496 Y43.1926 F350.00
G01 X-1.2523 Y43.1781 F350.00
G01 X-1.2571 Y43.1441 F350.00
G01 X-1.2593 Y43.1000 F350.00
G01 X-1.2593 Y15.6900 F350.00
G01 X-1.2571 Y15.6459 F350.00
G01 X-1.2523 Y15.6119 F350.00
G01 X-1.2485 Y15.5926 F350.00
G01 X-1.2412 Y15.5641 F350.00
G01 X-1.2368 Y15.5500 F350.00
G01 X-1.2250 Y15.5177 F350.00
G01 X-1.2061 Y15.4778 F350.00
G01 X-1.1834 Y15.4399 F350.00
G01 X-1.1602 Y15.4083 F350.00
G01 X-1.1507 Y15.3970 F350.00
G01 X-1.1274 Y15.3717 F350.00
G01 X1.5661 Y12.6783 F350.00
G01 X1.5953 Y12.6520 F350.00
G01 X1.6308 Y12.6257 F350.00
G01 X1.6687 Y12.6030 F350.00
G01 X1.6996 Y12.5881 F350.00
G01 X1.7178 Y12.5806 F350.00
G01 X1.7455 Y12.5707 F350.00
G01 X1.7549 Y12.5679 F350.00
G01 X1.7930 Y12.5585 F350.00
G01 X1.8319 Y12.5526 F350.00
G01 X1.8465 Y12.5513 F350.00
G01 X1.8809 Y12.5499 F350.00
G01 X23.3809 Y12.5499 F350.00
G01 X23.4201 Y12.5516 F350.00
G01 X23.4347 Y12.5532 F350.00
G01 X23.4639 Y12.5576 F350.00
G01 X23.4735 Y12.5595 F350.00
G01 X23.5021 Y12.5666 F350.00
G01 X23.5162 Y12.5707 F350.00
G01 X23.5440 Y12.5806 F350.00
G01 X23.5621 Y12.5881 F350.00
G01 X23.5930 Y12.6030 F350.00
G01 X23.6309 Y12.6257 F350.00
G01 X23.6664 Y12.6520 F350.00
G01 X23.6956 Y12.6783 F350.00
G01 X25.8026 Y14.7852 F350.00
G01 X25.8257 Y14.8107 F350.00
G01 X25.8349 Y14.8222 F350.00
G01 X25.8551 Y14.8499 F350.00
G01 X25.8730 Y14.8793 F350.00
G01 X25.8801 Y14.8922 F350.00
G01 X25.8967 Y14.9277 F350.00
G01 X25.9116 Y14.9693 F350.00
G01 X25.9213 Y15.0074 F350.00
G01 X25.9240 Y15.0219 F350.00
G01 X25.9288 Y15.0559 F350.00
G01 X25.9310 Y15.1000 F350.00
G01 X25.9310 Y20.6993 F350.00
G01 X44.9241 Y39.6925 F350.00
G01 X44.9538 Y39.7252 F350.00
G01 X44.9773 Y39.7567 F350.00
G01 X44.9854 Y39.7690 F350.00
G01 X45.0028 Y39.7986 F350.00
G01 X45.0177 Y39.8296 F350.00
G01 X45.0235 Y39.8431 F350.00
G01 X45.0366 Y39.8801 F350.00
G01 X45.0463 Y39.9182 F350.00
G01 X45.0490 Y39.9326 F350.00
G01 X45.0538 Y39.9667 F350.00
G01 X45.0560 Y40.0108 F350.00
G01 X45.0560 Y48.5999 F350.00
G01 X77.0387 Y48.5999 F350.00
G01 X77.0462 Y48.5818 F350.00
G01 X77.0881 Y48.4931 F350.00
G01 X77.0974 Y48.4758 F350.00
G01 X77.1531 Y48.3833 F350.00
G01 X77.2232 Y48.2887 F350.00
G01 X77.2956 Y48.2086 F350.00
G01 X77.3094 Y48.1947 F350.00
G01 X77.3896 Y48.1224 F350.00
G01 X77.4842 Y48.0522 F350.00
G01 X77.5852 Y47.9917 F350.00
G01 X77.6827 Y47.9453 F350.00
G01 X77.7008 Y47.9378 F350.00
G01 X77.8025 Y47.9017 F350.00
G01 X77.9168 Y47.8731 F350.00
G01 X78.0235 Y47.8570 F350.00
G01 X78.0430 Y47.8551 F350.00
G01 X78.1410 Y47.8502 F350.00
G01 X78.1558 Y47.8501 F350.00
G01 X78.2587 Y47.8551 F350.00
G01 X78.2782 Y47.8570 F350.00
G01 X78.3850 Y47.8731 F350.00
G01 X78.4897 Y47.8991 F350.00
G01 X78.5085 Y47.9048 F350.00
G01 X78.6101 Y47.9413 F350.00
G01 X78.7165 Y47.9917 F350.00
G01 X78.8093 Y48.0470 F350.00
G01 X78.8256 Y48.0579 F350.00
G01 X78.9121 Y48.1224 F350.00
G01 X78.9923 Y48.1947 F350.00
G01 X79.0062 Y48.2086 F350.00
G01 X79.0785 Y48.2887 F350.00
G01 X79.1486 Y48.3833 F350.00
G01 X79.2092 Y48.4843 F350.00
G01 X79.2555 Y48.5818 F350.00
G01 X79.2630 Y48.5999 F350.00
G01 X79.2992 Y48.7017 F350.00
G01 X79.3257 Y48.8063 F350.00
G01 X79.3295 Y48.8256 F350.00
G01 X79.3451 Y48.9324 F350.00
G01 X79.3509 Y49.0500 F350.00
G01 X79.3458 Y49.1578 F350.00
G01 X79.3439 Y49.1774 F350.00
G01 X79.3278 Y49.2841 F350.00
G01 X79.3018 Y49.3889 F350.00
G01 X79.2961 Y49.4077 F350.00
G01 X79.2595 Y49.5092 F350.00
G01 X79.2092 Y49.6157 F350.00
G01 X79.1539 Y49.7084 F350.00
G01 X79.1430 Y49.7247 F350.00
G01 X79.0785 Y49.8113 F350.00
G01 X79.0062 Y49.8914 F350.00
G01 X78.9923 Y49.9053 F350.00
G01 X78.9121 Y49.9776 F350.00
G01 X78.8175 Y50.0478 F350.00
G01 X78.7165 Y50.1083 F350.00
G01 X78.6191 Y50.1547 F350.00
G01 X78.6009 Y50.1622 F350.00
G01 X78.4992 Y50.1983 F350.00
G01 X78.3850 Y50.2269 F350.00
G01 X78.2782 Y50.2430 F350.00
G01 X78.2587 Y50.2449 F350.00
G01 X78.1509 Y50.2500 F350.00
G01 X78.0430 Y50.2449 F350.00
G01 X78.0235 Y50.2430 F350.00
G01 X77.9168 Y50.2269 F350.00
G01 X77.8025 Y50.1983 F350.00
G01 X77.7008 Y50.1622 F350.00
G01 X77.6827 Y50.1547 F350.00
G01 X77.5852 Y50.1083 F350.00
G01 X77.4842 Y50.0478 F350.00
G01 X77.3896 Y49.9776 F350.00
G01 X77.3094 Y49.9053 F350.00
G01 X77.2956 Y49.8914 F350.00
G01 X77.2232 Y49.8113 F350.00
G01 X77.1531 Y49.7167 F350.00
G01 X77.0974 Y49.6242 F350.00
G01 X77.0881 Y49.6069 F350.00
G01 X77.0462 Y49.5182 F350.00
G01 X77.0387 Y49.5001 F350.00
G01 X45.1673 Y49.5001 F350.00
G01 X38.0491 Y56.6183 F350.00
G01 X38.0202 Y56.6448 F350.00
G01 X38.0087 Y56.6540 F350.00
G01 X37.9850 Y56.6715 F350.00
G01 X37.9726 Y56.6795 F350.00
G01 X37.9430 Y56.6970 F350.00
G01 X37.9121 Y56.7119 F350.00
G01 X37.8986 Y56.7177 F350.00
G01 X37.8615 Y56.7307 F350.00
G01 X37.8187 Y56.7415 F350.00
G01 X37.7750 Y56.7480 F350.00
G01 X37.7358 Y56.7501 F350.00
G01 X37.5130 Y56.7501 F350.00
G01 X37.5055 Y56.7682 F350.00
G01 X37.4592 Y56.8657 F350.00
G01 X37.4039 Y56.9584 F350.00
G01 X37.3930 Y56.9747 F350.00
G01 X37.3285 Y57.0613 F350.00
G01 X37.2562 Y57.1414 F350.00
G01 X37.2423 Y57.1553 F350.00
G01 X37.1621 Y57.2276 F350.00
G01 X37.0756 Y57.2921 F350.00
G01 X37.0593 Y57.3030 F350.00
G01 X36.9665 Y57.3583 F350.00
G01 X36.8691 Y57.4047 F350.00
G01 X36.8509 Y57.4122 F350.00
G01 X36.7492 Y57.4483 F350.00
G01 X36.6350 Y57.4769 F350.00
G01 X36.5185 Y57.4942 F350.00
G01 X36.4058 Y57.4999 F350.00
G01 X35.4009 Y57.5000 F350.00
G01 X35.2832 Y57.4942 F350.00
G01 X35.1668 Y57.4769 F350.00
G01 X35.0620 Y57.4509 F350.00
G01 X35.0432 Y57.4452 F350.00
G01 X34.9416 Y57.4087 F350.00
G01 X34.8440 Y57.3627 F350.00
G01 X34.8266 Y57.3535 F350.00
G01 X34.7383 Y57.3004 F350.00
G01 X34.7262 Y57.2921 F350.00
G01 X34.6396 Y57.2276 F350.00
G01 X34.5594 Y57.1553 F350.00
G01 X34.5456 Y57.1414 F350.00
G01 X34.4732 Y57.0613 F350.00
G01 X34.4087 Y56.9747 F350.00
G01 X34.3978 Y56.9584 F350.00
G01 X34.3474 Y56.8742 F350.00
G01 X34.3381 Y56.8569 F350.00
G01 X34.2922 Y56.7592 F350.00
G01 X34.2525 Y56.6483 F350.00
G01 X34.2239 Y56.5341 F350.00
G01 X34.2078 Y56.4274 F350.00
G01 X34.2059 Y56.4078 F350.00
G01 X34.2009 Y56.3000 F350.00
G01 X34.2059 Y56.1922 F350.00
G01 X34.2078 Y56.1726 F350.00
G01 X34.2222 Y56.0756 F350.00
G01 X34.2261 Y56.0563 F350.00
G01 X34.2525 Y55.9517 F350.00
G01 X34.2922 Y55.8408 F350.00
G01 X34.3426 Y55.7343 F350.00
G01 X34.3978 Y55.6416 F350.00
G01 X34.4087 Y55.6253 F350.00
G01 X34.4732 Y55.5387 F350.00
G01 X34.5456 Y55.4586 F350.00
G01 X34.5594 Y55.4447 F350.00
G01 X34.6358 Y55.3755 F350.00
G01 X34.6473 Y55.3663 F350.00
G01 X34.7262 Y55.3079 F350.00
G01 X34.7425 Y55.2970 F350.00
G01 X34.8352 Y55.2417 F350.00
G01 X34.9416 Y55.1913 F350.00
G01 X35.0432 Y55.1548 F350.00
G01 X35.0620 Y55.1491 F350.00
G01 X35.1668 Y55.1231 F350.00
G01 X35.2784 Y55.1063 F350.00
G01 X35.2930 Y55.1051 F350.00
G01 X35.4009 Y55.1000 F350.00
G01 X36.4009 Y55.1000 F350.00
G01 X36.5185 Y55.1058 F350.00
G01 X36.6301 Y55.1222 F350.00
G01 X36.6445 Y55.1252 F350.00
G01 X36.7492 Y55.1517 F350.00
G01 X36.8509 Y55.1878 F350.00
G01 X36.8691 Y55.1953 F350.00
G01 X36.9665 Y55.2417 F350.00
G01 X37.0593 Y55.2970 F350.00
G01 X37.0756 Y55.3079 F350.00
G01 X37.1583 Y55.3693 F350.00
G01 X37.1696 Y55.3788 F350.00
G01 X37.2494 Y55.4515 F350.00
G01 X37.3285 Y55.5387 F350.00
G01 X37.3986 Y55.6333 F350.00
G01 X37.4543 Y55.7258 F350.00
G01 X37.4636 Y55.7431 F350.00
G01 X37.5055 Y55.8318 F350.00
G01 X37.5130 Y55.8499 F350.00
G01 X37.5444 Y55.8499 F350.00
G01 X44.1557 Y49.2386 F350.00
G01 X44.1557 Y40.1972 F350.00
G01 X25.1626 Y21.2041 F350.00
G01 X25.1393 Y21.1788 F350.00
G01 X25.1298 Y21.1675 F350.00
G01 X25.1066 Y21.1359 F350.00
G01 X25.0863 Y21.1023 F350.00
G01 X25.0816 Y21.0936 F350.00
G01 X25.0690 Y21.0670 F350.00
G01 X25.0615 Y21.0489 F350.00
G01 X25.0501 Y21.0165 F350.00
G01 X25.0394 Y20.9736 F350.00
G01 X25.0329 Y20.9299 F350.00
G01 X25.0308 Y20.8907 F350.00
G01 X25.0307 Y15.2864 F350.00
G01 X23.1944 Y13.4501 F350.00
G01 X2.0673 Y13.4501 F350.00
G01 X-0.3590 Y15.8764 F350.00
G01 X-0.3590 Y42.6499 F350.00
G01 X16.1557 Y42.6499 F350.00
G01 X16.1557 Y27.4114 F350.00
G01 X11.0376 Y22.2933 F350.00
G01 X11.0079 Y22.2606 F350.00
G01 X10.9844 Y22.2291 F350.00
G01 X10.9763 Y22.2168 F350.00
G01 X10.9589 Y22.1872 F350.00
G01 X10.9400 Y22.1473 F350.00
G01 X10.9251 Y22.1057 F350.00
G01 X10.9165 Y22.0724 F350.00
G01 X10.9127 Y22.0531 F350.00
G01 X10.9084 Y22.0240 F350.00
G01 X10.9075 Y22.0142 F350.00
G01 X10.9057 Y21.9750 F350.00
G01 X10.9057 Y20.9122 F350.00
G00 Z0.5000
G00 X15.9906 Y20.7732
G01 F250.00
G01 Z-0.0500
G01 F350.00
G01 X15.9373 Y20.7337 F350.00
G01 X15.9258 Y20.7245 F350.00
G01 X15.8494 Y20.6553 F350.00
G01 X15.8389 Y20.6450 F350.00
G01 X15.7632 Y20.5613 F350.00
G01 X15.6987 Y20.4747 F350.00
G01 X15.6904 Y20.4626 F350.00
G01 X15.6326 Y20.3657 F350.00
G01 X15.5822 Y20.2592 F350.00
G01 X15.5425 Y20.1483 F350.00
G01 X15.5139 Y20.0341 F350.00
G01 X15.4966 Y19.9176 F350.00
G01 X15.4909 Y19.8049 F350.00
G01 X15.4909 Y18.7951 F350.00
G01 X15.4966 Y18.6824 F350.00
G01 X15.5122 Y18.5756 F350.00
G01 X15.5161 Y18.5563 F350.00
G01 X15.5399 Y18.4611 F350.00
G01 X15.5440 Y18.4470 F350.00
G01 X15.5822 Y18.3408 F350.00
G01 X15.6326 Y18.2343 F350.00
G01 X15.6931 Y18.1333 F350.00
G01 X15.7632 Y18.0387 F350.00
G01 X15.8423 Y17.9515 F350.00
G01 X15.9296 Y17.8724 F350.00
G01 X16.0242 Y17.8022 F350.00
G01 X16.1252 Y17.7417 F350.00
G01 X16.2316 Y17.6913 F350.00
G01 X16.3425 Y17.6517 F350.00
G01 X16.4568 Y17.6231 F350.00
G01 X16.5732 Y17.6058 F350.00
G01 X16.6909 Y17.6000 F350.00
G01 X16.8085 Y17.6058 F350.00
G01 X16.9250 Y17.6231 F350.00
G01 X17.0297 Y17.6491 F350.00
G01 X17.0439 Y17.6532 F350.00
G01 X17.1501 Y17.6913 F350.00
G01 X17.2478 Y17.7373 F350.00
G01 X17.2651 Y17.7465 F350.00
G01 X17.3575 Y17.8022 F350.00
G01 X17.4521 Y17.8724 F350.00
G01 X17.5323 Y17.9447 F350.00
G01 X17.5462 Y17.9586 F350.00
G01 X17.6185 Y18.0387 F350.00
G01 X17.6886 Y18.1333 F350.00
G01 X17.7443 Y18.2258 F350.00
G01 X17.7536 Y18.2431 F350.00
G01 X17.7995 Y18.3408 F350.00
G01 X17.8392 Y18.4517 F350.00
G01 X17.8657 Y18.5563 F350.00
G01 X17.8695 Y18.5756 F350.00
G01 X17.8839 Y18.6726 F350.00
G01 X17.8858 Y18.6922 F350.00
G01 X17.8909 Y18.8000 F350.00
G01 X17.8908 Y19.8049 F350.00
G01 X17.8851 Y19.9176 F350.00
G01 X17.8695 Y20.0244 F350.00
G01 X17.8657 Y20.0437 F350.00
G01 X17.8392 Y20.1483 F350.00
G01 X17.7995 Y20.2592 F350.00
G01 X17.7492 Y20.3657 F350.00
G01 X17.6913 Y20.4626 F350.00
G01 X17.6830 Y20.4747 F350.00
G01 X17.6185 Y20.5613 F350.00
G01 X17.5428 Y20.6450 F350.00
G01 X17.5323 Y20.6553 F350.00
G01 X17.4559 Y20.7245 F350.00
G01 X17.4444 Y20.7337 F350.00
G01 X17.3911 Y20.7732 F350.00
G01 X17.3911 Y24.2199 F350.00
G01 X18.6276 Y25.4564 F350.00
G01 X18.6394 Y25.4447 F350.00
G01 X18.7196 Y25.3724 F350.00
G01 X18.8142 Y25.3022 F350.00
G01 X18.9152 Y25.2417 F350.00
G01 X19.0216 Y25.1913 F350.00
G01 X19.1325 Y25.1517 F350.00
G01 X19.2468 Y25.1231 F350.00
G01 X19.3632 Y25.1058 F350.00
G01 X19.4809 Y25.1000 F350.00
G01 X19.5985 Y25.1058 F350.00
G01 X19.7150 Y25.1231 F350.00
G01 X19.8292 Y25.1517 F350.00
G01 X19.9401 Y25.1913 F350.00
G01 X20.0465 Y25.2417 F350.00
G01 X20.1475 Y25.3022 F350.00
G01 X20.2421 Y25.3724 F350.00
G01 X20.3294 Y25.4515 F350.00
G01 X20.4021 Y25.5313 F350.00
G01 X20.4145 Y25.5465 F350.00
G01 X20.4786 Y25.6333 F350.00
G01 X20.5392 Y25.7343 F350.00
G01 X20.5895 Y25.8408 F350.00
G01 X20.6261 Y25.9423 F350.00
G01 X20.6318 Y25.9611 F350.00
G01 X20.6557 Y26.0563 F350.00
G01 X20.6587 Y26.0707 F350.00
G01 X20.6751 Y26.1824 F350.00
G01 X20.6809 Y26.3000 F350.00
G01 X20.6808 Y27.3049 F350.00
G01 X20.6751 Y27.4176 F350.00
G01 X20.6641 Y27.4930 F350.00
G01 X23.9760 Y30.8048 F350.00
G01 X24.0222 Y30.8558 F350.00
G01 X24.0574 Y30.9029 F350.00
G01 X24.0683 Y30.9193 F350.00
G01 X24.0984 Y30.9699 F350.00
G01 X24.1238 Y31.0231 F350.00
G01 X24.1313 Y31.0412 F350.00
G01 X24.1510 Y31.0967 F350.00
G01 X24.1655 Y31.1538 F350.00
G01 X24.1693 Y31.1731 F350.00
G01 X24.1777 Y31.2314 F350.00
G01 X24.1809 Y31.2902 F350.00
G01 X24.1811 Y33.4099 F350.00
G01 X27.2260 Y36.4548 F350.00
G01 X27.2722 Y36.5058 F350.00
G01 X27.3074 Y36.5529 F350.00
G01 X27.3183 Y36.5693 F350.00
G01 X27.3484 Y36.6199 F350.00
G01 X27.3738 Y36.6731 F350.00
G01 X27.3813 Y36.6912 F350.00
G01 X27.4010 Y36.7467 F350.00
G01 X27.4155 Y36.8038 F350.00
G01 X27.4193 Y36.8231 F350.00
G01 X27.4265 Y36.8716 F350.00
G01 X27.4282 Y36.8863 F350.00
G01 X27.4311 Y36.9500 F350.00
G01 X27.4311 Y38.0026 F350.00
G01 X27.5322 Y38.0507 F350.00
G01 X27.6670 Y38.1312 F350.00
G01 X27.6834 Y38.1422 F350.00
G01 X27.8055 Y38.2328 F350.00
G01 X27.8168 Y38.2423 F350.00
G01 X27.9329 Y38.3479 F350.00
G01 X28.0418 Y38.4678 F350.00
G01 X28.0510 Y38.4793 F350.00
G01 X28.1444 Y38.6055 F350.00
G01 X28.2301 Y38.7486 F350.00
G01 X28.3015 Y38.8994 F350.00
G01 X28.3562 Y39.0518 F350.00
G01 X28.3603 Y39.0660 F350.00
G01 X28.3982 Y39.2183 F350.00
G01 X28.4215 Y39.3736 F350.00
G01 X28.4234 Y39.3932 F350.00
G01 X28.4306 Y39.5402 F350.00
G01 X28.4306 Y39.5598 F350.00
G01 X28.4227 Y39.7166 F350.00
G01 X28.3982 Y39.8817 F350.00
G01 X28.3577 Y40.0435 F350.00
G01 X28.3015 Y40.2006 F350.00
G01 X28.2301 Y40.3514 F350.00
G01 X28.1496 Y40.4862 F350.00
G01 X28.1387 Y40.5025 F350.00
G01 X28.0510 Y40.6207 F350.00
G01 X28.0386 Y40.6359 F350.00
G01 X27.9329 Y40.7521 F350.00
G01 X27.8093 Y40.8641 F350.00
G01 X27.6753 Y40.9635 F350.00
G01 X27.5365 Y41.0469 F350.00
G01 X27.5235 Y41.0537 F350.00
G01 X27.3814 Y41.1206 F350.00
G01 X27.2243 Y41.1768 F350.00
G01 X27.0625 Y41.2173 F350.00
G01 X26.8975 Y41.2418 F350.00
G01 X26.7309 Y41.2500 F350.00
G01 X26.5642 Y41.2418 F350.00
G01 X26.3992 Y41.2173 F350.00
G01 X26.2374 Y41.1768 F350.00
G01 X26.0803 Y41.1206 F350.00
G01 X25.9295 Y41.0493 F350.00
G01 X25.7864 Y40.9635 F350.00
G01 X25.6524 Y40.8641 F350.00
G01 X25.5288 Y40.7521 F350.00
G01 X25.4167 Y40.6285 F350.00
G01 X25.3174 Y40.4945 F350.00
G01 X25.2364 Y40.3599 F350.00
G01 X25.2293 Y40.3470 F350.00
G01 X25.1603 Y40.2006 F350.00
G01 X25.1041 Y40.0435 F350.00
G01 X25.0635 Y39.8817 F350.00
G01 X25.0390 Y39.7166 F350.00
G01 X25.0309 Y39.5500 F350.00
G01 X25.0390 Y39.3834 F350.00
G01 X25.0635 Y39.2183 F350.00
G01 X25.1014 Y39.0660 F350.00
G01 X25.1071 Y39.0472 F350.00
G01 X25.1603 Y38.8994 F350.00
G01 X25.2316 Y38.7486 F350.00
G01 X25.3174 Y38.6055 F350.00
G01 X25.4107 Y38.4793 F350.00
G01 X25.4199 Y38.4678 F350.00
G01 X25.5288 Y38.3479 F350.00
G01 X25.6450 Y38.2423 F350.00
G01 X25.6562 Y38.2328 F350.00
G01 X25.7784 Y38.1422 F350.00
G01 X25.7947 Y38.1312 F350.00
G01 X25.9295 Y38.0507 F350.00
G01 X26.0306 Y38.0026 F350.00
G01 X26.0306 Y37.2401 F350.00
G01 X22.9857 Y34.1952 F350.00
G01 X22.9460 Y34.1517 F350.00
G01 X22.9335 Y34.1365 F350.00
G01 X22.8986 Y34.0890 F350.00
G01 X22.8657 Y34.0344 F350.00
G01 X22.8589 Y34.0213 F350.00
G01 X22.8339 Y33.9680 F350.00
G01 X22.8138 Y33.9126 F350.00
G01 X22.8081 Y33.8938 F350.00
G01 X22.7941 Y33.8366 F350.00
G01 X22.7852 Y33.7784 F350.00
G01 X22.7833 Y33.7588 F350.00
G01 X22.7807 Y33.7049 F350.00
G01 X22.7806 Y31.5901 F350.00
G01 X19.6738 Y28.4833 F350.00
G01 X19.5985 Y28.4942 F350.00
G01 X19.4907 Y28.4998 F350.00
G01 X19.4710 Y28.4998 F350.00
G01 X19.3681 Y28.4946 F350.00
G01 X19.3535 Y28.4930 F350.00
G01 X19.2468 Y28.4769 F350.00
G01 X19.1420 Y28.4509 F350.00
G01 X19.1278 Y28.4468 F350.00
G01 X19.0308 Y28.4122 F350.00
G01 X19.0127 Y28.4047 F350.00
G01 X18.9152 Y28.3583 F350.00
G01 X18.8225 Y28.3030 F350.00
G01 X18.8062 Y28.2921 F350.00
G01 X18.7196 Y28.2276 F350.00
G01 X18.6323 Y28.1485 F350.00
G01 X18.5532 Y28.0613 F350.00
G01 X18.4887 Y27.9747 F350.00
G01 X18.4778 Y27.9584 F350.00
G01 X18.4226 Y27.8657 F350.00
G01 X18.3762 Y27.7682 F350.00
G01 X18.3687 Y27.7501 F350.00
G01 X18.3340 Y27.6530 F350.00
G01 X18.3299 Y27.6389 F350.00
G01 X18.3039 Y27.5341 F350.00
G01 X18.2866 Y27.4176 F350.00
G01 X18.2809 Y27.3049 F350.00
G01 X18.2809 Y27.0903 F350.00
G01 X16.1957 Y25.0052 F350.00
G01 X16.1560 Y24.9617 F350.00
G01 X16.1435 Y24.9465 F350.00
G01 X16.1086 Y24.8990 F350.00
G01 X16.0757 Y24.8444 F350.00
G01 X16.0689 Y24.8313 F350.00
G01 X16.0439 Y24.7780 F350.00
G01 X16.0238 Y24.7226 F350.00
G01 X16.0181 Y24.7038 F350.00
G01 X16.0041 Y24.6466 F350.00
G01 X15.9952 Y24.5884 F350.00
G01 X15.9933 Y24.5688 F350.00
G01 X15.9907 Y24.5149 F350.00
G01 X15.9906 Y20.7732 F350.00
G00 Z0.5000
G00 X14.8959 Y17.6000
G01 F250.00
G01 Z-0.0500
G01 F350.00
G01 X14.9155 Y17.6010 F350.00
G01 X14.9349 Y17.6038 F350.00
G01 X14.9539 Y17.6086 F350.00
G01 X14.9724 Y17.6152 F350.00
G01 X14.9901 Y17.6236 F350.00
G01 X15.0070 Y17.6337 F350.00
G01 X15.0189 Y17.6423 F350.00
G01 X15.0338 Y17.6552 F350.00
G01 X15.0473 Y17.6694 F350.00
G01 X15.0594 Y17.6848 F350.00
G01 X15.0699 Y17.7014 F350.00
G01 X15.0767 Y17.7145 F350.00
G01 X15.0842 Y17.7326 F350.00
G01 X15.0899 Y17.7514 F350.00
G01 X15.0937 Y17.7707 F350.00
G01 X15.0956 Y17.7902 F350.00
G01 X15.0959 Y20.8000 F350.00
G01 X15.0953 Y20.8147 F350.00
G01 X15.0937 Y20.8293 F350.00
G01 X15.0910 Y20.8438 F350.00
G01 X15.0872 Y20.8581 F350.00
G01 X15.0842 Y20.8674 F350.00
G01 X15.0787 Y20.8810 F350.00
G01 X15.0722 Y20.8943 F350.00
G01 X15.0648 Y20.9070 F350.00
G01 X15.0565 Y20.9191 F350.00
G01 X15.0505 Y20.9269 F350.00
G01 X15.0441 Y20.9343 F350.00
G01 X15.0338 Y20.9448 F350.00
G01 X15.0227 Y20.9546 F350.00
G01 X15.0150 Y20.9606 F350.00
G01 X15.0029 Y20.9690 F350.00
G01 X14.9944 Y20.9740 F350.00
G01 X14.9814 Y20.9808 F350.00
G01 X14.9724 Y20.9848 F350.00
G01 X14.9632 Y20.9883 F350.00
G01 X14.9492 Y20.9928 F350.00
G01 X14.9349 Y20.9962 F350.00
G01 X14.9252 Y20.9978 F350.00
G01 X14.9155 Y20.9990 F350.00
G01 X14.9008 Y20.9999 F350.00
G01 X12.8910 Y20.9999 F350.00
G01 X12.8763 Y20.9990 F350.00
G01 X12.8617 Y20.9971 F350.00
G01 X12.8473 Y20.9940 F350.00
G01 X12.8378 Y20.9914 F350.00
G01 X12.8239 Y20.9866 F350.00
G01 X12.8148 Y20.9828 F350.00
G01 X12.8016 Y20.9764 F350.00
G01 X12.7889 Y20.9690 F350.00
G01 X12.7807 Y20.9635 F350.00
G01 X12.7690 Y20.9546 F350.00
G01 X12.7580 Y20.9448 F350.00
G01 X12.7510 Y20.9379 F350.00
G01 X12.7444 Y20.9306 F350.00
G01 X12.7352 Y20.9191 F350.00
G01 X12.7269 Y20.9070 F350.00
G01 X12.7218 Y20.8986 F350.00
G01 X12.7151 Y20.8855 F350.00
G01 X12.7111 Y20.8765 F350.00
G01 X12.7076 Y20.8674 F350.00
G01 X12.7031 Y20.8533 F350.00
G01 X12.7007 Y20.8438 F350.00
G01 X12.6980 Y20.8293 F350.00
G01 X12.6968 Y20.8196 F350.00
G01 X12.6959 Y20.8049 F350.00
G01 X12.6959 Y17.8000 F350.00
G01 X12.6961 Y17.7902 F350.00
G01 X12.6974 Y17.7755 F350.00
G01 X12.6997 Y17.7610 F350.00
G01 X12.7031 Y17.7467 F350.00
G01 X12.7076 Y17.7326 F350.00
G01 X12.7130 Y17.7190 F350.00
G01 X12.7195 Y17.7057 F350.00
G01 X12.7269 Y17.6930 F350.00
G01 X12.7323 Y17.6848 F350.00
G01 X12.7413 Y17.6731 F350.00
G01 X12.7477 Y17.6657 F350.00
G01 X12.7580 Y17.6552 F350.00
G01 X12.7652 Y17.6486 F350.00
G01 X12.7767 Y17.6394 F350.00
G01 X12.7889 Y17.6310 F350.00
G01 X12.7973 Y17.6260 F350.00
G01 X12.8104 Y17.6192 F350.00
G01 X12.8193 Y17.6152 F350.00
G01 X12.8285 Y17.6117 F350.00
G01 X12.8425 Y17.6072 F350.00
G01 X12.8568 Y17.6038 F350.00
G01 X12.8665 Y17.6022 F350.00
G01 X12.8860 Y17.6002 F350.00
G01 X14.8959 Y17.6000 F350.00
G00 Z0.5000
G00 X22.7709 Y17.6000
G01 F250.00
G01 Z-0.0500
G01 F350.00
G01 X22.7905 Y17.6010 F350.00
G01 X22.8099 Y17.6038 F350.00
G01 X22.8289 Y17.6086 F350.00
G01 X22.8474 Y17.6152 F350.00
G01 X22.8651 Y17.6236 F350.00
G01 X22.8820 Y17.6337 F350.00
G01 X22.8939 Y17.6423 F350.00
G01 X22.9088 Y17.6552 F350.00
G01 X22.9223 Y17.6694 F350.00
G01 X22.9344 Y17.6848 F350.00
G01 X22.9449 Y17.7014 F350.00
G01 X22.9517 Y17.7145 F350.00
G01 X22.9592 Y17.7326 F350.00
G01 X22.9649 Y17.7514 F350.00
G01 X22.9687 Y17.7707 F350.00
G01 X22.9706 Y17.7902 F350.00
G01 X22.9709 Y20.8000 F350.00
G01 X22.9703 Y20.8147 F350.00
G01 X22.9694 Y20.8245 F350.00
G01 X22.9670 Y20.8390 F350.00
G01 X22.9636 Y20.8533 F350.00
G01 X22.9592 Y20.8674 F350.00
G01 X22.9537 Y20.8810 F350.00
G01 X22.9472 Y20.8943 F350.00
G01 X22.9398 Y20.9070 F350.00
G01 X22.9315 Y20.9191 F350.00
G01 X22.9255 Y20.9269 F350.00
G01 X22.9157 Y20.9379 F350.00
G01 X22.9088 Y20.9448 F350.00
G01 X22.8977 Y20.9546 F350.00
G01 X22.8900 Y20.9606 F350.00
G01 X22.8779 Y20.9690 F350.00
G01 X22.8694 Y20.9740 F350.00
G01 X22.8564 Y20.9808 F350.00
G01 X22.8474 Y20.9848 F350.00
G01 X22.8382 Y20.9883 F350.00
G01 X22.8242 Y20.9928 F350.00
G01 X22.8099 Y20.9962 F350.00
G01 X22.8002 Y20.9978 F350.00
G01 X22.7905 Y20.9990 F350.00
G01 X22.7758 Y20.9999 F350.00
G01 X20.7660 Y20.9999 F350.00
G01 X20.7513 Y20.9990 F350.00
G01 X20.7367 Y20.9971 F350.00
G01 X20.7223 Y20.9940 F350.00
G01 X20.7128 Y20.9914 F350.00
G01 X20.6989 Y20.9866 F350.00
G01 X20.6898 Y20.9828 F350.00
G01 X20.6766 Y20.9764 F350.00
G01 X20.6639 Y20.9690 F350.00
G01 X20.6557 Y20.9635 F350.00
G01 X20.6440 Y20.9546 F350.00
G01 X20.6330 Y20.9448 F350.00
G01 X20.6260 Y20.9379 F350.00
G01 X20.6163 Y20.9269 F350.00
G01 X20.6102 Y20.9191 F350.00
G01 X20.6046 Y20.9111 F350.00
G01 X20.5968 Y20.8986 F350.00
G01 X20.5922 Y20.8899 F350.00
G01 X20.5861 Y20.8765 F350.00
G01 X20.5826 Y20.8674 F350.00
G01 X20.5781 Y20.8533 F350.00
G01 X20.5757 Y20.8438 F350.00
G01 X20.5730 Y20.8293 F350.00
G01 X20.5714 Y20.8147 F350.00
G01 X20.5709 Y20.8049 F350.00
G01 X20.5709 Y17.8000 F350.00
G01 X20.5714 Y17.7853 F350.00
G01 X20.5730 Y17.7707 F350.00
G01 X20.5757 Y17.7562 F350.00
G01 X20.5795 Y17.7419 F350.00
G01 X20.5826 Y17.7326 F350.00
G01 X20.5880 Y17.7190 F350.00
G01 X20.5945 Y17.7057 F350.00
G01 X20.6019 Y17.6930 F350.00
G01 X20.6073 Y17.6848 F350.00
G01 X20.6163 Y17.6731 F350.00
G01 X20.6227 Y17.6657 F350.00
G01 X20.6330 Y17.6552 F350.00
G01 X20.6402 Y17.6486 F350.00
G01 X20.6517 Y17.6394 F350.00
G01 X20.6639 Y17.6310 F350.00
G01 X20.6723 Y17.6260 F350.00
G01 X20.6854 Y17.6192 F350.00
G01 X20.6943 Y17.6152 F350.00
G01 X20.7035 Y17.6117 F350.00
G01 X20.7175 Y17.6072 F350.00
G01 X20.7318 Y17.6038 F350.00
G01 X20.7415 Y17.6022 F350.00
G01 X20.7610 Y17.6002 F350.00
G01 X22.7709 Y17.6000 F350.00
G00 Z0.5000
G00 X26.8806 Y16.4842
G01 F250.00
G01 Z-0.0500
G01 F350.00
G01 X26.8806 Y15.5000 F350.00
G01 X26.8836 Y15.4363 F350.00
G01 X26.8852 Y15.4216 F350.00
G01 X26.8941 Y15.3634 F350.00
G01 X26.9108 Y15.2967 F350.00
G01 X26.9339 Y15.2320 F350.00
G01 X26.9589 Y15.1787 F350.00
G01 X26.9657 Y15.1656 F350.00
G01 X26.9934 Y15.1193 F350.00
G01 X27.0043 Y15.1029 F350.00
G01 X27.0396 Y15.0558 F350.00
G01 X27.0823 Y15.0084 F350.00
G01 X28.5806 Y13.5099 F350.00
G01 X28.5806 Y7.0577 F350.00
G01 X21.3912 Y7.0577 F350.00
G01 X21.3911 Y7.2447 F350.00
G01 X21.3885 Y7.2955 F350.00
G01 X21.3820 Y7.3409 F350.00
G01 X21.3793 Y7.3554 F350.00
G01 X21.3694 Y7.3951 F350.00
G01 X21.3637 Y7.4139 F350.00
G01 X21.3480 Y7.4571 F350.00
G01 X21.3286 Y7.4986 F350.00
G01 X21.3218 Y7.5117 F350.00
G01 X21.2955 Y7.5552 F350.00
G01 X21.2624 Y7.5999 F350.00
G01 X21.2249 Y7.6412 F350.00
G01 X21.1837 Y7.6786 F350.00
G01 X21.1389 Y7.7118 F350.00
G01 X21.0911 Y7.7405 F350.00
G01 X21.0408 Y7.7643 F350.00
G01 X20.9883 Y7.7830 F350.00
G01 X20.9439 Y7.7944 F350.00
G01 X20.9246 Y7.7982 F350.00
G01 X20.8792 Y7.8047 F350.00
G01 X20.8236 Y7.8075 F350.00
G01 X19.0589 Y7.8075 F350.00
G01 X19.0032 Y7.8047 F350.00
G01 X18.9529 Y7.7975 F350.00
G01 X18.9385 Y7.7944 F350.00
G01 X18.9035 Y7.7857 F350.00
G01 X18.8848 Y7.7800 F350.00
G01 X18.8416 Y7.7643 F350.00
G01 X18.7913 Y7.7405 F350.00
G01 X18.7435 Y7.7118 F350.00
G01 X18.7065 Y7.6847 F350.00
G01 X18.6913 Y7.6722 F350.00
G01 X18.6575 Y7.6412 F350.00
G01 X18.6201 Y7.5999 F350.00
G01 X18.5925 Y7.5632 F350.00
G01 X18.5816 Y7.5469 F350.00
G01 X18.5582 Y7.5074 F350.00
G01 X18.5344 Y7.4571 F350.00
G01 X18.5187 Y7.4139 F350.00
G01 X18.5130 Y7.3951 F350.00
G01 X18.5043 Y7.3602 F350.00
G01 X18.5012 Y7.3457 F350.00
G01 X18.4939 Y7.2955 F350.00
G01 X18.4912 Y7.2398 F350.00
G01 X18.4912 Y5.4751 F350.00
G01 X18.4932 Y5.4293 F350.00
G01 X18.4951 Y5.4097 F350.00
G01 X18.5021 Y5.3644 F350.00
G01 X18.5130 Y5.3198 F350.00
G01 X18.5187 Y5.3010 F350.00
G01 X18.5344 Y5.2579 F350.00
G01 X18.5538 Y5.2163 F350.00
G01 X18.5631 Y5.1990 F350.00
G01 X18.5869 Y5.1598 F350.00
G01 X18.6170 Y5.1188 F350.00
G01 X18.6265 Y5.1076 F350.00
G01 X18.6507 Y5.0808 F350.00
G01 X18.6646 Y5.0670 F350.00
G01 X18.6987 Y5.0363 F350.00
G01 X18.7355 Y5.0088 F350.00
G01 X18.7518 Y4.9979 F350.00
G01 X18.7827 Y4.9793 F350.00
G01 X18.7956 Y4.9722 F350.00
G01 X18.8416 Y4.9507 F350.00
G01 X18.8848 Y4.9350 F350.00
G01 X18.9035 Y4.9293 F350.00
G01 X18.9385 Y4.9205 F350.00
G01 X18.9529 Y4.9175 F350.00
G01 X19.0032 Y4.9102 F350.00
G01 X19.0589 Y4.9075 F350.00
G01 X20.8285 Y4.9075 F350.00
G01 X20.8743 Y4.9098 F350.00
G01 X20.8889 Y4.9114 F350.00
G01 X20.9343 Y4.9184 F350.00
G01 X20.9789 Y4.9293 F350.00
G01 X20.9930 Y4.9334 F350.00
G01 X21.0362 Y4.9489 F350.00
G01 X21.0498 Y4.9547 F350.00
G01 X21.0868 Y4.9722 F350.00
G01 X21.0997 Y4.9793 F350.00
G01 X21.1389 Y5.0031 F350.00
G01 X21.1837 Y5.0363 F350.00
G01 X21.2249 Y5.0737 F350.00
G01 X21.2559 Y5.1076 F350.00
G01 X21.2684 Y5.1228 F350.00
G01 X21.2955 Y5.1598 F350.00
G01 X21.3193 Y5.1990 F350.00
G01 X21.3264 Y5.2119 F350.00
G01 X21.3440 Y5.2489 F350.00
G01 X21.3498 Y5.2625 F350.00
G01 X21.3653 Y5.3057 F350.00
G01 X21.3694 Y5.3198 F350.00
G01 X21.3793 Y5.3596 F350.00
G01 X21.3820 Y5.3741 F350.00
G01 X21.3885 Y5.4195 F350.00
G01 X21.3910 Y5.4653 F350.00
G01 X21.3912 Y5.6572 F350.00
G01 X28.5806 Y5.6572 F350.00
G01 X28.5807 Y1.9051 F350.00
G01 X28.5840 Y1.8414 F350.00
G01 X28.5941 Y1.7734 F350.00
G01 X28.6108 Y1.7067 F350.00
G01 X28.6321 Y1.6466 F350.00
G01 X28.6379 Y1.6331 F350.00
G01 X28.6633 Y1.5799 F350.00
G01 X28.6986 Y1.5210 F350.00
G01 X28.7396 Y1.4658 F350.00
G01 X28.7823 Y1.4184 F350.00
G01 X30.2009 Y-0.0003 F350.00
G01 X30.2009 Y-1.2100 F350.00
G01 X30.2059 Y-1.3178 F350.00
G01 X30.2078 Y-1.3374 F350.00
G01 X30.2239 Y-1.4441 F350.00
G01 X30.2499 Y-1.5489 F350.00
G01 X30.2556 Y-1.5677 F350.00
G01 X30.2922 Y-1.6692 F350.00
G01 X30.3381 Y-1.7669 F350.00
G01 X30.3474 Y-1.7842 F350.00
G01 X30.4031 Y-1.8767 F350.00
G01 X30.4702 Y-1.9674 F350.00
G01 X30.4797 Y-1.9787 F350.00
G01 X30.5456 Y-2.0514 F350.00
G01 X30.5594 Y-2.0653 F350.00
G01 X30.6396 Y-2.1376 F350.00
G01 X30.7342 Y-2.2078 F350.00
G01 X30.8352 Y-2.2683 F350.00
G01 X30.9327 Y-2.3147 F350.00
G01 X30.9508 Y-2.3222 F350.00
G01 X31.0525 Y-2.3583 F350.00
G01 X31.1668 Y-2.3869 F350.00
G01 X31.2735 Y-2.4030 F350.00
G01 X31.2930 Y-2.4049 F350.00
G01 X31.4009 Y-2.4100 F350.00
G01 X31.5087 Y-2.4049 F350.00
G01 X31.5282 Y-2.4030 F350.00
G01 X31.6350 Y-2.3869 F350.00
G01 X31.7397 Y-2.3609 F350.00
G01 X31.7585 Y-2.3552 F350.00
G01 X31.8601 Y-2.3187 F350.00
G01 X31.9578 Y-2.2727 F350.00
G01 X31.9751 Y-2.2635 F350.00
G01 X32.0675 Y-2.2078 F350.00
G01 X32.1544 Y-2.1437 F350.00
G01 X32.1696 Y-2.1312 F350.00
G01 X32.2423 Y-2.0653 F350.00
G01 X32.2562 Y-2.0514 F350.00
G01 X32.3285 Y-1.9713 F350.00
G01 X32.3930 Y-1.8847 F350.00
G01 X32.4039 Y-1.8684 F350.00
G01 X32.4592 Y-1.7757 F350.00
G01 X32.5055 Y-1.6782 F350.00
G01 X32.5130 Y-1.6601 F350.00
G01 X32.5492 Y-1.5583 F350.00
G01 X32.5757 Y-1.4537 F350.00
G01 X32.5795 Y-1.4344 F350.00
G01 X32.5951 Y-1.3276 F350.00
G01 X32.6009 Y-1.2100 F350.00
G01 X32.6009 Y0.7900 F350.00
G01 X32.5951 Y0.9076 F350.00
G01 X32.5787 Y1.0193 F350.00
G01 X32.5757 Y1.0337 F350.00
G01 X32.5492 Y1.1383 F350.00
G01 X32.5130 Y1.2401 F350.00
G01 X32.5055 Y1.2582 F350.00
G01 X32.4592 Y1.3557 F350.00
G01 X32.4039 Y1.4484 F350.00
G01 X32.3930 Y1.4647 F350.00
G01 X32.3285 Y1.5513 F350.00
G01 X32.2494 Y1.6385 F350.00
G01 X32.1696 Y1.7112 F350.00
G01 X32.1544 Y1.7237 F350.00
G01 X32.0675 Y1.7878 F350.00
G01 X31.9751 Y1.8435 F350.00
G01 X31.9578 Y1.8527 F350.00
G01 X31.8646 Y1.8967 F350.00
G01 X31.8509 Y1.9022 F350.00
G01 X31.7585 Y1.9352 F350.00
G01 X31.7397 Y1.9409 F350.00
G01 X31.6350 Y1.9669 F350.00
G01 X31.5185 Y1.9842 F350.00
G01 X31.4009 Y1.9900 F350.00
G01 X31.2930 Y1.9849 F350.00
G01 X31.2735 Y1.9830 F350.00
G01 X31.1668 Y1.9669 F350.00
G01 X31.0525 Y1.9383 F350.00
G01 X30.9508 Y1.9022 F350.00
G01 X30.9327 Y1.8947 F350.00
G01 X30.8352 Y1.8483 F350.00
G01 X30.7342 Y1.7878 F350.00
G01 X30.6473 Y1.7237 F350.00
G01 X30.6322 Y1.7112 F350.00
G01 X30.5594 Y1.6453 F350.00
G01 X30.5476 Y1.6336 F350.00
G01 X29.9811 Y2.2001 F350.00
G01 X29.9811 Y13.8000 F350.00
G01 X29.9785 Y13.8588 F350.00
G01 X29.9772 Y13.8735 F350.00
G01 X29.9677 Y13.9366 F350.00
G01 X29.9536 Y13.9938 F350.00
G01 X29.9479 Y14.0126 F350.00
G01 X29.9278 Y14.0680 F350.00
G01 X29.8984 Y14.1301 F350.00
G01 X29.8683 Y14.1807 F350.00
G01 X29.8574 Y14.1971 F350.00
G01 X29.8252 Y14.2404 F350.00
G01 X29.8157 Y14.2517 F350.00
G01 X29.7760 Y14.2952 F350.00
G01 X28.2811 Y15.7901 F350.00
G01 X28.2811 Y16.4694 F350.00
G01 X28.3521 Y16.5224 F350.00
G01 X28.4323 Y16.5947 F350.00
G01 X28.4462 Y16.6086 F350.00
G01 X28.5121 Y16.6813 F350.00
G01 X28.5245 Y16.6965 F350.00
G01 X28.5886 Y16.7833 F350.00
G01 X28.6443 Y16.8758 F350.00
G01 X28.6536 Y16.8931 F350.00
G01 X28.6995 Y16.9908 F350.00
G01 X28.7392 Y17.1017 F350.00
G01 X28.7678 Y17.2159 F350.00
G01 X28.7845 Y17.3275 F350.00
G01 X28.7858 Y17.3422 F350.00
G01 X28.7909 Y17.4500 F350.00
G01 X28.7909 Y19.4500 F350.00
G01 X28.7851 Y19.5676 F350.00
G01 X28.7678 Y19.6841 F350.00
G01 X28.7418 Y19.7889 F350.00
G01 X28.7361 Y19.8077 F350.00
G01 X28.6995 Y19.9092 F350.00
G01 X28.6492 Y20.0157 F350.00
G01 X28.5939 Y20.1084 F350.00
G01 X28.5830 Y20.1247 F350.00
G01 X28.5245 Y20.2035 F350.00
G01 X28.5121 Y20.2187 F350.00
G01 X28.4394 Y20.2985 F350.00
G01 X28.3521 Y20.3776 F350.00
G01 X28.2575 Y20.4478 F350.00
G01 X28.1651 Y20.5035 F350.00
G01 X28.1478 Y20.5127 F350.00
G01 X28.0591 Y20.5547 F350.00
G01 X28.0409 Y20.5622 F350.00
G01 X27.9392 Y20.5983 F350.00
G01 X27.8298 Y20.6259 F350.00
G01 X27.8153 Y20.6286 F350.00
G01 X27.7085 Y20.6442 F350.00
G01 X27.5909 Y20.6500 F350.00
G01 X27.4732 Y20.6442 F350.00
G01 X27.3568 Y20.6269 F350.00
G01 X27.2425 Y20.5983 F350.00
G01 X27.1316 Y20.5587 F350.00
G01 X27.0252 Y20.5083 F350.00
G01 X26.9242 Y20.4478 F350.00
G01 X26.8296 Y20.3776 F350.00
G01 X26.7423 Y20.2985 F350.00
G01 X26.6632 Y20.2113 F350.00
G01 X26.5931 Y20.1167 F350.00
G01 X26.5326 Y20.0157 F350.00
G01 X26.4822 Y19.9092 F350.00
G01 X26.4425 Y19.7983 F350.00
G01 X26.4149 Y19.6889 F350.00
G01 X26.4122 Y19.6744 F350.00
G01 X26.3966 Y19.5676 F350.00
G01 X26.3909 Y19.4500 F350.00
G01 X26.3909 Y17.4500 F350.00
G01 X26.3959 Y17.3422 F350.00
G01 X26.3978 Y17.3226 F350.00
G01 X26.4139 Y17.2159 F350.00
G01 X26.4425 Y17.1017 F350.00
G01 X26.4822 Y16.9908 F350.00
G01 X26.5281 Y16.8931 F350.00
G01 X26.5349 Y16.8800 F350.00
G01 X26.5931 Y16.7833 F350.00
G01 X26.6572 Y16.6965 F350.00
G01 X26.6664 Y16.6850 F350.00
G01 X26.7356 Y16.6086 F350.00
G01 X26.7458 Y16.5980 F350.00
G01 X26.8258 Y16.5255 F350.00
G01 X26.8373 Y16.5163 F350.00
G01 X26.8806 Y16.4842 F350.00
G00 Z0.5000
G00 X31.3239 Y17.3226
G01 F250.00
G01 Z-0.0500
G01 F350.00
G01 X31.3258 Y17.3422 F350.00
G01 X31.3309 Y17.4500 F350.00
G01 X31.3309 Y19.4500 F350.00
G01 X31.3258 Y19.5578 F350.00
G01 X31.3239 Y19.5774 F350.00
G01 X31.3078 Y19.6841 F350.00
G01 X31.2792 Y19.7983 F350.00
G01 X31.2395 Y19.9092 F350.00
G01 X31.1936 Y20.0069 F350.00
G01 X31.1868 Y20.0200 F350.00
G01 X31.1286 Y20.1167 F350.00
G01 X31.0585 Y20.2113 F350.00
G01 X30.9794 Y20.2985 F350.00
G01 X30.8921 Y20.3776 F350.00
G01 X30.7975 Y20.4478 F350.00
G01 X30.6965 Y20.5083 F350.00
G01 X30.5901 Y20.5587 F350.00
G01 X30.4792 Y20.5983 F350.00
G01 X30.3650 Y20.6269 F350.00
G01 X30.2485 Y20.6442 F350.00
G01 X30.1309 Y20.6500 F350.00
G01 X30.0132 Y20.6442 F350.00
G01 X29.8968 Y20.6269 F350.00
G01 X29.7825 Y20.5983 F350.00
G01 X29.6716 Y20.5587 F350.00
G01 X29.5740 Y20.5127 F350.00
G01 X29.5609 Y20.5059 F350.00
G01 X29.4725 Y20.4530 F350.00
G01 X29.4562 Y20.4421 F350.00
G01 X29.3696 Y20.3776 F350.00
G01 X29.2894 Y20.3053 F350.00
G01 X29.2756 Y20.2914 F350.00
G01 X29.2032 Y20.2113 F350.00
G01 X29.1331 Y20.1167 F350.00
G01 X29.0726 Y20.0157 F350.00
G01 X29.0262 Y19.9182 F350.00
G01 X29.0187 Y19.9001 F350.00
G01 X28.9825 Y19.7983 F350.00
G01 X28.9561 Y19.6937 F350.00
G01 X28.9522 Y19.6744 F350.00
G01 X28.9372 Y19.5725 F350.00
G01 X28.9359 Y19.5578 F350.00
G01 X28.9309 Y19.4500 F350.00
G01 X28.9309 Y17.4500 F350.00
G01 X28.9359 Y17.3422 F350.00
G01 X28.9378 Y17.3226 F350.00
G01 X28.9539 Y17.2159 F350.00
G01 X28.9825 Y17.1017 F350.00
G01 X29.0222 Y16.9908 F350.00
G01 X29.0681 Y16.8931 F350.00
G01 X29.0749 Y16.8800 F350.00
G01 X29.1331 Y16.7833 F350.00
G01 X29.1972 Y16.6965 F350.00
G01 X29.2097 Y16.6813 F350.00
G01 X29.2756 Y16.6086 F350.00
G01 X29.2894 Y16.5947 F350.00
G01 X29.3696 Y16.5224 F350.00
G01 X29.4642 Y16.4522 F350.00
G01 X29.5652 Y16.3917 F350.00
G01 X29.6627 Y16.3453 F350.00
G01 X29.6808 Y16.3378 F350.00
G01 X29.7732 Y16.3048 F350.00
G01 X29.7920 Y16.2991 F350.00
G01 X29.8968 Y16.2731 F350.00
G01 X30.0132 Y16.2558 F350.00
G01 X30.1309 Y16.2500 F350.00
G01 X30.2387 Y16.2551 F350.00
G01 X30.2582 Y16.2570 F350.00
G01 X30.3650 Y16.2731 F350.00
G01 X30.4792 Y16.3017 F350.00
G01 X30.5809 Y16.3378 F350.00
G01 X30.5991 Y16.3453 F350.00
G01 X30.6965 Y16.3917 F350.00
G01 X30.7975 Y16.4522 F350.00
G01 X30.8844 Y16.5163 F350.00
G01 X30.8996 Y16.5288 F350.00
G01 X30.9723 Y16.5947 F350.00
G01 X30.9862 Y16.6086 F350.00
G01 X31.0585 Y16.6887 F350.00
G01 X31.1286 Y16.7833 F350.00
G01 X31.1892 Y16.8843 F350.00
G01 X31.2355 Y16.9818 F350.00
G01 X31.2430 Y16.9999 F350.00
G01 X31.2761 Y17.0923 F350.00
G01 X31.2818 Y17.1111 F350.00
G01 X31.3078 Y17.2159 F350.00
G01 X31.3239 Y17.3226 F350.00
G00 Z0.5000
G00 X31.9706 Y16.4768
G01 F250.00
G01 Z-0.0500
G01 F350.00
G01 X31.9706 Y10.0453 F350.00
G01 X31.9384 Y10.0211 F350.00
G01 X31.9042 Y9.9905 F350.00
G01 X31.8937 Y9.9802 F350.00
G01 X31.8661 Y9.9499 F350.00
G01 X31.8566 Y9.9386 F350.00
G01 X31.8293 Y9.9018 F350.00
G01 X31.8213 Y9.8894 F350.00
G01 X31.8003 Y9.8542 F350.00
G01 X31.7935 Y9.8412 F350.00
G01 X31.7741 Y9.7996 F350.00
G01 X31.7553 Y9.7471 F350.00
G01 X31.7418 Y9.6931 F350.00
G01 X31.7336 Y9.6380 F350.00
G01 X31.7309 Y9.5824 F350.00
G01 X31.7309 Y7.8176 F350.00
G01 X31.7329 Y7.7718 F350.00
G01 X31.7348 Y7.7523 F350.00
G01 X31.7418 Y7.7069 F350.00
G01 X31.7527 Y7.6623 F350.00
G01 X31.7584 Y7.6435 F350.00
G01 X31.7741 Y7.6004 F350.00
G01 X31.7935 Y7.5588 F350.00
G01 X31.8027 Y7.5415 F350.00
G01 X31.8265 Y7.5023 F350.00
G01 X31.8537 Y7.4653 F350.00
G01 X31.8661 Y7.4501 F350.00
G01 X31.8904 Y7.4234 F350.00
G01 X31.9006 Y7.4128 F350.00
G01 X31.9384 Y7.3789 F350.00
G01 X31.9751 Y7.3513 F350.00
G01 X31.9914 Y7.3404 F350.00
G01 X32.0309 Y7.3170 F350.00
G01 X32.0723 Y7.2972 F350.00
G01 X32.0904 Y7.2897 F350.00
G01 X32.1337 Y7.2744 F350.00
G01 X32.1830 Y7.2619 F350.00
G01 X32.1974 Y7.2592 F350.00
G01 X32.2429 Y7.2527 F350.00
G01 X32.2985 Y7.2500 F350.00
G01 X33.5406 Y7.2500 F350.00
G01 X35.7806 Y5.0099 F350.00
G01 X35.7806 Y1.7632 F350.00
G01 X35.7273 Y1.7237 F350.00
G01 X35.7158 Y1.7145 F350.00
G01 X35.6394 Y1.6453 F350.00
G01 X35.6289 Y1.6350 F350.00
G01 X35.5532 Y1.5513 F350.00
G01 X35.4887 Y1.4647 F350.00
G01 X35.4804 Y1.4526 F350.00
G01 X35.4226 Y1.3557 F350.00
G01 X35.3722 Y1.2492 F350.00
G01 X35.3325 Y1.1383 F350.00
G01 X35.3061 Y1.0337 F350.00
G01 X35.3022 Y1.0144 F350.00
G01 X35.2866 Y0.9076 F350.00
G01 X35.2809 Y0.7900 F350.00
G01 X35.2809 Y-1.2100 F350.00
G01 X35.2859 Y-1.3178 F350.00
G01 X35.2878 Y-1.3374 F350.00
G01 X35.3039 Y-1.4441 F350.00
G01 X35.3299 Y-1.5489 F350.00
G01 X35.3356 Y-1.5677 F350.00
G01 X35.3687 Y-1.6601 F350.00
G01 X35.3762 Y-1.6782 F350.00
G01 X35.4226 Y-1.7757 F350.00
G01 X35.4778 Y-1.8684 F350.00
G01 X35.4887 Y-1.8847 F350.00
G01 X35.5532 Y-1.9713 F350.00
G01 X35.6323 Y-2.0585 F350.00
G01 X35.7196 Y-2.1376 F350.00
G01 X35.8142 Y-2.2078 F350.00
G01 X35.9152 Y-2.2683 F350.00
G01 X36.0216 Y-2.3187 F350.00
G01 X36.1325 Y-2.3583 F350.00
G01 X36.2372 Y-2.3848 F350.00
G01 X36.2564 Y-2.3886 F350.00
G01 X36.3632 Y-2.4042 F350.00
G01 X36.4710 Y-2.4098 F350.00
G01 X36.4907 Y-2.4098 F350.00
G01 X36.5887 Y-2.4049 F350.00
G01 X36.6082 Y-2.4030 F350.00
G01 X36.7150 Y-2.3869 F350.00
G01 X36.8197 Y-2.3609 F350.00
G01 X36.8385 Y-2.3552 F350.00
G01 X36.9309 Y-2.3222 F350.00
G01 X36.9491 Y-2.3147 F350.00
G01 X37.0465 Y-2.2683 F350.00
G01 X37.1475 Y-2.2078 F350.00
G01 X37.2421 Y-2.1376 F350.00
G01 X37.3223 Y-2.0653 F350.00
G01 X37.3362 Y-2.0514 F350.00
G01 X37.4021 Y-1.9787 F350.00
G01 X37.4145 Y-1.9635 F350.00
G01 X37.4786 Y-1.8767 F350.00
G01 X37.5343 Y-1.7842 F350.00
G01 X37.5436 Y-1.7669 F350.00
G01 X37.5855 Y-1.6782 F350.00
G01 X37.5930 Y-1.6601 F350.00
G01 X37.6292 Y-1.5583 F350.00
G01 X37.6578 Y-1.4441 F350.00
G01 X37.6751 Y-1.3276 F350.00
G01 X37.6806 Y-1.2198 F350.00
G01 X37.6809 Y0.7900 F350.00
G01 X37.6751 Y0.9076 F350.00
G01 X37.6587 Y1.0193 F350.00
G01 X37.6557 Y1.0337 F350.00
G01 X37.6292 Y1.1383 F350.00
G01 X37.5895 Y1.2492 F350.00
G01 X37.5392 Y1.3557 F350.00
G01 X37.4813 Y1.4526 F350.00
G01 X37.4730 Y1.4647 F350.00
G01 X37.4085 Y1.5513 F350.00
G01 X37.3328 Y1.6350 F350.00
G01 X37.3223 Y1.6453 F350.00
G01 X37.2459 Y1.7145 F350.00
G01 X37.2344 Y1.7237 F350.00
G01 X37.1811 Y1.7632 F350.00
G01 X37.1811 Y5.3000 F350.00
G01 X37.1777 Y5.3686 F350.00
G01 X37.1686 Y5.4318 F350.00
G01 X37.1655 Y5.4462 F350.00
G01 X37.1536 Y5.4938 F350.00
G01 X37.1479 Y5.5126 F350.00
G01 X37.1278 Y5.5680 F350.00
G01 X37.0984 Y5.6301 F350.00
G01 X37.0683 Y5.6807 F350.00
G01 X37.0574 Y5.6971 F350.00
G01 X37.0222 Y5.7442 F350.00
G01 X36.9794 Y5.7916 F350.00
G01 X34.6309 Y8.1403 F350.00
G01 X34.6309 Y9.5824 F350.00
G01 X34.6285 Y9.6331 F350.00
G01 X34.6269 Y9.6477 F350.00
G01 X34.6216 Y9.6834 F350.00
G01 X34.6178 Y9.7027 F350.00
G01 X34.6064 Y9.7471 F350.00
G01 X34.5877 Y9.7996 F350.00
G01 X34.5682 Y9.8412 F350.00
G01 X34.5590 Y9.8585 F350.00
G01 X34.5352 Y9.8977 F350.00
G01 X34.5020 Y9.9425 F350.00
G01 X34.4646 Y9.9837 F350.00
G01 X34.4233 Y10.0211 F350.00
G01 X34.3786 Y10.0543 F350.00
G01 X34.3393 Y10.0781 F350.00
G01 X34.3220 Y10.0874 F350.00
G01 X34.2850 Y10.1049 F350.00
G01 X34.2713 Y10.1103 F350.00
G01 X34.2280 Y10.1256 F350.00
G01 X34.1835 Y10.1369 F350.00
G01 X34.1691 Y10.1400 F350.00
G01 X34.1189 Y10.1473 F350.00
G01 X34.0681 Y10.1499 F350.00
G01 X33.3711 Y10.1500 F350.00
G01 X33.3711 Y16.4768 F350.00
G01 X33.4244 Y16.5163 F350.00
G01 X33.4359 Y16.5255 F350.00
G01 X33.5123 Y16.5947 F350.00
G01 X33.5228 Y16.6050 F350.00
G01 X33.5985 Y16.6887 F350.00
G01 X33.6630 Y16.7753 F350.00
G01 X33.6713 Y16.7874 F350.00
G01 X33.7292 Y16.8843 F350.00
G01 X33.7795 Y16.9908 F350.00
G01 X33.8192 Y17.1017 F350.00
G01 X33.8457 Y17.2063 F350.00
G01 X33.8487 Y17.2207 F350.00
G01 X33.8651 Y17.3324 F350.00
G01 X33.8709 Y17.4500 F350.00
G01 X33.8706 Y19.4598 F350.00
G01 X33.8651 Y19.5676 F350.00
G01 X33.8478 Y19.6841 F350.00
G01 X33.8192 Y19.7983 F350.00
G01 X33.7830 Y19.9001 F350.00
G01 X33.7755 Y19.9182 F350.00
G01 X33.7336 Y20.0069 F350.00
G01 X33.7243 Y20.0242 F350.00
G01 X33.6686 Y20.1167 F350.00
G01 X33.5985 Y20.2113 F350.00
G01 X33.5194 Y20.2985 F350.00
G01 X33.4396 Y20.3712 F350.00
G01 X33.4244 Y20.3837 F350.00
G01 X33.3456 Y20.4421 F350.00
G01 X33.3293 Y20.4530 F350.00
G01 X33.2365 Y20.5083 F350.00
G01 X33.1301 Y20.5587 F350.00
G01 X33.0192 Y20.5983 F350.00
G01 X32.9098 Y20.6259 F350.00
G01 X32.8953 Y20.6286 F350.00
G01 X32.7885 Y20.6442 F350.00
G01 X32.6709 Y20.6500 F350.00
G01 X32.5532 Y20.6442 F350.00
G01 X32.4368 Y20.6269 F350.00
G01 X32.3225 Y20.5983 F350.00
G01 X32.2116 Y20.5587 F350.00
G01 X32.1052 Y20.5083 F350.00
G01 X32.0042 Y20.4478 F350.00
G01 X31.9096 Y20.3776 F350.00
G01 X31.8223 Y20.2985 F350.00
G01 X31.7432 Y20.2113 F350.00
G01 X31.6731 Y20.1167 F350.00
G01 X31.6126 Y20.0157 F350.00
G01 X31.5622 Y19.9092 F350.00
G01 X31.5225 Y19.7983 F350.00
G01 X31.4949 Y19.6889 F350.00
G01 X31.4922 Y19.6744 F350.00
G01 X31.4766 Y19.5676 F350.00
G01 X31.4709 Y19.4500 F350.00
G01 X31.4709 Y17.4500 F350.00
G01 X31.4759 Y17.3422 F350.00
G01 X31.4778 Y17.3226 F350.00
G01 X31.4939 Y17.2159 F350.00
G01 X31.5225 Y17.1017 F350.00
G01 X31.5622 Y16.9908 F350.00
G01 X31.6081 Y16.8931 F350.00
G01 X31.6149 Y16.8800 F350.00
G01 X31.6731 Y16.7833 F350.00
G01 X31.7372 Y16.6965 F350.00
G01 X31.7464 Y16.6850 F350.00
G01 X31.8156 Y16.6086 F350.00
G01 X31.8294 Y16.5947 F350.00
G01 X31.9096 Y16.5224 F350.00
G01 X31.9706 Y16.4768 F350.00
G00 Z0.5000
G00 X34.5106 Y16.4768
G01 F250.00
G01 Z-0.0500
G01 F350.00
G01 X34.5107 Y12.2651 F350.00
G01 X34.5140 Y12.2014 F350.00
G01 X34.5241 Y12.1334 F350.00
G01 X34.5408 Y12.0667 F350.00
G01 X34.5604 Y12.0112 F350.00
G01 X34.5679 Y11.9931 F350.00
G01 X34.5933 Y11.9399 F350.00
G01 X34.6286 Y11.8810 F350.00
G01 X34.6696 Y11.8258 F350.00
G01 X34.7157 Y11.7748 F350.00
G01 X38.4306 Y8.0599 F350.00
G01 X38.4306 Y1.8339 F350.00
G01 X38.3542 Y1.7878 F350.00
G01 X38.2673 Y1.7237 F350.00
G01 X38.2522 Y1.7112 F350.00
G01 X38.1794 Y1.6453 F350.00
G01 X38.1656 Y1.6314 F350.00
G01 X38.0932 Y1.5513 F350.00
G01 X38.0287 Y1.4647 F350.00
G01 X38.0178 Y1.4484 F350.00
G01 X37.9626 Y1.3557 F350.00
G01 X37.9122 Y1.2492 F350.00
G01 X37.8725 Y1.1383 F350.00
G01 X37.8439 Y1.0241 F350.00
G01 X37.8266 Y0.9076 F350.00
G01 X37.8209 Y0.7900 F350.00
G01 X37.8209 Y-1.2100 F350.00
G01 X37.8262 Y-1.3227 F350.00
G01 X37.8278 Y-1.3374 F350.00
G01 X37.8439 Y-1.4441 F350.00
G01 X37.8725 Y-1.5583 F350.00
G01 X37.9122 Y-1.6692 F350.00
G01 X37.9581 Y-1.7669 F350.00
G01 X37.9674 Y-1.7842 F350.00
G01 X38.0231 Y-1.8767 F350.00
G01 X38.0872 Y-1.9635 F350.00
G01 X38.0997 Y-1.9787 F350.00
G01 X38.1656 Y-2.0514 F350.00
G01 X38.1794 Y-2.0653 F350.00
G01 X38.2596 Y-2.1376 F350.00
G01 X38.3462 Y-2.2021 F350.00
G01 X38.3625 Y-2.2130 F350.00
G01 X38.4552 Y-2.2683 F350.00
G01 X38.5616 Y-2.3187 F350.00
G01 X38.6725 Y-2.3583 F350.00
G01 X38.7868 Y-2.3869 F350.00
G01 X38.9032 Y-2.4042 F350.00
G01 X39.0209 Y-2.4100 F350.00
G01 X39.1385 Y-2.4042 F350.00
G01 X39.2453 Y-2.3886 F350.00
G01 X39.2598 Y-2.3859 F350.00
G01 X39.3692 Y-2.3583 F350.00
G01 X39.4709 Y-2.3222 F350.00
G01 X39.4891 Y-2.3147 F350.00
G01 X39.5778 Y-2.2727 F350.00
G01 X39.5951 Y-2.2635 F350.00
G01 X39.6875 Y-2.2078 F350.00
G01 X39.7821 Y-2.1376 F350.00
G01 X39.8694 Y-2.0585 F350.00
G01 X39.9421 Y-1.9787 F350.00
G01 X39.9545 Y-1.9635 F350.00
G01 X40.0130 Y-1.8847 F350.00
G01 X40.0239 Y-1.8684 F350.00
G01 X40.0792 Y-1.7757 F350.00
G01 X40.1295 Y-1.6692 F350.00
G01 X40.1692 Y-1.5583 F350.00
G01 X40.1957 Y-1.4537 F350.00
G01 X40.1995 Y-1.4344 F350.00
G01 X40.2139 Y-1.3374 F350.00
G01 X40.2158 Y-1.3178 F350.00
G01 X40.2209 Y-1.2100 F350.00
G01 X40.2209 Y0.7900 F350.00
G01 X40.2158 Y0.8978 F350.00
G01 X40.2145 Y0.9125 F350.00
G01 X40.1978 Y1.0241 F350.00
G01 X40.1692 Y1.1383 F350.00
G01 X40.1295 Y1.2492 F350.00
G01 X40.0814 Y1.3513 F350.00
G01 X40.0743 Y1.3642 F350.00
G01 X40.0186 Y1.4567 F350.00
G01 X39.9515 Y1.5474 F350.00
G01 X39.9421 Y1.5587 F350.00
G01 X39.8728 Y1.6350 F350.00
G01 X39.8623 Y1.6453 F350.00
G01 X39.8311 Y1.6735 F350.00
G01 X39.8311 Y8.3500 F350.00
G01 X39.8285 Y8.4088 F350.00
G01 X39.8265 Y8.4284 F350.00
G01 X39.8177 Y8.4866 F350.00
G01 X39.8010 Y8.5533 F350.00
G01 X39.7778 Y8.6180 F350.00
G01 X39.7528 Y8.6713 F350.00
G01 X39.7461 Y8.6844 F350.00
G01 X39.7183 Y8.7307 F350.00
G01 X39.7074 Y8.7471 F350.00
G01 X39.6722 Y8.7942 F350.00
G01 X39.6294 Y8.8416 F350.00
G01 X35.9111 Y12.5601 F350.00
G01 X35.9111 Y16.4768 F350.00
G01 X35.9644 Y16.5163 F350.00
G01 X35.9759 Y16.5255 F350.00
G01 X36.0523 Y16.5947 F350.00
G01 X36.0628 Y16.6050 F350.00
G01 X36.1385 Y16.6887 F350.00
G01 X36.2030 Y16.7753 F350.00
G01 X36.2113 Y16.7874 F350.00
G01 X36.2692 Y16.8843 F350.00
G01 X36.3195 Y16.9908 F350.00
G01 X36.3592 Y17.1017 F350.00
G01 X36.3857 Y17.2063 F350.00
G01 X36.3887 Y17.2207 F350.00
G01 X36.4051 Y17.3324 F350.00
G01 X36.4109 Y17.4500 F350.00
G01 X36.4109 Y19.4500 F350.00
G01 X36.4051 Y19.5676 F350.00
G01 X36.3895 Y19.6744 F350.00
G01 X36.3857 Y19.6937 F350.00
G01 X36.3592 Y19.7983 F350.00
G01 X36.3230 Y19.9001 F350.00
G01 X36.3155 Y19.9182 F350.00
G01 X36.2714 Y20.0113 F350.00
G01 X36.2643 Y20.0242 F350.00
G01 X36.2086 Y20.1167 F350.00
G01 X36.1445 Y20.2035 F350.00
G01 X36.1353 Y20.2150 F350.00
G01 X36.0662 Y20.2914 F350.00
G01 X36.0523 Y20.3053 F350.00
G01 X35.9721 Y20.3776 F350.00
G01 X35.9111 Y20.4232 F350.00
G01 X35.9111 Y22.0997 F350.00
G01 X94.9809 Y22.0997 F350.00
G01 X95.0397 Y22.1024 F350.00
G01 X95.0592 Y22.1043 F350.00
G01 X95.1175 Y22.1132 F350.00
G01 X95.1841 Y22.1299 F350.00
G01 X95.2488 Y22.1531 F350.00
G01 X95.3022 Y22.1780 F350.00
G01 X95.3153 Y22.1848 F350.00
G01 X95.3616 Y22.2125 F350.00
G01 X95.3779 Y22.2234 F350.00
G01 X95.4251 Y22.2587 F350.00
G01 X95.4725 Y22.3014 F350.00
G01 X98.7660 Y25.5948 F350.00
G01 X98.8122 Y25.6458 F350.00
G01 X98.8474 Y25.6929 F350.00
G01 X98.8583 Y25.7093 F350.00
G01 X98.8861 Y25.7556 F350.00
G01 X98.8928 Y25.7687 F350.00
G01 X98.9159 Y25.8175 F350.00
G01 X98.9213 Y25.8312 F350.00
G01 X98.9410 Y25.8867 F350.00
G01 X98.9555 Y25.9438 F350.00
G01 X98.9593 Y25.9631 F350.00
G01 X98.9677 Y26.0214 F350.00
G01 X98.9711 Y26.0851 F350.00
G01 X98.9711 Y29.0768 F350.00
G01 X99.0244 Y29.1163 F350.00
G01 X99.0359 Y29.1255 F350.00
G01 X99.1123 Y29.1947 F350.00
G01 X99.1228 Y29.2050 F350.00
G01 X99.1985 Y29.2887 F350.00
G01 X99.2630 Y29.3753 F350.00
G01 X99.2713 Y29.3874 F350.00
G01 X99.3292 Y29.4843 F350.00
G01 X99.3795 Y29.5908 F350.00
G01 X99.4192 Y29.7017 F350.00
G01 X99.4468 Y29.8111 F350.00
G01 X99.4495 Y29.8256 F350.00
G01 X99.4651 Y29.9324 F350.00
G01 X99.4709 Y30.0500 F350.00
G01 X99.4708 Y31.0549 F350.00
G01 X99.4651 Y31.1676 F350.00
G01 X99.4495 Y31.2744 F350.00
G01 X99.4468 Y31.2889 F350.00
G01 X99.4192 Y31.3983 F350.00
G01 X99.3830 Y31.5001 F350.00
G01 X99.3755 Y31.5182 F350.00
G01 X99.3292 Y31.6157 F350.00
G01 X99.2739 Y31.7084 F350.00
G01 X99.2630 Y31.7247 F350.00
G01 X99.1985 Y31.8113 F350.00
G01 X99.1194 Y31.8985 F350.00
G01 X99.0396 Y31.9712 F350.00
G01 X99.0244 Y31.9837 F350.00
G01 X98.9375 Y32.0478 F350.00
G01 X98.8365 Y32.1083 F350.00
G01 X98.7391 Y32.1547 F350.00
G01 X98.7209 Y32.1622 F350.00
G01 X98.6192 Y32.1983 F350.00
G01 X98.5050 Y32.2269 F350.00
G01 X98.3982 Y32.2430 F350.00
G01 X98.3787 Y32.2449 F350.00
G01 X98.2709 Y32.2500 F350.00
G01 X98.1532 Y32.2442 F350.00
G01 X98.0368 Y32.2269 F350.00
G01 X97.9320 Y32.2009 F350.00
G01 X97.9132 Y32.1952 F350.00
G01 X97.8116 Y32.1587 F350.00
G01 X97.7052 Y32.1083 F350.00
G01 X97.6125 Y32.0530 F350.00
G01 X97.5962 Y32.0421 F350.00
G01 X97.5096 Y31.9776 F350.00
G01 X97.4223 Y31.8985 F350.00
G01 X97.3497 Y31.8187 F350.00
G01 X97.3372 Y31.8035 F350.00
G01 X97.2787 Y31.7247 F350.00
G01 X97.2678 Y31.7084 F350.00
G01 X97.2126 Y31.6157 F350.00
G01 X97.1662 Y31.5182 F350.00
G01 X97.1587 Y31.5001 F350.00
G01 X97.1256 Y31.4077 F350.00
G01 X97.1199 Y31.3889 F350.00
G01 X97.0939 Y31.2841 F350.00
G01 X97.0766 Y31.1676 F350.00
G01 X97.0709 Y31.0500 F350.00
G01 X97.0709 Y30.0500 F350.00
G01 X97.0759 Y29.9422 F350.00
G01 X97.0778 Y29.9226 F350.00
G01 X97.0939 Y29.8159 F350.00
G01 X97.1225 Y29.7017 F350.00
G01 X97.1622 Y29.5908 F350.00
G01 X97.2081 Y29.4931 F350.00
G01 X97.2149 Y29.4800 F350.00
G01 X97.2731 Y29.3833 F350.00
G01 X97.3372 Y29.2965 F350.00
G01 X97.3464 Y29.2850 F350.00
G01 X97.4156 Y29.2086 F350.00
G01 X97.4294 Y29.1947 F350.00
G01 X97.5096 Y29.1224 F350.00
G01 X97.5706 Y29.0768 F350.00
G01 X97.5706 Y26.3801 F350.00
G01 X94.6908 Y23.5003 F350.00
G01 X81.7709 Y23.5003 F350.00
G01 X69.1811 Y36.0901 F350.00
G01 X69.1811 Y41.7599 F350.00
G01 X72.5209 Y45.0997 F350.00
G01 X82.7809 Y45.0997 F350.00
G01 X82.8397 Y45.1024 F350.00
G01 X82.8592 Y45.1043 F350.00
G01 X82.9175 Y45.1132 F350.00
G01 X82.9841 Y45.1299 F350.00
G01 X83.0488 Y45.1531 F350.00
G01 X83.1022 Y45.1780 F350.00
G01 X83.1153 Y45.1848 F350.00
G01 X83.1616 Y45.2125 F350.00
G01 X83.1779 Y45.2234 F350.00
G01 X83.2251 Y45.2587 F350.00
G01 X83.2689 Y45.2981 F350.00
G01 X83.2794 Y45.3084 F350.00
G01 X83.3157 Y45.3483 F350.00
G01 X83.3282 Y45.3635 F350.00
G01 X83.3631 Y45.4110 F350.00
G01 X83.3984 Y45.4699 F350.00
G01 X83.4278 Y45.5320 F350.00
G01 X83.4479 Y45.5874 F350.00
G01 X83.4536 Y45.6062 F350.00
G01 X83.4677 Y45.6634 F350.00
G01 X83.4765 Y45.7216 F350.00
G01 X83.4785 Y45.7412 F350.00
G01 X83.4811 Y45.8000 F350.00
G01 X83.4809 Y51.5098 F350.00
G01 X83.4782 Y51.5637 F350.00
G01 X83.4765 Y51.5784 F350.00
G01 X83.4677 Y51.6366 F350.00
G01 X83.4536 Y51.6938 F350.00
G01 X83.4479 Y51.7126 F350.00
G01 X83.4296 Y51.7634 F350.00
G01 X83.4238 Y51.7769 F350.00
G01 X83.4028 Y51.8213 F350.00
G01 X83.3936 Y51.8386 F350.00
G01 X83.3631 Y51.8890 F350.00
G01 X83.3222 Y51.9442 F350.00
G01 X83.2760 Y51.9952 F350.00
G01 X83.2251 Y52.0413 F350.00
G01 X83.1699 Y52.0822 F350.00
G01 X83.1195 Y52.1127 F350.00
G01 X83.1022 Y52.1220 F350.00
G01 X83.0533 Y52.1450 F350.00
G01 X83.0397 Y52.1505 F350.00
G01 X82.9841 Y52.1701 F350.00
G01 X82.9175 Y52.1868 F350.00
G01 X82.8495 Y52.1969 F350.00
G01 X82.7858 Y52.2002 F350.00
G01 X76.0811 Y52.2003 F350.00
G01 X76.0811 Y55.6000 F350.00
G01 X76.0785 Y55.6588 F350.00
G01 X76.0765 Y55.6784 F350.00
G01 X76.0677 Y55.7366 F350.00
G01 X76.0536 Y55.7938 F350.00
G01 X76.0479 Y55.8126 F350.00
G01 X76.0278 Y55.8680 F350.00
G01 X75.9984 Y55.9301 F350.00
G01 X75.9683 Y55.9807 F350.00
G01 X75.9574 Y55.9971 F350.00
G01 X75.9282 Y56.0365 F350.00
G01 X75.9190 Y56.0480 F350.00
G01 X75.8794 Y56.0916 F350.00
G01 X75.7725 Y56.1986 F350.00
G01 X75.7251 Y56.2413 F350.00
G01 X75.6779 Y56.2766 F350.00
G01 X75.6616 Y56.2875 F350.00
G01 X75.6153 Y56.3152 F350.00
G01 X75.6022 Y56.3220 F350.00
G01 X75.5488 Y56.3469 F350.00
G01 X75.4841 Y56.3701 F350.00
G01 X75.4175 Y56.3868 F350.00
G01 X75.3592 Y56.3957 F350.00
G01 X75.3397 Y56.3976 F350.00
G01 X75.2809 Y56.4003 F350.00
G01 X68.5709 Y56.4003 F350.00
G01 X68.1644 Y56.8068 F350.00
G01 X68.2173 Y56.8547 F350.00
G01 X68.2278 Y56.8650 F350.00
G01 X68.2971 Y56.9413 F350.00
G01 X68.3065 Y56.9526 F350.00
G01 X68.3736 Y57.0433 F350.00
G01 X68.4293 Y57.1358 F350.00
G01 X68.4364 Y57.1487 F350.00
G01 X68.4845 Y57.2508 F350.00
G01 X68.5242 Y57.3617 F350.00
G01 X68.5528 Y57.4759 F350.00
G01 X68.5701 Y57.5924 F350.00
G01 X68.5759 Y57.7100 F350.00
G01 X68.5759 Y60.2100 F350.00
G01 X68.5701 Y60.3276 F350.00
G01 X68.5528 Y60.4441 F350.00
G01 X68.5242 Y60.5583 F350.00
G01 X68.4880 Y60.6601 F350.00
G01 X68.4805 Y60.6782 F350.00
G01 X68.4342 Y60.7757 F350.00
G01 X68.3736 Y60.8767 F350.00
G01 X68.3095 Y60.9635 F350.00
G01 X68.2971 Y60.9787 F350.00
G01 X68.2244 Y61.0585 F350.00
G01 X68.1371 Y61.1376 F350.00
G01 X68.0506 Y61.2021 F350.00
G01 X68.0343 Y61.2130 F350.00
G01 X67.9415 Y61.2683 F350.00
G01 X67.8441 Y61.3147 F350.00
G01 X67.8259 Y61.3222 F350.00
G01 X67.7242 Y61.3583 F350.00
G01 X67.6100 Y61.3869 F350.00
G01 X67.4935 Y61.4042 F350.00
G01 X67.3857 Y61.4098 F350.00
G01 X67.3660 Y61.4098 F350.00
G01 X67.2680 Y61.4049 F350.00
G01 X67.2485 Y61.4030 F350.00
G01 X67.1418 Y61.3869 F350.00
G01 X67.0275 Y61.3583 F350.00
G01 X66.9166 Y61.3187 F350.00
G01 X66.8102 Y61.2683 F350.00
G01 X66.7092 Y61.2078 F350.00
G01 X66.6146 Y61.1376 F350.00
G01 X66.5273 Y61.0585 F350.00
G01 X66.4547 Y60.9787 F350.00
G01 X66.4422 Y60.9635 F350.00
G01 X66.3781 Y60.8767 F350.00
G01 X66.3224 Y60.7842 F350.00
G01 X66.3131 Y60.7669 F350.00
G01 X66.2712 Y60.6782 F350.00
G01 X66.2637 Y60.6601 F350.00
G01 X66.2275 Y60.5583 F350.00
G01 X66.1989 Y60.4441 F350.00
G01 X66.1816 Y60.3276 F350.00
G01 X66.1759 Y60.2149 F350.00
G01 X66.1759 Y57.7100 F350.00
G01 X66.1816 Y57.5924 F350.00
G01 X66.1980 Y57.4807 F350.00
G01 X66.2011 Y57.4663 F350.00
G01 X66.2275 Y57.3617 F350.00
G01 X66.2672 Y57.2508 F350.00
G01 X66.3176 Y57.1443 F350.00
G01 X66.3754 Y57.0474 F350.00
G01 X66.3837 Y57.0353 F350.00
G01 X66.4482 Y56.9487 F350.00
G01 X66.5239 Y56.8650 F350.00
G01 X66.5344 Y56.8547 F350.00
G01 X66.6108 Y56.7855 F350.00
G01 X66.6223 Y56.7763 F350.00
G01 X66.6756 Y56.7368 F350.00
G01 X66.6757 Y56.6001 F350.00
G01 X66.6783 Y56.5462 F350.00
G01 X66.6802 Y56.5266 F350.00
G01 X66.6874 Y56.4781 F350.00
G01 X66.6901 Y56.4636 F350.00
G01 X66.7058 Y56.4017 F350.00
G01 X66.7289 Y56.3370 F350.00
G01 X66.7583 Y56.2749 F350.00
G01 X66.7884 Y56.2243 F350.00
G01 X66.7964 Y56.2119 F350.00
G01 X66.8346 Y56.1608 F350.00
G01 X66.8807 Y56.1098 F350.00
G01 X67.7857 Y55.2048 F350.00
G01 X67.8292 Y55.1651 F350.00
G01 X67.8444 Y55.1527 F350.00
G01 X67.8918 Y55.1178 F350.00
G01 X67.9422 Y55.0873 F350.00
G01 X67.9595 Y55.0780 F350.00
G01 X68.0129 Y55.0531 F350.00
G01 X68.0683 Y55.0330 F350.00
G01 X68.0871 Y55.0273 F350.00
G01 X68.1442 Y55.0132 F350.00
G01 X68.2122 Y55.0031 F350.00
G01 X68.2809 Y54.9997 F350.00
G01 X69.5022 Y54.9997 F350.00
G01 X69.4152 Y54.9583 F350.00
G01 X69.3142 Y54.8978 F350.00
G01 X69.2196 Y54.8276 F350.00
G01 X69.1394 Y54.7553 F350.00
G01 X69.1289 Y54.7450 F350.00
G01 X69.0532 Y54.6613 F350.00
G01 X68.9831 Y54.5667 F350.00
G01 X68.9226 Y54.4657 F350.00
G01 X68.8762 Y54.3682 F350.00
G01 X68.8687 Y54.3501 F350.00
G01 X59.3173 Y54.3501 F350.00
G01 X57.0456 Y56.6217 F350.00
G01 X57.0164 Y56.6480 F350.00
G01 X56.9809 Y56.6743 F350.00
G01 X56.9430 Y56.6970 F350.00
G01 X56.9121 Y56.7119 F350.00
G01 X56.8940 Y56.7194 F350.00
G01 X56.8662 Y56.7293 F350.00
G01 X56.8521 Y56.7334 F350.00
G01 X56.8235 Y56.7405 F350.00
G01 X56.8139 Y56.7424 F350.00
G01 X56.7847 Y56.7468 F350.00
G01 X56.7701 Y56.7484 F350.00
G01 X56.7309 Y56.7501 F350.00
G01 X39.8373 Y56.7501 F350.00
G01 X37.3145 Y59.2729 F350.00
G01 X37.3253 Y59.2850 F350.00
G01 X37.3345 Y59.2965 F350.00
G01 X37.3930 Y59.3753 F350.00
G01 X37.4039 Y59.3916 F350.00
G01 X37.4592 Y59.4843 F350.00
G01 X37.5055 Y59.5818 F350.00
G01 X37.5130 Y59.5999 F350.00
G01 X37.5492 Y59.7017 F350.00
G01 X37.5778 Y59.8159 F350.00
G01 X37.5951 Y59.9324 F350.00
G01 X37.6009 Y60.0500 F350.00
G01 X37.5951 Y60.1676 F350.00
G01 X37.5795 Y60.2744 F350.00
G01 X37.5757 Y60.2937 F350.00
G01 X37.5518 Y60.3889 F350.00
G01 X37.5461 Y60.4077 F350.00
G01 X37.5095 Y60.5092 F350.00
G01 X37.4592 Y60.6157 F350.00
G01 X37.3986 Y60.7167 F350.00
G01 X37.3315 Y60.8074 F350.00
G01 X37.3221 Y60.8187 F350.00
G01 X37.2494 Y60.8985 F350.00
G01 X37.1696 Y60.9712 F350.00
G01 X37.1544 Y60.9837 F350.00
G01 X37.0675 Y61.0478 F350.00
G01 X36.9751 Y61.1035 F350.00
G01 X36.9578 Y61.1127 F350.00
G01 X36.8646 Y61.1567 F350.00
G01 X36.8509 Y61.1622 F350.00
G01 X36.7492 Y61.1983 F350.00
G01 X36.6445 Y61.2248 F350.00
G01 X36.6301 Y61.2278 F350.00
G01 X36.5282 Y61.2430 F350.00
G01 X36.5136 Y61.2446 F350.00
G01 X36.4058 Y61.2499 F350.00
G01 X36.3510 Y61.2500 F350.00
G01 X36.3510 Y65.2499 F350.00
G01 X59.1944 Y65.2499 F350.00
G01 X61.1661 Y63.2783 F350.00
G01 X61.1953 Y63.2520 F350.00
G01 X61.2228 Y63.2314 F350.00
G01 X61.2349 Y63.2231 F350.00
G01 X61.2644 Y63.2054 F350.00
G01 X61.2774 Y63.1986 F350.00
G01 X61.3086 Y63.1841 F350.00
G01 X61.3455 Y63.1707 F350.00
G01 X61.3597 Y63.1666 F350.00
G01 X61.3930 Y63.1585 F350.00
G01 X61.4270 Y63.1532 F350.00
G01 X61.4416 Y63.1516 F350.00
G01 X61.4809 Y63.1499 F350.00
G01 X67.2809 Y63.1499 F350.00
G01 X67.3250 Y63.1520 F350.00
G01 X67.3590 Y63.1568 F350.00
G01 X67.3735 Y63.1595 F350.00
G01 X67.4115 Y63.1693 F350.00
G01 X67.4531 Y63.1841 F350.00
G01 X67.4930 Y63.2030 F350.00
G01 X67.5226 Y63.2205 F350.00
G01 X67.5390 Y63.2314 F350.00
G01 X67.5626 Y63.2490 F350.00
G01 X67.5739 Y63.2585 F350.00
G01 X67.5991 Y63.2817 F350.00
G01 X67.6288 Y63.3144 F350.00
G01 X67.6551 Y63.3499 F350.00
G01 X67.6730 Y63.3793 F350.00
G01 X67.6801 Y63.3922 F350.00
G01 X67.6927 Y63.4188 F350.00
G01 X67.7003 Y63.4369 F350.00
G01 X67.7116 Y63.4693 F350.00
G01 X67.7223 Y63.5122 F350.00
G01 X67.7288 Y63.5559 F350.00
G01 X67.7309 Y63.5951 F350.00
G01 X67.7310 Y67.7000 F350.00
G01 X67.7295 Y67.7343 F350.00
G01 X67.7283 Y67.7490 F350.00
G01 X67.7223 Y67.7878 F350.00
G01 X67.7130 Y67.8259 F350.00
G01 X67.7085 Y67.8400 F350.00
G01 X67.6967 Y67.8723 F350.00
G01 X67.6822 Y67.9034 F350.00
G01 X67.6755 Y67.9165 F350.00
G01 X67.6551 Y67.9501 F350.00
G01 X67.6319 Y67.9817 F350.00
G01 X67.6224 Y67.9930 F350.00
G01 X67.5991 Y68.0183 F350.00
G01 X67.5739 Y68.0415 F350.00
G01 X67.5626 Y68.0510 F350.00
G01 X67.5309 Y68.0743 F350.00
G01 X67.5016 Y68.0921 F350.00
G01 X67.4887 Y68.0992 F350.00
G01 X67.4576 Y68.1139 F350.00
G01 X67.4440 Y68.1194 F350.00
G01 X67.4115 Y68.1307 F350.00
G01 X67.3783 Y68.1393 F350.00
G01 X67.3639 Y68.1424 F350.00
G01 X67.3250 Y68.1480 F350.00
G01 X67.2809 Y68.1501 F350.00
G01 X26.1309 Y68.1501 F350.00
G01 X26.0867 Y68.1480 F350.00
G01 X26.0527 Y68.1432 F350.00
G01 X26.0382 Y68.1405 F350.00
G01 X26.0002 Y68.1307 F350.00
G01 X25.9678 Y68.1194 F350.00
G01 X25.9541 Y68.1139 F350.00
G01 X25.9187 Y68.0970 F350.00
G01 X25.8808 Y68.0743 F350.00
G01 X25.8530 Y68.0540 F350.00
G01 X25.8415 Y68.0448 F350.00
G01 X25.8126 Y68.0183 F350.00
G01 X20.9126 Y63.1183 F350.00
G01 X20.8829 Y63.0856 F350.00
G01 X20.8594 Y63.0541 F350.00
G01 X20.8513 Y63.0418 F350.00
G01 X20.8339 Y63.0122 F350.00
G01 X20.8190 Y62.9812 F350.00
G01 X20.8132 Y62.9677 F350.00
G01 X20.8016 Y62.9353 F350.00
G01 X20.7988 Y62.9259 F350.00
G01 X20.7915 Y62.8974 F350.00
G01 X20.7877 Y62.8781 F350.00
G01 X20.7829 Y62.8441 F350.00
G01 X20.7807 Y62.8000 F350.00
G01 X20.7807 Y52.5500 F350.00
G01 X20.7825 Y52.5108 F350.00
G01 X20.7841 Y52.4961 F350.00
G01 X20.7894 Y52.4622 F350.00
G01 X20.7988 Y52.4241 F350.00
G01 X20.8032 Y52.4100 F350.00
G01 X20.8150 Y52.3777 F350.00
G01 X20.8316 Y52.3422 F350.00
G01 X20.8387 Y52.3293 F350.00
G01 X20.8566 Y52.2999 F350.00
G01 X20.8769 Y52.2722 F350.00
G01 X20.8861 Y52.2607 F350.00
G01 X20.9126 Y52.2317 F350.00
G01 X23.9626 Y49.1817 F350.00
G01 X23.9953 Y49.1520 F350.00
G01 X24.0228 Y49.1314 F350.00
G01 X24.0349 Y49.1231 F350.00
G01 X24.0687 Y49.1030 F350.00
G01 X24.1041 Y49.0861 F350.00
G01 X24.1178 Y49.0806 F350.00
G01 X24.1502 Y49.0693 F350.00
G01 X24.1835 Y49.0607 F350.00
G01 X24.1979 Y49.0576 F350.00
G01 X24.2367 Y49.0520 F350.00
G01 X24.2809 Y49.0499 F350.00
G01 X34.3049 Y49.0499 F350.00
G01 X34.3049 Y36.8607 F350.00
G01 X18.9126 Y21.4683 F350.00
G01 X18.8829 Y21.4356 F350.00
G01 X18.8594 Y21.4041 F350.00
G01 X18.8513 Y21.3918 F350.00
G01 X18.8339 Y21.3622 F350.00
G01 X18.8190 Y21.3312 F350.00
G01 X18.8132 Y21.3177 F350.00
G01 X18.8001 Y21.2807 F350.00
G01 X18.7894 Y21.2378 F350.00
G01 X18.7829 Y21.1941 F350.00
G01 X18.7808 Y21.1549 F350.00
G01 X18.7807 Y20.9122 F350.00
G01 X18.7627 Y20.9047 F350.00
G01 X18.6740 Y20.8627 F350.00
G01 X18.6566 Y20.8535 F350.00
G01 X18.5642 Y20.7978 F350.00
G01 X18.4696 Y20.7276 F350.00
G01 X18.3894 Y20.6553 F350.00
G01 X18.3756 Y20.6414 F350.00
G01 X18.3032 Y20.5613 F350.00
G01 X18.2331 Y20.4667 F350.00
G01 X18.1726 Y20.3657 F350.00
G01 X18.1262 Y20.2682 F350.00
G01 X18.1187 Y20.2501 F350.00
G01 X18.0825 Y20.1483 F350.00
G01 X18.0539 Y20.0341 F350.00
G01 X18.0378 Y19.9274 F350.00
G01 X18.0359 Y19.9078 F350.00
G01 X18.0309 Y19.8000 F350.00
G01 X18.0309 Y18.8000 F350.00
G01 X18.0362 Y18.6873 F350.00
G01 X18.0378 Y18.6726 F350.00
G01 X18.0522 Y18.5756 F350.00
G01 X18.0561 Y18.5563 F350.00
G01 X18.0825 Y18.4517 F350.00
G01 X18.1204 Y18.3453 F350.00
G01 X18.1262 Y18.3318 F350.00
G01 X18.1726 Y18.2343 F350.00
G01 X18.2331 Y18.1333 F350.00
G01 X18.3032 Y18.0387 F350.00
G01 X18.3756 Y17.9586 F350.00
G01 X18.3894 Y17.9447 F350.00
G01 X18.4696 Y17.8724 F350.00
G01 X18.5562 Y17.8079 F350.00
G01 X18.5725 Y17.7970 F350.00
G01 X18.6566 Y17.7465 F350.00
G01 X18.6740 Y17.7373 F350.00
G01 X18.7716 Y17.6913 F350.00
G01 X18.8825 Y17.6517 F350.00
G01 X18.9968 Y17.6231 F350.00
G01 X19.1132 Y17.6058 F350.00
G01 X19.2309 Y17.6000 F350.00
G01 X19.3485 Y17.6058 F350.00
G01 X19.4650 Y17.6231 F350.00
G01 X19.5792 Y17.6517 F350.00
G01 X19.6901 Y17.6913 F350.00
G01 X19.7878 Y17.7373 F350.00
G01 X19.8051 Y17.7465 F350.00
G01 X19.8975 Y17.8022 F350.00
G01 X19.9844 Y17.8663 F350.00
G01 X19.9996 Y17.8788 F350.00
G01 X20.0723 Y17.9447 F350.00
G01 X20.0862 Y17.9586 F350.00
G01 X20.1585 Y18.0387 F350.00
G01 X20.2230 Y18.1253 F350.00
G01 X20.2339 Y18.1416 F350.00
G01 X20.2892 Y18.2343 F350.00
G01 X20.3395 Y18.3408 F350.00
G01 X20.3792 Y18.4517 F350.00
G01 X20.4057 Y18.5563 F350.00
G01 X20.4095 Y18.5756 F350.00
G01 X20.4251 Y18.6824 F350.00
G01 X20.4308 Y18.7951 F350.00
G01 X20.4308 Y19.8049 F350.00
G01 X20.4251 Y19.9176 F350.00
G01 X20.4095 Y20.0244 F350.00
G01 X20.4057 Y20.0437 F350.00
G01 X20.3792 Y20.1483 F350.00
G01 X20.3395 Y20.2592 F350.00
G01 X20.2892 Y20.3657 F350.00
G01 X20.2286 Y20.4667 F350.00
G01 X20.1645 Y20.5535 F350.00
G01 X20.1553 Y20.5650 F350.00
G01 X20.0862 Y20.6414 F350.00
G01 X20.0723 Y20.6553 F350.00
G01 X19.9921 Y20.7276 F350.00
G01 X19.9056 Y20.7921 F350.00
G01 X19.8893 Y20.8030 F350.00
G01 X19.7965 Y20.8583 F350.00
G01 X19.6991 Y20.9047 F350.00
G01 X19.6810 Y20.9122 F350.00
G01 X19.6810 Y20.9636 F350.00
G01 X35.0734 Y36.3559 F350.00
G01 X35.0999 Y36.3849 F350.00
G01 X35.1091 Y36.3964 F350.00
G01 X35.1293 Y36.4241 F350.00
G01 X35.1520 Y36.4620 F350.00
G01 X35.1709 Y36.5020 F350.00
G01 X35.1827 Y36.5342 F350.00
G01 X35.1872 Y36.5483 F350.00
G01 X35.1944 Y36.5768 F350.00
G01 X35.1982 Y36.5961 F350.00
G01 X35.2030 Y36.6301 F350.00
G01 X35.2052 Y36.6742 F350.00
G01 X35.2052 Y49.5000 F350.00
G01 X35.2030 Y49.5441 F350.00
G01 X35.1965 Y49.5878 F350.00
G01 X35.1858 Y49.6307 F350.00
G01 X35.1745 Y49.6631 F350.00
G01 X35.1670 Y49.6812 F350.00
G01 X35.1543 Y49.7078 F350.00
G01 X35.1472 Y49.7207 F350.00
G01 X35.1293 Y49.7501 F350.00
G01 X35.1030 Y49.7856 F350.00
G01 X35.0734 Y49.8183 F350.00
G01 X35.0406 Y49.8480 F350.00
G01 X35.0052 Y49.8743 F350.00
G01 X34.9716 Y49.8946 F350.00
G01 X34.9585 Y49.9014 F350.00
G01 X34.9318 Y49.9139 F350.00
G01 X34.9182 Y49.9194 F350.00
G01 X34.8857 Y49.9307 F350.00
G01 X34.8525 Y49.9393 F350.00
G01 X34.8381 Y49.9424 F350.00
G01 X34.8041 Y49.9474 F350.00
G01 X34.7894 Y49.9487 F350.00
G01 X34.7600 Y49.9501 F350.00
G01 X24.4673 Y49.9501 F350.00
G01 X21.6810 Y52.7364 F350.00
G01 X21.6810 Y62.6136 F350.00
G01 X26.3173 Y67.2499 F350.00
G01 X66.8307 Y67.2499 F350.00
G01 X66.8307 Y64.0501 F350.00
G01 X61.6673 Y64.0501 F350.00
G01 X59.6956 Y66.0217 F350.00
G01 X59.6664 Y66.0480 F350.00
G01 X59.6309 Y66.0743 F350.00
G01 X59.5930 Y66.0970 F350.00
G01 X59.5621 Y66.1119 F350.00
G01 X59.5440 Y66.1194 F350.00
G01 X59.5162 Y66.1293 F350.00
G01 X59.5021 Y66.1334 F350.00
G01 X59.4735 Y66.1405 F350.00
G01 X59.4639 Y66.1424 F350.00
G01 X59.4347 Y66.1468 F350.00
G01 X59.4201 Y66.1484 F350.00
G01 X59.3809 Y66.1501 F350.00
G01 X35.9009 Y66.1501 F350.00
G01 X35.8567 Y66.1480 F350.00
G01 X35.8227 Y66.1432 F350.00
G01 X35.8082 Y66.1405 F350.00
G01 X35.7702 Y66.1307 F350.00
G01 X35.7332 Y66.1177 F350.00
G01 X35.7241 Y66.1139 F350.00
G01 X35.6974 Y66.1014 F350.00
G01 X35.6801 Y66.0921 F350.00
G01 X35.6508 Y66.0743 F350.00
G01 X35.6153 Y66.0480 F350.00
G01 X35.5826 Y66.0183 F350.00
G01 X35.5593 Y65.9930 F350.00
G01 X35.5498 Y65.9817 F350.00
G01 X35.5322 Y65.9581 F350.00
G01 X35.5213 Y65.9418 F350.00
G01 X35.5039 Y65.9122 F350.00
G01 X35.4850 Y65.8723 F350.00
G01 X35.4701 Y65.8307 F350.00
G01 X35.4615 Y65.7974 F350.00
G01 X35.4577 Y65.7781 F350.00
G01 X35.4534 Y65.7490 F350.00
G01 X35.4525 Y65.7392 F350.00
G01 X35.4507 Y65.7000 F350.00
G01 X35.4507 Y61.2500 F350.00
G01 X35.3960 Y61.2499 F350.00
G01 X35.2881 Y61.2446 F350.00
G01 X35.2735 Y61.2430 F350.00
G01 X35.1716 Y61.2278 F350.00
G01 X35.1572 Y61.2248 F350.00
G01 X35.0525 Y61.1983 F350.00
G01 X34.9508 Y61.1622 F350.00
G01 X34.9371 Y61.1567 F350.00
G01 X34.8352 Y61.1083 F350.00
G01 X34.7425 Y61.0530 F350.00
G01 X34.7262 Y61.0421 F350.00
G01 X34.6396 Y60.9776 F350.00
G01 X34.5594 Y60.9053 F350.00
G01 X34.5456 Y60.8914 F350.00
G01 X34.4764 Y60.8150 F350.00
G01 X34.4672 Y60.8035 F350.00
G01 X34.4031 Y60.7167 F350.00
G01 X34.3426 Y60.6157 F350.00
G01 X34.2922 Y60.5092 F350.00
G01 X34.2556 Y60.4077 F350.00
G01 X34.2499 Y60.3889 F350.00
G01 X34.2239 Y60.2841 F350.00
G01 X34.2078 Y60.1774 F350.00
G01 X34.2059 Y60.1578 F350.00
G01 X34.2011 Y60.0598 F350.00
G01 X34.2011 Y60.0402 F350.00
G01 X34.2066 Y59.9324 F350.00
G01 X34.2222 Y59.8256 F350.00
G01 X34.2249 Y59.8111 F350.00
G01 X34.2499 Y59.7111 F350.00
G01 X34.2556 Y59.6923 F350.00
G01 X34.2922 Y59.5908 F350.00
G01 X34.3381 Y59.4931 F350.00
G01 X34.3474 Y59.4758 F350.00
G01 X34.4031 Y59.3833 F350.00
G01 X34.4732 Y59.2887 F350.00
G01 X34.5456 Y59.2086 F350.00
G01 X34.5594 Y59.1947 F350.00
G01 X34.6396 Y59.1224 F350.00
G01 X34.7262 Y59.0579 F350.00
G01 X34.7425 Y59.0470 F350.00
G01 X34.8352 Y58.9917 F350.00
G01 X34.9416 Y58.9413 F350.00
G01 X35.0525 Y58.9017 F350.00
G01 X35.1572 Y58.8752 F350.00
G01 X35.1764 Y58.8714 F350.00
G01 X35.2735 Y58.8570 F350.00
G01 X35.2930 Y58.8551 F350.00
G01 X35.4009 Y58.8500 F350.00
G01 X36.4009 Y58.8500 F350.00
G01 X36.4615 Y58.8527 F350.00
G01 X39.3361 Y55.9783 F350.00
G01 X39.3653 Y55.9520 F350.00
G01 X39.3928 Y55.9314 F350.00
G01 X39.4049 Y55.9231 F350.00
G01 X39.4387 Y55.9030 F350.00
G01 X39.4741 Y55.8861 F350.00
G01 X39.4878 Y55.8806 F350.00
G01 X39.5202 Y55.8693 F350.00
G01 X39.5630 Y55.8585 F350.00
G01 X39.6067 Y55.8520 F350.00
G01 X39.6509 Y55.8499 F350.00
G01 X56.5444 Y55.8499 F350.00
G01 X58.8161 Y53.5783 F350.00
G01 X58.8453 Y53.5520 F350.00
G01 X58.8728 Y53.5314 F350.00
G01 X58.8849 Y53.5231 F350.00
G01 X58.9187 Y53.5030 F350.00
G01 X58.9541 Y53.4861 F350.00
G01 X58.9678 Y53.4806 F350.00
G01 X59.0002 Y53.4693 F350.00
G01 X59.0382 Y53.4595 F350.00
G01 X59.0527 Y53.4568 F350.00
G01 X59.0867 Y53.4520 F350.00
G01 X59.1309 Y53.4499 F350.00
G01 X68.8687 Y53.4499 F350.00
G01 X68.8762 Y53.4318 F350.00
G01 X68.9181 Y53.3431 F350.00
G01 X68.9274 Y53.3258 F350.00
G01 X68.9831 Y53.2333 F350.00
G01 X69.0532 Y53.1387 F350.00
G01 X69.1256 Y53.0586 F350.00
G01 X69.1394 Y53.0447 F350.00
G01 X69.2196 Y52.9724 F350.00
G01 X69.3142 Y52.9022 F350.00
G01 X69.4152 Y52.8417 F350.00
G01 X69.5127 Y52.7953 F350.00
G01 X69.5308 Y52.7878 F350.00
G01 X69.6325 Y52.7517 F350.00
G01 X69.7372 Y52.7252 F350.00
G01 X69.7564 Y52.7214 F350.00
G01 X69.8632 Y52.7058 F350.00
G01 X69.9760 Y52.7001 F350.00
G01 X69.9907 Y52.7002 F350.00
G01 X70.0985 Y52.7058 F350.00
G01 X70.2053 Y52.7214 F350.00
G01 X70.2245 Y52.7252 F350.00
G01 X70.3197 Y52.7491 F350.00
G01 X70.3385 Y52.7548 F350.00
G01 X70.4401 Y52.7913 F350.00
G01 X70.5465 Y52.8417 F350.00
G01 X70.6475 Y52.9022 F350.00
G01 X70.7421 Y52.9724 F350.00
G01 X70.8294 Y53.0515 F350.00
G01 X70.9085 Y53.1387 F350.00
G01 X70.9786 Y53.2333 F350.00
G01 X71.0343 Y53.3258 F350.00
G01 X71.0436 Y53.3431 F350.00
G01 X71.0855 Y53.4318 F350.00
G01 X71.0930 Y53.4499 F350.00
G01 X71.1292 Y53.5517 F350.00
G01 X71.1578 Y53.6659 F350.00
G01 X71.1751 Y53.7824 F350.00
G01 X71.1806 Y53.8902 F350.00
G01 X71.1806 Y53.9098 F350.00
G01 X71.1758 Y54.0078 F350.00
G01 X71.1739 Y54.0274 F350.00
G01 X71.1578 Y54.1341 F350.00
G01 X71.1292 Y54.2483 F350.00
G01 X71.0895 Y54.3592 F350.00
G01 X71.0392 Y54.4657 F350.00
G01 X70.9786 Y54.5667 F350.00
G01 X70.9145 Y54.6535 F350.00
G01 X70.9021 Y54.6687 F350.00
G01 X70.8362 Y54.7414 F350.00
G01 X70.8223 Y54.7553 F350.00
G01 X70.7421 Y54.8276 F350.00
G01 X70.6475 Y54.8978 F350.00
G01 X70.5465 Y54.9583 F350.00
G01 X70.4595 Y54.9997 F350.00
G01 X74.6806 Y54.9997 F350.00
G01 X74.6806 Y51.5000 F350.00
G01 X74.6840 Y51.4314 F350.00
G01 X74.6941 Y51.3634 F350.00
G01 X74.7081 Y51.3062 F350.00
G01 X74.7138 Y51.2874 F350.00
G01 X74.7339 Y51.2320 F350.00
G01 X74.7589 Y51.1787 F350.00
G01 X74.7681 Y51.1614 F350.00
G01 X74.7986 Y51.1110 F350.00
G01 X74.8396 Y51.0558 F350.00
G01 X74.8789 Y51.0120 F350.00
G01 X74.8928 Y50.9981 F350.00
G01 X74.9366 Y50.9587 F350.00
G01 X74.9838 Y50.9234 F350.00
G01 X75.0001 Y50.9125 F350.00
G01 X75.0465 Y50.8848 F350.00
G01 X75.0595 Y50.8780 F350.00
G01 X75.1129 Y50.8531 F350.00
G01 X75.1683 Y50.8330 F350.00
G01 X75.1871 Y50.8273 F350.00
G01 X75.2442 Y50.8132 F350.00
G01 X75.3025 Y50.8043 F350.00
G01 X75.3220 Y50.8024 F350.00
G01 X75.3809 Y50.7997 F350.00
G01 X82.0806 Y50.7997 F350.00
G01 X82.0806 Y46.5003 F350.00
G01 X72.2309 Y46.5003 F350.00
G01 X72.1720 Y46.4976 F350.00
G01 X72.1525 Y46.4957 F350.00
G01 X72.0942 Y46.4868 F350.00
G01 X72.0276 Y46.4701 F350.00
G01 X71.9629 Y46.4469 F350.00
G01 X71.9095 Y46.4220 F350.00
G01 X71.8922 Y46.4127 F350.00
G01 X71.8418 Y46.3822 F350.00
G01 X71.7944 Y46.3473 F350.00
G01 X71.7792 Y46.3349 F350.00
G01 X71.7392 Y46.2986 F350.00
G01 X67.9823 Y42.5416 F350.00
G01 X67.9396 Y42.4942 F350.00
G01 X67.8986 Y42.4390 F350.00
G01 X67.8633 Y42.3801 F350.00
G01 X67.8379 Y42.3269 F350.00
G01 X67.8304 Y42.3088 F350.00
G01 X67.8122 Y42.2580 F350.00
G01 X67.8081 Y42.2438 F350.00
G01 X67.7941 Y42.1866 F350.00
G01 X67.7852 Y42.1284 F350.00
G01 X67.7836 Y42.1137 F350.00
G01 X67.7806 Y42.0500 F350.00
G01 X67.7807 Y35.7951 F350.00
G01 X67.7840 Y35.7314 F350.00
G01 X67.7924 Y35.6731 F350.00
G01 X67.7962 Y35.6538 F350.00
G01 X67.8108 Y35.5967 F350.00
G01 X67.8304 Y35.5412 F350.00
G01 X67.8379 Y35.5231 F350.00
G01 X67.8633 Y35.4699 F350.00
G01 X67.8959 Y35.4151 F350.00
G01 X67.9043 Y35.4029 F350.00
G01 X67.9396 Y35.3558 F350.00
G01 X67.9857 Y35.3048 F350.00
G01 X79.7903 Y23.5003 F350.00
G01 X35.2109 Y23.5003 F350.00
G01 X35.1422 Y23.4969 F350.00
G01 X35.0839 Y23.4885 F350.00
G01 X35.0647 Y23.4846 F350.00
G01 X35.0171 Y23.4727 F350.00
G01 X35.0029 Y23.4686 F350.00
G01 X34.9429 Y23.4469 F350.00
G01 X34.8895 Y23.4220 F350.00
G01 X34.8722 Y23.4127 F350.00
G01 X34.8218 Y23.3822 F350.00
G01 X34.7744 Y23.3473 F350.00
G01 X34.7592 Y23.3349 F350.00
G01 X34.7157 Y23.2952 F350.00
G01 X34.6760 Y23.2517 F350.00
G01 X34.6635 Y23.2365 F350.00
G01 X34.6286 Y23.1890 F350.00
G01 X34.5933 Y23.1301 F350.00
G01 X34.5679 Y23.0769 F350.00
G01 X34.5604 Y23.0588 F350.00
G01 X34.5438 Y23.0126 F350.00
G01 X34.5394 Y22.9986 F350.00
G01 X34.5241 Y22.9366 F350.00
G01 X34.5152 Y22.8784 F350.00
G01 X34.5133 Y22.8588 F350.00
G01 X34.5106 Y22.8000 F350.00
G01 X34.5106 Y20.4232 F350.00
G01 X34.4496 Y20.3776 F350.00
G01 X34.3694 Y20.3053 F350.00
G01 X34.3556 Y20.2914 F350.00
G01 X34.2864 Y20.2150 F350.00
G01 X34.2772 Y20.2035 F350.00
G01 X34.2131 Y20.1167 F350.00
G01 X34.1549 Y20.0200 F350.00
G01 X34.1481 Y20.0069 F350.00
G01 X34.1022 Y19.9092 F350.00
G01 X34.0625 Y19.7983 F350.00
G01 X34.0339 Y19.6841 F350.00
G01 X34.0178 Y19.5774 F350.00
G01 X34.0162 Y19.5627 F350.00
G01 X34.0109 Y19.4500 F350.00
G01 X34.0109 Y17.4500 F350.00
G01 X34.0166 Y17.3324 F350.00
G01 X34.0322 Y17.2256 F350.00
G01 X34.0361 Y17.2063 F350.00
G01 X34.0625 Y17.1017 F350.00
G01 X34.1022 Y16.9908 F350.00
G01 X34.1526 Y16.8843 F350.00
G01 X34.2104 Y16.7874 F350.00
G01 X34.2187 Y16.7753 F350.00
G01 X34.2832 Y16.6887 F350.00
G01 X34.3589 Y16.6050 F350.00
G01 X34.3694 Y16.5947 F350.00
G01 X34.4458 Y16.5255 F350.00
G01 X34.4573 Y16.5163 F350.00
G01 X34.5106 Y16.4768 F350.00
G00 Z0.5000
G00 X38.9439 Y17.3226
G01 F250.00
G01 Z-0.0500
G01 F350.00
G01 X38.9458 Y17.3422 F350.00
G01 X38.9509 Y17.4500 F350.00
G01 X38.9509 Y19.4500 F350.00
G01 X38.9458 Y19.5578 F350.00
G01 X38.9439 Y19.5774 F350.00
G01 X38.9278 Y19.6841 F350.00
G01 X38.8992 Y19.7983 F350.00
G01 X38.8595 Y19.9092 F350.00
G01 X38.8136 Y20.0069 F350.00
G01 X38.8068 Y20.0200 F350.00
G01 X38.7486 Y20.1167 F350.00
G01 X38.6785 Y20.2113 F350.00
G01 X38.5994 Y20.2985 F350.00
G01 X38.5121 Y20.3776 F350.00
G01 X38.4175 Y20.4478 F350.00
G01 X38.3165 Y20.5083 F350.00
G01 X38.2101 Y20.5587 F350.00
G01 X38.0992 Y20.5983 F350.00
G01 X37.9850 Y20.6269 F350.00
G01 X37.8685 Y20.6442 F350.00
G01 X37.7509 Y20.6500 F350.00
G01 X37.6332 Y20.6442 F350.00
G01 X37.5168 Y20.6269 F350.00
G01 X37.4025 Y20.5983 F350.00
G01 X37.2916 Y20.5587 F350.00
G01 X37.1940 Y20.5127 F350.00
G01 X37.1809 Y20.5059 F350.00
G01 X37.0925 Y20.4530 F350.00
G01 X37.0762 Y20.4421 F350.00
G01 X36.9896 Y20.3776 F350.00
G01 X36.9094 Y20.3053 F350.00
G01 X36.8956 Y20.2914 F350.00
G01 X36.8232 Y20.2113 F350.00
G01 X36.7531 Y20.1167 F350.00
G01 X36.6926 Y20.0157 F350.00
G01 X36.6462 Y19.9182 F350.00
G01 X36.6387 Y19.9001 F350.00
G01 X36.6025 Y19.7983 F350.00
G01 X36.5761 Y19.6937 F350.00
G01 X36.5722 Y19.6744 F350.00
G01 X36.5572 Y19.5725 F350.00
G01 X36.5559 Y19.5578 F350.00
G01 X36.5509 Y19.4500 F350.00
G01 X36.5509 Y17.4500 F350.00
G01 X36.5559 Y17.3422 F350.00
G01 X36.5578 Y17.3226 F350.00
G01 X36.5739 Y17.2159 F350.00
G01 X36.6025 Y17.1017 F350.00
G01 X36.6422 Y16.9908 F350.00
G01 X36.6881 Y16.8931 F350.00
G01 X36.6949 Y16.8800 F350.00
G01 X36.7531 Y16.7833 F350.00
G01 X36.8172 Y16.6965 F350.00
G01 X36.8297 Y16.6813 F350.00
G01 X36.8956 Y16.6086 F350.00
G01 X36.9094 Y16.5947 F350.00
G01 X36.9896 Y16.5224 F350.00
G01 X37.0842 Y16.4522 F350.00
G01 X37.1852 Y16.3917 F350.00
G01 X37.2827 Y16.3453 F350.00
G01 X37.3008 Y16.3378 F350.00
G01 X37.3932 Y16.3048 F350.00
G01 X37.4120 Y16.2991 F350.00
G01 X37.5168 Y16.2731 F350.00
G01 X37.6332 Y16.2558 F350.00
G01 X37.7509 Y16.2500 F350.00
G01 X37.8587 Y16.2551 F350.00
G01 X37.8782 Y16.2570 F350.00
