%
(; SHAPEOKO POSTPROCESSED v1)
( Source: BACK_2.4mm_NCC.nc )
( Stripped: M30 only - kept T#/M6/M0/M1/MSG for Shapeoko/Carbide Motion )
( Wrapped with Shapeoko start/end blocks - mirrors 1001.nc structure )
G90        ( absolute positioning )
G17        ( XY plane select )
G21        ( mm units )
G94        ( feedrate units/min )
G28 G91 Z0 ( safe Z home - assumes machine has been homed )
G90        ( back to absolute )
G54        ( work coordinate system 1 )
M5         ( ensure spindle off at start )

(G-CODE GENERATED BY FLATCAM v8.994 - www.flatcam.org - Version Date: 2020/11/7)

(Name: Buzzer PCB-B_Cu.gbr_ncc_cnc)
(Type: G-code from Geometry)
(Units: MM)

(Created on Friday, 26 June 2026 at 06:00)

(This preprocessor is used with a motion controller loaded with GRBL firmware.)
(It is configured to be compatible with almost any version of GRBL firmware.)

(TOOL DIAMETER: 2.4 mm)
(Feedrate_XY: 350.0 mm/min)
(Feedrate_Z: 250.0 mm/min)
(Feedrate rapids 1500.0 mm/min)

(Z_Cut: -0.05 mm)
(Z_Move: 0.5 mm)
(Z Start: None mm)
(Z End: 40.0 mm)
(X,Y End: None mm)
(Steps per circle: 64)
(Steps per circle: 64)
(Preprocessor Geometry: grbl_11)

(X range:   -1.3944 ...  128.9154  mm)
(Y range:   -3.0100 ...   70.0501  mm)

(Spindle Speed: 0.0 RPM)
G21
G90
G17
G94


G01 F350.00

M5             
G00 Z40.0000
G00 X0.0000 Y0.0000                
T1 M6
(MSG, Change to Tool Dia = 2.4000)
M0
G00 Z40.0000

M03
G01 F350.00
G00 X5.9035 Y9.7703
G01 F250.00
G01 Z-0.0500
G01 F350.00
G01 X27.5806 Y9.7703 F350.00
G01 X27.5806 Y8.0903 F350.00
G01 X22.1404 Y8.0903 F350.00
G00 Z0.5000
G00 X17.7421 Y8.0903
G01 F250.00
G01 Z-0.0500
G01 F350.00
G01 X9.1984 Y8.0903 F350.00
G01 X12.4933 Y6.4103 F350.00
G01 X17.4912 Y6.4103 F350.00
G00 Z0.5000
G00 X17.6796 Y4.7303
G01 F250.00
G01 Z-0.0500
G01 F350.00
G01 X15.7882 Y4.7303 F350.00
G01 X19.0832 Y3.0503 F350.00
G01 X27.5806 Y3.0503 F350.00
G00 Z0.5000
G00 X27.6690 Y1.3703
G01 F250.00
G01 Z-0.0500
G01 F350.00
G01 X22.3781 Y1.3703 F350.00
G01 X25.6730 Y-0.3097 F350.00
G01 X29.0961 Y-0.3097 F350.00
G01 X28.9679 Y-1.9897 F350.00
G01 X29.3446 Y-1.9897 F350.00
G00 Z0.5000
G00 X32.6648 Y-3.0100
G01 F250.00
G01 Z-0.0500
G01 F350.00
G01 X32.6709 Y-3.0056 F350.00
G01 X32.6769 Y-3.0100 F350.00
G01 X32.6648 Y-3.0100 F350.00
G00 Z0.5000
G00 X35.2048 Y-3.0100
G01 F250.00
G01 Z-0.0500
G01 F350.00
G01 X35.2109 Y-3.0056 F350.00
G01 X35.2169 Y-3.0100 F350.00
G01 X35.2048 Y-3.0100 F350.00
G00 Z0.5000
G00 X37.7448 Y-3.0100
G01 F250.00
G01 Z-0.0500
G01 F350.00
G01 X37.7509 Y-3.0056 F350.00
G01 X37.7569 Y-3.0100 F350.00
G01 X37.7448 Y-3.0100 F350.00
G00 Z0.5000
G00 X40.2848 Y-3.0100
G01 F250.00
G01 Z-0.0500
G01 F350.00
G01 X40.2909 Y-3.0056 F350.00
G01 X40.2969 Y-3.0100 F350.00
G01 X40.2848 Y-3.0100 F350.00
G00 Z0.5000
G00 X42.8913 Y-2.9608
G01 F250.00
G01 Z-0.0500
G01 F350.00
G01 X42.9335 Y-2.9290 F350.00
G01 X42.9565 Y-2.9106 F350.00
G01 X42.9791 Y-2.8917 F350.00
G01 X43.0011 Y-2.8722 F350.00
G01 X43.0738 Y-2.8062 F350.00
G01 X43.0954 Y-2.7862 F350.00
G01 X43.1165 Y-2.7656 F350.00
G01 X43.1371 Y-2.7446 F350.00
G01 X43.1571 Y-2.7230 F350.00
G01 X43.2230 Y-2.6503 F350.00
G01 X43.2425 Y-2.6282 F350.00
G01 X43.2615 Y-2.6057 F350.00
G01 X43.2799 Y-2.5827 F350.00
G01 X43.2977 Y-2.5592 F350.00
G01 X43.3562 Y-2.4804 F350.00
G01 X43.3734 Y-2.4565 F350.00
G01 X43.3901 Y-2.4323 F350.00
G01 X43.4062 Y-2.4076 F350.00
G01 X43.4216 Y-2.3825 F350.00
G01 X43.4721 Y-2.2983 F350.00
G01 X43.4869 Y-2.2729 F350.00
G01 X43.5011 Y-2.2471 F350.00
G01 X43.5147 Y-2.2209 F350.00
G01 X43.5276 Y-2.1945 F350.00
G01 X43.5695 Y-2.1057 F350.00
G01 X43.5818 Y-2.0790 F350.00
G01 X43.5934 Y-2.0519 F350.00
G01 X43.6043 Y-2.0246 F350.00
G01 X43.6146 Y-1.9970 F350.00
G01 X43.6477 Y-1.9046 F350.00
G01 X43.6572 Y-1.8767 F350.00
G01 X43.6661 Y-1.8486 F350.00
G01 X43.6743 Y-1.8203 F350.00
G01 X43.6818 Y-1.7919 F350.00
G01 X43.7057 Y-1.6967 F350.00
G01 X43.7125 Y-1.6680 F350.00
G01 X43.7186 Y-1.6392 F350.00
G01 X43.7240 Y-1.6102 F350.00
G01 X43.7287 Y-1.5812 F350.00
G01 X43.7431 Y-1.4841 F350.00
G01 X43.7470 Y-1.4549 F350.00
G01 X43.7503 Y-1.4256 F350.00
G01 X43.7528 Y-1.3963 F350.00
G01 X43.7546 Y-1.3669 F350.00
G01 X43.7594 Y-1.2689 F350.00
G01 X43.7605 Y-1.2394 F350.00
G01 X43.7609 Y-1.2100 F350.00
G01 X43.7609 Y-0.3304 F350.00
G01 X43.7901 Y-0.2677 F350.00
G01 X43.8017 Y-0.2407 F350.00
G01 X43.8126 Y-0.2133 F350.00
G01 X43.8394 Y-0.1395 F350.00
G01 X43.8490 Y-0.1116 F350.00
G01 X43.8579 Y-0.0836 F350.00
G01 X43.8661 Y-0.0553 F350.00
G01 X43.8855 Y0.0208 F350.00
G01 X43.8923 Y0.0495 F350.00
G01 X43.8984 Y0.0783 F350.00
G01 X43.9038 Y0.1073 F350.00
G01 X43.9157 Y0.1849 F350.00
G01 X43.9197 Y0.2141 F350.00
G01 X43.9229 Y0.2433 F350.00
G01 X43.9255 Y0.2727 F350.00
G01 X43.9273 Y0.3021 F350.00
G01 X43.9307 Y0.3806 F350.00
G01 X43.9311 Y0.4100 F350.00
G01 X43.9311 Y6.6997 F350.00
G01 X85.0809 Y6.6997 F350.00
G01 X85.1103 Y6.7001 F350.00
G01 X85.1397 Y6.7012 F350.00
G01 X85.2182 Y6.7054 F350.00
G01 X85.2475 Y6.7079 F350.00
G01 X85.2768 Y6.7112 F350.00
G01 X85.3060 Y6.7151 F350.00
G01 X85.3836 Y6.7270 F350.00
G01 X85.4126 Y6.7324 F350.00
G01 X85.4414 Y6.7385 F350.00
G01 X85.5177 Y6.7573 F350.00
G01 X85.5461 Y6.7648 F350.00
G01 X85.5744 Y6.7730 F350.00
G01 X85.6025 Y6.7819 F350.00
G01 X85.6766 Y6.8080 F350.00
G01 X85.7042 Y6.8182 F350.00
G01 X85.7315 Y6.8292 F350.00
G01 X85.7586 Y6.8408 F350.00
G01 X85.8297 Y6.8740 F350.00
G01 X85.8562 Y6.8869 F350.00
G01 X85.8824 Y6.9005 F350.00
G01 X85.9082 Y6.9147 F350.00
G01 X85.9757 Y6.9548 F350.00
G01 X86.0008 Y6.9702 F350.00
G01 X86.0255 Y6.9863 F350.00
G01 X86.0498 Y7.0030 F350.00
G01 X86.0736 Y7.0202 F350.00
G01 X86.1365 Y7.0673 F350.00
G01 X86.1595 Y7.0857 F350.00
G01 X86.1820 Y7.1047 F350.00
G01 X86.2041 Y7.1242 F350.00
G01 X86.2620 Y7.1772 F350.00
G01 X86.2831 Y7.1977 F350.00
G01 X101.6851 Y22.5997 F350.00
G01 X104.2309 Y22.5997 F350.00
G01 X104.2603 Y22.6001 F350.00
G01 X104.3388 Y22.6036 F350.00
G01 X104.3682 Y22.6054 F350.00
G01 X104.3975 Y22.6079 F350.00
G01 X104.4268 Y22.6112 F350.00
G01 X104.4560 Y22.6151 F350.00
G01 X104.5336 Y22.6270 F350.00
G01 X104.5626 Y22.6324 F350.00
G01 X104.5914 Y22.6385 F350.00
G01 X104.6677 Y22.6573 F350.00
G01 X104.6961 Y22.6648 F350.00
G01 X104.7244 Y22.6730 F350.00
G01 X104.7525 Y22.6819 F350.00
G01 X104.7803 Y22.6914 F350.00
G01 X104.8542 Y22.7182 F350.00
G01 X104.8815 Y22.7292 F350.00
G01 X104.9086 Y22.7408 F350.00
G01 X104.9797 Y22.7740 F350.00
G01 X105.0062 Y22.7869 F350.00
G01 X105.0324 Y22.8005 F350.00
G01 X105.0582 Y22.8147 F350.00
G01 X105.0836 Y22.8295 F350.00
G01 X105.1508 Y22.8702 F350.00
G01 X105.1755 Y22.8863 F350.00
G01 X105.1998 Y22.9030 F350.00
G01 X105.2631 Y22.9495 F350.00
G01 X105.2865 Y22.9673 F350.00
G01 X105.3095 Y22.9857 F350.00
G01 X105.3320 Y23.0047 F350.00
G01 X105.3541 Y23.0242 F350.00
G01 X105.4120 Y23.0772 F350.00
G01 X105.4331 Y23.0977 F350.00
G01 X107.6831 Y25.3477 F350.00
G01 X107.7037 Y25.3688 F350.00
G01 X107.7237 Y25.3904 F350.00
G01 X107.7762 Y25.4488 F350.00
G01 X107.7952 Y25.4714 F350.00
G01 X107.8136 Y25.4944 F350.00
G01 X107.8607 Y25.5572 F350.00
G01 X107.8779 Y25.5811 F350.00
G01 X107.8946 Y25.6054 F350.00
G01 X107.9106 Y25.6301 F350.00
G01 X107.9261 Y25.6552 F350.00
G01 X107.9661 Y25.7227 F350.00
G01 X107.9803 Y25.7485 F350.00
G01 X107.9939 Y25.7747 F350.00
G01 X108.0278 Y25.8455 F350.00
G01 X108.0401 Y25.8723 F350.00
G01 X108.0517 Y25.8993 F350.00
G01 X108.0626 Y25.9267 F350.00
G01 X108.0894 Y26.0005 F350.00
G01 X108.0990 Y26.0284 F350.00
G01 X108.1079 Y26.0564 F350.00
G01 X108.1161 Y26.0847 F350.00
G01 X108.1236 Y26.1132 F350.00
G01 X108.1423 Y26.1895 F350.00
G01 X108.1484 Y26.2183 F350.00
G01 X108.1538 Y26.2473 F350.00
G01 X108.1657 Y26.3249 F350.00
G01 X108.1697 Y26.3541 F350.00
G01 X108.1729 Y26.3833 F350.00
G01 X108.1755 Y26.4127 F350.00
G01 X108.1797 Y26.4911 F350.00
G01 X108.1807 Y26.5206 F350.00
G01 X108.1811 Y26.5500 F350.00
G01 X108.1811 Y46.9820 F350.00
G01 X108.1807 Y47.0114 F350.00
G01 X108.1773 Y47.0899 F350.00
G01 X108.1755 Y47.1193 F350.00
G01 X108.1729 Y47.1486 F350.00
G01 X108.1697 Y47.1779 F350.00
G01 X108.1585 Y47.2557 F350.00
G01 X108.1538 Y47.2847 F350.00
G01 X108.1484 Y47.3137 F350.00
G01 X108.1423 Y47.3425 F350.00
G01 X108.1236 Y47.4188 F350.00
G01 X108.1161 Y47.4473 F350.00
G01 X108.1079 Y47.4755 F350.00
G01 X108.0990 Y47.5036 F350.00
G01 X108.0894 Y47.5315 F350.00
G01 X108.0626 Y47.6053 F350.00
G01 X108.0517 Y47.6326 F350.00
G01 X108.0401 Y47.6597 F350.00
G01 X108.0278 Y47.6865 F350.00
G01 X107.9939 Y47.7573 F350.00
G01 X107.9803 Y47.7835 F350.00
G01 X107.9661 Y47.8093 F350.00
G01 X107.9261 Y47.8768 F350.00
G01 X107.9106 Y47.9019 F350.00
G01 X107.8946 Y47.9266 F350.00
G01 X107.8779 Y47.9509 F350.00
G01 X107.8314 Y48.0142 F350.00
G01 X107.8136 Y48.0376 F350.00
G01 X107.7952 Y48.0606 F350.00
G01 X107.7762 Y48.0831 F350.00
G01 X107.7237 Y48.1416 F350.00
G01 X107.7037 Y48.1632 F350.00
G01 X107.6831 Y48.1842 F350.00
G01 X88.6576 Y67.2098 F350.00
G01 X127.3618 Y38.7250 F350.00
G01 X124.8559 Y38.7250 F350.00
G01 X124.8264 Y38.7246 F350.00
G01 X124.7970 Y38.7236 F350.00
G01 X124.7259 Y38.7201 F350.00
G01 X124.6965 Y38.7183 F350.00
G01 X124.6672 Y38.7157 F350.00
G01 X124.6379 Y38.7125 F350.00
G01 X124.6087 Y38.7085 F350.00
G01 X124.5383 Y38.6981 F350.00
G01 X124.5093 Y38.6934 F350.00
G01 X124.4803 Y38.6880 F350.00
G01 X124.4515 Y38.6819 F350.00
G01 X124.4228 Y38.6751 F350.00
G01 X124.3538 Y38.6578 F350.00
G01 X124.3253 Y38.6503 F350.00
G01 X124.2971 Y38.6421 F350.00
G01 X124.2690 Y38.6332 F350.00
G01 X124.2411 Y38.6236 F350.00
G01 X124.1741 Y38.5997 F350.00
G01 X124.1465 Y38.5894 F350.00
G01 X124.1192 Y38.5785 F350.00
G01 X124.0921 Y38.5669 F350.00
G01 X124.0653 Y38.5546 F350.00
G01 X124.0010 Y38.5242 F350.00
G01 X123.9746 Y38.5113 F350.00
G01 X123.9484 Y38.4977 F350.00
G01 X123.9226 Y38.4835 F350.00
G01 X123.8972 Y38.4687 F350.00
G01 X123.8361 Y38.4321 F350.00
G01 X123.8111 Y38.4166 F350.00
G01 X123.7864 Y38.4006 F350.00
G01 X123.7621 Y38.3839 F350.00
G01 X123.7382 Y38.3667 F350.00
G01 X123.6811 Y38.3243 F350.00
G01 X123.6576 Y38.3064 F350.00
G01 X123.6347 Y38.2880 F350.00
G01 X123.6121 Y38.2691 F350.00
G01 X123.5901 Y38.2496 F350.00
G01 X123.5373 Y38.2018 F350.00
G01 X123.5158 Y38.1817 F350.00
G01 X123.4947 Y38.1612 F350.00
G01 X123.4741 Y38.1401 F350.00
G01 X123.4541 Y38.1185 F350.00
G01 X123.4063 Y38.0658 F350.00
G01 X123.3868 Y38.0437 F350.00
G01 X123.3678 Y38.0212 F350.00
G01 X123.3494 Y37.9982 F350.00
G01 X123.3316 Y37.9748 F350.00
G01 X123.2892 Y37.9176 F350.00
G01 X123.2719 Y37.8938 F350.00
G01 X123.2553 Y37.8695 F350.00
G01 X123.2392 Y37.8448 F350.00
G01 X123.2238 Y37.8197 F350.00
G01 X123.1872 Y37.7587 F350.00
G01 X123.1724 Y37.7332 F350.00
G01 X123.1582 Y37.7074 F350.00
G01 X123.1446 Y37.6813 F350.00
G01 X123.1317 Y37.6548 F350.00
G01 X123.1013 Y37.5905 F350.00
G01 X123.0890 Y37.5637 F350.00
G01 X123.0774 Y37.5367 F350.00
G01 X123.0665 Y37.5093 F350.00
G01 X123.0562 Y37.4817 F350.00
G01 X123.0322 Y37.4147 F350.00
G01 X123.0226 Y37.3869 F350.00
G01 X123.0138 Y37.3588 F350.00
G01 X123.0055 Y37.3305 F350.00
G01 X122.9980 Y37.3020 F350.00
G01 X122.9808 Y37.2330 F350.00
G01 X122.9739 Y37.2044 F350.00
G01 X122.9678 Y37.1755 F350.00
G01 X122.9625 Y37.1466 F350.00
G01 X122.9578 Y37.1175 F350.00
G01 X122.9473 Y37.0471 F350.00
G01 X122.9434 Y37.0180 F350.00
G01 X122.9401 Y36.9887 F350.00
G01 X122.9376 Y36.9593 F350.00
G01 X122.9358 Y36.9299 F350.00
G01 X122.9323 Y36.8589 F350.00
G01 X122.9312 Y36.8294 F350.00
G01 X122.9309 Y36.8000 F350.00
G01 X122.9312 Y36.7706 F350.00
G01 X122.9323 Y36.7411 F350.00
G01 X122.9358 Y36.6701 F350.00
G01 X122.9376 Y36.6407 F350.00
G01 X122.9401 Y36.6113 F350.00
G01 X122.9434 Y36.5820 F350.00
G01 X122.9473 Y36.5529 F350.00
G01 X122.9578 Y36.4825 F350.00
G01 X122.9625 Y36.4534 F350.00
G01 X122.9678 Y36.4245 F350.00
G01 X122.9739 Y36.3956 F350.00
G01 X122.9808 Y36.3670 F350.00
G01 X122.9980 Y36.2980 F350.00
G01 X123.0055 Y36.2695 F350.00
G01 X123.0138 Y36.2412 F350.00
G01 X123.0226 Y36.2131 F350.00
G01 X123.0322 Y36.1853 F350.00
G01 X123.0562 Y36.1183 F350.00
G01 X123.0665 Y36.0907 F350.00
G01 X123.0774 Y36.0633 F350.00
G01 X123.0890 Y36.0363 F350.00
G01 X123.1013 Y36.0095 F350.00
G01 X123.1317 Y35.9452 F350.00
G01 X123.1446 Y35.9187 F350.00
G01 X123.1582 Y35.8926 F350.00
G01 X123.1724 Y35.8668 F350.00
G01 X123.2120 Y35.8000 F350.00
G01 X123.1724 Y35.7332 F350.00
G01 X123.1582 Y35.7074 F350.00
G01 X123.1446 Y35.6813 F350.00
G01 X123.1317 Y35.6548 F350.00
G01 X123.1013 Y35.5905 F350.00
G01 X123.0890 Y35.5637 F350.00
G01 X123.0774 Y35.5367 F350.00
G01 X123.0665 Y35.5093 F350.00
G01 X123.0562 Y35.4817 F350.00
G01 X123.0322 Y35.4147 F350.00
G01 X123.0226 Y35.3869 F350.00
G01 X123.0138 Y35.3588 F350.00
G01 X123.0055 Y35.3305 F350.00
G01 X122.9980 Y35.3020 F350.00
G01 X122.9808 Y35.2330 F350.00
G01 X122.9739 Y35.2044 F350.00
G01 X122.9678 Y35.1755 F350.00
G01 X122.9625 Y35.1466 F350.00
G01 X122.9578 Y35.1175 F350.00
G01 X122.9473 Y35.0471 F350.00
G01 X122.9434 Y35.0180 F350.00
G01 X122.9401 Y34.9887 F350.00
G01 X122.9376 Y34.9593 F350.00
G01 X122.9358 Y34.9299 F350.00
G01 X122.9323 Y34.8589 F350.00
G01 X122.9312 Y34.8294 F350.00
G01 X122.9309 Y34.8000 F350.00
G01 X122.9312 Y34.7706 F350.00
G01 X122.9323 Y34.7411 F350.00
G01 X122.9358 Y34.6701 F350.00
G01 X122.9376 Y34.6407 F350.00
G01 X122.9401 Y34.6113 F350.00
G01 X122.9434 Y34.5820 F350.00
G01 X122.9473 Y34.5529 F350.00
G01 X122.9578 Y34.4825 F350.00
G01 X122.9625 Y34.4534 F350.00
G01 X122.9678 Y34.4245 F350.00
G01 X122.9739 Y34.3956 F350.00
G01 X122.9808 Y34.3670 F350.00
G01 X122.9980 Y34.2980 F350.00
G01 X123.0055 Y34.2695 F350.00
G01 X123.0138 Y34.2412 F350.00
G01 X123.0226 Y34.2131 F350.00
G01 X123.0322 Y34.1853 F350.00
G01 X123.0562 Y34.1183 F350.00
G01 X123.0665 Y34.0907 F350.00
G01 X123.0774 Y34.0633 F350.00
G01 X123.0890 Y34.0363 F350.00
G01 X123.1013 Y34.0095 F350.00
G01 X123.1317 Y33.9452 F350.00
G01 X123.1446 Y33.9187 F350.00
G01 X123.1582 Y33.8926 F350.00
G01 X123.1724 Y33.8668 F350.00
G01 X123.1872 Y33.8413 F350.00
G01 X123.2238 Y33.7803 F350.00
G01 X123.2392 Y33.7552 F350.00
G01 X123.2553 Y33.7305 F350.00
G01 X123.2719 Y33.7062 F350.00
G01 X123.2892 Y33.6824 F350.00
G01 X123.3316 Y33.6252 F350.00
G01 X123.3494 Y33.6018 F350.00
G01 X123.3678 Y33.5788 F350.00
G01 X123.3868 Y33.5563 F350.00
G01 X123.4063 Y33.5342 F350.00
G01 X123.4541 Y33.4815 F350.00
G01 X123.4741 Y33.4599 F350.00
G01 X123.4947 Y33.4388 F350.00
G01 X123.5158 Y33.4183 F350.00
G01 X123.5373 Y33.3982 F350.00
G01 X123.5901 Y33.3504 F350.00
G01 X123.6121 Y33.3309 F350.00
G01 X123.6347 Y33.3120 F350.00
G01 X123.6576 Y33.2936 F350.00
G01 X123.6811 Y33.2757 F350.00
G01 X123.7382 Y33.2333 F350.00
G01 X123.7621 Y33.2161 F350.00
G01 X123.7864 Y33.1994 F350.00
G01 X123.8111 Y33.1834 F350.00
G01 X123.8361 Y33.1679 F350.00
G01 X123.8972 Y33.1313 F350.00
G01 X123.9226 Y33.1165 F350.00
G01 X123.9484 Y33.1023 F350.00
G01 X123.9746 Y33.0887 F350.00
G01 X124.0010 Y33.0758 F350.00
G01 X124.0653 Y33.0454 F350.00
G01 X124.0921 Y33.0331 F350.00
G01 X124.1192 Y33.0215 F350.00
G01 X124.1465 Y33.0106 F350.00
G01 X124.1741 Y33.0003 F350.00
G01 X124.2411 Y32.9764 F350.00
G01 X124.2690 Y32.9668 F350.00
G01 X124.2971 Y32.9579 F350.00
G01 X124.3253 Y32.9497 F350.00
G01 X124.3538 Y32.9422 F350.00
G01 X124.4228 Y32.9249 F350.00
G01 X124.4515 Y32.9181 F350.00
G01 X124.4803 Y32.9120 F350.00
G01 X124.5093 Y32.9066 F350.00
G01 X124.5383 Y32.9019 F350.00
G01 X124.6087 Y32.8915 F350.00
G01 X124.6379 Y32.8875 F350.00
G01 X124.6672 Y32.8843 F350.00
G01 X124.6965 Y32.8817 F350.00
G01 X124.7259 Y32.8799 F350.00
G01 X124.7970 Y32.8764 F350.00
G01 X124.8264 Y32.8754 F350.00
G01 X124.8559 Y32.8750 F350.00
G01 X127.4059 Y32.8750 F350.00
G01 X127.4353 Y32.8754 F350.00
G01 X127.4647 Y32.8764 F350.00
G01 X127.5358 Y32.8799 F350.00
G01 X127.5652 Y32.8817 F350.00
G01 X127.5945 Y32.8843 F350.00
G01 X127.6238 Y32.8875 F350.00
G01 X127.6530 Y32.8915 F350.00
G01 X127.7234 Y32.9019 F350.00
G01 X127.7525 Y32.9066 F350.00
G01 X127.7814 Y32.9120 F350.00
G01 X127.8102 Y32.9181 F350.00
G01 X127.8389 Y32.9249 F350.00
G01 X127.9079 Y32.9422 F350.00
G01 X127.9364 Y32.9497 F350.00
G01 X127.9647 Y32.9579 F350.00
G01 X127.9927 Y32.9668 F350.00
G01 X128.0206 Y32.9764 F350.00
G01 X128.0876 Y33.0003 F350.00
G01 X128.1152 Y33.0106 F350.00
G01 X128.1425 Y33.0215 F350.00
G01 X128.1696 Y33.0331 F350.00
G01 X128.1964 Y33.0454 F350.00
G01 X128.2607 Y33.0758 F350.00
G01 X128.2872 Y33.0887 F350.00
G01 X128.3133 Y33.1023 F350.00
G01 X128.3391 Y33.1165 F350.00
G01 X128.3645 Y33.1313 F350.00
G01 X128.4256 Y33.1679 F350.00
G01 X128.4506 Y33.1834 F350.00
G01 X128.4753 Y33.1994 F350.00
G01 X128.4996 Y33.2161 F350.00
G01 X128.5235 Y33.2333 F350.00
G01 X128.5806 Y33.2757 F350.00
G01 X128.6041 Y33.2936 F350.00
G01 X128.6271 Y33.3120 F350.00
G01 X128.6496 Y33.3309 F350.00
G01 X128.6717 Y33.3504 F350.00
G01 X128.7244 Y33.3982 F350.00
G01 X128.7460 Y33.4183 F350.00
G01 X128.7670 Y33.4388 F350.00
G01 X128.7876 Y33.4599 F350.00
G01 X128.8077 Y33.4815 F350.00
G01 X128.8554 Y33.5342 F350.00
G01 X128.8749 Y33.5563 F350.00
G01 X128.8939 Y33.5788 F350.00
G01 X128.9154 Y33.6059 F350.00
G01 X128.6513 Y13.2502 F350.00
G01 X128.6309 Y13.2879 F350.00
G01 X128.6161 Y13.3133 F350.00
G01 X128.5656 Y13.3975 F350.00
G01 X128.5502 Y13.4226 F350.00
G01 X128.5341 Y13.4473 F350.00
G01 X128.5174 Y13.4715 F350.00
G01 X128.5002 Y13.4954 F350.00
G01 X128.4417 Y13.5742 F350.00
G01 X128.4239 Y13.5977 F350.00
G01 X128.4055 Y13.6207 F350.00
G01 X128.3865 Y13.6432 F350.00
G01 X128.3670 Y13.6653 F350.00
G01 X128.3011 Y13.7380 F350.00
G01 X128.2811 Y13.7596 F350.00
G01 X128.2605 Y13.7806 F350.00
G01 X128.2394 Y13.8012 F350.00
G01 X128.2178 Y13.8212 F350.00
G01 X128.1451 Y13.8872 F350.00
G01 X128.1231 Y13.9067 F350.00
G01 X128.1005 Y13.9256 F350.00
G01 X128.0775 Y13.9440 F350.00
G01 X128.0541 Y13.9619 F350.00
G01 X127.9753 Y14.0203 F350.00
G01 X127.9514 Y14.0376 F350.00
G01 X127.9271 Y14.0542 F350.00
G01 X127.9024 Y14.0703 F350.00
G01 X127.8774 Y14.0857 F350.00
G01 X127.7932 Y14.1362 F350.00
G01 X127.7677 Y14.1510 F350.00
G01 X127.7419 Y14.1652 F350.00
G01 X127.7158 Y14.1788 F350.00
G01 X127.6893 Y14.1917 F350.00
G01 X127.6006 Y14.2337 F350.00
G01 X127.5738 Y14.2459 F350.00
G01 X127.5468 Y14.2575 F350.00
G01 X127.5194 Y14.2685 F350.00
G01 X127.4918 Y14.2787 F350.00
G01 X127.3994 Y14.3118 F350.00
G01 X127.3716 Y14.3214 F350.00
G01 X127.3435 Y14.3303 F350.00
G01 X127.3152 Y14.3385 F350.00
G01 X127.2867 Y14.3460 F350.00
G01 X127.1915 Y14.3698 F350.00
G01 X127.1629 Y14.3766 F350.00
G01 X127.1341 Y14.3827 F350.00
G01 X127.1051 Y14.3881 F350.00
G01 X127.0760 Y14.3928 F350.00
G01 X126.9790 Y14.4072 F350.00
G01 X126.9498 Y14.4112 F350.00
G01 X126.9205 Y14.4144 F350.00
G01 X126.8912 Y14.4169 F350.00
G01 X126.8618 Y14.4187 F350.00
G01 X126.7637 Y14.4236 F350.00
G01 X126.7343 Y14.4246 F350.00
G01 X126.7049 Y14.4250 F350.00
G01 X126.6754 Y14.4246 F350.00
G01 X126.6460 Y14.4236 F350.00
G01 X126.5480 Y14.4187 F350.00
G01 X126.5186 Y14.4169 F350.00
G01 X126.4892 Y14.4144 F350.00
G01 X126.4600 Y14.4112 F350.00
G01 X126.4308 Y14.4072 F350.00
G01 X126.3337 Y14.3928 F350.00
G01 X126.3046 Y14.3881 F350.00
G01 X126.2757 Y14.3827 F350.00
G01 X126.2468 Y14.3766 F350.00
G01 X126.2182 Y14.3698 F350.00
G01 X126.1230 Y14.3460 F350.00
G01 X126.0945 Y14.3385 F350.00
G01 X126.0662 Y14.3303 F350.00
G01 X126.0382 Y14.3214 F350.00
G01 X126.0103 Y14.3118 F350.00
G01 X125.9179 Y14.2787 F350.00
G01 X125.8903 Y14.2685 F350.00
G01 X125.8630 Y14.2575 F350.00
G01 X125.8359 Y14.2459 F350.00
G01 X125.8091 Y14.2337 F350.00
G01 X125.7204 Y14.1917 F350.00
G01 X125.6939 Y14.1788 F350.00
G01 X125.6678 Y14.1652 F350.00
G01 X125.6420 Y14.1510 F350.00
G01 X125.6165 Y14.1362 F350.00
G01 X125.5324 Y14.0857 F350.00
G01 X125.5073 Y14.0703 F350.00
G01 X125.4826 Y14.0542 F350.00
G01 X125.4583 Y14.0376 F350.00
G01 X125.4349 Y14.0206 F350.00
G01 X125.4114 Y14.0376 F350.00
G01 X125.3871 Y14.0542 F350.00
G01 X125.3624 Y14.0703 F350.00
G01 X125.3374 Y14.0857 F350.00
G01 X125.2532 Y14.1362 F350.00
G01 X125.2277 Y14.1510 F350.00
G01 X125.2019 Y14.1652 F350.00
G01 X125.1758 Y14.1788 F350.00
G01 X125.1493 Y14.1917 F350.00
G01 X125.0606 Y14.2337 F350.00
G01 X125.0338 Y14.2459 F350.00
G01 X125.0068 Y14.2575 F350.00
G01 X124.9794 Y14.2685 F350.00
G01 X124.9518 Y14.2787 F350.00
G01 X124.8594 Y14.3118 F350.00
G01 X124.8316 Y14.3214 F350.00
G01 X124.8035 Y14.3303 F350.00
G01 X124.7752 Y14.3385 F350.00
G01 X124.7467 Y14.3460 F350.00
G01 X124.6515 Y14.3698 F350.00
G01 X124.6229 Y14.3766 F350.00
G01 X124.5941 Y14.3827 F350.00
G01 X124.5651 Y14.3881 F350.00
G01 X124.5360 Y14.3928 F350.00
G01 X124.4390 Y14.4072 F350.00
G01 X124.4098 Y14.4112 F350.00
G01 X124.3805 Y14.4144 F350.00
G01 X124.3512 Y14.4169 F350.00
G01 X124.3218 Y14.4187 F350.00
G01 X124.2237 Y14.4236 F350.00
G01 X124.1943 Y14.4246 F350.00
G01 X124.1649 Y14.4250 F350.00
G01 X124.1354 Y14.4246 F350.00
G01 X124.1060 Y14.4236 F350.00
G01 X124.0080 Y14.4187 F350.00
G01 X123.9786 Y14.4169 F350.00
G01 X123.9492 Y14.4144 F350.00
G01 X123.9200 Y14.4112 F350.00
G01 X123.8908 Y14.4072 F350.00
G01 X123.7937 Y14.3928 F350.00
G01 X123.7646 Y14.3881 F350.00
G01 X123.7357 Y14.3827 F350.00
G01 X123.7068 Y14.3766 F350.00
G01 X123.6782 Y14.3698 F350.00
G01 X123.5830 Y14.3460 F350.00
G01 X123.5545 Y14.3385 F350.00
G01 X123.5262 Y14.3303 F350.00
G01 X123.4982 Y14.3214 F350.00
G01 X123.4703 Y14.3118 F350.00
G01 X123.3779 Y14.2787 F350.00
G01 X123.3503 Y14.2685 F350.00
G01 X123.3230 Y14.2575 F350.00
G01 X123.2959 Y14.2459 F350.00
G01 X123.2691 Y14.2337 F350.00
G01 X123.1804 Y14.1917 F350.00
G01 X123.1539 Y14.1788 F350.00
G01 X123.1278 Y14.1652 F350.00
G01 X123.1020 Y14.1510 F350.00
G01 X123.0765 Y14.1362 F350.00
G01 X122.9924 Y14.0857 F350.00
G01 X122.9673 Y14.0703 F350.00
G01 X122.9426 Y14.0542 F350.00
G01 X122.9183 Y14.0376 F350.00
G01 X122.8945 Y14.0203 F350.00
G01 X122.8156 Y13.9619 F350.00
G01 X122.7922 Y13.9440 F350.00
G01 X122.7692 Y13.9256 F350.00
G01 X122.7467 Y13.9067 F350.00
G01 X122.7246 Y13.8872 F350.00
G01 X122.6519 Y13.8212 F350.00
G01 X122.6303 Y13.8012 F350.00
G01 X122.6092 Y13.7806 F350.00
G01 X122.5887 Y13.7596 F350.00
G01 X122.5686 Y13.7380 F350.00
G01 X122.5027 Y13.6653 F350.00
G01 X122.4832 Y13.6432 F350.00
G01 X122.4642 Y13.6207 F350.00
G01 X122.4458 Y13.5977 F350.00
G01 X122.4280 Y13.5742 F350.00
G01 X122.3695 Y13.4954 F350.00
G01 X122.3523 Y13.4715 F350.00
G01 X122.3356 Y13.4473 F350.00
G01 X122.3196 Y13.4226 F350.00
G01 X122.3041 Y13.3975 F350.00
G01 X122.2537 Y13.3133 F350.00
G01 X122.2388 Y13.2879 F350.00
G01 X122.2246 Y13.2621 F350.00
G01 X122.2111 Y13.2359 F350.00
G01 X122.1982 Y13.2095 F350.00
G01 X122.1562 Y13.1207 F350.00
G01 X122.1439 Y13.0940 F350.00
G01 X122.1323 Y13.0669 F350.00
G01 X122.1214 Y13.0396 F350.00
G01 X122.1111 Y13.0120 F350.00
G01 X122.0781 Y12.9196 F350.00
G01 X122.0685 Y12.8917 F350.00
G01 X122.0596 Y12.8636 F350.00
G01 X122.0514 Y12.8353 F350.00
G01 X122.0439 Y12.8069 F350.00
G01 X122.0200 Y12.7117 F350.00
G01 X122.0132 Y12.6830 F350.00
G01 X122.0071 Y12.6542 F350.00
G01 X122.0017 Y12.6252 F350.00
G01 X121.9971 Y12.5962 F350.00
G01 X121.9827 Y12.4991 F350.00
G01 X121.9787 Y12.4699 F350.00
G01 X121.9755 Y12.4406 F350.00
G01 X121.9729 Y12.4113 F350.00
G01 X121.9711 Y12.3819 F350.00
G01 X121.9663 Y12.2839 F350.00
G01 X121.9652 Y12.2544 F350.00
G01 X121.9649 Y12.2250 F350.00
G01 X121.9649 Y10.9750 F350.00
G01 X121.9652 Y10.9456 F350.00
G01 X121.9663 Y10.9161 F350.00
G01 X121.9711 Y10.8181 F350.00
G01 X121.9729 Y10.7887 F350.00
G01 X121.9755 Y10.7594 F350.00
G01 X121.9787 Y10.7301 F350.00
G01 X121.9827 Y10.7009 F350.00
G01 X121.9971 Y10.6038 F350.00
G01 X122.0017 Y10.5748 F350.00
G01 X122.0071 Y10.5458 F350.00
G01 X122.0132 Y10.5170 F350.00
G01 X122.0200 Y10.4883 F350.00
G01 X122.0439 Y10.3931 F350.00
G01 X122.0514 Y10.3647 F350.00
G01 X122.0596 Y10.3364 F350.00
G01 X122.0685 Y10.3083 F350.00
G01 X122.0781 Y10.2804 F350.00
G01 X122.1111 Y10.1880 F350.00
G01 X122.1214 Y10.1604 F350.00
G01 X122.1323 Y10.1331 F350.00
G01 X122.1439 Y10.1060 F350.00
G01 X122.1562 Y10.0793 F350.00
G01 X122.1982 Y9.9905 F350.00
G01 X122.2111 Y9.9641 F350.00
G01 X122.2246 Y9.9379 F350.00
G01 X122.2388 Y9.9121 F350.00
G01 X122.2537 Y9.8867 F350.00
G01 X122.3041 Y9.8025 F350.00
G01 X122.3196 Y9.7774 F350.00
G01 X122.3356 Y9.7527 F350.00
G01 X122.3523 Y9.7285 F350.00
G01 X122.3695 Y9.7046 F350.00
G01 X122.4280 Y9.6258 F350.00
G01 X122.4458 Y9.6023 F350.00
G01 X122.4642 Y9.5793 F350.00
G01 X122.4832 Y9.5568 F350.00
G01 X122.5027 Y9.5347 F350.00
G01 X122.5686 Y9.4620 F350.00
G01 X122.5887 Y9.4404 F350.00
G01 X122.6092 Y9.4194 F350.00
G01 X122.6303 Y9.3988 F350.00
G01 X122.6519 Y9.3788 F350.00
G01 X122.7246 Y9.3128 F350.00
G01 X122.7467 Y9.2933 F350.00
G01 X122.7692 Y9.2744 F350.00
G01 X122.7922 Y9.2560 F350.00
G01 X122.8156 Y9.2381 F350.00
G01 X122.8945 Y9.1797 F350.00
G01 X122.9183 Y9.1624 F350.00
G01 X122.9426 Y9.1458 F350.00
G01 X122.9673 Y9.1297 F350.00
G01 X122.9924 Y9.1143 F350.00
G01 X123.0765 Y9.0638 F350.00
G01 X123.1020 Y9.0490 F350.00
G01 X123.1278 Y9.0348 F350.00
G01 X123.1539 Y9.0212 F350.00
G01 X123.1804 Y9.0083 F350.00
G01 X123.2691 Y8.9663 F350.00
G01 X123.2959 Y8.9541 F350.00
G01 X123.3230 Y8.9425 F350.00
G01 X123.3503 Y8.9315 F350.00
G01 X123.3779 Y8.9213 F350.00
G01 X123.4703 Y8.8882 F350.00
G01 X123.4982 Y8.8786 F350.00
G01 X123.5262 Y8.8697 F350.00
G01 X123.5545 Y8.8615 F350.00
G01 X123.5830 Y8.8540 F350.00
G01 X123.6782 Y8.8302 F350.00
G01 X123.7068 Y8.8234 F350.00
G01 X123.7357 Y8.8173 F350.00
G01 X123.7646 Y8.8119 F350.00
G01 X123.7937 Y8.8072 F350.00
G01 X123.8908 Y8.7928 F350.00
G01 X123.9200 Y8.7888 F350.00
G01 X123.9492 Y8.7856 F350.00
G01 X123.9786 Y8.7831 F350.00
G01 X124.0080 Y8.7813 F350.00
G01 X124.1060 Y8.7764 F350.00
G01 X124.1354 Y8.7754 F350.00
G01 X124.1649 Y8.7750 F350.00
G01 X124.1943 Y8.7754 F350.00
G01 X124.2237 Y8.7764 F350.00
G01 X124.3218 Y8.7813 F350.00
G01 X124.3512 Y8.7831 F350.00
G01 X124.3805 Y8.7856 F350.00
G01 X124.4098 Y8.7888 F350.00
G01 X124.4390 Y8.7928 F350.00
G01 X124.5360 Y8.8072 F350.00
G01 X124.5651 Y8.8119 F350.00
G01 X124.5941 Y8.8173 F350.00
G01 X124.6229 Y8.8234 F350.00
G01 X124.6515 Y8.8302 F350.00
G01 X124.7467 Y8.8540 F350.00
G01 X124.7752 Y8.8615 F350.00
G01 X124.8035 Y8.8697 F350.00
G01 X124.8316 Y8.8786 F350.00
G01 X124.8594 Y8.8882 F350.00
G01 X124.9518 Y8.9213 F350.00
G01 X124.9794 Y8.9315 F350.00
G01 X125.0068 Y8.9425 F350.00
G01 X125.0338 Y8.9541 F350.00
G01 X125.0606 Y8.9663 F350.00
G01 X125.1493 Y9.0083 F350.00
G01 X125.1758 Y9.0212 F350.00
G01 X125.2019 Y9.0348 F350.00
G01 X125.2277 Y9.0490 F350.00
G01 X125.2532 Y9.0638 F350.00
G01 X125.3374 Y9.1143 F350.00
G01 X125.3624 Y9.1297 F350.00
G01 X125.3871 Y9.1458 F350.00
G01 X125.4114 Y9.1624 F350.00
G01 X125.4349 Y9.1794 F350.00
G01 X125.4583 Y9.1624 F350.00
G01 X125.4826 Y9.1458 F350.00
G01 X125.5073 Y9.1297 F350.00
G01 X125.5324 Y9.1143 F350.00
G01 X125.6165 Y9.0638 F350.00
G01 X125.6420 Y9.0490 F350.00
G01 X125.6678 Y9.0348 F350.00
G01 X125.6939 Y9.0212 F350.00
G01 X125.7204 Y9.0083 F350.00
G01 X125.8091 Y8.9663 F350.00
G01 X125.8359 Y8.9541 F350.00
G01 X125.8630 Y8.9425 F350.00
G01 X125.8903 Y8.9315 F350.00
G01 X125.9179 Y8.9213 F350.00
G01 X126.0103 Y8.8882 F350.00
G01 X126.0382 Y8.8786 F350.00
G01 X126.0662 Y8.8697 F350.00
G01 X126.0945 Y8.8615 F350.00
G01 X126.1230 Y8.8540 F350.00
G01 X126.2182 Y8.8302 F350.00
G01 X126.2468 Y8.8234 F350.00
G01 X126.2757 Y8.8173 F350.00
G01 X126.3046 Y8.8119 F350.00
G01 X126.3337 Y8.8072 F350.00
G01 X126.4308 Y8.7928 F350.00
G01 X126.4600 Y8.7888 F350.00
G01 X126.4892 Y8.7856 F350.00
G01 X126.5186 Y8.7831 F350.00
G01 X126.5480 Y8.7813 F350.00
G01 X126.6460 Y8.7764 F350.00
G01 X126.6754 Y8.7754 F350.00
G01 X126.7049 Y8.7750 F350.00
G01 X126.7343 Y8.7754 F350.00
G01 X126.7637 Y8.7764 F350.00
G01 X126.8618 Y8.7813 F350.00
G01 X126.8912 Y8.7831 F350.00
G01 X126.9205 Y8.7856 F350.00
G01 X126.9498 Y8.7888 F350.00
G01 X126.9790 Y8.7928 F350.00
G01 X127.0760 Y8.8072 F350.00
G01 X127.1051 Y8.8119 F350.00
G01 X127.1341 Y8.8173 F350.00
G01 X127.1629 Y8.8234 F350.00
G01 X127.1915 Y8.8302 F350.00
G01 X127.2867 Y8.8540 F350.00
G01 X127.3152 Y8.8615 F350.00
G01 X127.3435 Y8.8697 F350.00
G01 X127.3716 Y8.8786 F350.00
G01 X127.3994 Y8.8882 F350.00
G01 X127.4918 Y8.9213 F350.00
G01 X127.5194 Y8.9315 F350.00
G01 X127.5468 Y8.9425 F350.00
G01 X127.5738 Y8.9541 F350.00
G01 X127.6006 Y8.9663 F350.00
G01 X127.6893 Y9.0083 F350.00
G01 X127.7158 Y9.0212 F350.00
G01 X127.7419 Y9.0348 F350.00
G01 X127.7677 Y9.0490 F350.00
G01 X127.7932 Y9.0638 F350.00
G01 X127.8774 Y9.1143 F350.00
G01 X127.9024 Y9.1297 F350.00
G01 X127.9271 Y9.1458 F350.00
G01 X127.9514 Y9.1624 F350.00
G01 X127.9753 Y9.1797 F350.00
G01 X128.0541 Y9.2381 F350.00
G01 X128.0775 Y9.2560 F350.00
G01 X128.1005 Y9.2744 F350.00
G01 X128.1231 Y9.2933 F350.00
G01 X128.1451 Y9.3128 F350.00
G01 X128.2178 Y9.3788 F350.00
G01 X128.2394 Y9.3988 F350.00
G01 X128.2605 Y9.4194 F350.00
G01 X128.2811 Y9.4404 F350.00
G01 X128.3011 Y9.4620 F350.00
G01 X128.3670 Y9.5347 F350.00
G01 X128.3865 Y9.5568 F350.00
G01 X128.4055 Y9.5793 F350.00
G01 X128.4239 Y9.6023 F350.00
G01 X128.4417 Y9.6258 F350.00
G01 X128.5002 Y9.7046 F350.00
G01 X128.5174 Y9.7285 F350.00
G01 X128.5341 Y9.7527 F350.00
G01 X128.5502 Y9.7774 F350.00
G01 X128.5656 Y9.8025 F350.00
G01 X128.6074 Y9.8723 F350.00
G01 X128.5370 Y4.4429 F350.00
G01 X128.5174 Y4.4715 F350.00
G01 X128.5002 Y4.4954 F350.00
G01 X128.4417 Y4.5742 F350.00
G01 X128.4239 Y4.5977 F350.00
G01 X128.4055 Y4.6207 F350.00
G01 X128.3865 Y4.6432 F350.00
G01 X128.3670 Y4.6653 F350.00
G01 X128.3011 Y4.7380 F350.00
G01 X128.2811 Y4.7596 F350.00
G01 X128.2605 Y4.7806 F350.00
G01 X128.2394 Y4.8012 F350.00
G01 X128.2178 Y4.8212 F350.00
G01 X128.1451 Y4.8872 F350.00
G01 X128.1231 Y4.9067 F350.00
G01 X128.1005 Y4.9256 F350.00
G01 X128.0775 Y4.9440 F350.00
G01 X128.0541 Y4.9619 F350.00
G01 X127.9753 Y5.0203 F350.00
G01 X127.9514 Y5.0376 F350.00
G01 X127.9271 Y5.0542 F350.00
G01 X127.9024 Y5.0703 F350.00
G01 X127.8774 Y5.0857 F350.00
G01 X127.7932 Y5.1362 F350.00
G01 X127.7677 Y5.1510 F350.00
G01 X127.7419 Y5.1652 F350.00
G01 X127.7158 Y5.1788 F350.00
G01 X127.6893 Y5.1917 F350.00
G01 X127.6006 Y5.2337 F350.00
G01 X127.5738 Y5.2459 F350.00
G01 X127.5468 Y5.2575 F350.00
G01 X127.5194 Y5.2685 F350.00
G01 X127.4918 Y5.2787 F350.00
G01 X127.3994 Y5.3118 F350.00
G01 X127.3716 Y5.3214 F350.00
G01 X127.3435 Y5.3303 F350.00
G01 X127.3152 Y5.3385 F350.00
G01 X127.2867 Y5.3460 F350.00
G01 X127.1915 Y5.3698 F350.00
G01 X127.1629 Y5.3766 F350.00
G01 X127.1341 Y5.3827 F350.00
G01 X127.1051 Y5.3881 F350.00
G01 X127.0760 Y5.3928 F350.00
G01 X126.9790 Y5.4072 F350.00
G01 X126.9498 Y5.4112 F350.00
G01 X126.9205 Y5.4144 F350.00
G01 X126.8912 Y5.4169 F350.00
G01 X126.8618 Y5.4187 F350.00
G01 X126.7637 Y5.4236 F350.00
G01 X126.7343 Y5.4246 F350.00
G01 X126.7049 Y5.4250 F350.00
G01 X126.6754 Y5.4246 F350.00
G01 X126.6460 Y5.4236 F350.00
G01 X126.5480 Y5.4187 F350.00
G01 X126.5186 Y5.4169 F350.00
G01 X126.4892 Y5.4144 F350.00
G01 X126.4600 Y5.4112 F350.00
G01 X126.4308 Y5.4072 F350.00
G01 X126.3337 Y5.3928 F350.00
G01 X126.3046 Y5.3881 F350.00
G01 X126.2757 Y5.3827 F350.00
G01 X126.2468 Y5.3766 F350.00
G01 X126.2182 Y5.3698 F350.00
G01 X126.1230 Y5.3460 F350.00
G01 X126.0945 Y5.3385 F350.00
G01 X126.0662 Y5.3303 F350.00
G01 X126.0382 Y5.3214 F350.00
G01 X126.0103 Y5.3118 F350.00
G01 X125.9179 Y5.2787 F350.00
G01 X125.8903 Y5.2685 F350.00
G01 X125.8630 Y5.2575 F350.00
G01 X125.8359 Y5.2459 F350.00
G01 X125.8091 Y5.2337 F350.00
G01 X125.7204 Y5.1917 F350.00
G01 X125.6939 Y5.1788 F350.00
G01 X125.6678 Y5.1652 F350.00
G01 X125.6420 Y5.1510 F350.00
G01 X125.6165 Y5.1362 F350.00
G01 X125.5324 Y5.0857 F350.00
G01 X125.5073 Y5.0703 F350.00
G01 X125.4826 Y5.0542 F350.00
G01 X125.4583 Y5.0376 F350.00
G01 X125.4345 Y5.0203 F350.00
G01 X125.3556 Y4.9619 F350.00
G01 X125.3322 Y4.9440 F350.00
G01 X125.3092 Y4.9256 F350.00
G01 X125.2867 Y4.9067 F350.00
G01 X125.2646 Y4.8872 F350.00
G01 X125.1919 Y4.8212 F350.00
G01 X125.1703 Y4.8012 F350.00
G01 X125.1492 Y4.7806 F350.00
G01 X125.1287 Y4.7596 F350.00
G01 X125.1086 Y4.7380 F350.00
G01 X125.0427 Y4.6653 F350.00
G01 X125.0232 Y4.6432 F350.00
G01 X125.0042 Y4.6207 F350.00
G01 X124.9858 Y4.5977 F350.00
G01 X124.9680 Y4.5742 F350.00
G01 X124.9095 Y4.4954 F350.00
G01 X124.8923 Y4.4715 F350.00
G01 X124.8756 Y4.4473 F350.00
G01 X124.8596 Y4.4226 F350.00
G01 X124.8441 Y4.3975 F350.00
G01 X124.7937 Y4.3133 F350.00
G01 X124.7788 Y4.2879 F350.00
G01 X124.7646 Y4.2621 F350.00
G01 X124.7511 Y4.2359 F350.00
G01 X124.7382 Y4.2095 F350.00
G01 X124.6962 Y4.1207 F350.00
G01 X124.6839 Y4.0940 F350.00
G01 X124.6723 Y4.0669 F350.00
G01 X124.6614 Y4.0396 F350.00
G01 X124.6511 Y4.0120 F350.00
G01 X124.6181 Y3.9196 F350.00
G01 X124.6085 Y3.8917 F350.00
G01 X124.5996 Y3.8636 F350.00
G01 X124.5914 Y3.8353 F350.00
G01 X124.5839 Y3.8069 F350.00
G01 X124.5600 Y3.7117 F350.00
G01 X124.5532 Y3.6830 F350.00
G01 X124.5471 Y3.6542 F350.00
G01 X124.5417 Y3.6252 F350.00
G01 X124.5371 Y3.5962 F350.00
G01 X124.5227 Y3.4991 F350.00
G01 X124.5187 Y3.4699 F350.00
G01 X124.5155 Y3.4406 F350.00
G01 X124.5129 Y3.4113 F350.00
G01 X124.5111 Y3.3819 F350.00
G01 X124.5063 Y3.2839 F350.00
G01 X124.5052 Y3.2544 F350.00
G01 X124.5049 Y3.2250 F350.00
G01 X124.5049 Y1.9750 F350.00
G01 X124.5052 Y1.9456 F350.00
G01 X124.5063 Y1.9161 F350.00
G01 X124.5111 Y1.8181 F350.00
G01 X124.5129 Y1.7887 F350.00
G01 X124.5155 Y1.7594 F350.00
G01 X124.5187 Y1.7301 F350.00
G01 X124.5227 Y1.7009 F350.00
G01 X124.5371 Y1.6038 F350.00
G01 X124.5417 Y1.5748 F350.00
G01 X124.5471 Y1.5458 F350.00
G01 X124.5532 Y1.5170 F350.00
G01 X124.5600 Y1.4883 F350.00
G01 X124.5839 Y1.3931 F350.00
G01 X124.5914 Y1.3647 F350.00
G01 X124.5996 Y1.3364 F350.00
G01 X124.6085 Y1.3083 F350.00
G01 X124.6181 Y1.2804 F350.00
G01 X124.6511 Y1.1880 F350.00
G01 X124.6614 Y1.1604 F350.00
G01 X124.6723 Y1.1331 F350.00
G01 X124.6839 Y1.1060 F350.00
G01 X124.6962 Y1.0793 F350.00
G01 X124.7382 Y0.9905 F350.00
G01 X124.7511 Y0.9641 F350.00
G01 X124.7646 Y0.9379 F350.00
G01 X124.7788 Y0.9121 F350.00
G01 X124.7937 Y0.8867 F350.00
G01 X124.8441 Y0.8025 F350.00
G01 X124.8596 Y0.7774 F350.00
G01 X124.8756 Y0.7527 F350.00
G01 X124.8923 Y0.7285 F350.00
G01 X124.9095 Y0.7046 F350.00
G01 X124.9680 Y0.6258 F350.00
G01 X124.9858 Y0.6023 F350.00
G01 X125.0042 Y0.5793 F350.00
G01 X125.0232 Y0.5568 F350.00
G01 X125.0427 Y0.5347 F350.00
G01 X125.1086 Y0.4620 F350.00
G01 X125.1287 Y0.4404 F350.00
G01 X125.1492 Y0.4194 F350.00
G01 X125.1703 Y0.3988 F350.00
G01 X125.1919 Y0.3788 F350.00
G01 X125.2646 Y0.3128 F350.00
G01 X125.2867 Y0.2933 F350.00
G01 X125.3092 Y0.2744 F350.00
G01 X125.3322 Y0.2560 F350.00
G01 X125.3556 Y0.2381 F350.00
G01 X125.4345 Y0.1797 F350.00
G01 X125.4583 Y0.1624 F350.00
G01 X125.4826 Y0.1458 F350.00
G01 X125.5074 Y0.1296 F350.00
G01 X116.5405 Y-0.2058 F350.00
G01 X116.6280 Y-0.1928 F350.00
G01 X116.6571 Y-0.1881 F350.00
G01 X116.6861 Y-0.1827 F350.00
G01 X116.7149 Y-0.1766 F350.00
G01 X116.7435 Y-0.1698 F350.00
G01 X116.8387 Y-0.1460 F350.00
G01 X116.8672 Y-0.1385 F350.00
G01 X116.8955 Y-0.1303 F350.00
G01 X116.9236 Y-0.1214 F350.00
G01 X116.9514 Y-0.1118 F350.00
G01 X117.0438 Y-0.0787 F350.00
G01 X117.0714 Y-0.0685 F350.00
G01 X117.0988 Y-0.0575 F350.00
G01 X117.1258 Y-0.0459 F350.00
G01 X117.1526 Y-0.0337 F350.00
G01 X117.2413 Y0.0083 F350.00
G01 X117.2678 Y0.0212 F350.00
G01 X117.2939 Y0.0348 F350.00
G01 X117.3197 Y0.0490 F350.00
G01 X117.3452 Y0.0638 F350.00
G01 X117.4294 Y0.1143 F350.00
G01 X117.4544 Y0.1297 F350.00
G01 X117.4791 Y0.1458 F350.00
G01 X117.5034 Y0.1624 F350.00
G01 X117.5273 Y0.1797 F350.00
G01 X117.6061 Y0.2381 F350.00
G01 X117.6295 Y0.2560 F350.00
G01 X117.6525 Y0.2744 F350.00
G01 X117.6751 Y0.2933 F350.00
G01 X117.6971 Y0.3128 F350.00
G01 X117.7698 Y0.3788 F350.00
G01 X117.7914 Y0.3988 F350.00
G01 X117.8125 Y0.4194 F350.00
G01 X117.8331 Y0.4404 F350.00
G01 X117.8531 Y0.4620 F350.00
G01 X117.9190 Y0.5347 F350.00
G01 X117.9385 Y0.5568 F350.00
G01 X117.9575 Y0.5793 F350.00
G01 X117.9759 Y0.6023 F350.00
G01 X117.9937 Y0.6258 F350.00
G01 X118.0522 Y0.7046 F350.00
G01 X118.0694 Y0.7285 F350.00
G01 X118.0861 Y0.7527 F350.00
G01 X118.1022 Y0.7774 F350.00
G01 X118.1176 Y0.8025 F350.00
G01 X118.1681 Y0.8867 F350.00
G01 X118.1829 Y0.9121 F350.00
G01 X118.1971 Y0.9379 F350.00
G01 X118.2107 Y0.9641 F350.00
G01 X118.2236 Y0.9905 F350.00
G01 X118.2655 Y1.0793 F350.00
G01 X118.2778 Y1.1060 F350.00
G01 X118.2894 Y1.1331 F350.00
G01 X118.3003 Y1.1604 F350.00
G01 X118.3106 Y1.1880 F350.00
G01 X118.3437 Y1.2804 F350.00
G01 X118.3532 Y1.3083 F350.00
G01 X118.3621 Y1.3364 F350.00
G01 X118.3703 Y1.3647 F350.00
G01 X118.3778 Y1.3931 F350.00
G01 X118.4017 Y1.4883 F350.00
G01 X118.4085 Y1.5170 F350.00
G01 X118.4146 Y1.5458 F350.00
G01 X118.4200 Y1.5748 F350.00
G01 X118.4247 Y1.6038 F350.00
G01 X118.4391 Y1.7009 F350.00
G01 X118.4430 Y1.7301 F350.00
G01 X118.4463 Y1.7594 F350.00
G01 X118.4488 Y1.7887 F350.00
G01 X118.4506 Y1.8181 F350.00
G01 X118.4554 Y1.9161 F350.00
G01 X118.4565 Y1.9456 F350.00
G01 X118.4569 Y1.9750 F350.00
G01 X118.4569 Y3.2250 F350.00
G01 X118.4565 Y3.2544 F350.00
G01 X118.4554 Y3.2839 F350.00
G01 X118.4506 Y3.3819 F350.00
G01 X118.4488 Y3.4113 F350.00
G01 X118.4463 Y3.4406 F350.00
G01 X118.4430 Y3.4699 F350.00
G01 X118.4391 Y3.4991 F350.00
G01 X118.4247 Y3.5962 F350.00
G01 X118.4200 Y3.6252 F350.00
G01 X118.4146 Y3.6542 F350.00
G01 X118.4085 Y3.6830 F350.00
G01 X118.4017 Y3.7117 F350.00
G01 X118.3778 Y3.8069 F350.00
G01 X118.3703 Y3.8353 F350.00
G01 X118.3621 Y3.8636 F350.00
G01 X118.3532 Y3.8917 F350.00
G01 X118.3437 Y3.9196 F350.00
G01 X118.3106 Y4.0120 F350.00
G01 X118.3003 Y4.0396 F350.00
G01 X118.2894 Y4.0669 F350.00
G01 X118.2778 Y4.0940 F350.00
G01 X118.2655 Y4.1207 F350.00
G01 X118.2236 Y4.2095 F350.00
G01 X118.2107 Y4.2359 F350.00
G01 X118.1971 Y4.2621 F350.00
G01 X118.1829 Y4.2879 F350.00
G01 X118.1681 Y4.3133 F350.00
G01 X118.1176 Y4.3975 F350.00
G01 X118.1022 Y4.4226 F350.00
G01 X118.0861 Y4.4473 F350.00
G01 X118.0694 Y4.4715 F350.00
G01 X118.0522 Y4.4954 F350.00
G01 X117.9937 Y4.5742 F350.00
G01 X117.9759 Y4.5977 F350.00
G01 X117.9575 Y4.6207 F350.00
G01 X117.9385 Y4.6432 F350.00
G01 X117.9190 Y4.6653 F350.00
G01 X117.8531 Y4.7380 F350.00
G01 X117.8331 Y4.7596 F350.00
G01 X117.8125 Y4.7806 F350.00
G01 X117.7914 Y4.8012 F350.00
G01 X117.7698 Y4.8212 F350.00
G01 X117.6971 Y4.8872 F350.00
G01 X117.6751 Y4.9067 F350.00
G01 X117.6525 Y4.9256 F350.00
G01 X117.6295 Y4.9440 F350.00
G01 X117.6061 Y4.9619 F350.00
G01 X117.5273 Y5.0203 F350.00
G01 X117.5034 Y5.0376 F350.00
G01 X117.4791 Y5.0542 F350.00
G01 X117.4544 Y5.0703 F350.00
G01 X117.4294 Y5.0857 F350.00
G01 X117.3452 Y5.1362 F350.00
G01 X117.3197 Y5.1510 F350.00
G01 X117.2939 Y5.1652 F350.00
G01 X117.2678 Y5.1788 F350.00
G01 X117.2413 Y5.1917 F350.00
G01 X117.1526 Y5.2337 F350.00
G01 X117.1258 Y5.2459 F350.00
G01 X117.0988 Y5.2575 F350.00
G01 X117.0714 Y5.2685 F350.00
G01 X117.0438 Y5.2787 F350.00
G01 X116.9514 Y5.3118 F350.00
G01 X116.9236 Y5.3214 F350.00
G01 X116.8955 Y5.3303 F350.00
G01 X116.8672 Y5.3385 F350.00
G01 X116.8387 Y5.3460 F350.00
G01 X116.7435 Y5.3698 F350.00
G01 X116.7149 Y5.3766 F350.00
G01 X116.6861 Y5.3827 F350.00
G01 X116.6571 Y5.3881 F350.00
G01 X116.6280 Y5.3928 F350.00
G01 X116.5310 Y5.4072 F350.00
G01 X116.5018 Y5.4112 F350.00
G01 X116.4725 Y5.4144 F350.00
G01 X116.4432 Y5.4169 F350.00
G01 X116.4138 Y5.4187 F350.00
G01 X116.3157 Y5.4236 F350.00
G01 X116.2863 Y5.4246 F350.00
G01 X116.2569 Y5.4250 F350.00
G01 X116.2274 Y5.4246 F350.00
G01 X116.1980 Y5.4236 F350.00
G01 X116.1000 Y5.4187 F350.00
G01 X116.0706 Y5.4169 F350.00
G01 X116.0412 Y5.4144 F350.00
G01 X116.0120 Y5.4112 F350.00
G01 X115.9828 Y5.4072 F350.00
G01 X115.8857 Y5.3928 F350.00
G01 X115.8566 Y5.3881 F350.00
G01 X115.8277 Y5.3827 F350.00
G01 X115.7988 Y5.3766 F350.00
G01 X115.7702 Y5.3698 F350.00
G01 X115.6750 Y5.3460 F350.00
G01 X115.6465 Y5.3385 F350.00
G01 X115.6182 Y5.3303 F350.00
G01 X115.5902 Y5.3214 F350.00
G01 X115.5623 Y5.3118 F350.00
G01 X115.4699 Y5.2787 F350.00
G01 X115.4423 Y5.2685 F350.00
G01 X115.4150 Y5.2575 F350.00
G01 X115.3879 Y5.2459 F350.00
G01 X115.3611 Y5.2337 F350.00
G01 X115.2724 Y5.1917 F350.00
G01 X115.2459 Y5.1788 F350.00
G01 X115.2198 Y5.1652 F350.00
G01 X115.1940 Y5.1510 F350.00
G01 X115.1685 Y5.1362 F350.00
G01 X115.0844 Y5.0857 F350.00
G01 X115.0593 Y5.0703 F350.00
G01 X115.0346 Y5.0542 F350.00
G01 X115.0103 Y5.0376 F350.00
G01 X114.9865 Y5.0203 F350.00
G01 X114.9076 Y4.9619 F350.00
G01 X114.8842 Y4.9440 F350.00
G01 X114.8612 Y4.9256 F350.00
G01 X114.8387 Y4.9067 F350.00
G01 X114.8166 Y4.8872 F350.00
G01 X114.7439 Y4.8212 F350.00
G01 X114.7223 Y4.8012 F350.00
G01 X114.7012 Y4.7806 F350.00
G01 X114.6807 Y4.7596 F350.00
G01 X114.6606 Y4.7380 F350.00
G01 X114.5947 Y4.6653 F350.00
G01 X114.5752 Y4.6432 F350.00
G01 X114.5562 Y4.6207 F350.00
G01 X114.5378 Y4.5977 F350.00
G01 X114.5200 Y4.5742 F350.00
G01 X114.4615 Y4.4954 F350.00
G01 X114.4443 Y4.4715 F350.00
G01 X114.4276 Y4.4473 F350.00
G01 X114.4116 Y4.4226 F350.00
G01 X114.3961 Y4.3975 F350.00
G01 X114.3457 Y4.3133 F350.00
G01 X114.3308 Y4.2879 F350.00
G01 X114.3166 Y4.2621 F350.00
G01 X114.3031 Y4.2359 F350.00
G01 X114.2902 Y4.2095 F350.00
G01 X114.2482 Y4.1207 F350.00
G01 X114.2359 Y4.0940 F350.00
G01 X114.2243 Y4.0669 F350.00
G01 X114.2134 Y4.0396 F350.00
G01 X114.2031 Y4.0120 F350.00
G01 X114.1701 Y3.9196 F350.00
G01 X114.1605 Y3.8917 F350.00
G01 X114.1516 Y3.8636 F350.00
G01 X114.1434 Y3.8353 F350.00
G01 X114.1359 Y3.8069 F350.00
G01 X114.1120 Y3.7117 F350.00
G01 X114.1052 Y3.6830 F350.00
G01 X114.0991 Y3.6542 F350.00
G01 X114.0937 Y3.6252 F350.00
G01 X114.0891 Y3.5962 F350.00
G01 X114.0747 Y3.4991 F350.00
G01 X114.0707 Y3.4699 F350.00
G01 X114.0675 Y3.4406 F350.00
G01 X114.0649 Y3.4113 F350.00
G01 X114.0631 Y3.3819 F350.00
G01 X114.0583 Y3.2839 F350.00
G01 X114.0572 Y3.2544 F350.00
G01 X114.0569 Y3.2250 F350.00
G01 X114.0569 Y1.9750 F350.00
G01 X114.0572 Y1.9456 F350.00
G01 X114.0583 Y1.9161 F350.00
G01 X114.0631 Y1.8181 F350.00
G01 X114.0649 Y1.7887 F350.00
G01 X114.0675 Y1.7594 F350.00
G01 X114.0707 Y1.7301 F350.00
G01 X114.0747 Y1.7009 F350.00
G01 X114.0891 Y1.6038 F350.00
G01 X114.0937 Y1.5748 F350.00
G01 X114.0991 Y1.5458 F350.00
G01 X114.1052 Y1.5170 F350.00
G01 X114.1120 Y1.4883 F350.00
G01 X114.1359 Y1.3931 F350.00
G01 X114.1434 Y1.3647 F350.00
G01 X114.1516 Y1.3364 F350.00
G01 X114.1605 Y1.3083 F350.00
G01 X114.1701 Y1.2804 F350.00
G01 X114.2031 Y1.1880 F350.00
G01 X114.2134 Y1.1604 F350.00
G01 X114.2243 Y1.1331 F350.00
G01 X114.2359 Y1.1060 F350.00
G01 X114.2482 Y1.0793 F350.00
G01 X114.2902 Y0.9905 F350.00
G01 X114.3031 Y0.9641 F350.00
G01 X114.3166 Y0.9379 F350.00
G01 X114.3308 Y0.9121 F350.00
G01 X114.3457 Y0.8867 F350.00
G01 X114.3961 Y0.8025 F350.00
G01 X114.4116 Y0.7774 F350.00
G01 X114.4276 Y0.7527 F350.00
G01 X114.4443 Y0.7285 F350.00
G01 X114.4615 Y0.7046 F350.00
G01 X114.5200 Y0.6258 F350.00
G01 X114.5378 Y0.6023 F350.00
G01 X114.5562 Y0.5793 F350.00
G01 X114.5752 Y0.5568 F350.00
G01 X114.5947 Y0.5347 F350.00
G01 X114.6606 Y0.4620 F350.00
G01 X114.6807 Y0.4404 F350.00
G01 X114.7012 Y0.4194 F350.00
G01 X114.7223 Y0.3988 F350.00
G01 X114.7439 Y0.3788 F350.00
G01 X114.8166 Y0.3128 F350.00
G01 X114.8387 Y0.2933 F350.00
G01 X114.8612 Y0.2744 F350.00
G01 X114.8842 Y0.2560 F350.00
G01 X114.9076 Y0.2381 F350.00
G01 X114.9865 Y0.1797 F350.00
G01 X115.0103 Y0.1624 F350.00
G01 X115.0346 Y0.1458 F350.00
G01 X115.0593 Y0.1297 F350.00
G01 X115.0844 Y0.1143 F350.00
G01 X115.1685 Y0.0638 F350.00
G01 X115.1940 Y0.0490 F350.00
G01 X115.2198 Y0.0348 F350.00
G01 X115.2459 Y0.0212 F350.00
G01 X115.2724 Y0.0083 F350.00
G01 X115.3611 Y-0.0337 F350.00
G01 X115.3879 Y-0.0459 F350.00
G01 X115.4150 Y-0.0575 F350.00
G01 X115.4423 Y-0.0685 F350.00
G01 X115.4699 Y-0.0787 F350.00
G01 X115.5623 Y-0.1118 F350.00
G01 X115.5902 Y-0.1214 F350.00
G01 X115.6182 Y-0.1303 F350.00
G01 X115.6465 Y-0.1385 F350.00
G01 X115.6750 Y-0.1460 F350.00
G01 X115.7702 Y-0.1698 F350.00
G01 X115.7988 Y-0.1766 F350.00
G01 X115.8277 Y-0.1827 F350.00
G01 X115.8566 Y-0.1881 F350.00
G01 X115.8857 Y-0.1928 F350.00
G01 X115.9828 Y-0.2072 F350.00
G01 X116.0120 Y-0.2112 F350.00
G01 X116.0412 Y-0.2144 F350.00
G01 X116.0706 Y-0.2169 F350.00
G01 X116.1406 Y-0.2207 F350.00
G01 X42.8913 Y-2.9608 F350.00
G00 Z0.5000
G00 X43.6172 Y-1.9897
G01 F250.00
G01 Z-0.0500
G01 F350.00
G01 X68.8500 Y-1.9897 F350.00
G00 Z0.5000
G00 X87.1756 Y8.0903
G01 F250.00
G01 Z-0.0500
G01 F350.00
G01 X128.5843 Y8.0903 F350.00
G01 X128.6061 Y9.7703 F350.00
G01 X128.5455 Y9.7703 F350.00
G01 X128.5625 Y6.4103 F350.00
G01 X43.9311 Y6.4103 F350.00
G01 X43.9311 Y4.7303 F350.00
G01 X114.6536 Y4.7303 F350.00
G00 Z0.5000
G00 X114.0569 Y3.0503
G01 F250.00
G01 Z-0.0500
G01 F350.00
G01 X43.9311 Y3.0503 F350.00
G01 X43.9311 Y1.3703 F350.00
G01 X114.1419 Y1.3703 F350.00
G00 Z0.5000
G00 X113.7611 Y-0.3097
G01 F250.00
G01 Z-0.0500
G01 F350.00
G01 X43.7706 Y-0.3097 F350.00
G00 Z0.5000
G00 X34.7806 Y3.0503
G01 F250.00
G01 Z-0.0500
G01 F350.00
G01 X30.9811 Y3.0503 F350.00
G01 X30.9811 Y4.7303 F350.00
G01 X34.6461 Y4.7303 F350.00
G01 X31.6088 Y6.4103 F350.00
G01 X30.9811 Y6.4103 F350.00
G01 X30.9811 Y6.9681 F350.00
G01 X30.9951 Y6.9467 F350.00
G01 X31.0117 Y6.9224 F350.00
G01 X31.0290 Y6.8986 F350.00
G01 X31.0683 Y6.8461 F350.00
G01 X31.0867 Y6.8231 F350.00
G01 X31.1057 Y6.8006 F350.00
G01 X31.1494 Y6.7518 F350.00
G01 X31.1694 Y6.7302 F350.00
G01 X31.1900 Y6.7092 F350.00
G01 X31.2111 Y6.6886 F350.00
G01 X31.2327 Y6.6685 F350.00
G01 X31.2815 Y6.6248 F350.00
G01 X31.3040 Y6.6058 F350.00
G01 X31.3270 Y6.5874 F350.00
G01 X31.3794 Y6.5481 F350.00
G01 X31.4033 Y6.5309 F350.00
G01 X31.4276 Y6.5142 F350.00
G01 X31.4523 Y6.4981 F350.00
G01 X31.5083 Y6.4641 F350.00
G01 X31.5337 Y6.4493 F350.00
G01 X31.5595 Y6.4351 F350.00
G01 X31.5857 Y6.4215 F350.00
G01 X31.6121 Y6.4086 F350.00
G01 X31.6715 Y6.3809 F350.00
G01 X31.6986 Y6.3693 F350.00
G01 X31.7259 Y6.3584 F350.00
G01 X31.7535 Y6.3481 F350.00
G01 X31.8154 Y6.3264 F350.00
G01 X31.8434 Y6.3175 F350.00
G01 X31.8717 Y6.3093 F350.00
G01 X31.9002 Y6.3018 F350.00
G01 X31.9639 Y6.2862 F350.00
G01 X31.9927 Y6.2801 F350.00
G01 X32.0216 Y6.2747 F350.00
G01 X32.0507 Y6.2701 F350.00
G01 X32.1156 Y6.2608 F350.00
G01 X32.1449 Y6.2575 F350.00
G01 X32.1742 Y6.2550 F350.00
G01 X32.2036 Y6.2532 F350.00
G01 X32.2691 Y6.2504 F350.00
G01 X32.2985 Y6.2500 F350.00
G01 X33.1263 Y6.2500 F350.00
G01 X34.7806 Y4.5957 F350.00
G01 X34.7806 Y2.8234 F350.00
G01 X34.7554 Y2.8335 F350.00
G01 X34.7278 Y2.8437 F350.00
G01 X34.6354 Y2.8768 F350.00
G01 X34.6076 Y2.8864 F350.00
G01 X34.5795 Y2.8953 F350.00
G01 X34.5512 Y2.9035 F350.00
G01 X34.5227 Y2.9110 F350.00
G01 X34.4275 Y2.9348 F350.00
G01 X34.3989 Y2.9416 F350.00
G01 X34.3701 Y2.9477 F350.00
G01 X34.3411 Y2.9531 F350.00
G01 X34.3120 Y2.9578 F350.00
G01 X34.2150 Y2.9722 F350.00
G01 X34.1858 Y2.9762 F350.00
G01 X34.1565 Y2.9794 F350.00
G01 X34.1272 Y2.9819 F350.00
G01 X34.0978 Y2.9837 F350.00
G01 X33.9997 Y2.9886 F350.00
G01 X33.9703 Y2.9896 F350.00
G01 X33.9409 Y2.9900 F350.00
G01 X33.9114 Y2.9896 F350.00
G01 X33.8820 Y2.9886 F350.00
G01 X33.7840 Y2.9837 F350.00
G01 X33.7546 Y2.9819 F350.00
G01 X33.7252 Y2.9794 F350.00
G01 X33.6960 Y2.9762 F350.00
G01 X33.6668 Y2.9722 F350.00
G01 X33.5697 Y2.9578 F350.00
G01 X33.5406 Y2.9531 F350.00
G01 X33.5117 Y2.9477 F350.00
G01 X33.4828 Y2.9416 F350.00
G01 X33.4542 Y2.9348 F350.00
G01 X33.3590 Y2.9110 F350.00
G01 X33.3305 Y2.9035 F350.00
G01 X33.3022 Y2.8953 F350.00
G01 X33.2742 Y2.8864 F350.00
G01 X33.2463 Y2.8768 F350.00
G01 X33.1539 Y2.8437 F350.00
G01 X33.1263 Y2.8335 F350.00
G01 X33.0990 Y2.8225 F350.00
G01 X33.0719 Y2.8109 F350.00
G01 X33.0451 Y2.7987 F350.00
G01 X32.9564 Y2.7567 F350.00
G01 X32.9299 Y2.7438 F350.00
G01 X32.9038 Y2.7302 F350.00
G01 X32.8780 Y2.7160 F350.00
G01 X32.8525 Y2.7012 F350.00
G01 X32.7684 Y2.6507 F350.00
G01 X32.7433 Y2.6353 F350.00
G01 X32.7186 Y2.6192 F350.00
G01 X32.6943 Y2.6026 F350.00
G01 X32.6709 Y2.5856 F350.00
G01 X32.6474 Y2.6026 F350.00
G01 X32.6231 Y2.6192 F350.00
G01 X32.5984 Y2.6353 F350.00
G01 X32.5734 Y2.6507 F350.00
G01 X32.4892 Y2.7012 F350.00
G01 X32.4637 Y2.7160 F350.00
G01 X32.4379 Y2.7302 F350.00
G01 X32.4118 Y2.7438 F350.00
G01 X32.3853 Y2.7567 F350.00
G01 X32.2966 Y2.7987 F350.00
G01 X32.2698 Y2.8109 F350.00
G01 X32.2428 Y2.8225 F350.00
G01 X32.2154 Y2.8335 F350.00
G01 X32.1878 Y2.8437 F350.00
G01 X32.0954 Y2.8768 F350.00
G01 X32.0676 Y2.8864 F350.00
G01 X32.0395 Y2.8953 F350.00
G01 X32.0112 Y2.9035 F350.00
G01 X31.9827 Y2.9110 F350.00
G01 X31.8875 Y2.9348 F350.00
G01 X31.8589 Y2.9416 F350.00
G01 X31.8301 Y2.9477 F350.00
G01 X31.8011 Y2.9531 F350.00
G01 X31.7720 Y2.9578 F350.00
G01 X31.6750 Y2.9722 F350.00
G01 X31.6458 Y2.9762 F350.00
G01 X31.6165 Y2.9794 F350.00
G01 X31.5872 Y2.9819 F350.00
G01 X31.5578 Y2.9837 F350.00
G01 X31.4597 Y2.9886 F350.00
G01 X31.4303 Y2.9896 F350.00
G01 X31.4009 Y2.9900 F350.00
G01 X31.3714 Y2.9896 F350.00
G01 X31.3420 Y2.9886 F350.00
G01 X31.2440 Y2.9837 F350.00
G01 X31.2146 Y2.9819 F350.00
G01 X31.1852 Y2.9794 F350.00
G01 X31.1560 Y2.9762 F350.00
G01 X31.1268 Y2.9722 F350.00
G01 X31.0297 Y2.9578 F350.00
G01 X31.0006 Y2.9531 F350.00
G01 X30.9811 Y2.9495 F350.00
G01 X30.9811 Y6.9681 F350.00
G00 Z0.5000
G00 X36.0951 Y8.0903
G01 F250.00
G01 Z-0.0500
G01 F350.00
G01 X36.9861 Y8.0903 F350.00
G01 X35.6309 Y9.4455 F350.00
G01 X37.4306 Y7.6457 F350.00
G01 X37.4306 Y6.7548 F350.00
G01 X35.6309 Y8.5545 F350.00
G01 X35.6309 Y9.4455 F350.00
G00 Z0.5000
G00 X38.4351 Y11.4503
G01 F250.00
G01 Z-0.0500
G01 F350.00
G01 X40.5306 Y11.4503 F350.00
G01 X40.5306 Y9.7703 F350.00
G01 X40.1151 Y9.7703 F350.00
G01 X39.4461 Y13.1303 F350.00
G01 X36.9111 Y13.1303 F350.00
G01 X36.9111 Y14.8103 F350.00
G01 X38.5906 Y14.8103 F350.00
G01 X38.5906 Y15.4166 F350.00
G01 X38.5906 Y14.6900 F350.00
G01 X38.5910 Y14.6606 F350.00
G01 X38.5945 Y14.5821 F350.00
G01 X38.5963 Y14.5527 F350.00
G01 X38.5988 Y14.5233 F350.00
G01 X38.6020 Y14.4941 F350.00
G01 X38.6060 Y14.4649 F350.00
G01 X38.6179 Y14.3873 F350.00
G01 X38.6233 Y14.3583 F350.00
G01 X38.6294 Y14.3295 F350.00
G01 X38.6481 Y14.2532 F350.00
G01 X38.6556 Y14.2247 F350.00
G01 X38.6638 Y14.1964 F350.00
G01 X38.6727 Y14.1684 F350.00
G01 X38.6823 Y14.1405 F350.00
G01 X38.7091 Y14.0667 F350.00
G01 X38.7200 Y14.0393 F350.00
G01 X38.7316 Y14.0123 F350.00
G01 X38.7649 Y13.9411 F350.00
G01 X38.7778 Y13.9147 F350.00
G01 X38.7914 Y13.8885 F350.00
G01 X38.8056 Y13.8627 F350.00
G01 X38.8456 Y13.7952 F350.00
G01 X38.8611 Y13.7701 F350.00
G01 X38.8772 Y13.7454 F350.00
G01 X38.8938 Y13.7211 F350.00
G01 X38.9111 Y13.6972 F350.00
G01 X38.9581 Y13.6344 F350.00
G01 X38.9765 Y13.6114 F350.00
G01 X38.9955 Y13.5888 F350.00
G01 X39.0150 Y13.5668 F350.00
G01 X39.0680 Y13.5088 F350.00
G01 X39.0886 Y13.4877 F350.00
G01 X40.5306 Y12.0457 F350.00
G01 X40.5306 Y9.3150 F350.00
G01 X40.5107 Y9.3428 F350.00
G01 X40.4814 Y9.3822 F350.00
G01 X40.4636 Y9.4056 F350.00
G01 X40.4452 Y9.4286 F350.00
G01 X40.4262 Y9.4512 F350.00
G01 X40.3737 Y9.5096 F350.00
G01 X40.3537 Y9.5312 F350.00
G01 X40.3331 Y9.5523 F350.00
G01 X36.9111 Y12.9743 F350.00
G01 X36.9111 Y15.4166 F350.00
G01 X36.9363 Y15.4065 F350.00
G01 X36.9639 Y15.3963 F350.00
G01 X37.0563 Y15.3632 F350.00
G01 X37.0842 Y15.3536 F350.00
G01 X37.1122 Y15.3447 F350.00
G01 X37.1405 Y15.3365 F350.00
G01 X37.1690 Y15.3290 F350.00
G01 X37.2642 Y15.3052 F350.00
G01 X37.2928 Y15.2984 F350.00
G01 X37.3217 Y15.2923 F350.00
G01 X37.3506 Y15.2869 F350.00
G01 X37.3797 Y15.2822 F350.00
G01 X37.4768 Y15.2678 F350.00
G01 X37.5060 Y15.2638 F350.00
G01 X37.5352 Y15.2606 F350.00
G01 X37.5646 Y15.2581 F350.00
G01 X37.5940 Y15.2563 F350.00
G01 X37.6920 Y15.2514 F350.00
G01 X37.7214 Y15.2504 F350.00
G01 X37.7509 Y15.2500 F350.00
G01 X37.7803 Y15.2504 F350.00
G01 X37.8097 Y15.2514 F350.00
G01 X37.9078 Y15.2563 F350.00
G01 X37.9372 Y15.2581 F350.00
G01 X37.9665 Y15.2606 F350.00
G01 X37.9958 Y15.2638 F350.00
G01 X38.0250 Y15.2678 F350.00
G01 X38.1220 Y15.2822 F350.00
G01 X38.1511 Y15.2869 F350.00
G01 X38.1801 Y15.2923 F350.00
G01 X38.2089 Y15.2984 F350.00
G01 X38.2375 Y15.3052 F350.00
G01 X38.3327 Y15.3290 F350.00
G01 X38.3612 Y15.3365 F350.00
G01 X38.3895 Y15.3447 F350.00
G01 X38.4176 Y15.3536 F350.00
G01 X38.4454 Y15.3632 F350.00
G01 X38.5378 Y15.3963 F350.00
G01 X38.5654 Y15.4065 F350.00
G01 X38.5906 Y15.4166 F350.00
G00 Z0.5000
G00 X42.5751 Y14.8103
G01 F250.00
G01 Z-0.0500
G01 F350.00
G01 X89.0866 Y14.8103 F350.00
G01 X90.7666 Y16.4903 F350.00
G01 X47.3493 Y16.4903 F350.00
G00 Z0.5000
G00 X47.5709 Y18.1703
G01 F250.00
G01 Z-0.0500
G01 F350.00
G01 X92.4466 Y18.1703 F350.00
G01 X94.1266 Y19.8503 F350.00
G01 X47.5340 Y19.8503 F350.00
G00 Z0.5000
G00 X43.8877 Y13.1303
G01 F250.00
G01 Z-0.0500
G01 F350.00
G01 X87.4066 Y13.1303 F350.00
G01 X85.7266 Y11.4503 F350.00
G01 X43.9311 Y11.4503 F350.00
G00 Z0.5000
G00 X30.9706 Y14.8103
G01 F250.00
G01 Z-0.0500
G01 F350.00
G01 X30.6477 Y14.8103 F350.00
G01 X30.9706 Y15.4166 F350.00
G01 X30.9706 Y13.9875 F350.00
G01 X30.9657 Y14.0251 F350.00
G01 X30.9538 Y14.1027 F350.00
G01 X30.9484 Y14.1317 F350.00
G01 X30.9423 Y14.1605 F350.00
G01 X30.9236 Y14.2368 F350.00
G01 X30.9161 Y14.2653 F350.00
G01 X30.9079 Y14.2936 F350.00
G01 X30.8990 Y14.3216 F350.00
G01 X30.8894 Y14.3495 F350.00
G01 X30.8626 Y14.4233 F350.00
G01 X30.8517 Y14.4507 F350.00
G01 X30.8401 Y14.4777 F350.00
G01 X30.8068 Y14.5489 F350.00
G01 X30.7939 Y14.5753 F350.00
G01 X30.7803 Y14.6015 F350.00
G01 X30.7661 Y14.6273 F350.00
G01 X30.7513 Y14.6527 F350.00
G01 X30.7106 Y14.7199 F350.00
G01 X30.6946 Y14.7446 F350.00
G01 X30.6779 Y14.7689 F350.00
G01 X30.6607 Y14.7928 F350.00
G01 X30.6136 Y14.8556 F350.00
G01 X30.5952 Y14.8786 F350.00
G01 X30.5762 Y14.9012 F350.00
G01 X30.5237 Y14.9596 F350.00
G01 X30.5037 Y14.9812 F350.00
G01 X30.4831 Y15.0023 F350.00
G01 X30.2319 Y15.2535 F350.00
G01 X30.3172 Y15.2581 F350.00
G01 X30.3465 Y15.2606 F350.00
G01 X30.3758 Y15.2638 F350.00
G01 X30.4050 Y15.2678 F350.00
G01 X30.5020 Y15.2822 F350.00
G01 X30.5311 Y15.2869 F350.00
G01 X30.5601 Y15.2923 F350.00
G01 X30.5889 Y15.2984 F350.00
G01 X30.6175 Y15.3052 F350.00
G01 X30.7127 Y15.3290 F350.00
G01 X30.7412 Y15.3365 F350.00
G01 X30.7695 Y15.3447 F350.00
G01 X30.7976 Y15.3536 F350.00
G01 X30.8254 Y15.3632 F350.00
G01 X30.9178 Y15.3963 F350.00
G01 X30.9454 Y15.4065 F350.00
G01 X30.9706 Y15.4166 F350.00
G00 Z0.5000
G00 X27.5461 Y13.1303
G01 F250.00
G01 Z-0.0500
G01 F350.00
G01 X25.5619 Y13.1303 F350.00
G01 X27.5806 Y11.4503 F350.00
G01 X2.6086 Y11.4503 F350.00
G01 X2.4132 Y11.5499 F350.00
G01 X23.3809 Y11.5499 F350.00
G01 X23.4103 Y11.5502 F350.00
G01 X23.4397 Y11.5513 F350.00
G01 X23.4937 Y11.5543 F350.00
G01 X23.5230 Y11.5569 F350.00
G01 X23.5523 Y11.5601 F350.00
G01 X23.5815 Y11.5641 F350.00
G01 X23.6348 Y11.5723 F350.00
G01 X23.6638 Y11.5777 F350.00
G01 X23.6926 Y11.5838 F350.00
G01 X23.7212 Y11.5906 F350.00
G01 X23.7735 Y11.6041 F350.00
G01 X23.8018 Y11.6123 F350.00
G01 X23.8299 Y11.6212 F350.00
G01 X23.8808 Y11.6391 F350.00
G01 X23.9085 Y11.6493 F350.00
G01 X23.9358 Y11.6603 F350.00
G01 X23.9629 Y11.6719 F350.00
G01 X23.9896 Y11.6841 F350.00
G01 X24.0383 Y11.7075 F350.00
G01 X24.0644 Y11.7211 F350.00
G01 X24.0902 Y11.7353 F350.00
G01 X24.1367 Y11.7628 F350.00
G01 X24.1618 Y11.7782 F350.00
G01 X24.1865 Y11.7943 F350.00
G01 X24.2108 Y11.8109 F350.00
G01 X24.2347 Y11.8282 F350.00
G01 X24.2778 Y11.8606 F350.00
G01 X24.3008 Y11.8790 F350.00
G01 X24.3233 Y11.8980 F350.00
G01 X24.3636 Y11.9340 F350.00
G01 X24.3852 Y11.9540 F350.00
G01 X24.4063 Y11.9746 F350.00
G01 X26.5063 Y14.0746 F350.00
G01 X26.5268 Y14.0957 F350.00
G01 X26.5527 Y14.1237 F350.00
G01 X27.5806 Y13.0957 F350.00
G01 X27.5806 Y8.0577 F350.00
G01 X22.1605 Y8.0577 F350.00
G01 X22.1431 Y8.0861 F350.00
G01 X22.1270 Y8.1108 F350.00
G01 X22.1103 Y8.1351 F350.00
G01 X22.0931 Y8.1589 F350.00
G01 X22.0538 Y8.2113 F350.00
G01 X22.0354 Y8.2343 F350.00
G01 X22.0164 Y8.2569 F350.00
G01 X21.9727 Y8.3057 F350.00
G01 X21.9526 Y8.3272 F350.00
G01 X21.9321 Y8.3483 F350.00
G01 X21.9110 Y8.3689 F350.00
G01 X21.8894 Y8.3889 F350.00
G01 X21.8406 Y8.4327 F350.00
G01 X21.8181 Y8.4516 F350.00
G01 X21.7951 Y8.4700 F350.00
G01 X21.7427 Y8.5094 F350.00
G01 X21.7188 Y8.5266 F350.00
G01 X21.6945 Y8.5433 F350.00
G01 X21.6698 Y8.5593 F350.00
G01 X21.6447 Y8.5748 F350.00
G01 X21.5883 Y8.6082 F350.00
G01 X21.5625 Y8.6224 F350.00
G01 X21.5364 Y8.6359 F350.00
G01 X21.5099 Y8.6489 F350.00
G01 X21.4505 Y8.6765 F350.00
G01 X21.4235 Y8.6881 F350.00
G01 X21.3961 Y8.6991 F350.00
G01 X21.3345 Y8.7215 F350.00
G01 X21.3067 Y8.7311 F350.00
G01 X21.2786 Y8.7400 F350.00
G01 X21.2503 Y8.7482 F350.00
G01 X21.1869 Y8.7645 F350.00
G01 X21.1582 Y8.7713 F350.00
G01 X21.1294 Y8.7774 F350.00
G01 X21.1004 Y8.7827 F350.00
G01 X21.0714 Y8.7874 F350.00
G01 X21.0065 Y8.7967 F350.00
G01 X20.9772 Y8.7999 F350.00
G01 X20.9479 Y8.8025 F350.00
G01 X20.9185 Y8.8043 F350.00
G01 X20.8530 Y8.8071 F350.00
G01 X20.8236 Y8.8075 F350.00
G01 X19.0589 Y8.8075 F350.00
G01 X19.0294 Y8.8071 F350.00
G01 X19.0000 Y8.8060 F350.00
G01 X18.9345 Y8.8025 F350.00
G01 X18.9052 Y8.7999 F350.00
G01 X18.8759 Y8.7967 F350.00
G01 X18.8467 Y8.7927 F350.00
G01 X18.7820 Y8.7827 F350.00
G01 X18.7530 Y8.7774 F350.00
G01 X18.7242 Y8.7713 F350.00
G01 X18.6956 Y8.7645 F350.00
G01 X18.6321 Y8.7482 F350.00
G01 X18.6038 Y8.7400 F350.00
G01 X18.5757 Y8.7311 F350.00
G01 X18.5479 Y8.7215 F350.00
G01 X18.4863 Y8.6991 F350.00
G01 X18.4589 Y8.6881 F350.00
G01 X18.4319 Y8.6765 F350.00
G01 X18.4051 Y8.6643 F350.00
G01 X18.3460 Y8.6359 F350.00
G01 X18.3199 Y8.6224 F350.00
G01 X18.2941 Y8.6082 F350.00
G01 X18.2686 Y8.5933 F350.00
G01 X18.2126 Y8.5593 F350.00
G01 X18.1879 Y8.5433 F350.00
G01 X18.1636 Y8.5266 F350.00
G01 X18.1398 Y8.5094 F350.00
G01 X18.0873 Y8.4700 F350.00
G01 X18.0643 Y8.4516 F350.00
G01 X18.0418 Y8.4327 F350.00
G01 X18.0198 Y8.4132 F350.00
G01 X17.9714 Y8.3689 F350.00
G01 X17.9504 Y8.3483 F350.00
G01 X17.9298 Y8.3272 F350.00
G01 X17.8855 Y8.2789 F350.00
G01 X17.8660 Y8.2569 F350.00
G01 X17.8470 Y8.2343 F350.00
G01 X17.8286 Y8.2113 F350.00
G01 X17.7893 Y8.1589 F350.00
G01 X17.7721 Y8.1351 F350.00
G01 X17.7554 Y8.1108 F350.00
G01 X17.7393 Y8.0861 F350.00
G01 X17.7053 Y8.0301 F350.00
G01 X17.6905 Y8.0046 F350.00
G01 X17.6763 Y7.9788 F350.00
G01 X17.6627 Y7.9527 F350.00
G01 X17.6498 Y7.9262 F350.00
G01 X17.6221 Y7.8668 F350.00
G01 X17.6105 Y7.8397 F350.00
G01 X17.5996 Y7.8124 F350.00
G01 X17.5893 Y7.7848 F350.00
G01 X17.5676 Y7.7230 F350.00
G01 X17.5587 Y7.6949 F350.00
G01 X17.5505 Y7.6666 F350.00
G01 X17.5430 Y7.6381 F350.00
G01 X17.5274 Y7.5745 F350.00
G01 X17.5213 Y7.5457 F350.00
G01 X17.5159 Y7.5167 F350.00
G01 X17.5113 Y7.4876 F350.00
G01 X17.5020 Y7.4228 F350.00
G01 X17.4988 Y7.3935 F350.00
G01 X17.4962 Y7.3641 F350.00
G01 X17.4944 Y7.3347 F350.00
G01 X17.4916 Y7.2693 F350.00
G01 X17.4912 Y7.2398 F350.00
G01 X17.4912 Y5.4751 F350.00
G01 X17.4916 Y5.4457 F350.00
G01 X17.4927 Y5.4162 F350.00
G01 X17.4962 Y5.3508 F350.00
G01 X17.4988 Y5.3215 F350.00
G01 X17.5020 Y5.2922 F350.00
G01 X17.5060 Y5.2630 F350.00
G01 X17.5159 Y5.1982 F350.00
G01 X17.5213 Y5.1693 F350.00
G01 X17.5274 Y5.1405 F350.00
G01 X17.5430 Y5.0768 F350.00
G01 X17.5505 Y5.0483 F350.00
G01 X17.5587 Y5.0201 F350.00
G01 X17.5676 Y4.9920 F350.00
G01 X17.5772 Y4.9641 F350.00
G01 X17.5996 Y4.9026 F350.00
G01 X17.6105 Y4.8752 F350.00
G01 X17.6221 Y4.8481 F350.00
G01 X17.6498 Y4.7888 F350.00
G01 X17.6627 Y4.7623 F350.00
G01 X17.6763 Y4.7361 F350.00
G01 X17.6905 Y4.7103 F350.00
G01 X17.7239 Y4.6539 F350.00
G01 X17.7393 Y4.6289 F350.00
G01 X17.7554 Y4.6042 F350.00
G01 X17.7721 Y4.5799 F350.00
G01 X17.7893 Y4.5560 F350.00
G01 X17.8286 Y4.5036 F350.00
G01 X17.8470 Y4.4806 F350.00
G01 X17.8660 Y4.4581 F350.00
G01 X17.8855 Y4.4360 F350.00
G01 X17.9298 Y4.3877 F350.00
G01 X17.9504 Y4.3666 F350.00
G01 X17.9714 Y4.3461 F350.00
G01 X18.0198 Y4.3018 F350.00
G01 X18.0418 Y4.2823 F350.00
G01 X18.0643 Y4.2633 F350.00
G01 X18.0873 Y4.2449 F350.00
G01 X18.1108 Y4.2271 F350.00
G01 X18.1636 Y4.1883 F350.00
G01 X18.1879 Y4.1717 F350.00
G01 X18.2126 Y4.1556 F350.00
G01 X18.2686 Y4.1216 F350.00
G01 X18.2941 Y4.1068 F350.00
G01 X18.3199 Y4.0926 F350.00
G01 X18.3460 Y4.0790 F350.00
G01 X18.3725 Y4.0661 F350.00
G01 X18.4319 Y4.0384 F350.00
G01 X18.4589 Y4.0268 F350.00
G01 X18.4863 Y4.0159 F350.00
G01 X18.5479 Y3.9935 F350.00
G01 X18.5757 Y3.9839 F350.00
G01 X18.6038 Y3.9750 F350.00
G01 X18.6321 Y3.9668 F350.00
G01 X18.6606 Y3.9593 F350.00
G01 X18.7242 Y3.9437 F350.00
G01 X18.7530 Y3.9376 F350.00
G01 X18.7820 Y3.9322 F350.00
G01 X18.8467 Y3.9222 F350.00
G01 X18.8759 Y3.9183 F350.00
G01 X18.9052 Y3.9150 F350.00
G01 X18.9345 Y3.9125 F350.00
G01 X18.9639 Y3.9107 F350.00
G01 X19.0294 Y3.9078 F350.00
G01 X19.0589 Y3.9075 F350.00
G01 X20.8236 Y3.9075 F350.00
G01 X20.8530 Y3.9078 F350.00
G01 X20.8824 Y3.9089 F350.00
G01 X20.9479 Y3.9125 F350.00
G01 X20.9772 Y3.9150 F350.00
G01 X21.0065 Y3.9183 F350.00
G01 X21.0714 Y3.9275 F350.00
G01 X21.1004 Y3.9322 F350.00
G01 X21.1294 Y3.9376 F350.00
G01 X21.1582 Y3.9437 F350.00
G01 X21.2219 Y3.9593 F350.00
G01 X21.2503 Y3.9668 F350.00
G01 X21.2786 Y3.9750 F350.00
G01 X21.3067 Y3.9839 F350.00
G01 X21.3345 Y3.9935 F350.00
G01 X21.3961 Y4.0159 F350.00
G01 X21.4235 Y4.0268 F350.00
G01 X21.4505 Y4.0384 F350.00
G01 X21.5099 Y4.0661 F350.00
G01 X21.5364 Y4.0790 F350.00
G01 X21.5625 Y4.0926 F350.00
G01 X21.5883 Y4.1068 F350.00
G01 X21.6138 Y4.1216 F350.00
G01 X21.6698 Y4.1556 F350.00
G01 X21.6945 Y4.1717 F350.00
G01 X21.7188 Y4.1883 F350.00
G01 X21.7427 Y4.2056 F350.00
G01 X21.7951 Y4.2449 F350.00
G01 X21.8181 Y4.2633 F350.00
G01 X21.8406 Y4.2823 F350.00
G01 X21.8894 Y4.3260 F350.00
G01 X21.9110 Y4.3461 F350.00
G01 X21.9321 Y4.3666 F350.00
G01 X21.9526 Y4.3877 F350.00
G01 X21.9727 Y4.4093 F350.00
G01 X22.0164 Y4.4581 F350.00
G01 X22.0354 Y4.4806 F350.00
G01 X22.0538 Y4.5036 F350.00
G01 X22.0931 Y4.5560 F350.00
G01 X22.1103 Y4.5799 F350.00
G01 X22.1270 Y4.6042 F350.00
G01 X22.1431 Y4.6289 F350.00
G01 X22.1605 Y4.6572 F350.00
G01 X27.5806 Y4.6572 F350.00
G01 X27.5806 Y1.9100 F350.00
G01 X27.5810 Y1.8806 F350.00
G01 X27.5845 Y1.8021 F350.00
G01 X27.5863 Y1.7727 F350.00
G01 X27.5888 Y1.7433 F350.00
G01 X27.5920 Y1.7141 F350.00
G01 X27.5960 Y1.6849 F350.00
G01 X27.6079 Y1.6073 F350.00
G01 X27.6133 Y1.5783 F350.00
G01 X27.6194 Y1.5495 F350.00
G01 X27.6262 Y1.5208 F350.00
G01 X27.6456 Y1.4447 F350.00
G01 X27.6538 Y1.4164 F350.00
G01 X27.6627 Y1.3884 F350.00
G01 X27.6723 Y1.3605 F350.00
G01 X27.6991 Y1.2867 F350.00
G01 X27.7100 Y1.2593 F350.00
G01 X27.7216 Y1.2323 F350.00
G01 X27.7549 Y1.1611 F350.00
G01 X27.7678 Y1.1347 F350.00
G01 X27.7814 Y1.1085 F350.00
G01 X27.7956 Y1.0827 F350.00
G01 X27.8356 Y1.0152 F350.00
G01 X27.8511 Y0.9901 F350.00
G01 X27.8672 Y0.9654 F350.00
G01 X27.8838 Y0.9411 F350.00
G01 X27.9011 Y0.9172 F350.00
G01 X27.9481 Y0.8544 F350.00
G01 X27.9665 Y0.8314 F350.00
G01 X27.9855 Y0.8088 F350.00
G01 X28.0380 Y0.7504 F350.00
G01 X28.0580 Y0.7288 F350.00
G01 X28.0786 Y0.7077 F350.00
G01 X29.2009 Y-0.4145 F350.00
G01 X29.2009 Y-1.2100 F350.00
G01 X29.2012 Y-1.2394 F350.00
G01 X29.2023 Y-1.2689 F350.00
G01 X29.2071 Y-1.3669 F350.00
G01 X29.2089 Y-1.3963 F350.00
G01 X29.2115 Y-1.4256 F350.00
G01 X29.2147 Y-1.4549 F350.00
G01 X29.2187 Y-1.4841 F350.00
G01 X29.2331 Y-1.5812 F350.00
G01 X29.2377 Y-1.6102 F350.00
G01 X29.2431 Y-1.6392 F350.00
G01 X29.2492 Y-1.6680 F350.00
G01 X29.2560 Y-1.6967 F350.00
G01 X29.2799 Y-1.7919 F350.00
G01 X29.2874 Y-1.8203 F350.00
G01 X29.2956 Y-1.8486 F350.00
G01 X29.3045 Y-1.8767 F350.00
G01 X29.3141 Y-1.9046 F350.00
G01 X29.3471 Y-1.9970 F350.00
G01 X29.3574 Y-2.0246 F350.00
G01 X29.3683 Y-2.0519 F350.00
G01 X29.3799 Y-2.0790 F350.00
G01 X29.3922 Y-2.1057 F350.00
G01 X29.4342 Y-2.1945 F350.00
G01 X29.4471 Y-2.2209 F350.00
G01 X29.4563 Y-2.2388 F350.00
G01 X2.4132 Y11.5499 F350.00
G00 Z0.5000
G00 X2.0307 Y14.9009
G01 F250.00
G01 Z-0.0500
G01 F350.00
G01 X0.6410 Y16.2907 F350.00
G01 X0.6410 Y16.6216 F350.00
G01 X0.6960 Y16.6138 F350.00
G01 X0.7252 Y16.6106 F350.00
G01 X0.7546 Y16.6081 F350.00
G01 X0.7840 Y16.6063 F350.00
G01 X0.8820 Y16.6014 F350.00
G01 X0.9114 Y16.6004 F350.00
G01 X0.9409 Y16.6000 F350.00
G01 X0.9703 Y16.6004 F350.00
G01 X0.9997 Y16.6014 F350.00
G01 X1.0978 Y16.6063 F350.00
G01 X1.1272 Y16.6081 F350.00
G01 X1.1565 Y16.6106 F350.00
G01 X1.1858 Y16.6138 F350.00
G01 X1.2150 Y16.6178 F350.00
G01 X1.3120 Y16.6322 F350.00
G01 X1.3411 Y16.6369 F350.00
G01 X1.3701 Y16.6423 F350.00
G01 X1.3989 Y16.6484 F350.00
G01 X1.4275 Y16.6552 F350.00
G01 X1.5227 Y16.6790 F350.00
G01 X1.5512 Y16.6865 F350.00
G01 X1.5795 Y16.6947 F350.00
G01 X1.6076 Y16.7036 F350.00
G01 X1.6354 Y16.7132 F350.00
G01 X1.7278 Y16.7463 F350.00
G01 X1.7554 Y16.7565 F350.00
G01 X1.7828 Y16.7675 F350.00
G01 X1.8098 Y16.7791 F350.00
G01 X1.8366 Y16.7913 F350.00
G01 X1.9253 Y16.8333 F350.00
G01 X1.9518 Y16.8462 F350.00
G01 X1.9779 Y16.8598 F350.00
G01 X2.0037 Y16.8740 F350.00
G01 X2.0307 Y16.8897 F350.00
G01 X2.0307 Y14.9009 F350.00
G01 X2.0307 Y16.4903 F350.00
G01 X0.6410 Y16.4903 F350.00
G00 Z0.5000
G00 X4.9310 Y16.4903
G01 F250.00
G01 Z-0.0500
G01 F350.00
G01 X21.2469 Y16.4903 F350.00
G00 Z0.5000
G00 X22.3307 Y22.0000
G01 F250.00
G01 Z-0.0500
G01 F350.00
G01 X22.1316 Y22.0000 F350.00
G01 X22.3395 Y22.2078 F350.00
G01 X22.3377 Y22.1921 F350.00
G01 X22.3352 Y22.1628 F350.00
G01 X22.3322 Y22.1089 F350.00
G01 X22.3311 Y22.0794 F350.00
G01 X22.3307 Y22.0000 F350.00
G00 Z0.5000
G00 X20.2814 Y24.2513
G01 F250.00
G01 Z-0.0500
G01 F350.00
G01 X18.3911 Y22.3610 F350.00
G01 X18.3911 Y23.8057 F350.00
G01 X18.7954 Y24.2101 F350.00
G01 X18.8142 Y24.2036 F350.00
G01 X18.8422 Y24.1947 F350.00
G01 X18.8705 Y24.1865 F350.00
G01 X18.8990 Y24.1790 F350.00
G01 X18.9942 Y24.1552 F350.00
G01 X19.0228 Y24.1484 F350.00
G01 X19.0517 Y24.1423 F350.00
G01 X19.0806 Y24.1369 F350.00
G01 X19.1097 Y24.1322 F350.00
G01 X19.2068 Y24.1178 F350.00
G01 X19.2360 Y24.1138 F350.00
G01 X19.2652 Y24.1106 F350.00
G01 X19.2946 Y24.1081 F350.00
G01 X19.3240 Y24.1063 F350.00
G01 X19.4220 Y24.1014 F350.00
G01 X19.4514 Y24.1004 F350.00
G01 X19.4809 Y24.1000 F350.00
G01 X19.5103 Y24.1004 F350.00
G01 X19.5397 Y24.1014 F350.00
G01 X19.6378 Y24.1063 F350.00
G01 X19.6672 Y24.1081 F350.00
G01 X19.6965 Y24.1106 F350.00
G01 X19.7258 Y24.1138 F350.00
G01 X19.7550 Y24.1178 F350.00
G01 X19.8520 Y24.1322 F350.00
G01 X19.8811 Y24.1369 F350.00
G01 X19.9101 Y24.1423 F350.00
G01 X19.9389 Y24.1484 F350.00
G01 X19.9675 Y24.1552 F350.00
G01 X20.0627 Y24.1790 F350.00
G01 X20.0912 Y24.1865 F350.00
G01 X20.1195 Y24.1947 F350.00
G01 X20.1476 Y24.2036 F350.00
G01 X20.1754 Y24.2132 F350.00
G01 X20.2814 Y24.2513 F350.00
G01 X19.2403 Y23.2103 F350.00
G01 X18.3911 Y23.2103 F350.00
G00 Z0.5000
G00 X14.9906 Y23.2103
G01 F250.00
G01 Z-0.0500
G01 F350.00
G01 X14.6419 Y23.2103 F350.00
G01 X14.9906 Y23.5590 F350.00
G01 X14.9906 Y21.9962 F350.00
G01 X14.9547 Y21.9986 F350.00
G01 X14.9253 Y21.9996 F350.00
G01 X14.8959 Y22.0000 F350.00
G01 X13.4316 Y22.0000 F350.00
G01 X14.9906 Y23.5590 F350.00
G00 Z0.5000
G00 X13.9309 Y26.6008
G01 F250.00
G01 Z-0.0500
G01 F350.00
G01 X13.9309 Y26.8455 F350.00
G01 X15.1557 Y28.0704 F350.00
G01 X15.1557 Y27.8257 F350.00
G01 X13.9309 Y26.6008 F350.00
G00 Z0.5000
G00 X12.2066 Y29.9303
G01 F250.00
G01 Z-0.0500
G01 F350.00
G01 X4.0051 Y29.9303 F350.00
G01 X2.9311 Y31.6103 F350.00
G01 X12.7806 Y31.6103 F350.00
G00 Z0.5000
G00 X9.4926 Y33.2903
G01 F250.00
G01 Z-0.0500
G01 F350.00
G01 X6.9692 Y33.2903 F350.00
G00 Z0.5000
G00 X7.4239 Y34.9703
G01 F250.00
G01 Z-0.0500
G01 F350.00
G01 X9.0378 Y34.9703 F350.00
G00 Z0.5000
G00 X9.7663 Y36.6503
G01 F250.00
G01 Z-0.0500
G01 F350.00
G01 X6.6954 Y36.6503 F350.00
G00 Z0.5000
G00 X4.3887 Y38.3303
G01 F250.00
G01 Z-0.0500
G01 F350.00
G01 X11.9480 Y38.3303 F350.00
G00 Z0.5000
G00 X11.6964 Y40.0103
G01 F250.00
G01 Z-0.0500
G01 F350.00
G01 X4.6403 Y40.0103 F350.00
G00 Z0.5000
G00 X4.2260 Y45.0503
G01 F250.00
G01 Z-0.0500
G01 F350.00
G01 X12.1107 Y45.0503 F350.00
G00 Z0.5000
G00 X12.5446 Y44.5501
G01 F250.00
G01 Z-0.0500
G01 F350.00
G01 X3.7921 Y44.5501 F350.00
G01 X3.8474 Y44.6002 F350.00
G01 X3.8690 Y44.6202 F350.00
G01 X3.8900 Y44.6408 F350.00
G01 X3.9106 Y44.6619 F350.00
G01 X3.9307 Y44.6835 F350.00
G01 X4.0295 Y44.7925 F350.00
G01 X4.0490 Y44.8146 F350.00
G01 X4.0680 Y44.8371 F350.00
G01 X4.0864 Y44.8601 F350.00
G01 X4.1042 Y44.8836 F350.00
G01 X4.1919 Y45.0018 F350.00
G01 X4.2092 Y45.0257 F350.00
G01 X4.2258 Y45.0500 F350.00
G01 X4.2419 Y45.0746 F350.00
G01 X4.2573 Y45.0997 F350.00
G01 X4.3330 Y45.2260 F350.00
G01 X4.3478 Y45.2514 F350.00
G01 X4.3620 Y45.2772 F350.00
G01 X4.3756 Y45.3034 F350.00
G01 X4.3885 Y45.3298 F350.00
G01 X4.4515 Y45.4629 F350.00
G01 X4.4637 Y45.4897 F350.00
G01 X4.4753 Y45.5168 F350.00
G01 X4.4863 Y45.5441 F350.00
G01 X4.4965 Y45.5717 F350.00
G01 X4.5461 Y45.7103 F350.00
G01 X4.5557 Y45.7382 F350.00
G01 X4.5646 Y45.7662 F350.00
G01 X4.5728 Y45.7945 F350.00
G01 X4.5803 Y45.8230 F350.00
G01 X4.6161 Y45.9658 F350.00
G01 X4.6229 Y45.9944 F350.00
G01 X4.6290 Y46.0233 F350.00
G01 X4.6344 Y46.0522 F350.00
G01 X4.6391 Y46.0813 F350.00
G01 X4.6606 Y46.2269 F350.00
G01 X4.6646 Y46.2561 F350.00
G01 X4.6679 Y46.2854 F350.00
G01 X4.6704 Y46.3147 F350.00
G01 X4.6722 Y46.3441 F350.00
G01 X4.6794 Y46.4911 F350.00
G01 X4.6805 Y46.5206 F350.00
G01 X4.6809 Y46.5500 F350.00
G01 X4.6805 Y46.5794 F350.00
G01 X4.6794 Y46.6089 F350.00
G01 X4.6722 Y46.7559 F350.00
G01 X4.6704 Y46.7853 F350.00
G01 X4.6679 Y46.8146 F350.00
G01 X4.6646 Y46.8439 F350.00
G01 X4.6606 Y46.8731 F350.00
G01 X4.6391 Y47.0187 F350.00
G01 X4.6344 Y47.0478 F350.00
G01 X4.6290 Y47.0767 F350.00
G01 X4.6229 Y47.1056 F350.00
G01 X4.6161 Y47.1342 F350.00
G01 X4.5803 Y47.2770 F350.00
G01 X4.5728 Y47.3055 F350.00
G01 X4.5646 Y47.3338 F350.00
G01 X4.5557 Y47.3618 F350.00
G01 X4.5461 Y47.3897 F350.00
G01 X4.4965 Y47.5283 F350.00
G01 X4.4863 Y47.5559 F350.00
G01 X4.4753 Y47.5832 F350.00
G01 X4.4637 Y47.6103 F350.00
G01 X4.4515 Y47.6371 F350.00
G01 X4.3885 Y47.7702 F350.00
G01 X4.3756 Y47.7966 F350.00
G01 X4.3620 Y47.8228 F350.00
G01 X4.3478 Y47.8486 F350.00
G01 X4.3330 Y47.8740 F350.00
G01 X4.2573 Y48.0003 F350.00
G01 X4.2419 Y48.0254 F350.00
G01 X4.2258 Y48.0500 F350.00
G01 X4.2092 Y48.0743 F350.00
G01 X4.1919 Y48.0982 F350.00
G01 X4.1042 Y48.2164 F350.00
G01 X4.0864 Y48.2399 F350.00
G01 X4.0680 Y48.2629 F350.00
G01 X4.0490 Y48.2854 F350.00
G01 X4.0295 Y48.3075 F350.00
G01 X3.9307 Y48.4165 F350.00
G01 X3.9106 Y48.4381 F350.00
G01 X3.8900 Y48.4592 F350.00
G01 X3.8690 Y48.4798 F350.00
G01 X3.8474 Y48.4998 F350.00
G01 X3.7383 Y48.5987 F350.00
G01 X3.7163 Y48.6182 F350.00
G01 X3.6937 Y48.6371 F350.00
G01 X3.6707 Y48.6555 F350.00
G01 X3.6473 Y48.6734 F350.00
G01 X3.5291 Y48.7611 F350.00
G01 X3.5052 Y48.7783 F350.00
G01 X3.4809 Y48.7950 F350.00
G01 X3.4562 Y48.8110 F350.00
G01 X3.4311 Y48.8265 F350.00
G01 X3.3049 Y48.9022 F350.00
G01 X3.2794 Y48.9170 F350.00
G01 X3.2536 Y48.9312 F350.00
G01 X3.2275 Y48.9448 F350.00
G01 X3.2010 Y48.9577 F350.00
G01 X3.0680 Y49.0206 F350.00
G01 X3.0412 Y49.0329 F350.00
G01 X3.0141 Y49.0445 F350.00
G01 X2.9868 Y49.0554 F350.00
G01 X2.9592 Y49.0657 F350.00
G01 X2.8206 Y49.1153 F350.00
G01 X2.7927 Y49.1248 F350.00
G01 X2.7646 Y49.1337 F350.00
G01 X2.7363 Y49.1419 F350.00
G01 X2.7079 Y49.1494 F350.00
G01 X2.5651 Y49.1852 F350.00
G01 X2.5364 Y49.1920 F350.00
G01 X2.5076 Y49.1981 F350.00
G01 X2.4787 Y49.2035 F350.00
G01 X2.4496 Y49.2082 F350.00
G01 X2.3040 Y49.2298 F350.00
G01 X2.2748 Y49.2338 F350.00
G01 X2.2455 Y49.2370 F350.00
G01 X2.2162 Y49.2395 F350.00
G01 X2.1868 Y49.2413 F350.00
G01 X2.0397 Y49.2486 F350.00
G01 X2.0103 Y49.2496 F350.00
G01 X1.9809 Y49.2500 F350.00
G01 X1.9514 Y49.2496 F350.00
G01 X1.9220 Y49.2486 F350.00
G01 X1.7750 Y49.2413 F350.00
G01 X1.7456 Y49.2395 F350.00
G01 X1.7162 Y49.2370 F350.00
G01 X1.6869 Y49.2338 F350.00
G01 X1.6578 Y49.2298 F350.00
G01 X1.5121 Y49.2082 F350.00
G01 X1.4831 Y49.2035 F350.00
G01 X1.4541 Y49.1981 F350.00
G01 X1.4253 Y49.1920 F350.00
G01 X1.3966 Y49.1852 F350.00
G01 X1.2539 Y49.1494 F350.00
G01 X1.2254 Y49.1419 F350.00
G01 X1.1971 Y49.1337 F350.00
G01 X1.1690 Y49.1248 F350.00
G01 X1.1412 Y49.1153 F350.00
G01 X1.0566 Y49.0850 F350.00
G01 X16.7806 Y68.8991 F350.00
G01 X16.7806 Y51.9972 F350.00
G01 X16.7680 Y51.9871 F350.00
G01 X16.7455 Y51.9682 F350.00
G01 X16.7234 Y51.9487 F350.00
G01 X16.6143 Y51.8498 F350.00
G01 X16.5928 Y51.8298 F350.00
G01 X16.5717 Y51.8092 F350.00
G01 X16.5511 Y51.7881 F350.00
G01 X16.5311 Y51.7665 F350.00
G01 X16.4322 Y51.6575 F350.00
G01 X16.4127 Y51.6354 F350.00
G01 X16.3937 Y51.6129 F350.00
G01 X16.3753 Y51.5899 F350.00
G01 X16.3575 Y51.5664 F350.00
G01 X16.2698 Y51.4482 F350.00
G01 X16.2526 Y51.4243 F350.00
G01 X16.2359 Y51.4000 F350.00
G01 X16.2198 Y51.3754 F350.00
G01 X16.2044 Y51.3503 F350.00
G01 X16.1287 Y51.2240 F350.00
G01 X16.1139 Y51.1986 F350.00
G01 X16.0997 Y51.1728 F350.00
G01 X16.0861 Y51.1466 F350.00
G01 X16.0732 Y51.1202 F350.00
G01 X16.0103 Y50.9871 F350.00
G01 X15.9980 Y50.9603 F350.00
G01 X15.9864 Y50.9332 F350.00
G01 X15.9755 Y50.9059 F350.00
G01 X15.9652 Y50.8783 F350.00
G01 X15.9156 Y50.7397 F350.00
G01 X15.9060 Y50.7118 F350.00
G01 X15.8971 Y50.6838 F350.00
G01 X15.8889 Y50.6555 F350.00
G01 X15.8814 Y50.6270 F350.00
G01 X15.8456 Y50.4842 F350.00
G01 X15.8388 Y50.4556 F350.00
G01 X15.8327 Y50.4267 F350.00
G01 X15.8274 Y50.3978 F350.00
G01 X15.8227 Y50.3687 F350.00
G01 X15.8011 Y50.2231 F350.00
G01 X15.7971 Y50.1939 F350.00
G01 X15.7939 Y50.1646 F350.00
G01 X15.7913 Y50.1353 F350.00
G01 X15.7895 Y50.1059 F350.00
G01 X15.7823 Y49.9589 F350.00
G01 X15.7812 Y49.9294 F350.00
G01 X15.7809 Y49.9000 F350.00
G01 X15.7812 Y49.8706 F350.00
G01 X15.7823 Y49.8411 F350.00
G01 X15.7895 Y49.6941 F350.00
G01 X15.7913 Y49.6647 F350.00
G01 X15.7939 Y49.6354 F350.00
G01 X15.7971 Y49.6061 F350.00
G01 X15.8011 Y49.5769 F350.00
G01 X15.8227 Y49.4313 F350.00
G01 X15.8273 Y49.4022 F350.00
G01 X15.8327 Y49.3733 F350.00
G01 X15.8388 Y49.3444 F350.00
G01 X15.8456 Y49.3158 F350.00
G01 X15.8814 Y49.1730 F350.00
G01 X15.8889 Y49.1445 F350.00
G01 X15.8971 Y49.1162 F350.00
G01 X15.9060 Y49.0882 F350.00
G01 X15.9156 Y49.0603 F350.00
G01 X15.9652 Y48.9217 F350.00
G01 X15.9755 Y48.8941 F350.00
G01 X15.9864 Y48.8668 F350.00
G01 X15.9980 Y48.8397 F350.00
G01 X16.0103 Y48.8129 F350.00
G01 X16.0732 Y48.6798 F350.00
G01 X16.0861 Y48.6534 F350.00
G01 X16.0997 Y48.6272 F350.00
G01 X16.1179 Y48.5945 F350.00
G01 X16.0913 Y48.6182 F350.00
G01 X16.0687 Y48.6371 F350.00
G01 X16.0457 Y48.6555 F350.00
G01 X16.0223 Y48.6734 F350.00
G01 X15.9041 Y48.7611 F350.00
G01 X15.8802 Y48.7783 F350.00
G01 X15.8559 Y48.7950 F350.00
G01 X15.8312 Y48.8110 F350.00
G01 X15.8061 Y48.8265 F350.00
G01 X15.6799 Y48.9022 F350.00
G01 X15.6544 Y48.9170 F350.00
G01 X15.6286 Y48.9312 F350.00
G01 X15.6025 Y48.9448 F350.00
G01 X15.5760 Y48.9577 F350.00
G01 X15.4430 Y49.0206 F350.00
G01 X15.4162 Y49.0329 F350.00
G01 X15.3891 Y49.0445 F350.00
G01 X15.3618 Y49.0554 F350.00
G01 X15.3342 Y49.0657 F350.00
G01 X15.1956 Y49.1153 F350.00
G01 X15.1677 Y49.1248 F350.00
G01 X15.1396 Y49.1337 F350.00
G01 X15.1113 Y49.1419 F350.00
G01 X15.0829 Y49.1494 F350.00
G01 X14.9401 Y49.1852 F350.00
G01 X14.9114 Y49.1920 F350.00
G01 X14.8826 Y49.1981 F350.00
G01 X14.8537 Y49.2035 F350.00
G01 X14.8246 Y49.2082 F350.00
G01 X14.6790 Y49.2298 F350.00
G01 X14.6498 Y49.2338 F350.00
G01 X14.6205 Y49.2370 F350.00
G01 X14.5912 Y49.2395 F350.00
G01 X14.5618 Y49.2413 F350.00
G01 X14.4147 Y49.2486 F350.00
G01 X14.3853 Y49.2496 F350.00
G01 X14.3559 Y49.2500 F350.00
G01 X14.3264 Y49.2496 F350.00
G01 X14.2970 Y49.2486 F350.00
G01 X14.1500 Y49.2413 F350.00
G01 X14.1206 Y49.2395 F350.00
G01 X14.0912 Y49.2370 F350.00
G01 X14.0619 Y49.2338 F350.00
G01 X14.0328 Y49.2298 F350.00
G01 X13.8871 Y49.2082 F350.00
G01 X13.8581 Y49.2035 F350.00
G01 X13.8291 Y49.1981 F350.00
G01 X13.8003 Y49.1920 F350.00
G01 X13.7716 Y49.1852 F350.00
G01 X13.6289 Y49.1494 F350.00
G01 X13.6004 Y49.1419 F350.00
G01 X13.5721 Y49.1337 F350.00
G01 X13.5440 Y49.1248 F350.00
G01 X13.5162 Y49.1153 F350.00
G01 X13.3776 Y49.0657 F350.00
G01 X13.3500 Y49.0554 F350.00
G01 X13.3226 Y49.0445 F350.00
G01 X13.2955 Y49.0329 F350.00
G01 X13.2688 Y49.0206 F350.00
G01 X13.1357 Y48.9577 F350.00
G01 X13.1092 Y48.9448 F350.00
G01 X13.0831 Y48.9312 F350.00
G01 X13.0573 Y48.9170 F350.00
G01 X13.0318 Y48.9022 F350.00
G01 X12.9056 Y48.8265 F350.00
G01 X12.8805 Y48.8110 F350.00
G01 X12.8558 Y48.7950 F350.00
G01 X12.8315 Y48.7783 F350.00
G01 X12.8077 Y48.7611 F350.00
G01 X12.6894 Y48.6734 F350.00
G01 X12.6660 Y48.6555 F350.00
G01 X12.6430 Y48.6371 F350.00
G01 X12.6205 Y48.6182 F350.00
G01 X12.5984 Y48.5987 F350.00
G01 X12.4893 Y48.4998 F350.00
G01 X12.4678 Y48.4798 F350.00
G01 X12.4467 Y48.4592 F350.00
G01 X12.4261 Y48.4381 F350.00
G01 X12.4061 Y48.4165 F350.00
G01 X12.3072 Y48.3075 F350.00
G01 X12.2877 Y48.2854 F350.00
G01 X12.2687 Y48.2629 F350.00
G01 X12.2503 Y48.2399 F350.00
G01 X12.2325 Y48.2164 F350.00
G01 X12.1448 Y48.0982 F350.00
G01 X12.1276 Y48.0743 F350.00
G01 X12.1109 Y48.0500 F350.00
G01 X12.0948 Y48.0254 F350.00
G01 X12.0794 Y48.0003 F350.00
G01 X12.0037 Y47.8740 F350.00
G01 X11.9889 Y47.8486 F350.00
G01 X11.9747 Y47.8228 F350.00
G01 X11.9611 Y47.7966 F350.00
G01 X11.9482 Y47.7702 F350.00
G01 X11.8853 Y47.6371 F350.00
G01 X11.8730 Y47.6103 F350.00
G01 X11.8614 Y47.5832 F350.00
G01 X11.8505 Y47.5559 F350.00
G01 X11.8402 Y47.5283 F350.00
G01 X11.7906 Y47.3897 F350.00
G01 X11.7810 Y47.3618 F350.00
G01 X11.7721 Y47.3338 F350.00
G01 X11.7639 Y47.3055 F350.00
G01 X11.7564 Y47.2770 F350.00
G01 X11.7206 Y47.1342 F350.00
G01 X11.7138 Y47.1056 F350.00
G01 X11.7077 Y47.0767 F350.00
G01 X11.7024 Y47.0478 F350.00
G01 X11.6977 Y47.0187 F350.00
G01 X11.6761 Y46.8731 F350.00
G01 X11.6721 Y46.8439 F350.00
G01 X11.6689 Y46.8146 F350.00
G01 X11.6663 Y46.7853 F350.00
G01 X11.6645 Y46.7559 F350.00
G01 X11.6573 Y46.6089 F350.00
G01 X11.6562 Y46.5794 F350.00
G01 X11.6559 Y46.5500 F350.00
G01 X11.6562 Y46.5206 F350.00
G01 X11.6573 Y46.4911 F350.00
G01 X11.6645 Y46.3441 F350.00
G01 X11.6663 Y46.3147 F350.00
G01 X11.6689 Y46.2854 F350.00
G01 X11.6721 Y46.2561 F350.00
G01 X11.6761 Y46.2269 F350.00
G01 X11.6977 Y46.0813 F350.00
G01 X11.7023 Y46.0522 F350.00
G01 X11.7077 Y46.0233 F350.00
G01 X11.7138 Y45.9944 F350.00
G01 X11.7206 Y45.9658 F350.00
G01 X11.7564 Y45.8230 F350.00
G01 X11.7639 Y45.7945 F350.00
G01 X11.7721 Y45.7662 F350.00
G01 X11.7810 Y45.7382 F350.00
G01 X11.7906 Y45.7103 F350.00
G01 X11.8402 Y45.5717 F350.00
G01 X11.8505 Y45.5441 F350.00
G01 X11.8614 Y45.5168 F350.00
G01 X11.8730 Y45.4897 F350.00
G01 X11.8853 Y45.4629 F350.00
G01 X11.9482 Y45.3298 F350.00
G01 X11.9611 Y45.3034 F350.00
G01 X11.9747 Y45.2772 F350.00
G01 X11.9889 Y45.2514 F350.00
G01 X12.0037 Y45.2260 F350.00
G01 X12.0794 Y45.0997 F350.00
G01 X12.0948 Y45.0746 F350.00
G01 X12.1109 Y45.0500 F350.00
G01 X12.1276 Y45.0257 F350.00
G01 X12.1448 Y45.0018 F350.00
G01 X12.2325 Y44.8836 F350.00
G01 X12.2503 Y44.8601 F350.00
G01 X12.2687 Y44.8371 F350.00
G01 X12.2877 Y44.8146 F350.00
G01 X12.3072 Y44.7925 F350.00
G01 X12.4061 Y44.6835 F350.00
G01 X12.4261 Y44.6619 F350.00
G01 X12.4467 Y44.6408 F350.00
G01 X12.4678 Y44.6202 F350.00
G01 X12.4893 Y44.6002 F350.00
G01 X12.5446 Y44.5501 F350.00
G00 Z0.5000
G00 X11.6633 Y46.7303
G01 F250.00
G01 Z-0.0500
G01 F350.00
G01 X4.6735 Y46.7303 F350.00
G00 Z0.5000
G00 X3.9364 Y48.4103
G01 F250.00
G01 Z-0.0500
G01 F350.00
G01 X12.4004 Y48.4103 F350.00
G00 Z0.5000
G00 X15.7888 Y50.0903
G01 F250.00
G01 Z-0.0500
G01 F350.00
G01 X1.8543 Y50.0903 F350.00
G01 X3.1876 Y51.7703 F350.00
G01 X16.5345 Y51.7703 F350.00
G01 X16.7806 Y53.4503 F350.00
G01 X4.5208 Y53.4503 F350.00
G01 X5.8540 Y55.1303 F350.00
G01 X16.7806 Y55.1303 F350.00
G01 X16.7806 Y56.8103 F350.00
G01 X7.1872 Y56.8103 F350.00
G01 X8.5204 Y58.4903 F350.00
G01 X16.7806 Y58.4903 F350.00
G01 X16.7806 Y60.1703 F350.00
G01 X9.8536 Y60.1703 F350.00
G01 X11.1868 Y61.8503 F350.00
G01 X16.7806 Y61.8503 F350.00
G01 X16.7806 Y63.5303 F350.00
G01 X12.5200 Y63.5303 F350.00
G01 X13.8532 Y65.2103 F350.00
G01 X16.7806 Y65.2103 F350.00
G01 X16.7806 Y66.8903 F350.00
G01 X15.1864 Y66.8903 F350.00
G01 X16.5197 Y68.5703 F350.00
G01 X16.7806 Y68.5703 F350.00
G00 Z0.5000
G00 X20.1811 Y66.8903
G01 F250.00
G01 Z-0.0500
G01 F350.00
G01 X23.2703 Y66.8903 F350.00
G01 X21.5903 Y65.2103 F350.00
G01 X20.1811 Y65.2103 F350.00
G01 X20.1811 Y63.8002 F350.00
G01 X20.1811 Y67.2497 F350.00
G01 X23.6298 Y67.2497 F350.00
G01 X20.2055 Y63.8254 F350.00
G01 X20.1811 Y63.8002 F350.00
G00 Z0.5000
G00 X26.7619 Y63.5303
G01 F250.00
G01 Z-0.0500
G01 F350.00
G01 X34.4507 Y63.5303 F350.00
G01 X34.4507 Y65.2103 F350.00
G01 X28.4419 Y65.2103 F350.00
G01 X27.5044 Y61.8503 F350.00
G01 X34.1373 Y61.8503 F350.00
G00 Z0.5000
G00 X33.2053 Y60.1703
G01 F250.00
G01 Z-0.0500
G01 F350.00
G01 X28.4364 Y60.1703 F350.00
G00 Z0.5000
G00 X27.7923 Y58.4903
G01 F250.00
G01 Z-0.0500
G01 F350.00
G01 X33.8494 Y58.4903 F350.00
G00 Z0.5000
G00 X34.2522 Y58.1750
G01 F250.00
G01 Z-0.0500
G01 F350.00
G01 X34.2033 Y58.1453 F350.00
G01 X34.1786 Y58.1292 F350.00
G01 X34.1543 Y58.1126 F350.00
G01 X34.1305 Y58.0953 F350.00
G01 X34.0516 Y58.0369 F350.00
G01 X34.0282 Y58.0190 F350.00
G01 X34.0052 Y58.0006 F350.00
G01 X33.9827 Y57.9817 F350.00
G01 X33.9606 Y57.9622 F350.00
G01 X33.8879 Y57.8962 F350.00
G01 X33.8663 Y57.8762 F350.00
G01 X33.8452 Y57.8556 F350.00
G01 X33.8247 Y57.8346 F350.00
G01 X33.8046 Y57.8130 F350.00
G01 X33.7387 Y57.7403 F350.00
G01 X33.7192 Y57.7182 F350.00
G01 X33.7002 Y57.6957 F350.00
G01 X33.6818 Y57.6727 F350.00
G01 X33.6640 Y57.6492 F350.00
G01 X33.6055 Y57.5704 F350.00
G01 X33.5883 Y57.5465 F350.00
G01 X33.5716 Y57.5223 F350.00
G01 X33.5556 Y57.4976 F350.00
G01 X33.5401 Y57.4725 F350.00
G01 X33.4897 Y57.3883 F350.00
G01 X33.4748 Y57.3629 F350.00
G01 X33.4606 Y57.3371 F350.00
G01 X33.4471 Y57.3109 F350.00
G01 X33.4342 Y57.2845 F350.00
G01 X33.3922 Y57.1957 F350.00
G01 X33.3799 Y57.1690 F350.00
G01 X33.3683 Y57.1419 F350.00
G01 X33.3574 Y57.1146 F350.00
G01 X33.3471 Y57.0870 F350.00
G01 X33.3141 Y56.9946 F350.00
G01 X33.3045 Y56.9667 F350.00
G01 X33.2956 Y56.9386 F350.00
G01 X33.2874 Y56.9103 F350.00
G01 X33.2799 Y56.8819 F350.00
G01 X33.2560 Y56.7867 F350.00
G01 X33.2492 Y56.7580 F350.00
G01 X33.2431 Y56.7292 F350.00
G01 X33.2377 Y56.7002 F350.00
G01 X33.2331 Y56.6712 F350.00
G01 X33.2187 Y56.5741 F350.00
G01 X33.2147 Y56.5449 F350.00
G01 X33.2115 Y56.5156 F350.00
G01 X33.2089 Y56.4863 F350.00
G01 X33.2071 Y56.4569 F350.00
G01 X33.2023 Y56.3589 F350.00
G01 X33.2012 Y56.3294 F350.00
G01 X33.2009 Y56.3000 F350.00
G01 X33.2012 Y56.2706 F350.00
G01 X33.2023 Y56.2411 F350.00
G01 X33.2071 Y56.1431 F350.00
G01 X33.2089 Y56.1137 F350.00
G01 X33.2115 Y56.0844 F350.00
G01 X33.2147 Y56.0551 F350.00
G01 X33.2187 Y56.0259 F350.00
G01 X33.2331 Y55.9288 F350.00
G01 X33.2377 Y55.8998 F350.00
G01 X33.2431 Y55.8708 F350.00
G01 X33.2492 Y55.8420 F350.00
G01 X33.2560 Y55.8133 F350.00
G01 X33.2799 Y55.7181 F350.00
G01 X33.2874 Y55.6897 F350.00
G01 X33.2956 Y55.6614 F350.00
G01 X33.3045 Y55.6333 F350.00
G01 X33.3141 Y55.6054 F350.00
G01 X33.3471 Y55.5130 F350.00
G01 X33.3574 Y55.4854 F350.00
G01 X33.3683 Y55.4581 F350.00
G01 X33.3799 Y55.4310 F350.00
G01 X33.3922 Y55.4043 F350.00
G01 X33.4342 Y55.3155 F350.00
G01 X33.4471 Y55.2891 F350.00
G01 X33.4606 Y55.2629 F350.00
G01 X33.4748 Y55.2371 F350.00
G01 X33.4897 Y55.2117 F350.00
G01 X33.5401 Y55.1275 F350.00
G01 X33.5556 Y55.1024 F350.00
G01 X33.5716 Y55.0777 F350.00
G01 X33.5883 Y55.0535 F350.00
G01 X33.6055 Y55.0296 F350.00
G01 X33.6640 Y54.9508 F350.00
G01 X33.6818 Y54.9273 F350.00
G01 X33.7002 Y54.9043 F350.00
G01 X33.7192 Y54.8818 F350.00
G01 X33.7387 Y54.8597 F350.00
G01 X33.8046 Y54.7870 F350.00
G01 X33.8247 Y54.7654 F350.00
G01 X33.8452 Y54.7444 F350.00
G01 X33.8663 Y54.7238 F350.00
G01 X33.8879 Y54.7038 F350.00
G01 X33.9606 Y54.6378 F350.00
G01 X33.9827 Y54.6183 F350.00
G01 X34.0052 Y54.5994 F350.00
G01 X34.0282 Y54.5810 F350.00
G01 X34.0516 Y54.5631 F350.00
G01 X34.1305 Y54.5047 F350.00
G01 X34.1543 Y54.4874 F350.00
G01 X34.1786 Y54.4708 F350.00
G01 X34.2033 Y54.4547 F350.00
G01 X34.2472 Y54.4280 F350.00
G01 X34.1933 Y54.3953 F350.00
G01 X34.1686 Y54.3792 F350.00
G01 X34.1443 Y54.3626 F350.00
G01 X34.1205 Y54.3453 F350.00
G01 X34.0416 Y54.2869 F350.00
G01 X34.0182 Y54.2690 F350.00
G01 X33.9952 Y54.2506 F350.00
G01 X33.9727 Y54.2317 F350.00
G01 X33.9506 Y54.2122 F350.00
G01 X33.8779 Y54.1462 F350.00
G01 X33.8563 Y54.1262 F350.00
G01 X33.8352 Y54.1056 F350.00
G01 X33.8147 Y54.0846 F350.00
G01 X33.7946 Y54.0630 F350.00
G01 X33.7287 Y53.9903 F350.00
G01 X33.7092 Y53.9682 F350.00
G01 X33.6902 Y53.9457 F350.00
G01 X33.6718 Y53.9227 F350.00
G01 X33.6540 Y53.8992 F350.00
G01 X33.5955 Y53.8204 F350.00
G01 X33.5783 Y53.7965 F350.00
G01 X33.5616 Y53.7723 F350.00
G01 X33.5456 Y53.7476 F350.00
G01 X33.5301 Y53.7225 F350.00
G01 X33.4797 Y53.6383 F350.00
G01 X33.4648 Y53.6129 F350.00
G01 X33.4506 Y53.5871 F350.00
G01 X33.4371 Y53.5609 F350.00
G01 X33.4242 Y53.5345 F350.00
G01 X33.3822 Y53.4457 F350.00
G01 X33.3699 Y53.4190 F350.00
G01 X33.3583 Y53.3919 F350.00
G01 X33.3474 Y53.3646 F350.00
G01 X33.3371 Y53.3370 F350.00
G01 X33.3041 Y53.2446 F350.00
G01 X33.2945 Y53.2167 F350.00
G01 X33.2856 Y53.1886 F350.00
G01 X33.2774 Y53.1603 F350.00
G01 X33.2699 Y53.1319 F350.00
G01 X33.2460 Y53.0367 F350.00
G01 X33.2392 Y53.0080 F350.00
G01 X33.2331 Y52.9792 F350.00
G01 X33.2277 Y52.9502 F350.00
G01 X33.2231 Y52.9212 F350.00
G01 X33.2087 Y52.8241 F350.00
G01 X33.2047 Y52.7949 F350.00
G01 X33.2015 Y52.7656 F350.00
G01 X33.1989 Y52.7363 F350.00
G01 X33.1971 Y52.7069 F350.00
G01 X33.1923 Y52.6089 F350.00
G01 X33.1912 Y52.5794 F350.00
G01 X33.1909 Y52.5500 F350.00
G01 X33.1912 Y52.5206 F350.00
G01 X33.1923 Y52.4911 F350.00
G01 X33.1971 Y52.3931 F350.00
G01 X33.1989 Y52.3637 F350.00
G01 X33.2015 Y52.3344 F350.00
G01 X33.2047 Y52.3051 F350.00
G01 X33.2087 Y52.2759 F350.00
G01 X33.2231 Y52.1788 F350.00
G01 X33.2277 Y52.1498 F350.00
G01 X33.2331 Y52.1208 F350.00
G01 X33.2392 Y52.0920 F350.00
G01 X33.2493 Y52.0501 F350.00
G01 X28.3724 Y52.0501 F350.00
G01 X28.3825 Y52.0920 F350.00
G01 X28.3886 Y52.1208 F350.00
G01 X28.3940 Y52.1498 F350.00
G01 X28.3987 Y52.1788 F350.00
G01 X28.4131 Y52.2759 F350.00
G01 X28.4170 Y52.3051 F350.00
G01 X28.4203 Y52.3344 F350.00
G01 X28.4228 Y52.3637 F350.00
G01 X28.4246 Y52.3931 F350.00
G01 X28.4294 Y52.4911 F350.00
G01 X28.4305 Y52.5206 F350.00
G01 X28.4309 Y52.5500 F350.00
G01 X28.4305 Y52.5794 F350.00
G01 X28.4294 Y52.6089 F350.00
G01 X28.4246 Y52.7069 F350.00
G01 X28.4228 Y52.7363 F350.00
G01 X28.4203 Y52.7656 F350.00
G01 X28.4170 Y52.7949 F350.00
G01 X28.4131 Y52.8241 F350.00
G01 X28.3987 Y52.9212 F350.00
G01 X28.3940 Y52.9502 F350.00
G01 X28.3886 Y52.9792 F350.00
G01 X28.3825 Y53.0080 F350.00
G01 X28.3757 Y53.0367 F350.00
G01 X28.3518 Y53.1319 F350.00
G01 X28.3443 Y53.1603 F350.00
G01 X28.3361 Y53.1886 F350.00
G01 X28.3272 Y53.2167 F350.00
G01 X28.3177 Y53.2446 F350.00
G01 X28.2846 Y53.3370 F350.00
G01 X28.2743 Y53.3646 F350.00
G01 X28.2634 Y53.3919 F350.00
G01 X28.2518 Y53.4190 F350.00
G01 X28.2395 Y53.4457 F350.00
G01 X28.1976 Y53.5345 F350.00
G01 X28.1847 Y53.5609 F350.00
G01 X28.1711 Y53.5871 F350.00
G01 X28.1569 Y53.6129 F350.00
G01 X28.1421 Y53.6383 F350.00
G01 X28.0916 Y53.7225 F350.00
G01 X28.0762 Y53.7476 F350.00
G01 X28.0601 Y53.7723 F350.00
G01 X28.0434 Y53.7965 F350.00
G01 X28.0262 Y53.8204 F350.00
G01 X27.9677 Y53.8992 F350.00
G01 X27.9499 Y53.9227 F350.00
G01 X27.9315 Y53.9457 F350.00
G01 X27.9125 Y53.9682 F350.00
G01 X27.8930 Y53.9903 F350.00
G01 X27.8271 Y54.0630 F350.00
G01 X27.8071 Y54.0846 F350.00
G01 X27.7865 Y54.1056 F350.00
G01 X27.7654 Y54.1262 F350.00
G01 X27.7438 Y54.1462 F350.00
G01 X27.6812 Y54.2030 F350.00
G01 X27.6812 Y54.6379 F350.00
G01 X27.7538 Y54.7038 F350.00
G01 X27.7754 Y54.7238 F350.00
G01 X27.7965 Y54.7444 F350.00
G01 X27.8171 Y54.7654 F350.00
G01 X27.8371 Y54.7870 F350.00
G01 X27.9030 Y54.8597 F350.00
G01 X27.9225 Y54.8818 F350.00
G01 X27.9415 Y54.9043 F350.00
G01 X27.9599 Y54.9273 F350.00
G01 X27.9777 Y54.9508 F350.00
G01 X28.0362 Y55.0296 F350.00
G01 X28.0534 Y55.0535 F350.00
G01 X28.0701 Y55.0777 F350.00
G01 X28.0862 Y55.1024 F350.00
G01 X28.1016 Y55.1275 F350.00
G01 X28.1521 Y55.2117 F350.00
G01 X28.1669 Y55.2371 F350.00
G01 X28.1811 Y55.2629 F350.00
G01 X28.1947 Y55.2891 F350.00
G01 X28.2076 Y55.3155 F350.00
G01 X28.2495 Y55.4043 F350.00
G01 X28.2618 Y55.4310 F350.00
G01 X28.2734 Y55.4581 F350.00
G01 X28.2843 Y55.4854 F350.00
G01 X28.2946 Y55.5130 F350.00
G01 X28.3277 Y55.6054 F350.00
G01 X28.3372 Y55.6333 F350.00
G01 X28.3461 Y55.6614 F350.00
G01 X28.3543 Y55.6897 F350.00
G01 X28.3618 Y55.7181 F350.00
G01 X28.3857 Y55.8133 F350.00
G01 X28.3925 Y55.8420 F350.00
G01 X28.3986 Y55.8708 F350.00
G01 X28.4040 Y55.8998 F350.00
G01 X28.4087 Y55.9288 F350.00
G01 X28.4231 Y56.0259 F350.00
G01 X28.4270 Y56.0551 F350.00
G01 X28.4303 Y56.0844 F350.00
G01 X28.4328 Y56.1137 F350.00
G01 X28.4346 Y56.1431 F350.00
G01 X28.4394 Y56.2411 F350.00
G01 X28.4405 Y56.2706 F350.00
G01 X28.4409 Y56.3000 F350.00
G01 X28.4405 Y56.3294 F350.00
G01 X28.4394 Y56.3589 F350.00
G01 X28.4346 Y56.4569 F350.00
G01 X28.4328 Y56.4863 F350.00
G01 X28.4303 Y56.5156 F350.00
G01 X28.4270 Y56.5449 F350.00
G01 X28.4231 Y56.5741 F350.00
G01 X28.4087 Y56.6712 F350.00
G01 X28.4040 Y56.7002 F350.00
G01 X28.3986 Y56.7292 F350.00
G01 X28.3925 Y56.7580 F350.00
G01 X28.3857 Y56.7867 F350.00
G01 X28.3618 Y56.8819 F350.00
G01 X28.3543 Y56.9103 F350.00
G01 X28.3461 Y56.9386 F350.00
G01 X28.3372 Y56.9667 F350.00
G01 X28.3277 Y56.9946 F350.00
G01 X28.2946 Y57.0870 F350.00
G01 X28.2843 Y57.1146 F350.00
G01 X28.2734 Y57.1419 F350.00
G01 X28.2618 Y57.1690 F350.00
G01 X28.2495 Y57.1957 F350.00
G01 X28.2076 Y57.2845 F350.00
G01 X28.1947 Y57.3109 F350.00
G01 X28.1811 Y57.3371 F350.00
G01 X28.1669 Y57.3629 F350.00
G01 X28.1521 Y57.3883 F350.00
G01 X28.1016 Y57.4725 F350.00
G01 X28.0862 Y57.4976 F350.00
G01 X28.0701 Y57.5223 F350.00
G01 X28.0534 Y57.5465 F350.00
G01 X28.0362 Y57.5704 F350.00
G01 X27.9777 Y57.6492 F350.00
G01 X27.9599 Y57.6727 F350.00
G01 X27.9415 Y57.6957 F350.00
G01 X27.9225 Y57.7182 F350.00
G01 X27.9030 Y57.7403 F350.00
G01 X27.8371 Y57.8130 F350.00
G01 X27.8171 Y57.8346 F350.00
G01 X27.7965 Y57.8556 F350.00
G01 X27.7754 Y57.8762 F350.00
G01 X27.7538 Y57.8962 F350.00
G01 X27.6812 Y57.9621 F350.00
G01 X27.6812 Y58.3879 F350.00
G01 X27.7538 Y58.4538 F350.00
G01 X27.7754 Y58.4738 F350.00
G01 X27.7965 Y58.4944 F350.00
G01 X27.8171 Y58.5154 F350.00
G01 X27.8371 Y58.5370 F350.00
G01 X27.9030 Y58.6097 F350.00
G01 X27.9225 Y58.6318 F350.00
G01 X27.9415 Y58.6543 F350.00
G01 X27.9599 Y58.6773 F350.00
G01 X27.9777 Y58.7008 F350.00
G01 X28.0362 Y58.7796 F350.00
G01 X28.0534 Y58.8035 F350.00
G01 X28.0701 Y58.8277 F350.00
G01 X28.0862 Y58.8524 F350.00
G01 X28.1016 Y58.8775 F350.00
G01 X28.1521 Y58.9617 F350.00
G01 X28.1669 Y58.9871 F350.00
G01 X28.1811 Y59.0129 F350.00
G01 X28.1947 Y59.0391 F350.00
G01 X28.2076 Y59.0655 F350.00
G01 X28.2495 Y59.1543 F350.00
G01 X28.2618 Y59.1810 F350.00
G01 X28.2734 Y59.2081 F350.00
G01 X28.2843 Y59.2354 F350.00
G01 X28.2946 Y59.2630 F350.00
G01 X28.3277 Y59.3554 F350.00
G01 X28.3372 Y59.3833 F350.00
G01 X28.3461 Y59.4114 F350.00
G01 X28.3543 Y59.4397 F350.00
G01 X28.3618 Y59.4681 F350.00
G01 X28.3857 Y59.5633 F350.00
G01 X28.3925 Y59.5920 F350.00
G01 X28.3986 Y59.6208 F350.00
G01 X28.4040 Y59.6498 F350.00
G01 X28.4087 Y59.6788 F350.00
G01 X28.4231 Y59.7759 F350.00
G01 X28.4270 Y59.8051 F350.00
G01 X28.4303 Y59.8344 F350.00
G01 X28.4328 Y59.8637 F350.00
G01 X28.4346 Y59.8931 F350.00
G01 X28.4394 Y59.9911 F350.00
G01 X28.4405 Y60.0206 F350.00
G01 X28.4409 Y60.0500 F350.00
G01 X28.4405 Y60.0794 F350.00
G01 X28.4394 Y60.1089 F350.00
G01 X28.4346 Y60.2069 F350.00
G01 X28.4328 Y60.2363 F350.00
G01 X28.4303 Y60.2656 F350.00
G01 X28.4270 Y60.2949 F350.00
G01 X28.4231 Y60.3241 F350.00
G01 X28.4087 Y60.4212 F350.00
G01 X28.4040 Y60.4502 F350.00
G01 X28.3986 Y60.4792 F350.00
G01 X28.3925 Y60.5080 F350.00
G01 X28.3857 Y60.5367 F350.00
G01 X28.3618 Y60.6319 F350.00
G01 X28.3543 Y60.6603 F350.00
G01 X28.3461 Y60.6886 F350.00
G01 X28.3372 Y60.7167 F350.00
G01 X28.3277 Y60.7446 F350.00
G01 X28.2946 Y60.8370 F350.00
G01 X28.2843 Y60.8646 F350.00
G01 X28.2734 Y60.8919 F350.00
G01 X28.2618 Y60.9190 F350.00
G01 X28.2495 Y60.9457 F350.00
G01 X28.2076 Y61.0345 F350.00
G01 X28.1947 Y61.0609 F350.00
G01 X28.1811 Y61.0871 F350.00
G01 X28.1669 Y61.1129 F350.00
G01 X28.1521 Y61.1383 F350.00
G01 X28.1016 Y61.2225 F350.00
G01 X28.0862 Y61.2476 F350.00
G01 X28.0701 Y61.2723 F350.00
G01 X28.0534 Y61.2965 F350.00
G01 X28.0362 Y61.3204 F350.00
G01 X27.9777 Y61.3992 F350.00
G01 X27.9599 Y61.4227 F350.00
G01 X27.9415 Y61.4457 F350.00
G01 X27.9225 Y61.4682 F350.00
G01 X27.9030 Y61.4903 F350.00
G01 X27.8371 Y61.5630 F350.00
G01 X27.8171 Y61.5846 F350.00
G01 X27.7965 Y61.6056 F350.00
G01 X27.7754 Y61.6262 F350.00
G01 X27.7538 Y61.6462 F350.00
G01 X27.6811 Y61.7122 F350.00
G01 X27.6591 Y61.7317 F350.00
G01 X27.6365 Y61.7506 F350.00
G01 X27.6135 Y61.7690 F350.00
G01 X27.5901 Y61.7869 F350.00
G01 X27.5113 Y61.8453 F350.00
G01 X27.4874 Y61.8626 F350.00
G01 X27.4631 Y61.8792 F350.00
G01 X27.4384 Y61.8953 F350.00
G01 X27.4134 Y61.9107 F350.00
G01 X27.3292 Y61.9612 F350.00
G01 X27.3037 Y61.9760 F350.00
G01 X27.2779 Y61.9902 F350.00
G01 X27.2518 Y62.0038 F350.00
G01 X27.2253 Y62.0167 F350.00
G01 X27.1366 Y62.0587 F350.00
G01 X27.1098 Y62.0709 F350.00
G01 X27.0828 Y62.0825 F350.00
G01 X27.0554 Y62.0935 F350.00
G01 X27.0278 Y62.1037 F350.00
G01 X26.9354 Y62.1368 F350.00
G01 X26.9076 Y62.1464 F350.00
G01 X26.8795 Y62.1553 F350.00
G01 X26.8512 Y62.1635 F350.00
G01 X26.8227 Y62.1710 F350.00
G01 X26.7275 Y62.1948 F350.00
G01 X26.6989 Y62.2016 F350.00
G01 X26.6701 Y62.2077 F350.00
G01 X26.6411 Y62.2131 F350.00
G01 X26.6120 Y62.2178 F350.00
G01 X26.5150 Y62.2322 F350.00
G01 X26.4858 Y62.2362 F350.00
G01 X26.4565 Y62.2394 F350.00
G01 X26.4272 Y62.2419 F350.00
G01 X26.3978 Y62.2437 F350.00
G01 X26.2997 Y62.2486 F350.00
G01 X26.2703 Y62.2496 F350.00
G01 X26.2409 Y62.2500 F350.00
G01 X25.4816 Y62.2500 F350.00
G01 X28.4815 Y65.2499 F350.00
G01 X34.4507 Y65.2499 F350.00
G01 X34.4507 Y62.0329 F350.00
G01 X34.3899 Y62.0038 F350.00
G01 X34.3638 Y61.9902 F350.00
G01 X34.3380 Y61.9760 F350.00
G01 X34.3125 Y61.9612 F350.00
G01 X34.2284 Y61.9107 F350.00
G01 X34.2033 Y61.8953 F350.00
G01 X34.1786 Y61.8792 F350.00
G01 X34.1543 Y61.8626 F350.00
G01 X34.1305 Y61.8453 F350.00
G01 X34.0516 Y61.7869 F350.00
G01 X34.0282 Y61.7690 F350.00
G01 X34.0052 Y61.7506 F350.00
G01 X33.9827 Y61.7317 F350.00
G01 X33.9606 Y61.7122 F350.00
G01 X33.8879 Y61.6462 F350.00
G01 X33.8663 Y61.6262 F350.00
G01 X33.8452 Y61.6056 F350.00
G01 X33.8247 Y61.5846 F350.00
G01 X33.8046 Y61.5630 F350.00
G01 X33.7387 Y61.4903 F350.00
G01 X33.7192 Y61.4682 F350.00
G01 X33.7002 Y61.4457 F350.00
G01 X33.6818 Y61.4227 F350.00
G01 X33.6640 Y61.3992 F350.00
G01 X33.6055 Y61.3204 F350.00
G01 X33.5883 Y61.2965 F350.00
G01 X33.5716 Y61.2723 F350.00
G01 X33.5556 Y61.2476 F350.00
G01 X33.5401 Y61.2225 F350.00
G01 X33.4897 Y61.1383 F350.00
G01 X33.4748 Y61.1129 F350.00
G01 X33.4606 Y61.0871 F350.00
G01 X33.4471 Y61.0609 F350.00
G01 X33.4342 Y61.0345 F350.00
G01 X33.3922 Y60.9457 F350.00
G01 X33.3799 Y60.9190 F350.00
G01 X33.3683 Y60.8919 F350.00
G01 X33.3574 Y60.8646 F350.00
G01 X33.3471 Y60.8370 F350.00
G01 X33.3141 Y60.7446 F350.00
G01 X33.3045 Y60.7167 F350.00
G01 X33.2956 Y60.6886 F350.00
G01 X33.2874 Y60.6603 F350.00
G01 X33.2799 Y60.6319 F350.00
G01 X33.2560 Y60.5367 F350.00
G01 X33.2492 Y60.5080 F350.00
G01 X33.2431 Y60.4792 F350.00
G01 X33.2377 Y60.4502 F350.00
G01 X33.2331 Y60.4212 F350.00
G01 X33.2187 Y60.3241 F350.00
G01 X33.2147 Y60.2949 F350.00
G01 X33.2115 Y60.2656 F350.00
G01 X33.2089 Y60.2363 F350.00
G01 X33.2071 Y60.2069 F350.00
G01 X33.2023 Y60.1089 F350.00
G01 X33.2012 Y60.0794 F350.00
G01 X33.2009 Y60.0500 F350.00
G01 X33.2012 Y60.0206 F350.00
G01 X33.2023 Y59.9911 F350.00
G01 X33.2071 Y59.8931 F350.00
G01 X33.2089 Y59.8637 F350.00
G01 X33.2115 Y59.8344 F350.00
G01 X33.2147 Y59.8051 F350.00
G01 X33.2187 Y59.7759 F350.00
G01 X33.2331 Y59.6788 F350.00
G01 X33.2377 Y59.6498 F350.00
G01 X33.2431 Y59.6208 F350.00
G01 X33.2492 Y59.5920 F350.00
G01 X33.2560 Y59.5633 F350.00
G01 X33.2799 Y59.4681 F350.00
G01 X33.2874 Y59.4397 F350.00
G01 X33.2956 Y59.4114 F350.00
G01 X33.3045 Y59.3833 F350.00
G01 X33.3141 Y59.3554 F350.00
G01 X33.3471 Y59.2630 F350.00
G01 X33.3574 Y59.2354 F350.00
G01 X33.3683 Y59.2081 F350.00
G01 X33.3799 Y59.1810 F350.00
G01 X33.3922 Y59.1543 F350.00
G01 X33.4342 Y59.0655 F350.00
G01 X33.4471 Y59.0391 F350.00
G01 X33.4606 Y59.0129 F350.00
G01 X33.4748 Y58.9871 F350.00
G01 X33.4897 Y58.9617 F350.00
G01 X33.5401 Y58.8775 F350.00
G01 X33.5556 Y58.8524 F350.00
G01 X33.5716 Y58.8277 F350.00
G01 X33.5883 Y58.8035 F350.00
G01 X33.6055 Y58.7796 F350.00
G01 X33.6640 Y58.7008 F350.00
G01 X33.6818 Y58.6773 F350.00
G01 X33.7002 Y58.6543 F350.00
G01 X33.7192 Y58.6318 F350.00
G01 X33.7387 Y58.6097 F350.00
G01 X33.8046 Y58.5370 F350.00
G01 X33.8247 Y58.5154 F350.00
G01 X33.8452 Y58.4944 F350.00
G01 X33.8663 Y58.4738 F350.00
G01 X33.8879 Y58.4538 F350.00
G01 X33.9606 Y58.3878 F350.00
G01 X33.9827 Y58.3683 F350.00
G01 X34.0052 Y58.3494 F350.00
G01 X34.0282 Y58.3310 F350.00
G01 X34.0516 Y58.3131 F350.00
G01 X34.1305 Y58.2547 F350.00
G01 X34.1543 Y58.2374 F350.00
G01 X34.1786 Y58.2208 F350.00
G01 X34.2033 Y58.2047 F350.00
G01 X34.2522 Y58.1750 F350.00
G00 Z0.5000
G00 X33.2619 Y56.8103
G01 F250.00
G01 Z-0.0500
G01 F350.00
G01 X28.3798 Y56.8103 F350.00
G00 Z0.5000
G00 X28.1032 Y55.1303
G01 F250.00
G01 Z-0.0500
G01 F350.00
G01 X33.5385 Y55.1303 F350.00
G01 X33.3843 Y53.4503 F350.00
G01 X28.2374 Y53.4503 F350.00
G00 Z0.5000
G00 X28.9759 Y48.0499
G01 F250.00
G01 Z-0.0500
G01 F350.00
G01 X33.3049 Y48.0499 F350.00
G01 X33.3049 Y37.2749 F350.00
G01 X21.5295 Y25.4995 F350.00
G01 X21.5677 Y25.6054 F350.00
G01 X21.5772 Y25.6333 F350.00
G01 X21.5861 Y25.6614 F350.00
G01 X21.5943 Y25.6897 F350.00
G01 X21.6018 Y25.7181 F350.00
G01 X21.6257 Y25.8133 F350.00
G01 X21.6325 Y25.8420 F350.00
G01 X21.6386 Y25.8708 F350.00
G01 X21.6440 Y25.8998 F350.00
G01 X21.6487 Y25.9288 F350.00
G01 X21.6631 Y26.0259 F350.00
G01 X21.6670 Y26.0551 F350.00
G01 X21.6703 Y26.0844 F350.00
G01 X21.6728 Y26.1137 F350.00
G01 X21.6746 Y26.1431 F350.00
G01 X21.6794 Y26.2411 F350.00
G01 X21.6805 Y26.2706 F350.00
G01 X21.6809 Y26.3000 F350.00
G01 X21.6809 Y27.0955 F350.00
G01 X24.6831 Y30.0977 F350.00
G01 X24.7037 Y30.1188 F350.00
G01 X24.7567 Y30.1768 F350.00
G01 X24.7762 Y30.1988 F350.00
G01 X24.7952 Y30.2214 F350.00
G01 X24.8136 Y30.2444 F350.00
G01 X24.8314 Y30.2678 F350.00
G01 X24.8779 Y30.3311 F350.00
G01 X24.8946 Y30.3554 F350.00
G01 X24.9106 Y30.3801 F350.00
G01 X24.9513 Y30.4473 F350.00
G01 X24.9661 Y30.4727 F350.00
G01 X24.9803 Y30.4985 F350.00
G01 X24.9939 Y30.5247 F350.00
G01 X25.0068 Y30.5511 F350.00
G01 X25.0401 Y30.6223 F350.00
G01 X25.0517 Y30.6493 F350.00
G01 X25.0626 Y30.6767 F350.00
G01 X25.0729 Y30.7043 F350.00
G01 X25.0990 Y30.7784 F350.00
G01 X25.1079 Y30.8064 F350.00
G01 X25.1161 Y30.8347 F350.00
G01 X25.1355 Y30.9108 F350.00
G01 X25.1423 Y30.9395 F350.00
G01 X25.1484 Y30.9683 F350.00
G01 X25.1538 Y30.9973 F350.00
G01 X25.1657 Y31.0749 F350.00
G01 X25.1697 Y31.1041 F350.00
G01 X25.1729 Y31.1333 F350.00
G01 X25.1755 Y31.1627 F350.00
G01 X25.1797 Y31.2411 F350.00
G01 X25.1807 Y31.2706 F350.00
G01 X25.1811 Y31.3000 F350.00
G01 X25.1811 Y32.9957 F350.00
G01 X27.9331 Y35.7477 F350.00
G01 X27.9537 Y35.7688 F350.00
G01 X28.0067 Y35.8268 F350.00
G01 X28.0262 Y35.8488 F350.00
G01 X28.0452 Y35.8714 F350.00
G01 X28.0636 Y35.8944 F350.00
G01 X28.1107 Y35.9572 F350.00
G01 X28.1279 Y35.9811 F350.00
G01 X28.1446 Y36.0054 F350.00
G01 X28.1606 Y36.0301 F350.00
G01 X28.2013 Y36.0973 F350.00
G01 X28.2161 Y36.1227 F350.00
G01 X28.2303 Y36.1485 F350.00
G01 X28.2439 Y36.1747 F350.00
G01 X28.2568 Y36.2011 F350.00
G01 X28.2901 Y36.2723 F350.00
G01 X28.3017 Y36.2993 F350.00
G01 X28.3126 Y36.3267 F350.00
G01 X28.3229 Y36.3543 F350.00
G01 X28.3490 Y36.4284 F350.00
G01 X28.3579 Y36.4564 F350.00
G01 X28.3661 Y36.4847 F350.00
G01 X28.3855 Y36.5608 F350.00
G01 X28.3923 Y36.5895 F350.00
G01 X28.3984 Y36.6183 F350.00
G01 X28.4038 Y36.6473 F350.00
G01 X28.4085 Y36.6763 F350.00
G01 X28.4197 Y36.7541 F350.00
G01 X28.4229 Y36.7833 F350.00
