%
(; SHAPEOKO POSTPROCESSED v1)
( Source: DEEP_CORNER_HOLES.nc )
( Stripped: M30 only - kept T#/M6/M0/M1/MSG for Shapeoko/Carbide Motion )
( Wrapped with Shapeoko start/end blocks - mirrors 1001.nc structure )
G90        ( absolute positioning )
G17        ( XY plane select )
G21        ( mm units )
G94        ( feedrate units/min )
G28 G91 Z0 ( safe Z home - assumes machine has been homed )
G90        ( back to absolute )
G54        ( work coordinate system 1 )
M5         ( ensure spindle off at start )

(G-CODE GENERATED BY FLATCAM v8.994 - www.flatcam.org - Version Date: 2020/11/7)

(Name: Buzzer PCB-NPTH.drl_edit_cnc)
(Type: G-code from Geometry)
(Units: MM)

(Created on Friday, 26 June 2026 at 04:14)

(This preprocessor is used with a motion controller loaded with GRBL firmware.)
(It is configured to be compatible with almost any version of GRBL firmware.)


(TOOLS DIAMETER: )
(Tool: 1 -> Dia: 3.175)

(FEEDRATE Z: )
(Tool: 1 -> Feedrate: 300.0)

(FEEDRATE RAPIDS: )
(Tool: 1 -> Feedrate Rapids: 1500)

(Z_CUT: )
(Tool: 1 -> Z_Cut: -8.0)

(Tools Offset: )
(Tool: 1 -> Offset Z: 0.0)

(Z_MOVE: )
(Tool: 1 -> Z_Move: 2.0)

(Z Toolchange: 40.0 mm)
(X,Y Toolchange: 0.0000, 0.0000 mm)
(Z Start: None mm)
(Z End: 40.0 mm)
(X,Y End: None mm)
(Steps per circle: 64)
(Steps per circle: 64)
(Preprocessor Excellon: grbl_11)

(X range:   -1.5875 ...  133.0685  mm)
(Y range:   -1.5875 ...   67.3875  mm)

(Spindle Speed: 0 RPM)
G21
G90
G17
G94


G01 F300.00

M5             
G00 Z40.0000
G00 X0.0000 Y0.0000                
T1 M6
(MSG, Change to Tool Dia = 3.1750 ||| Total drills for tool T1 = 4)
M0
G00 Z40.0000

G01 F300.00
M03
G00 X0.0000 Y65.8000
G01 Z-8.0000
G01 Z0
G00 Z2.0000
G00 X0.0000 Y0.0000
G01 Z-8.0000
G01 Z0
G00 Z2.0000
G00 X131.4810 Y0.0000
G01 Z-8.0000
G01 Z0
G00 Z2.0000
G00 X131.4810 Y65.8000
G01 Z-8.0000
G01 Z0
G00 Z2.0000
M05
G00 Z40.00
M5         ( spindle off )
M9         ( coolant off - ignored by Shapeoko if unused )
G28 G91 Z0 ( safe Z home )
G90        ( absolute )
G28 G91 X0 Y0 ( XY home )
G90        ( absolute )
M30        ( program end )
%
