%
(; SHAPEOKO POSTPROCESSED v1)
( Source: EDGE_CUTS_cnc.nc )
( Stripped: M30 only - kept T#/M6/M0/M1/MSG for Shapeoko/Carbide Motion )
( Wrapped with Shapeoko start/end blocks - mirrors 1001.nc structure )
G90        ( absolute positioning )
G17        ( XY plane select )
G21        ( mm units )
G94        ( feedrate units/min )
G28 G91 Z0 ( safe Z home - assumes machine has been homed )
G90        ( back to absolute )
G54        ( work coordinate system 1 )
M5         ( ensure spindle off at start )

(G-CODE GENERATED BY FLATCAM v8.994 - www.flatcam.org - Version Date: 2020/11/7)

(Name: EDGE_CUTS_cnc)
(Type: G-code from Geometry)
(Units: MM)

(Created on Friday, 26 June 2026 at 10:18)

(This preprocessor is used with a motion controller loaded with GRBL firmware.)
(It is configured to be compatible with almost any version of GRBL firmware.)

(TOOL DIAMETER: 3.175 mm)
(Feedrate_XY: 350.0 mm/min)
(Feedrate_Z: 250.0 mm/min)
(Feedrate rapids 1500.0 mm/min)

(Z_Cut: -1.7 mm)
(DepthPerCut: 0.7 mm <=>3 passes)
(Z_Move: 0.5 mm)
(Z Start: None mm)
(Z End: 40.0 mm)
(X,Y End: None mm)
(Steps per circle: 64)
(Steps per circle: 64)
(Preprocessor Geometry: grbl_11)

(X range:   -6.2317 ...  137.7125  mm)
(Y range:   -6.1125 ...   71.9967  mm)

(Spindle Speed: 0.0 RPM)
G21
G90
G17
G94


G01 F350.00

M5             
G00 Z40.0000
G00 X0.0000 Y0.0000                
T1 M6
(MSG, Change to Tool Dia = 3.1750)
M0
G00 Z40.0000

M03
G01 F350.00
G00 X-6.2317 Y66.3842
G01 F250.00
G01 Z-0.7000
G01 F350.00
G01 X-6.2297 Y66.4633 F350.00
G01 X-6.2104 Y66.8554 F350.00
G01 X-6.2047 Y66.9331 F350.00
G01 X-6.1949 Y67.0129 F350.00
G01 X-6.1373 Y67.4012 F350.00
G01 X-6.1240 Y67.4779 F350.00
G01 X-6.1065 Y67.5564 F350.00
G01 X-6.0111 Y67.9371 F350.00
G01 X-5.9903 Y68.0122 F350.00
G01 X-5.9652 Y68.0886 F350.00
G01 X-5.8329 Y68.4582 F350.00
G01 X-5.8049 Y68.5309 F350.00
G01 X-5.7724 Y68.6044 F350.00
G01 X-5.6045 Y68.9592 F350.00
G01 X-5.5695 Y69.0288 F350.00
G01 X-5.5299 Y69.0988 F350.00
G01 X-5.3281 Y69.4355 F350.00
G01 X-5.2864 Y69.5013 F350.00
G01 X-5.2402 Y69.5670 F350.00
G01 X-5.0064 Y69.8823 F350.00
G01 X-4.9584 Y69.9438 F350.00
G01 X-4.9060 Y70.0047 F350.00
G01 X-4.6424 Y70.2955 F350.00
G01 X-4.5886 Y70.3520 F350.00
G01 X-4.5305 Y70.4074 F350.00
G01 X-4.2396 Y70.6710 F350.00
G01 X-4.1806 Y70.7219 F350.00
G01 X-4.1173 Y70.7714 F350.00
G01 X-3.8020 Y71.0053 F350.00
G01 X-3.7383 Y71.0501 F350.00
G01 X-3.6704 Y71.0932 F350.00
G01 X-3.3337 Y71.2950 F350.00
G01 X-3.2659 Y71.3334 F350.00
G01 X-3.1942 Y71.3696 F350.00
G01 X-2.8393 Y71.5374 F350.00
G01 X-2.7681 Y71.5690 F350.00
G01 X-2.6931 Y71.5980 F350.00
G01 X-2.3235 Y71.7302 F350.00
G01 X-2.2495 Y71.7547 F350.00
G01 X-2.1721 Y71.7762 F350.00
G01 X-1.7913 Y71.8716 F350.00
G01 X-1.7153 Y71.8886 F350.00
G01 X-1.6361 Y71.9024 F350.00
G01 X-1.2478 Y71.9600 F350.00
G01 X-1.1704 Y71.9696 F350.00
G01 X-1.0901 Y71.9756 F350.00
G01 X-0.6981 Y71.9948 F350.00
G01 X-0.6592 Y71.9962 F350.00
G01 X-0.6191 Y71.9967 F350.00
G01 X132.1000 Y71.9967 F350.00
G01 X132.1378 Y71.9962 F350.00
G01 X132.1745 Y71.9950 F350.00
G01 X132.5435 Y71.9779 F350.00
G01 X132.6190 Y71.9726 F350.00
G01 X132.6919 Y71.9642 F350.00
G01 X133.0578 Y71.9131 F350.00
G01 X133.1324 Y71.9009 F350.00
G01 X133.2042 Y71.8858 F350.00
G01 X133.5638 Y71.8012 F350.00
G01 X133.6370 Y71.7821 F350.00
G01 X133.7071 Y71.7604 F350.00
G01 X134.0574 Y71.6430 F350.00
G01 X134.1285 Y71.6173 F350.00
G01 X134.1963 Y71.5892 F350.00
G01 X134.5343 Y71.4400 F350.00
G01 X134.6007 Y71.4088 F350.00
G01 X134.6676 Y71.3736 F350.00
G01 X134.9904 Y71.1938 F350.00
G01 X135.0556 Y71.1554 F350.00
G01 X135.1170 Y71.1154 F350.00
G01 X135.4218 Y70.9066 F350.00
G01 X135.4832 Y70.8623 F350.00
G01 X135.5407 Y70.8168 F350.00
G01 X135.8249 Y70.5808 F350.00
G01 X135.8803 Y70.5326 F350.00
G01 X135.9350 Y70.4804 F350.00
G01 X136.1963 Y70.2192 F350.00
G01 X136.2485 Y70.1644 F350.00
G01 X136.2966 Y70.1091 F350.00
G01 X136.5326 Y69.8249 F350.00
G01 X136.5796 Y69.7655 F350.00
G01 X136.6224 Y69.7060 F350.00
G01 X136.8312 Y69.4012 F350.00
G01 X136.8712 Y69.3398 F350.00
G01 X136.9096 Y69.2746 F350.00
G01 X137.0894 Y68.9518 F350.00
G01 X137.1246 Y68.8848 F350.00
G01 X137.1558 Y68.8185 F350.00
G01 X137.3050 Y68.4805 F350.00
G01 X137.3339 Y68.4106 F350.00
G01 X137.3588 Y68.3416 F350.00
G01 X137.4762 Y67.9913 F350.00
G01 X137.4979 Y67.9212 F350.00
G01 X137.5170 Y67.8480 F350.00
G01 X137.6016 Y67.4884 F350.00
G01 X137.6171 Y67.4143 F350.00
G01 X137.6289 Y67.3420 F350.00
G01 X137.6800 Y66.9760 F350.00
G01 X137.6886 Y66.9009 F350.00
G01 X137.6937 Y66.8278 F350.00
G01 X137.7108 Y66.4587 F350.00
G01 X137.7121 Y66.4220 F350.00
G01 X137.7125 Y66.3842 F350.00
G01 X137.7125 Y-0.5000 F350.00
G01 X137.7120 Y-0.5402 F350.00
G01 X137.7106 Y-0.5791 F350.00
G01 X137.6913 Y-0.9712 F350.00
G01 X137.6853 Y-1.0513 F350.00
G01 X137.6758 Y-1.1287 F350.00
G01 X137.6182 Y-1.5170 F350.00
G01 X137.6044 Y-1.5961 F350.00
G01 X137.5873 Y-1.6722 F350.00
G01 X137.4919 Y-2.0529 F350.00
G01 X137.4705 Y-2.1304 F350.00
G01 X137.4460 Y-2.2044 F350.00
G01 X137.3138 Y-2.5740 F350.00
G01 X137.2848 Y-2.6489 F350.00
G01 X137.2532 Y-2.7202 F350.00
G01 X137.0854 Y-3.0750 F350.00
G01 X137.0492 Y-3.1468 F350.00
G01 X137.0108 Y-3.2146 F350.00
G01 X136.8090 Y-3.5513 F350.00
G01 X136.7659 Y-3.6191 F350.00
G01 X136.7211 Y-3.6829 F350.00
G01 X136.4872 Y-3.9981 F350.00
G01 X136.4377 Y-4.0615 F350.00
G01 X136.3868 Y-4.1205 F350.00
G01 X136.1232 Y-4.4113 F350.00
G01 X136.0678 Y-4.4695 F350.00
G01 X136.0113 Y-4.5232 F350.00
G01 X135.7205 Y-4.7868 F350.00
G01 X135.6596 Y-4.8393 F350.00
G01 X135.5981 Y-4.8872 F350.00
G01 X135.2829 Y-5.1211 F350.00
G01 X135.2171 Y-5.1673 F350.00
G01 X135.1513 Y-5.2090 F350.00
G01 X134.8146 Y-5.4108 F350.00
G01 X134.7446 Y-5.4503 F350.00
G01 X134.6750 Y-5.4854 F350.00
G01 X134.3202 Y-5.6532 F350.00
G01 X134.2467 Y-5.6857 F350.00
G01 X134.1740 Y-5.7138 F350.00
G01 X133.8044 Y-5.8460 F350.00
G01 X133.7280 Y-5.8712 F350.00
G01 X133.6529 Y-5.8919 F350.00
G01 X133.2722 Y-5.9873 F350.00
G01 X133.1937 Y-6.0049 F350.00
G01 X133.1170 Y-6.0182 F350.00
G01 X132.7287 Y-6.0758 F350.00
G01 X132.6489 Y-6.0856 F350.00
G01 X132.5712 Y-6.0913 F350.00
G01 X132.1791 Y-6.1106 F350.00
G01 X132.1390 Y-6.1120 F350.00
G01 X132.1000 Y-6.1125 F350.00
G01 X-0.6191 Y-6.1125 F350.00
G01 X-0.6593 Y-6.1120 F350.00
G01 X-0.6983 Y-6.1106 F350.00
G01 X-1.0903 Y-6.0913 F350.00
G01 X-1.1705 Y-6.0853 F350.00
G01 X-1.2478 Y-6.0758 F350.00
G01 X-1.6361 Y-6.0182 F350.00
G01 X-1.7153 Y-6.0044 F350.00
G01 X-1.7913 Y-5.9873 F350.00
G01 X-2.1721 Y-5.8919 F350.00
G01 X-2.2495 Y-5.8704 F350.00
G01 X-2.3235 Y-5.8460 F350.00
G01 X-2.6931 Y-5.7138 F350.00
G01 X-2.7681 Y-5.6848 F350.00
G01 X-2.8393 Y-5.6532 F350.00
G01 X-3.1942 Y-5.4854 F350.00
G01 X-3.2659 Y-5.4492 F350.00
G01 X-3.3337 Y-5.4108 F350.00
G01 X-3.6704 Y-5.2090 F350.00
G01 X-3.7383 Y-5.1659 F350.00
G01 X-3.8020 Y-5.1210 F350.00
G01 X-4.1173 Y-4.8872 F350.00
G01 X-4.1806 Y-4.8377 F350.00
G01 X-4.2396 Y-4.7868 F350.00
G01 X-4.5304 Y-4.5232 F350.00
G01 X-4.5886 Y-4.4677 F350.00
G01 X-4.6423 Y-4.4113 F350.00
G01 X-4.9060 Y-4.1205 F350.00
G01 X-4.9584 Y-4.0596 F350.00
G01 X-5.0063 Y-3.9981 F350.00
G01 X-5.2402 Y-3.6828 F350.00
G01 X-5.2864 Y-3.6171 F350.00
G01 X-5.3281 Y-3.5513 F350.00
G01 X-5.5299 Y-3.2146 F350.00
G01 X-5.5695 Y-3.1446 F350.00
G01 X-5.6045 Y-3.0750 F350.00
G01 X-5.7723 Y-2.7202 F350.00
G01 X-5.8048 Y-2.6467 F350.00
G01 X-5.8329 Y-2.5740 F350.00
G01 X-5.9651 Y-2.2044 F350.00
G01 X-5.9896 Y-2.1304 F350.00
G01 X-6.0111 Y-2.0529 F350.00
G01 X-6.1064 Y-1.6722 F350.00
G01 X-6.1240 Y-1.5937 F350.00
G01 X-6.1373 Y-1.5170 F350.00
G01 X-6.1949 Y-1.1287 F350.00
G01 X-6.2047 Y-1.0490 F350.00
G01 X-6.2104 Y-0.9713 F350.00
G01 X-6.2297 Y-0.5793 F350.00
G01 X-6.2312 Y-0.5390 F350.00
G01 X-6.2317 Y-0.5000 F350.00
G01 X-6.2317 Y66.3842 F350.00
G00 X-6.2317 Y66.3842
G01 F250.00
G01 Z-1.4000
G01 F350.00
G01 X-6.2317 Y-0.5000 F350.00
G01 X-6.2312 Y-0.5390 F350.00
G01 X-6.2297 Y-0.5793 F350.00
G01 X-6.2104 Y-0.9713 F350.00
G01 X-6.2047 Y-1.0490 F350.00
G01 X-6.1949 Y-1.1287 F350.00
G01 X-6.1373 Y-1.5170 F350.00
G01 X-6.1240 Y-1.5937 F350.00
G01 X-6.1064 Y-1.6722 F350.00
G01 X-6.0111 Y-2.0529 F350.00
G01 X-5.9896 Y-2.1304 F350.00
G01 X-5.9651 Y-2.2044 F350.00
G01 X-5.8329 Y-2.5740 F350.00
G01 X-5.8048 Y-2.6467 F350.00
G01 X-5.7723 Y-2.7202 F350.00
G01 X-5.6045 Y-3.0750 F350.00
G01 X-5.5695 Y-3.1446 F350.00
G01 X-5.5299 Y-3.2146 F350.00
G01 X-5.3281 Y-3.5513 F350.00
G01 X-5.2864 Y-3.6171 F350.00
G01 X-5.2402 Y-3.6828 F350.00
G01 X-5.0063 Y-3.9981 F350.00
G01 X-4.9584 Y-4.0596 F350.00
G01 X-4.9060 Y-4.1205 F350.00
G01 X-4.6423 Y-4.4113 F350.00
G01 X-4.5886 Y-4.4677 F350.00
G01 X-4.5304 Y-4.5232 F350.00
G01 X-4.2396 Y-4.7868 F350.00
G01 X-4.1806 Y-4.8377 F350.00
G01 X-4.1173 Y-4.8872 F350.00
G01 X-3.8020 Y-5.1210 F350.00
G01 X-3.7383 Y-5.1659 F350.00
G01 X-3.6704 Y-5.2090 F350.00
G01 X-3.3337 Y-5.4108 F350.00
G01 X-3.2659 Y-5.4492 F350.00
G01 X-3.1942 Y-5.4854 F350.00
G01 X-2.8393 Y-5.6532 F350.00
G01 X-2.7681 Y-5.6848 F350.00
G01 X-2.6931 Y-5.7138 F350.00
G01 X-2.3235 Y-5.8460 F350.00
G01 X-2.2495 Y-5.8704 F350.00
G01 X-2.1721 Y-5.8919 F350.00
G01 X-1.7913 Y-5.9873 F350.00
G01 X-1.7153 Y-6.0044 F350.00
G01 X-1.6361 Y-6.0182 F350.00
G01 X-1.2478 Y-6.0758 F350.00
G01 X-1.1705 Y-6.0853 F350.00
G01 X-1.0903 Y-6.0913 F350.00
G01 X-0.6983 Y-6.1106 F350.00
G01 X-0.6593 Y-6.1120 F350.00
G01 X-0.6191 Y-6.1125 F350.00
G01 X132.1000 Y-6.1125 F350.00
G01 X132.1390 Y-6.1120 F350.00
G01 X132.1791 Y-6.1106 F350.00
G01 X132.5712 Y-6.0913 F350.00
G01 X132.6489 Y-6.0856 F350.00
G01 X132.7287 Y-6.0758 F350.00
G01 X133.1170 Y-6.0182 F350.00
G01 X133.1937 Y-6.0049 F350.00
G01 X133.2722 Y-5.9873 F350.00
G01 X133.6529 Y-5.8919 F350.00
G01 X133.7280 Y-5.8712 F350.00
G01 X133.8044 Y-5.8460 F350.00
G01 X134.1740 Y-5.7138 F350.00
G01 X134.2467 Y-5.6857 F350.00
G01 X134.3202 Y-5.6532 F350.00
G01 X134.6750 Y-5.4854 F350.00
G01 X134.7446 Y-5.4503 F350.00
G01 X134.8146 Y-5.4108 F350.00
G01 X135.1513 Y-5.2090 F350.00
G01 X135.2171 Y-5.1673 F350.00
G01 X135.2829 Y-5.1211 F350.00
G01 X135.5981 Y-4.8872 F350.00
G01 X135.6596 Y-4.8393 F350.00
G01 X135.7205 Y-4.7868 F350.00
G01 X136.0113 Y-4.5232 F350.00
G01 X136.0678 Y-4.4695 F350.00
G01 X136.1232 Y-4.4113 F350.00
G01 X136.3868 Y-4.1205 F350.00
G01 X136.4377 Y-4.0615 F350.00
G01 X136.4872 Y-3.9981 F350.00
G01 X136.7211 Y-3.6829 F350.00
G01 X136.7659 Y-3.6191 F350.00
G01 X136.8090 Y-3.5513 F350.00
G01 X137.0108 Y-3.2146 F350.00
G01 X137.0492 Y-3.1468 F350.00
G01 X137.0854 Y-3.0750 F350.00
G01 X137.2532 Y-2.7202 F350.00
G01 X137.2848 Y-2.6489 F350.00
G01 X137.3138 Y-2.5740 F350.00
G01 X137.4460 Y-2.2044 F350.00
G01 X137.4705 Y-2.1304 F350.00
G01 X137.4919 Y-2.0529 F350.00
G01 X137.5873 Y-1.6722 F350.00
G01 X137.6044 Y-1.5961 F350.00
G01 X137.6182 Y-1.5170 F350.00
G01 X137.6758 Y-1.1287 F350.00
G01 X137.6853 Y-1.0513 F350.00
G01 X137.6913 Y-0.9712 F350.00
G01 X137.7106 Y-0.5791 F350.00
G01 X137.7120 Y-0.5402 F350.00
G01 X137.7125 Y-0.5000 F350.00
G01 X137.7125 Y66.3842 F350.00
G01 X137.7121 Y66.4220 F350.00
G01 X137.7108 Y66.4587 F350.00
G01 X137.6937 Y66.8278 F350.00
G01 X137.6886 Y66.9009 F350.00
G01 X137.6800 Y66.9760 F350.00
G01 X137.6289 Y67.3420 F350.00
G01 X137.6171 Y67.4143 F350.00
G01 X137.6016 Y67.4884 F350.00
G01 X137.5170 Y67.8480 F350.00
G01 X137.4979 Y67.9212 F350.00
G01 X137.4762 Y67.9913 F350.00
G01 X137.3588 Y68.3416 F350.00
G01 X137.3339 Y68.4106 F350.00
G01 X137.3050 Y68.4805 F350.00
G01 X137.1558 Y68.8185 F350.00
G01 X137.1246 Y68.8848 F350.00
G01 X137.0894 Y68.9518 F350.00
G01 X136.9096 Y69.2746 F350.00
G01 X136.8712 Y69.3398 F350.00
G01 X136.8312 Y69.4012 F350.00
G01 X136.6224 Y69.7060 F350.00
G01 X136.5796 Y69.7655 F350.00
G01 X136.5326 Y69.8249 F350.00
G01 X136.2966 Y70.1091 F350.00
G01 X136.2485 Y70.1644 F350.00
G01 X136.1963 Y70.2192 F350.00
G01 X135.9350 Y70.4804 F350.00
G01 X135.8803 Y70.5326 F350.00
G01 X135.8249 Y70.5808 F350.00
G01 X135.5407 Y70.8168 F350.00
G01 X135.4832 Y70.8623 F350.00
G01 X135.4218 Y70.9066 F350.00
G01 X135.1170 Y71.1154 F350.00
G01 X135.0556 Y71.1554 F350.00
G01 X134.9904 Y71.1938 F350.00
G01 X134.6676 Y71.3736 F350.00
G01 X134.6007 Y71.4088 F350.00
G01 X134.5343 Y71.4400 F350.00
G01 X134.1963 Y71.5892 F350.00
G01 X134.1285 Y71.6173 F350.00
G01 X134.0574 Y71.6430 F350.00
G01 X133.7071 Y71.7604 F350.00
G01 X133.6370 Y71.7821 F350.00
G01 X133.5638 Y71.8012 F350.00
G01 X133.2042 Y71.8858 F350.00
G01 X133.1324 Y71.9009 F350.00
G01 X133.0578 Y71.9131 F350.00
G01 X132.6919 Y71.9642 F350.00
G01 X132.6190 Y71.9726 F350.00
G01 X132.5435 Y71.9779 F350.00
G01 X132.1745 Y71.9950 F350.00
G01 X132.1378 Y71.9962 F350.00
G01 X132.1000 Y71.9967 F350.00
G01 X-0.6191 Y71.9967 F350.00
G01 X-0.6592 Y71.9962 F350.00
G01 X-0.6981 Y71.9948 F350.00
G01 X-1.0901 Y71.9756 F350.00
G01 X-1.1704 Y71.9696 F350.00
G01 X-1.2478 Y71.9600 F350.00
G01 X-1.6361 Y71.9024 F350.00
G01 X-1.7153 Y71.8886 F350.00
G01 X-1.7913 Y71.8716 F350.00
G01 X-2.1721 Y71.7762 F350.00
G01 X-2.2495 Y71.7547 F350.00
G01 X-2.3235 Y71.7302 F350.00
G01 X-2.6931 Y71.5980 F350.00
G01 X-2.7681 Y71.5690 F350.00
G01 X-2.8393 Y71.5374 F350.00
G01 X-3.1942 Y71.3696 F350.00
G01 X-3.2659 Y71.3334 F350.00
G01 X-3.3337 Y71.2950 F350.00
G01 X-3.6704 Y71.0932 F350.00
G01 X-3.7383 Y71.0501 F350.00
G01 X-3.8020 Y71.0053 F350.00
G01 X-4.1173 Y70.7714 F350.00
G01 X-4.1806 Y70.7219 F350.00
G01 X-4.2396 Y70.6710 F350.00
G01 X-4.5305 Y70.4074 F350.00
G01 X-4.5886 Y70.3520 F350.00
G01 X-4.6424 Y70.2955 F350.00
G01 X-4.9060 Y70.0047 F350.00
G01 X-4.9584 Y69.9438 F350.00
G01 X-5.0064 Y69.8823 F350.00
G01 X-5.2402 Y69.5670 F350.00
G01 X-5.2864 Y69.5013 F350.00
G01 X-5.3281 Y69.4355 F350.00
G01 X-5.5299 Y69.0988 F350.00
G01 X-5.5695 Y69.0288 F350.00
G01 X-5.6045 Y68.9592 F350.00
G01 X-5.7724 Y68.6044 F350.00
G01 X-5.8049 Y68.5309 F350.00
G01 X-5.8329 Y68.4582 F350.00
G01 X-5.9652 Y68.0886 F350.00
G01 X-5.9903 Y68.0122 F350.00
G01 X-6.0111 Y67.9371 F350.00
G01 X-6.1065 Y67.5564 F350.00
G01 X-6.1240 Y67.4779 F350.00
G01 X-6.1373 Y67.4012 F350.00
G01 X-6.1949 Y67.0129 F350.00
G01 X-6.2047 Y66.9331 F350.00
G01 X-6.2104 Y66.8554 F350.00
G01 X-6.2297 Y66.4633 F350.00
G01 X-6.2317 Y66.3842 F350.00
G00 X-6.2317 Y66.3842
G01 F250.00
G01 Z-1.7000
G01 F350.00
G01 X-6.2297 Y66.4633 F350.00
G01 X-6.2104 Y66.8554 F350.00
G01 X-6.2047 Y66.9331 F350.00
G01 X-6.1949 Y67.0129 F350.00
G01 X-6.1373 Y67.4012 F350.00
G01 X-6.1240 Y67.4779 F350.00
G01 X-6.1065 Y67.5564 F350.00
G01 X-6.0111 Y67.9371 F350.00
G01 X-5.9903 Y68.0122 F350.00
G01 X-5.9652 Y68.0886 F350.00
G01 X-5.8329 Y68.4582 F350.00
G01 X-5.8049 Y68.5309 F350.00
G01 X-5.7724 Y68.6044 F350.00
G01 X-5.6045 Y68.9592 F350.00
G01 X-5.5695 Y69.0288 F350.00
G01 X-5.5299 Y69.0988 F350.00
G01 X-5.3281 Y69.4355 F350.00
G01 X-5.2864 Y69.5013 F350.00
G01 X-5.2402 Y69.5670 F350.00
G01 X-5.0064 Y69.8823 F350.00
G01 X-4.9584 Y69.9438 F350.00
G01 X-4.9060 Y70.0047 F350.00
G01 X-4.6424 Y70.2955 F350.00
G01 X-4.5886 Y70.3520 F350.00
G01 X-4.5305 Y70.4074 F350.00
G01 X-4.2396 Y70.6710 F350.00
G01 X-4.1806 Y70.7219 F350.00
G01 X-4.1173 Y70.7714 F350.00
G01 X-3.8020 Y71.0053 F350.00
G01 X-3.7383 Y71.0501 F350.00
G01 X-3.6704 Y71.0932 F350.00
G01 X-3.3337 Y71.2950 F350.00
G01 X-3.2659 Y71.3334 F350.00
G01 X-3.1942 Y71.3696 F350.00
G01 X-2.8393 Y71.5374 F350.00
G01 X-2.7681 Y71.5690 F350.00
G01 X-2.6931 Y71.5980 F350.00
G01 X-2.3235 Y71.7302 F350.00
G01 X-2.2495 Y71.7547 F350.00
G01 X-2.1721 Y71.7762 F350.00
G01 X-1.7913 Y71.8716 F350.00
G01 X-1.7153 Y71.8886 F350.00
G01 X-1.6361 Y71.9024 F350.00
G01 X-1.2478 Y71.9600 F350.00
G01 X-1.1704 Y71.9696 F350.00
G01 X-1.0901 Y71.9756 F350.00
G01 X-0.6981 Y71.9948 F350.00
G01 X-0.6592 Y71.9962 F350.00
G01 X-0.6191 Y71.9967 F350.00
G01 X132.1000 Y71.9967 F350.00
G01 X132.1378 Y71.9962 F350.00
G01 X132.1745 Y71.9950 F350.00
G01 X132.5435 Y71.9779 F350.00
G01 X132.6190 Y71.9726 F350.00
G01 X132.6919 Y71.9642 F350.00
G01 X133.0578 Y71.9131 F350.00
G01 X133.1324 Y71.9009 F350.00
G01 X133.2042 Y71.8858 F350.00
G01 X133.5638 Y71.8012 F350.00
G01 X133.6370 Y71.7821 F350.00
G01 X133.7071 Y71.7604 F350.00
G01 X134.0574 Y71.6430 F350.00
G01 X134.1285 Y71.6173 F350.00
G01 X134.1963 Y71.5892 F350.00
G01 X134.5343 Y71.4400 F350.00
G01 X134.6007 Y71.4088 F350.00
G01 X134.6676 Y71.3736 F350.00
G01 X134.9904 Y71.1938 F350.00
G01 X135.0556 Y71.1554 F350.00
G01 X135.1170 Y71.1154 F350.00
G01 X135.4218 Y70.9066 F350.00
G01 X135.4832 Y70.8623 F350.00
G01 X135.5407 Y70.8168 F350.00
G01 X135.8249 Y70.5808 F350.00
G01 X135.8803 Y70.5326 F350.00
G01 X135.9350 Y70.4804 F350.00
G01 X136.1963 Y70.2192 F350.00
G01 X136.2485 Y70.1644 F350.00
G01 X136.2966 Y70.1091 F350.00
G01 X136.5326 Y69.8249 F350.00
G01 X136.5796 Y69.7655 F350.00
G01 X136.6224 Y69.7060 F350.00
G01 X136.8312 Y69.4012 F350.00
G01 X136.8712 Y69.3398 F350.00
G01 X136.9096 Y69.2746 F350.00
G01 X137.0894 Y68.9518 F350.00
G01 X137.1246 Y68.8848 F350.00
G01 X137.1558 Y68.8185 F350.00
G01 X137.3050 Y68.4805 F350.00
G01 X137.3339 Y68.4106 F350.00
G01 X137.3588 Y68.3416 F350.00
G01 X137.4762 Y67.9913 F350.00
G01 X137.4979 Y67.9212 F350.00
G01 X137.5170 Y67.8480 F350.00
G01 X137.6016 Y67.4884 F350.00
G01 X137.6171 Y67.4143 F350.00
G01 X137.6289 Y67.3420 F350.00
G01 X137.6800 Y66.9760 F350.00
G01 X137.6886 Y66.9009 F350.00
G01 X137.6937 Y66.8278 F350.00
G01 X137.7108 Y66.4587 F350.00
G01 X137.7121 Y66.4220 F350.00
G01 X137.7125 Y66.3842 F350.00
G01 X137.7125 Y-0.5000 F350.00
G01 X137.7120 Y-0.5402 F350.00
G01 X137.7106 Y-0.5791 F350.00
G01 X137.6913 Y-0.9712 F350.00
G01 X137.6853 Y-1.0513 F350.00
G01 X137.6758 Y-1.1287 F350.00
G01 X137.6182 Y-1.5170 F350.00
G01 X137.6044 Y-1.5961 F350.00
G01 X137.5873 Y-1.6722 F350.00
G01 X137.4919 Y-2.0529 F350.00
G01 X137.4705 Y-2.1304 F350.00
G01 X137.4460 Y-2.2044 F350.00
G01 X137.3138 Y-2.5740 F350.00
G01 X137.2848 Y-2.6489 F350.00
G01 X137.2532 Y-2.7202 F350.00
G01 X137.0854 Y-3.0750 F350.00
G01 X137.0492 Y-3.1468 F350.00
G01 X137.0108 Y-3.2146 F350.00
G01 X136.8090 Y-3.5513 F350.00
G01 X136.7659 Y-3.6191 F350.00
G01 X136.7211 Y-3.6829 F350.00
G01 X136.4872 Y-3.9981 F350.00
G01 X136.4377 Y-4.0615 F350.00
G01 X136.3868 Y-4.1205 F350.00
G01 X136.1232 Y-4.4113 F350.00
G01 X136.0678 Y-4.4695 F350.00
G01 X136.0113 Y-4.5232 F350.00
G01 X135.7205 Y-4.7868 F350.00
G01 X135.6596 Y-4.8393 F350.00
G01 X135.5981 Y-4.8872 F350.00
G01 X135.2829 Y-5.1211 F350.00
G01 X135.2171 Y-5.1673 F350.00
G01 X135.1513 Y-5.2090 F350.00
G01 X134.8146 Y-5.4108 F350.00
G01 X134.7446 Y-5.4503 F350.00
G01 X134.6750 Y-5.4854 F350.00
G01 X134.3202 Y-5.6532 F350.00
G01 X134.2467 Y-5.6857 F350.00
G01 X134.1740 Y-5.7138 F350.00
G01 X133.8044 Y-5.8460 F350.00
G01 X133.7280 Y-5.8712 F350.00
G01 X133.6529 Y-5.8919 F350.00
G01 X133.2722 Y-5.9873 F350.00
G01 X133.1937 Y-6.0049 F350.00
G01 X133.1170 Y-6.0182 F350.00
G01 X132.7287 Y-6.0758 F350.00
G01 X132.6489 Y-6.0856 F350.00
G01 X132.5712 Y-6.0913 F350.00
G01 X132.1791 Y-6.1106 F350.00
G01 X132.1390 Y-6.1120 F350.00
G01 X132.1000 Y-6.1125 F350.00
G01 X-0.6191 Y-6.1125 F350.00
G01 X-0.6593 Y-6.1120 F350.00
G01 X-0.6983 Y-6.1106 F350.00
G01 X-1.0903 Y-6.0913 F350.00
G01 X-1.1705 Y-6.0853 F350.00
G01 X-1.2478 Y-6.0758 F350.00
G01 X-1.6361 Y-6.0182 F350.00
G01 X-1.7153 Y-6.0044 F350.00
G01 X-1.7913 Y-5.9873 F350.00
G01 X-2.1721 Y-5.8919 F350.00
G01 X-2.2495 Y-5.8704 F350.00
G01 X-2.3235 Y-5.8460 F350.00
G01 X-2.6931 Y-5.7138 F350.00
G01 X-2.7681 Y-5.6848 F350.00
G01 X-2.8393 Y-5.6532 F350.00
G01 X-3.1942 Y-5.4854 F350.00
G01 X-3.2659 Y-5.4492 F350.00
G01 X-3.3337 Y-5.4108 F350.00
G01 X-3.6704 Y-5.2090 F350.00
G01 X-3.7383 Y-5.1659 F350.00
G01 X-3.8020 Y-5.1210 F350.00
G01 X-4.1173 Y-4.8872 F350.00
G01 X-4.1806 Y-4.8377 F350.00
G01 X-4.2396 Y-4.7868 F350.00
G01 X-4.5304 Y-4.5232 F350.00
G01 X-4.5886 Y-4.4677 F350.00
G01 X-4.6423 Y-4.4113 F350.00
G01 X-4.9060 Y-4.1205 F350.00
G01 X-4.9584 Y-4.0596 F350.00
G01 X-5.0063 Y-3.9981 F350.00
G01 X-5.2402 Y-3.6828 F350.00
G01 X-5.2864 Y-3.6171 F350.00
G01 X-5.3281 Y-3.5513 F350.00
G01 X-5.5299 Y-3.2146 F350.00
G01 X-5.5695 Y-3.1446 F350.00
G01 X-5.6045 Y-3.0750 F350.00
G01 X-5.7723 Y-2.7202 F350.00
G01 X-5.8048 Y-2.6467 F350.00
G01 X-5.8329 Y-2.5740 F350.00
G01 X-5.9651 Y-2.2044 F350.00
G01 X-5.9896 Y-2.1304 F350.00
G01 X-6.0111 Y-2.0529 F350.00
G01 X-6.1064 Y-1.6722 F350.00
G01 X-6.1240 Y-1.5937 F350.00
G01 X-6.1373 Y-1.5170 F350.00
G01 X-6.1949 Y-1.1287 F350.00
G01 X-6.2047 Y-1.0490 F350.00
G01 X-6.2104 Y-0.9713 F350.00
G01 X-6.2297 Y-0.5793 F350.00
G01 X-6.2312 Y-0.5390 F350.00
G01 X-6.2317 Y-0.5000 F350.00
G01 X-6.2317 Y66.3842 F350.00
G00 Z0.5000
M05
G00 Z0.5000
G00 Z40.00
M5         ( spindle off )
M9         ( coolant off - ignored by Shapeoko if unused )
G28 G91 Z0 ( safe Z home )
G90        ( absolute )
G28 G91 X0 Y0 ( XY home )
G90        ( absolute )
M30        ( program end )
%
