%
(; SHAPEOKO POSTPROCESSED v1)
( Source: FRONT_0.4_ISOLATION_cnc.nc )
( Stripped: M30 only - kept T#/M6/M0/M1/MSG for Shapeoko/Carbide Motion )
( Wrapped with Shapeoko start/end blocks - mirrors 1001.nc structure )
G90        ( absolute positioning )
G17        ( XY plane select )
G21        ( mm units )
G94        ( feedrate units/min )
G28 G91 Z0 ( safe Z home - assumes machine has been homed )
G90        ( back to absolute )
G54        ( work coordinate system 1 )
M5         ( ensure spindle off at start )

(G-CODE GENERATED BY FLATCAM v8.994 - www.flatcam.org - Version Date: 2020/11/7)

(Name: FRONT_0.4_ISOLATION_cnc)
(Type: G-code from Geometry)
(Units: MM)

(Created on Friday, 26 June 2026 at 05:38)

(This preprocessor is used with a motion controller loaded with GRBL firmware.)
(It is configured to be compatible with almost any version of GRBL firmware.)

(TOOL DIAMETER: 0.4 mm)
(Feedrate_XY: 350.0 mm/min)
(Feedrate_Z: 250.0 mm/min)
(Feedrate rapids 1500.0 mm/min)

(Z_Cut: -0.05 mm)
(Z_Move: 0.5 mm)
(Z Start: None mm)
(Z End: 40.0 mm)
(X,Y End: None mm)
(Steps per circle: 64)
(Steps per circle: 64)
(Preprocessor Geometry: grbl_11)

(X range:    1.5997 ...  133.7003  mm)
(Y range:   -4.0003 ...   69.8003  mm)

(Spindle Speed: 0.0 RPM)
G21
G90
G17
G94


G01 F350.00

M5             
G00 Z40.0000
G00 X0.0000 Y0.0000                
T1 M6
(MSG, Change to Tool Dia = 0.4000)
M0
G00 Z40.0000

M03
G01 F350.00
G00 X3.5830 Y1.8476
G01 F250.00
G01 Z-0.0500
G01 F350.00
G01 X3.5991 Y1.7409 F350.00
G01 X3.6251 Y1.6361 F350.00
G01 X3.6308 Y1.6173 F350.00
G01 X3.6673 Y1.5158 F350.00
G01 X3.7177 Y1.4093 F350.00
G01 X3.7730 Y1.3166 F350.00
G01 X3.7839 Y1.3003 F350.00
G01 X3.8484 Y1.2137 F350.00
G01 X3.9207 Y1.1336 F350.00
G01 X3.9346 Y1.1197 F350.00
G01 X4.0147 Y1.0474 F350.00
G01 X4.1093 Y0.9772 F350.00
G01 X4.2103 Y0.9167 F350.00
G01 X4.3078 Y0.8703 F350.00
G01 X4.3259 Y0.8628 F350.00
G01 X4.4277 Y0.8267 F350.00
G01 X4.5419 Y0.7981 F350.00
G01 X4.6486 Y0.7820 F350.00
G01 X4.6682 Y0.7801 F350.00
G01 X4.7760 Y0.7750 F350.00
G01 X4.8838 Y0.7801 F350.00
G01 X4.9034 Y0.7820 F350.00
G01 X5.0101 Y0.7981 F350.00
G01 X5.1243 Y0.8267 F350.00
G01 X5.2261 Y0.8628 F350.00
G01 X5.2442 Y0.8703 F350.00
G01 X5.3417 Y0.9167 F350.00
G01 X5.4427 Y0.9772 F350.00
G01 X5.5295 Y1.0413 F350.00
G01 X5.5447 Y1.0538 F350.00
G01 X5.6245 Y1.1265 F350.00
G01 X5.7005 Y1.2100 F350.00
G01 X5.7097 Y1.2215 F350.00
G01 X5.7681 Y1.3003 F350.00
G01 X5.7790 Y1.3166 F350.00
G01 X5.8343 Y1.4093 F350.00
G01 X5.8847 Y1.5158 F350.00
G01 X5.9212 Y1.6173 F350.00
G01 X5.9269 Y1.6361 F350.00
G01 X5.9529 Y1.7409 F350.00
G01 X5.9697 Y1.8525 F350.00
G01 X5.9709 Y1.8672 F350.00
G01 X5.9760 Y1.9750 F350.00
G01 X5.9760 Y3.2250 F350.00
G01 X5.9709 Y3.3328 F350.00
G01 X5.9690 Y3.3524 F350.00
G01 X5.9529 Y3.4591 F350.00
G01 X5.9243 Y3.5733 F350.00
G01 X5.8847 Y3.6842 F350.00
G01 X5.8343 Y3.7907 F350.00
G01 X5.7738 Y3.8917 F350.00
G01 X5.7036 Y3.9863 F350.00
G01 X5.6245 Y4.0735 F350.00
G01 X5.5410 Y4.1495 F350.00
G01 X5.5295 Y4.1587 F350.00
G01 X5.4427 Y4.2228 F350.00
G01 X5.3417 Y4.2833 F350.00
G01 X5.2352 Y4.3337 F350.00
G01 X5.1243 Y4.3733 F350.00
G01 X5.0101 Y4.4019 F350.00
G01 X4.8936 Y4.4192 F350.00
G01 X4.7760 Y4.4250 F350.00
G01 X4.6584 Y4.4192 F350.00
G01 X4.5419 Y4.4019 F350.00
G01 X4.4277 Y4.3733 F350.00
G01 X4.3168 Y4.3337 F350.00
G01 X4.2103 Y4.2833 F350.00
G01 X4.1093 Y4.2228 F350.00
G01 X4.0147 Y4.1526 F350.00
G01 X3.9275 Y4.0735 F350.00
G01 X3.8515 Y3.9900 F350.00
G01 X3.8423 Y3.9785 F350.00
G01 X3.7839 Y3.8997 F350.00
G01 X3.7730 Y3.8834 F350.00
G01 X3.7177 Y3.7907 F350.00
G01 X3.6673 Y3.6842 F350.00
G01 X3.6308 Y3.5827 F350.00
G01 X3.6251 Y3.5639 F350.00
G01 X3.5991 Y3.4591 F350.00
G01 X3.5823 Y3.3475 F350.00
G01 X3.5811 Y3.3328 F350.00
G01 X3.5760 Y3.2250 F350.00
G01 X3.5760 Y1.9750 F350.00
G01 X3.5811 Y1.8672 F350.00
G01 X3.5830 Y1.8476 F350.00
G00 Z0.5000
G00 X3.5830 Y10.8476
G01 F250.00
G01 Z-0.0500
G01 F350.00
G01 X3.5991 Y10.7409 F350.00
G01 X3.6251 Y10.6361 F350.00
G01 X3.6308 Y10.6173 F350.00
G01 X3.6673 Y10.5158 F350.00
G01 X3.7177 Y10.4093 F350.00
G01 X3.7730 Y10.3166 F350.00
G01 X3.7839 Y10.3003 F350.00
G01 X3.8484 Y10.2137 F350.00
G01 X3.9207 Y10.1336 F350.00
G01 X3.9346 Y10.1197 F350.00
G01 X4.0147 Y10.0474 F350.00
G01 X4.1093 Y9.9772 F350.00
G01 X4.2103 Y9.9167 F350.00
G01 X4.3078 Y9.8703 F350.00
G01 X4.3259 Y9.8628 F350.00
G01 X4.4277 Y9.8267 F350.00
G01 X4.5419 Y9.7981 F350.00
G01 X4.6486 Y9.7820 F350.00
G01 X4.6682 Y9.7801 F350.00
G01 X4.7760 Y9.7750 F350.00
G01 X4.8838 Y9.7801 F350.00
G01 X4.9034 Y9.7820 F350.00
G01 X5.0101 Y9.7981 F350.00
G01 X5.1243 Y9.8267 F350.00
G01 X5.2261 Y9.8628 F350.00
G01 X5.2442 Y9.8703 F350.00
G01 X5.3417 Y9.9167 F350.00
G01 X5.4427 Y9.9772 F350.00
G01 X5.5295 Y10.0413 F350.00
G01 X5.5447 Y10.0538 F350.00
G01 X5.6245 Y10.1265 F350.00
G01 X5.7005 Y10.2100 F350.00
G01 X5.7097 Y10.2215 F350.00
G01 X5.7681 Y10.3003 F350.00
G01 X5.7790 Y10.3166 F350.00
G01 X5.8343 Y10.4093 F350.00
G01 X5.8847 Y10.5158 F350.00
G01 X5.9212 Y10.6173 F350.00
G01 X5.9269 Y10.6361 F350.00
G01 X5.9529 Y10.7409 F350.00
G01 X5.9697 Y10.8525 F350.00
G01 X5.9709 Y10.8672 F350.00
G01 X5.9760 Y10.9750 F350.00
G01 X5.9760 Y12.2250 F350.00
G01 X5.9709 Y12.3328 F350.00
G01 X5.9690 Y12.3524 F350.00
G01 X5.9529 Y12.4591 F350.00
G01 X5.9243 Y12.5733 F350.00
G01 X5.8847 Y12.6842 F350.00
G01 X5.8343 Y12.7907 F350.00
G01 X5.7738 Y12.8917 F350.00
G01 X5.7036 Y12.9863 F350.00
G01 X5.6245 Y13.0735 F350.00
G01 X5.5410 Y13.1495 F350.00
G01 X5.5295 Y13.1587 F350.00
G01 X5.4427 Y13.2228 F350.00
G01 X5.3417 Y13.2833 F350.00
G01 X5.2352 Y13.3337 F350.00
G01 X5.1243 Y13.3733 F350.00
G01 X5.0101 Y13.4019 F350.00
G01 X4.8936 Y13.4192 F350.00
G01 X4.7760 Y13.4250 F350.00
G01 X4.6584 Y13.4192 F350.00
G01 X4.5419 Y13.4019 F350.00
G01 X4.4277 Y13.3733 F350.00
G01 X4.3168 Y13.3337 F350.00
G01 X4.2103 Y13.2833 F350.00
G01 X4.1093 Y13.2228 F350.00
G01 X4.0147 Y13.1526 F350.00
G01 X3.9275 Y13.0735 F350.00
G01 X3.8515 Y12.9900 F350.00
G01 X3.8423 Y12.9785 F350.00
G01 X3.7839 Y12.8997 F350.00
G01 X3.7730 Y12.8834 F350.00
G01 X3.7177 Y12.7907 F350.00
G01 X3.6673 Y12.6842 F350.00
G01 X3.6308 Y12.5827 F350.00
G01 X3.6251 Y12.5639 F350.00
G01 X3.5991 Y12.4591 F350.00
G01 X3.5823 Y12.3475 F350.00
G01 X3.5811 Y12.3328 F350.00
G01 X3.5760 Y12.2250 F350.00
G01 X3.5760 Y10.9750 F350.00
G01 X3.5811 Y10.8672 F350.00
G01 X3.5830 Y10.8476 F350.00
G00 Z0.5000
G00 X1.6000 Y18.0402
G01 F250.00
G01 Z-0.0500
G01 F350.00
G01 X1.6031 Y17.9814 F350.00
G01 X1.6132 Y17.9134 F350.00
G01 X1.6299 Y17.8467 F350.00
G01 X1.6495 Y17.7912 F350.00
G01 X1.6550 Y17.7775 F350.00
G01 X1.6780 Y17.7287 F350.00
G01 X1.6873 Y17.7114 F350.00
G01 X1.7178 Y17.6610 F350.00
G01 X1.7587 Y17.6058 F350.00
G01 X1.8048 Y17.5548 F350.00
G01 X1.8558 Y17.5087 F350.00
G01 X1.9110 Y17.4678 F350.00
G01 X1.9614 Y17.4373 F350.00
G01 X1.9787 Y17.4280 F350.00
G01 X2.0275 Y17.4050 F350.00
G01 X2.0412 Y17.3995 F350.00
G01 X2.0967 Y17.3799 F350.00
G01 X2.1538 Y17.3654 F350.00
G01 X2.1682 Y17.3623 F350.00
G01 X2.2314 Y17.3531 F350.00
G01 X2.3000 Y17.3497 F350.00
G01 X5.7099 Y17.3497 F350.00
G01 X6.6157 Y16.4439 F350.00
G01 X6.6157 Y13.1982 F350.00
G01 X6.5625 Y13.1587 F350.00
G01 X6.5510 Y13.1495 F350.00
G01 X6.4746 Y13.0803 F350.00
G01 X6.4640 Y13.0700 F350.00
G01 X6.3884 Y12.9863 F350.00
G01 X6.3239 Y12.8997 F350.00
G01 X6.3156 Y12.8876 F350.00
G01 X6.2577 Y12.7907 F350.00
G01 X6.2073 Y12.6842 F350.00
G01 X6.1677 Y12.5733 F350.00
G01 X6.1412 Y12.4687 F350.00
G01 X6.1382 Y12.4543 F350.00
G01 X6.1218 Y12.3426 F350.00
G01 X6.1161 Y12.2299 F350.00
G01 X6.1161 Y10.9701 F350.00
G01 X6.1218 Y10.8574 F350.00
G01 X6.1374 Y10.7506 F350.00
G01 X6.1412 Y10.7313 F350.00
G01 X6.1677 Y10.6267 F350.00
G01 X6.2073 Y10.5158 F350.00
G01 X6.2577 Y10.4093 F350.00
G01 X6.3182 Y10.3083 F350.00
G01 X6.3884 Y10.2137 F350.00
G01 X6.4675 Y10.1265 F350.00
G01 X6.5547 Y10.0474 F350.00
G01 X6.6493 Y9.9772 F350.00
G01 X6.7460 Y9.9191 F350.00
G01 X6.7591 Y9.9123 F350.00
G01 X6.8568 Y9.8663 F350.00
G01 X6.9677 Y9.8267 F350.00
G01 X7.0819 Y9.7981 F350.00
G01 X7.1935 Y9.7813 F350.00
G01 X7.2082 Y9.7801 F350.00
G01 X7.3160 Y9.7750 F350.00
G01 X7.4287 Y9.7804 F350.00
G01 X7.4434 Y9.7820 F350.00
G01 X7.5453 Y9.7972 F350.00
G01 X7.5597 Y9.8002 F350.00
G01 X7.5995 Y9.8102 F350.00
G01 X9.0084 Y8.4014 F350.00
G01 X9.0558 Y8.3587 F350.00
G01 X9.1029 Y8.3234 F350.00
G01 X9.1193 Y8.3125 F350.00
G01 X9.1656 Y8.2848 F350.00
G01 X9.1787 Y8.2780 F350.00
G01 X9.2320 Y8.2531 F350.00
G01 X9.2874 Y8.2330 F350.00
G01 X9.3062 Y8.2273 F350.00
G01 X9.3634 Y8.2132 F350.00
G01 X9.4216 Y8.2043 F350.00
G01 X9.4412 Y8.2024 F350.00
G01 X9.5000 Y8.1997 F350.00
G01 X17.6049 Y8.1998 F350.00
G01 X17.6686 Y8.2031 F350.00
G01 X17.7366 Y8.2132 F350.00
G01 X17.8033 Y8.2299 F350.00
G01 X17.8588 Y8.2495 F350.00
G01 X17.8769 Y8.2570 F350.00
G01 X17.9301 Y8.2824 F350.00
G01 X17.9807 Y8.3125 F350.00
G01 X17.9931 Y8.3205 F350.00
G01 X18.0365 Y8.3527 F350.00
G01 X18.0517 Y8.3651 F350.00
G01 X18.0952 Y8.4048 F350.00
G01 X18.1381 Y8.4520 F350.00
G01 X18.1473 Y8.4635 F350.00
G01 X18.1822 Y8.5110 F350.00
G01 X18.2127 Y8.5614 F350.00
G01 X18.2220 Y8.5787 F350.00
G01 X18.2450 Y8.6275 F350.00
G01 X18.2505 Y8.6412 F350.00
G01 X18.2701 Y8.6967 F350.00
G01 X18.2868 Y8.7634 F350.00
G01 X18.2969 Y8.8314 F350.00
G01 X18.3002 Y8.8951 F350.00
G01 X18.3003 Y19.4500 F350.00
G01 X18.2969 Y19.5186 F350.00
G01 X18.2885 Y19.5769 F350.00
G01 X18.2858 Y19.5914 F350.00
G01 X18.2701 Y19.6533 F350.00
G01 X18.2505 Y19.7088 F350.00
G01 X18.2430 Y19.7269 F350.00
G01 X18.2176 Y19.7801 F350.00
G01 X18.1875 Y19.8307 F350.00
G01 X18.1766 Y19.8471 F350.00
G01 X18.1413 Y19.8942 F350.00
G01 X18.0986 Y19.9416 F350.00
G01 X13.7003 Y24.3401 F350.00
G01 X13.7003 Y24.6178 F350.00
G01 X13.7293 Y24.6222 F350.00
G01 X13.7389 Y24.6241 F350.00
G01 X13.8389 Y24.6491 F350.00
G01 X13.8530 Y24.6532 F350.00
G01 X13.9592 Y24.6913 F350.00
G01 X14.0613 Y24.7394 F350.00
G01 X14.0742 Y24.7465 F350.00
G01 X14.1584 Y24.7970 F350.00
G01 X14.1747 Y24.8079 F350.00
G01 X14.2613 Y24.8724 F350.00
G01 X14.3450 Y24.9480 F350.00
G01 X14.3553 Y24.9586 F350.00
G01 X14.4212 Y25.0313 F350.00
G01 X14.4337 Y25.0465 F350.00
G01 X14.4978 Y25.1333 F350.00
G01 X14.5583 Y25.2343 F350.00
G01 X14.6047 Y25.3318 F350.00
G01 X14.6122 Y25.3499 F350.00
G01 X14.6483 Y25.4517 F350.00
G01 X14.6769 Y25.5659 F350.00
G01 X14.6930 Y25.6726 F350.00
G01 X14.6949 Y25.6922 F350.00
G01 X14.7000 Y25.8000 F350.00
G01 X14.6942 Y25.9176 F350.00
G01 X14.6769 Y26.0341 F350.00
G01 X14.6509 Y26.1389 F350.00
G01 X14.6452 Y26.1577 F350.00
G01 X14.6087 Y26.2592 F350.00
G01 X14.5627 Y26.3569 F350.00
G01 X14.5535 Y26.3742 F350.00
G01 X14.4978 Y26.4667 F350.00
G01 X14.4276 Y26.5613 F350.00
G01 X14.3553 Y26.6414 F350.00
G01 X14.3414 Y26.6553 F350.00
G01 X14.2613 Y26.7276 F350.00
G01 X14.1667 Y26.7978 F350.00
G01 X14.0742 Y26.8535 F350.00
G01 X14.0569 Y26.8627 F350.00
G01 X13.9592 Y26.9087 F350.00
G01 X13.8577 Y26.9452 F350.00
G01 X13.8389 Y26.9509 F350.00
G01 X13.7341 Y26.9769 F350.00
G01 X13.6274 Y26.9930 F350.00
G01 X13.6078 Y26.9949 F350.00
G01 X13.5000 Y27.0000 F350.00
G01 X12.5000 Y27.0000 F350.00
G01 X12.3922 Y26.9949 F350.00
G01 X12.3726 Y26.9930 F350.00
G01 X12.2756 Y26.9786 F350.00
G01 X12.2563 Y26.9748 F350.00
G01 X12.1517 Y26.9483 F350.00
G01 X12.0499 Y26.9122 F350.00
G01 X12.0363 Y26.9067 F350.00
G01 X11.9343 Y26.8583 F350.00
G01 X11.8333 Y26.7978 F350.00
G01 X11.7387 Y26.7276 F350.00
G01 X11.6586 Y26.6553 F350.00
G01 X11.6447 Y26.6414 F350.00
G01 X11.5788 Y26.5687 F350.00
G01 X11.5663 Y26.5535 F350.00
G01 X11.5022 Y26.4667 F350.00
G01 X11.4417 Y26.3657 F350.00
G01 X11.3913 Y26.2592 F350.00
G01 X11.3548 Y26.1577 F350.00
G01 X11.3491 Y26.1389 F350.00
G01 X11.3252 Y26.0437 F350.00
G01 X11.3214 Y26.0244 F350.00
G01 X11.3058 Y25.9176 F350.00
G01 X11.3000 Y25.8000 F350.00
G01 X11.3058 Y25.6824 F350.00
G01 X11.3214 Y25.5756 F350.00
G01 X11.3252 Y25.5563 F350.00
G01 X11.3491 Y25.4611 F350.00
G01 X11.3548 Y25.4423 F350.00
G01 X11.3913 Y25.3408 F350.00
G01 X11.4417 Y25.2343 F350.00
G01 X11.5022 Y25.1333 F350.00
G01 X11.5663 Y25.0465 F350.00
G01 X11.5788 Y25.0313 F350.00
G01 X11.6515 Y24.9515 F350.00
G01 X11.7387 Y24.8724 F350.00
G01 X11.8253 Y24.8079 F350.00
G01 X11.8416 Y24.7970 F350.00
G01 X11.9258 Y24.7465 F350.00
G01 X11.9387 Y24.7394 F350.00
G01 X12.0408 Y24.6913 F350.00
G01 X12.1470 Y24.6532 F350.00
G01 X12.1611 Y24.6491 F350.00
G01 X12.2611 Y24.6241 F350.00
G01 X12.2707 Y24.6222 F350.00
G01 X12.2997 Y24.6178 F350.00
G01 X12.2998 Y24.0451 F350.00
G01 X12.3031 Y23.9814 F350.00
G01 X12.3115 Y23.9231 F350.00
G01 X12.3154 Y23.9038 F350.00
G01 X12.3299 Y23.8467 F350.00
G01 X12.3495 Y23.7912 F350.00
G01 X12.3570 Y23.7731 F350.00
G01 X12.3824 Y23.7199 F350.00
G01 X12.4125 Y23.6693 F350.00
G01 X12.4234 Y23.6529 F350.00
G01 X12.4527 Y23.6135 F350.00
G01 X12.4619 Y23.6020 F350.00
G01 X12.5048 Y23.5548 F350.00
G01 X16.8997 Y19.1599 F350.00
G01 X16.8997 Y9.6003 F350.00
G01 X9.7901 Y9.6003 F350.00
G01 X8.5115 Y10.8788 F350.00
G01 X8.5160 Y10.9750 F350.00
G01 X8.5159 Y12.2299 F350.00
G01 X8.5102 Y12.3426 F350.00
G01 X8.4946 Y12.4494 F350.00
G01 X8.4919 Y12.4639 F350.00
G01 X8.4643 Y12.5733 F350.00
G01 X8.4247 Y12.6842 F350.00
G01 X8.3743 Y12.7907 F350.00
G01 X8.3164 Y12.8876 F350.00
G01 X8.3081 Y12.8997 F350.00
G01 X8.2436 Y12.9863 F350.00
G01 X8.1680 Y13.0700 F350.00
G01 X8.1574 Y13.0803 F350.00
G01 X8.0810 Y13.1495 F350.00
G01 X8.0695 Y13.1587 F350.00
G01 X8.0163 Y13.1982 F350.00
G01 X8.0160 Y16.7438 F350.00
G01 X8.0129 Y16.8026 F350.00
G01 X8.0028 Y16.8706 F350.00
G01 X7.9861 Y16.9373 F350.00
G01 X7.9665 Y16.9928 F350.00
G01 X7.9590 Y17.0109 F350.00
G01 X7.9380 Y17.0553 F350.00
G01 X7.9312 Y17.0684 F350.00
G01 X7.8982 Y17.1230 F350.00
G01 X7.8633 Y17.1705 F350.00
G01 X7.8509 Y17.1857 F350.00
G01 X7.8112 Y17.2292 F350.00
G01 X6.4916 Y18.5486 F350.00
G01 X6.4442 Y18.5913 F350.00
G01 X6.3971 Y18.6266 F350.00
G01 X6.3807 Y18.6375 F350.00
G01 X6.3301 Y18.6676 F350.00
G01 X6.2769 Y18.6930 F350.00
G01 X6.2588 Y18.7005 F350.00
G01 X6.2080 Y18.7186 F350.00
G01 X6.1938 Y18.7227 F350.00
G01 X6.1462 Y18.7346 F350.00
G01 X6.1269 Y18.7385 F350.00
G01 X6.0686 Y18.7469 F350.00
G01 X6.0000 Y18.7503 F350.00
G01 X3.0003 Y18.7503 F350.00
G01 X3.0003 Y36.0997 F350.00
G01 X3.4715 Y36.0997 F350.00
G01 X3.4844 Y36.0881 F350.00
G01 X3.4920 Y36.0819 F350.00
G01 X3.5531 Y36.0365 F350.00
G01 X3.5652 Y36.0282 F350.00
G01 X3.6390 Y35.9842 F350.00
G01 X3.7210 Y35.9454 F350.00
G01 X3.8065 Y35.9148 F350.00
G01 X3.8850 Y35.8949 F350.00
G01 X3.9042 Y35.8911 F350.00
G01 X3.9746 Y35.8807 F350.00
G01 X3.9892 Y35.8790 F350.00
G01 X4.0750 Y35.8750 F350.00
G01 X6.6299 Y35.8751 F350.00
G01 X6.7157 Y35.8795 F350.00
G01 X6.7958 Y35.8911 F350.00
G01 X6.8150 Y35.8949 F350.00
G01 X6.8935 Y35.9148 F350.00
G01 X6.9698 Y35.9419 F350.00
G01 X6.9880 Y35.9494 F350.00
G01 X7.0610 Y35.9842 F350.00
G01 X7.1348 Y36.0282 F350.00
G01 X7.1469 Y36.0365 F350.00
G01 X7.2041 Y36.0789 F350.00
G01 X7.2192 Y36.0914 F350.00
G01 X7.2791 Y36.1459 F350.00
G01 X7.3369 Y36.2094 F350.00
G01 X7.3461 Y36.2209 F350.00
G01 X7.3885 Y36.2781 F350.00
G01 X7.3968 Y36.2902 F350.00
G01 X7.4384 Y36.3597 F350.00
G01 X7.4452 Y36.3727 F350.00
G01 X7.4580 Y36.3997 F350.00
G01 X14.4488 Y36.3997 F350.00
G01 X14.4696 Y36.3924 F350.00
G01 X14.4789 Y36.3895 F350.00
G01 X14.5551 Y36.3704 F350.00
G01 X14.5695 Y36.3674 F350.00
G01 X14.6569 Y36.3546 F350.00
G01 X14.7451 Y36.3501 F350.00
G01 X16.2549 Y36.3501 F350.00
G01 X16.3431 Y36.3546 F350.00
G01 X16.4257 Y36.3666 F350.00
G01 X16.4449 Y36.3704 F350.00
G01 X16.5163 Y36.3883 F350.00
G01 X16.5351 Y36.3940 F350.00
G01 X16.6135 Y36.4223 F350.00
G01 X16.6978 Y36.4622 F350.00
G01 X16.7778 Y36.5101 F350.00
G01 X16.8488 Y36.5626 F350.00
G01 X16.8601 Y36.5721 F350.00
G01 X16.9146 Y36.6215 F350.00
G01 X16.9285 Y36.6354 F350.00
G01 X16.9844 Y36.6973 F350.00
G01 X17.0342 Y36.7642 F350.00
G01 X17.0451 Y36.7805 F350.00
G01 X17.0878 Y36.8522 F350.00
G01 X17.1237 Y36.9275 F350.00
G01 X17.1312 Y36.9456 F350.00
G01 X17.1591 Y37.0242 F350.00
G01 X17.1796 Y37.1051 F350.00
G01 X17.1834 Y37.1243 F350.00
G01 X17.1954 Y37.2069 F350.00
G01 X17.2000 Y37.3000 F350.00
G01 X17.1961 Y37.3833 F350.00
G01 X17.1942 Y37.4029 F350.00
G01 X17.1817 Y37.4853 F350.00
G01 X17.1591 Y37.5758 F350.00
G01 X17.1277 Y37.6635 F350.00
G01 X17.0878 Y37.7478 F350.00
G01 X17.0451 Y37.8195 F350.00
G01 X17.0342 Y37.8358 F350.00
G01 X16.9904 Y37.8949 F350.00
G01 X16.9779 Y37.9101 F350.00
G01 X16.9218 Y37.9718 F350.00
G01 X16.8601 Y38.0279 F350.00
G01 X16.8488 Y38.0374 F350.00
G01 X16.7778 Y38.0899 F350.00
G01 X16.6978 Y38.1378 F350.00
G01 X16.6135 Y38.1777 F350.00
G01 X16.5304 Y38.2076 F350.00
G01 X16.5163 Y38.2117 F350.00
G01 X16.4353 Y38.2317 F350.00
G01 X16.3480 Y38.2449 F350.00
G01 X16.3333 Y38.2461 F350.00
G01 X16.2549 Y38.2499 F350.00
G01 X16.2003 Y38.2500 F350.00
G01 X16.2003 Y39.7599 F350.00
G01 X44.8401 Y68.3997 F350.00
G01 X96.3999 Y68.3997 F350.00
G01 X104.1825 Y60.6172 F350.00
G01 X104.1773 Y60.6069 F350.00
G01 X104.1313 Y60.5092 F350.00
G01 X104.0917 Y60.3983 F350.00
G01 X104.0631 Y60.2841 F350.00
G01 X104.0470 Y60.1774 F350.00
G01 X104.0451 Y60.1578 F350.00
G01 X104.0400 Y60.0500 F350.00
G01 X104.0451 Y59.9422 F350.00
G01 X104.0470 Y59.9226 F350.00
G01 X104.0631 Y59.8159 F350.00
G01 X104.0891 Y59.7111 F350.00
G01 X104.0948 Y59.6923 F350.00
G01 X104.1278 Y59.5999 F350.00
G01 X104.1353 Y59.5818 F350.00
G01 X104.1817 Y59.4843 F350.00
G01 X104.2422 Y59.3833 F350.00
G01 X104.3124 Y59.2887 F350.00
G01 X104.3915 Y59.2015 F350.00
G01 X104.4787 Y59.1224 F350.00
G01 X104.5733 Y59.0522 F350.00
G01 X104.6743 Y58.9917 F350.00
G01 X104.7718 Y58.9453 F350.00
G01 X104.7896 Y58.9379 F350.00
G01 X104.7896 Y57.4121 F350.00
G01 X104.7718 Y57.4047 F350.00
G01 X104.6831 Y57.3627 F350.00
G01 X104.6658 Y57.3535 F350.00
G01 X104.5733 Y57.2978 F350.00
G01 X104.4787 Y57.2276 F350.00
G01 X104.3915 Y57.1485 F350.00
G01 X104.3188 Y57.0687 F350.00
G01 X104.3063 Y57.0535 F350.00
G01 X104.2479 Y56.9747 F350.00
G01 X104.2370 Y56.9584 F350.00
G01 X104.1817 Y56.8657 F350.00
G01 X104.1313 Y56.7592 F350.00
G01 X104.0917 Y56.6483 F350.00
G01 X104.0652 Y56.5437 F350.00
G01 X104.0614 Y56.5244 F350.00
G01 X104.0470 Y56.4274 F350.00
G01 X104.0451 Y56.4078 F350.00
G01 X104.0400 Y56.3000 F350.00
G01 X104.0458 Y56.1824 F350.00
G01 X104.0631 Y56.0659 F350.00
G01 X104.0891 Y55.9611 F350.00
G01 X104.0948 Y55.9423 F350.00
G01 X104.1313 Y55.8408 F350.00
G01 X104.1773 Y55.7431 F350.00
G01 X104.1865 Y55.7258 F350.00
G01 X104.2422 Y55.6333 F350.00
G01 X104.3063 Y55.5465 F350.00
G01 X104.3188 Y55.5313 F350.00
G01 X104.3915 Y55.4515 F350.00
G01 X104.4713 Y55.3788 F350.00
G01 X104.4865 Y55.3663 F350.00
G01 X104.5733 Y55.3022 F350.00
G01 X104.6658 Y55.2465 F350.00
G01 X104.6831 Y55.2373 F350.00
G01 X104.7718 Y55.1953 F350.00
G01 X104.7896 Y55.1879 F350.00
G01 X104.7896 Y53.6582 F350.00
G01 X104.6843 Y53.6083 F350.00
G01 X104.5916 Y53.5530 F350.00
G01 X104.5753 Y53.5421 F350.00
G01 X104.4887 Y53.4776 F350.00
G01 X104.4015 Y53.3985 F350.00
G01 X104.3288 Y53.3187 F350.00
G01 X104.3163 Y53.3035 F350.00
G01 X104.2579 Y53.2247 F350.00
G01 X104.2470 Y53.2084 F350.00
G01 X104.1917 Y53.1157 F350.00
G01 X104.1453 Y53.0182 F350.00
G01 X104.1378 Y53.0001 F350.00
G01 X104.1048 Y52.9077 F350.00
G01 X104.0991 Y52.8889 F350.00
G01 X104.0731 Y52.7841 F350.00
G01 X104.0558 Y52.6676 F350.00
G01 X104.0500 Y52.5500 F350.00
G01 X104.0551 Y52.4422 F350.00
G01 X104.0570 Y52.4226 F350.00
G01 X104.0731 Y52.3159 F350.00
G01 X104.0991 Y52.2111 F350.00
G01 X104.1048 Y52.1923 F350.00
G01 X104.1413 Y52.0908 F350.00
G01 X104.1873 Y51.9931 F350.00
G01 X104.1965 Y51.9758 F350.00
G01 X104.2522 Y51.8833 F350.00
G01 X104.3224 Y51.7887 F350.00
G01 X104.3947 Y51.7086 F350.00
G01 X104.4086 Y51.6947 F350.00
G01 X104.4887 Y51.6224 F350.00
G01 X104.5753 Y51.5579 F350.00
G01 X104.5916 Y51.5470 F350.00
G01 X104.6843 Y51.4917 F350.00
G01 X104.7908 Y51.4413 F350.00
G01 X104.9017 Y51.4017 F350.00
G01 X105.0159 Y51.3731 F350.00
G01 X105.1226 Y51.3570 F350.00
G01 X105.1373 Y51.3554 F350.00
G01 X105.2500 Y51.3500 F350.00
G01 X106.2500 Y51.3500 F350.00
G01 X106.3578 Y51.3551 F350.00
G01 X106.3774 Y51.3570 F350.00
G01 X106.4841 Y51.3731 F350.00
G01 X106.5983 Y51.4017 F350.00
G01 X106.7092 Y51.4413 F350.00
G01 X106.8069 Y51.4873 F350.00
G01 X106.8200 Y51.4941 F350.00
G01 X106.9167 Y51.5522 F350.00
G01 X107.0035 Y51.6163 F350.00
G01 X107.0150 Y51.6255 F350.00
G01 X107.0914 Y51.6947 F350.00
G01 X107.1053 Y51.7086 F350.00
G01 X107.1776 Y51.7887 F350.00
G01 X107.2232 Y51.8497 F350.00
G01 X128.2099 Y51.8497 F350.00
G01 X132.2997 Y47.7599 F350.00
G01 X132.2997 Y25.5901 F350.00
G01 X131.2099 Y24.5003 F350.00
G01 X125.4902 Y24.5000 F350.00
G01 X125.4363 Y24.4973 F350.00
G01 X125.4216 Y24.4957 F350.00
G01 X125.3634 Y24.4868 F350.00
G01 X125.3062 Y24.4727 F350.00
G01 X125.2874 Y24.4670 F350.00
G01 X125.2320 Y24.4469 F350.00
G01 X125.1743 Y24.4198 F350.00
G01 X125.1614 Y24.4127 F350.00
G01 X125.1110 Y24.3822 F350.00
G01 X125.0635 Y24.3473 F350.00
G01 X125.0520 Y24.3381 F350.00
G01 X125.0084 Y24.2986 F350.00
G01 X124.9648 Y24.2552 F350.00
G01 X124.9187 Y24.2042 F350.00
G01 X124.8834 Y24.1571 F350.00
G01 X124.8725 Y24.1407 F350.00
G01 X124.8424 Y24.0901 F350.00
G01 X124.8131 Y24.0280 F350.00
G01 X124.7899 Y23.9633 F350.00
G01 X124.7754 Y23.9062 F350.00
G01 X124.7723 Y23.8918 F350.00
G01 X124.7643 Y23.8384 F350.00
G01 X124.7624 Y23.8188 F350.00
G01 X124.7597 Y23.7600 F350.00
G01 X124.7597 Y21.0000 F350.00
G01 X124.4551 Y20.9999 F350.00
G01 X124.4355 Y20.9985 F350.00
G01 X124.4210 Y20.9962 F350.00
G01 X124.4067 Y20.9928 F350.00
G01 X124.3880 Y20.9866 F350.00
G01 X124.3745 Y20.9808 F350.00
G01 X124.3614 Y20.9740 F350.00
G01 X124.3489 Y20.9663 F350.00
G01 X124.3370 Y20.9577 F350.00
G01 X124.3257 Y20.9482 F350.00
G01 X124.3152 Y20.9379 F350.00
G01 X124.3054 Y20.9269 F350.00
G01 X124.2965 Y20.9152 F350.00
G01 X124.2885 Y20.9028 F350.00
G01 X124.2814 Y20.8899 F350.00
G01 X124.2752 Y20.8765 F350.00
G01 X124.2701 Y20.8627 F350.00
G01 X124.2660 Y20.8486 F350.00
G01 X124.2629 Y20.8342 F350.00
G01 X124.2610 Y20.8196 F350.00
G01 X124.2601 Y20.8049 F350.00
G01 X124.2600 Y17.8000 F350.00
G01 X124.2610 Y17.7804 F350.00
G01 X124.2629 Y17.7658 F350.00
G01 X124.2660 Y17.7514 F350.00
G01 X124.2701 Y17.7373 F350.00
G01 X124.2752 Y17.7235 F350.00
G01 X124.2792 Y17.7145 F350.00
G01 X124.2860 Y17.7014 F350.00
G01 X124.2937 Y17.6889 F350.00
G01 X124.3023 Y17.6770 F350.00
G01 X124.3118 Y17.6657 F350.00
G01 X124.3221 Y17.6552 F350.00
G01 X124.3331 Y17.6454 F350.00
G01 X124.3448 Y17.6365 F350.00
G01 X124.3572 Y17.6285 F350.00
G01 X124.3701 Y17.6214 F350.00
G01 X124.3835 Y17.6152 F350.00
G01 X124.3926 Y17.6117 F350.00
G01 X124.4067 Y17.6072 F350.00
G01 X124.4210 Y17.6038 F350.00
G01 X124.4355 Y17.6015 F350.00
G01 X124.4551 Y17.6001 F350.00
G01 X124.7597 Y17.6000 F350.00
G01 X124.7597 Y16.2003 F350.00
G01 X118.2853 Y16.2003 F350.00
G01 X118.2853 Y17.6000 F350.00
G01 X118.5899 Y17.6001 F350.00
G01 X118.6046 Y17.6010 F350.00
G01 X118.6192 Y17.6029 F350.00
G01 X118.6336 Y17.6060 F350.00
G01 X118.6524 Y17.6117 F350.00
G01 X118.6660 Y17.6172 F350.00
G01 X118.6793 Y17.6236 F350.00
G01 X118.6920 Y17.6310 F350.00
G01 X118.7041 Y17.6394 F350.00
G01 X118.7156 Y17.6486 F350.00
G01 X118.7264 Y17.6586 F350.00
G01 X118.7364 Y17.6694 F350.00
G01 X118.7456 Y17.6809 F350.00
G01 X118.7540 Y17.6930 F350.00
G01 X118.7590 Y17.7014 F350.00
G01 X118.7658 Y17.7145 F350.00
G01 X118.7716 Y17.7280 F350.00
G01 X118.7764 Y17.7419 F350.00
G01 X118.7801 Y17.7562 F350.00
G01 X118.7828 Y17.7707 F350.00
G01 X118.7845 Y17.7853 F350.00
G01 X118.7850 Y17.8000 F350.00
G01 X118.7850 Y20.8000 F350.00
G01 X118.7845 Y20.8147 F350.00
G01 X118.7821 Y20.8342 F350.00
G01 X118.7778 Y20.8533 F350.00
G01 X118.7716 Y20.8720 F350.00
G01 X118.7636 Y20.8899 F350.00
G01 X118.7540 Y20.9070 F350.00
G01 X118.7427 Y20.9230 F350.00
G01 X118.7332 Y20.9343 F350.00
G01 X118.7193 Y20.9482 F350.00
G01 X118.7041 Y20.9606 F350.00
G01 X118.6878 Y20.9715 F350.00
G01 X118.6705 Y20.9808 F350.00
G01 X118.6570 Y20.9866 F350.00
G01 X118.6431 Y20.9914 F350.00
G01 X118.6240 Y20.9962 F350.00
G01 X118.6046 Y20.9990 F350.00
G01 X118.5850 Y21.0000 F350.00
G01 X116.5752 Y20.9998 F350.00
G01 X116.5605 Y20.9985 F350.00
G01 X116.5460 Y20.9962 F350.00
G01 X116.5317 Y20.9928 F350.00
G01 X116.5176 Y20.9883 F350.00
G01 X116.5040 Y20.9828 F350.00
G01 X116.4907 Y20.9764 F350.00
G01 X116.4780 Y20.9690 F350.00
G01 X116.4659 Y20.9606 F350.00
G01 X116.4544 Y20.9514 F350.00
G01 X116.4436 Y20.9414 F350.00
G01 X116.4336 Y20.9306 F350.00
G01 X116.4244 Y20.9191 F350.00
G01 X116.4160 Y20.9070 F350.00
G01 X116.4086 Y20.8943 F350.00
G01 X116.4022 Y20.8810 F350.00
G01 X116.3967 Y20.8674 F350.00
G01 X116.3922 Y20.8533 F350.00
G01 X116.3879 Y20.8342 F350.00
G01 X116.3855 Y20.8147 F350.00
G01 X116.3850 Y20.8000 F350.00
G01 X116.3850 Y17.8000 F350.00
G01 X116.3860 Y17.7804 F350.00
G01 X116.3879 Y17.7658 F350.00
G01 X116.3910 Y17.7514 F350.00
G01 X116.3951 Y17.7373 F350.00
G01 X116.4002 Y17.7235 F350.00
G01 X116.4042 Y17.7145 F350.00
G01 X116.4110 Y17.7014 F350.00
G01 X116.4187 Y17.6889 F350.00
G01 X116.4273 Y17.6770 F350.00
G01 X116.4368 Y17.6657 F350.00
G01 X116.4471 Y17.6552 F350.00
G01 X116.4581 Y17.6454 F350.00
G01 X116.4698 Y17.6365 F350.00
G01 X116.4822 Y17.6285 F350.00
G01 X116.4951 Y17.6214 F350.00
G01 X116.5085 Y17.6152 F350.00
G01 X116.5176 Y17.6117 F350.00
G01 X116.5317 Y17.6072 F350.00
G01 X116.5460 Y17.6038 F350.00
G01 X116.5605 Y17.6015 F350.00
G01 X116.5801 Y17.6001 F350.00
G01 X116.8847 Y17.6000 F350.00
G01 X116.8847 Y16.2003 F350.00
G01 X110.4103 Y16.2003 F350.00
G01 X110.4103 Y17.6000 F350.00
G01 X110.7149 Y17.6001 F350.00
G01 X110.7296 Y17.6010 F350.00
G01 X110.7442 Y17.6029 F350.00
G01 X110.7586 Y17.6060 F350.00
G01 X110.7774 Y17.6117 F350.00
G01 X110.7910 Y17.6172 F350.00
G01 X110.8043 Y17.6236 F350.00
G01 X110.8170 Y17.6310 F350.00
G01 X110.8291 Y17.6394 F350.00
G01 X110.8406 Y17.6486 F350.00
G01 X110.8514 Y17.6586 F350.00
G01 X110.8614 Y17.6694 F350.00
G01 X110.8677 Y17.6770 F350.00
G01 X110.8763 Y17.6889 F350.00
G01 X110.8840 Y17.7014 F350.00
G01 X110.8908 Y17.7145 F350.00
G01 X110.8966 Y17.7280 F350.00
G01 X110.9014 Y17.7419 F350.00
G01 X110.9040 Y17.7514 F350.00
G01 X110.9071 Y17.7658 F350.00
G01 X110.9090 Y17.7804 F350.00
G01 X110.9100 Y17.8000 F350.00
G01 X110.9099 Y20.8049 F350.00
G01 X110.9085 Y20.8245 F350.00
G01 X110.9062 Y20.8390 F350.00
G01 X110.9040 Y20.8486 F350.00
G01 X110.8983 Y20.8674 F350.00
G01 X110.8908 Y20.8855 F350.00
G01 X110.8815 Y20.9028 F350.00
G01 X110.8763 Y20.9111 F350.00
G01 X110.8677 Y20.9230 F350.00
G01 X110.8548 Y20.9379 F350.00
G01 X110.8479 Y20.9448 F350.00
G01 X110.8369 Y20.9546 F350.00
G01 X110.8252 Y20.9635 F350.00
G01 X110.8128 Y20.9715 F350.00
G01 X110.7955 Y20.9808 F350.00
G01 X110.7820 Y20.9866 F350.00
G01 X110.7633 Y20.9928 F350.00
G01 X110.7490 Y20.9962 F350.00
G01 X110.7296 Y20.9990 F350.00
G01 X110.7149 Y20.9999 F350.00
G01 X109.0003 Y21.0000 F350.00
G01 X107.2080 Y22.7919 F350.00
G01 X107.1642 Y22.8313 F350.00
G01 X107.1171 Y22.8666 F350.00
G01 X107.1007 Y22.8775 F350.00
G01 X107.0501 Y22.9076 F350.00
G01 X106.9880 Y22.9369 F350.00
G01 X106.9326 Y22.9570 F350.00
G01 X106.9138 Y22.9627 F350.00
G01 X106.8662 Y22.9746 F350.00
G01 X106.8518 Y22.9777 F350.00
G01 X106.7886 Y22.9869 F350.00
G01 X106.7200 Y22.9903 F350.00
G01 X99.1001 Y22.9903 F350.00
G01 X87.5952 Y34.4952 F350.00
G01 X87.5517 Y34.5349 F350.00
G01 X87.5365 Y34.5473 F350.00
G01 X87.4890 Y34.5822 F350.00
G01 X87.4344 Y34.6152 F350.00
G01 X87.4213 Y34.6220 F350.00
G01 X87.3680 Y34.6469 F350.00
G01 X87.3126 Y34.6670 F350.00
G01 X87.2938 Y34.6727 F350.00
G01 X87.2366 Y34.6868 F350.00
G01 X87.1784 Y34.6957 F350.00
G01 X87.1588 Y34.6976 F350.00
G01 X87.1000 Y34.7003 F350.00
G01 X78.2003 Y34.7003 F350.00
G01 X78.2003 Y45.8199 F350.00
G01 X88.5352 Y56.1548 F350.00
G01 X88.5749 Y56.1983 F350.00
G01 X88.5873 Y56.2135 F350.00
G01 X88.6222 Y56.2610 F350.00
G01 X88.6552 Y56.3156 F350.00
G01 X88.6620 Y56.3287 F350.00
G01 X88.6869 Y56.3820 F350.00
G01 X88.7101 Y56.4467 F350.00
G01 X88.7268 Y56.5134 F350.00
G01 X88.7357 Y56.5716 F350.00
G01 X88.7376 Y56.5912 F350.00
G01 X88.7403 Y56.6500 F350.00
G01 X88.7403 Y57.8268 F350.00
G01 X88.8013 Y57.8724 F350.00
G01 X88.8814 Y57.9447 F350.00
G01 X88.8953 Y57.9586 F350.00
G01 X88.9645 Y58.0350 F350.00
G01 X88.9737 Y58.0465 F350.00
G01 X89.0378 Y58.1333 F350.00
G01 X89.0935 Y58.2258 F350.00
G01 X89.1006 Y58.2387 F350.00
G01 X89.1487 Y58.3408 F350.00
G01 X89.1852 Y58.4423 F350.00
G01 X89.1909 Y58.4611 F350.00
G01 X89.2169 Y58.5659 F350.00
G01 X89.2330 Y58.6726 F350.00
G01 X89.2349 Y58.6922 F350.00
G01 X89.2398 Y58.7902 F350.00
G01 X89.2400 Y60.8000 F350.00
G01 X89.2342 Y60.9176 F350.00
G01 X89.2169 Y61.0341 F350.00
G01 X89.1883 Y61.1483 F350.00
G01 X89.1487 Y61.2592 F350.00
G01 X89.0983 Y61.3657 F350.00
G01 X89.0430 Y61.4584 F350.00
G01 X89.0350 Y61.4707 F350.00
G01 X88.9676 Y61.5613 F350.00
G01 X88.8953 Y61.6414 F350.00
G01 X88.8814 Y61.6553 F350.00
G01 X88.8087 Y61.7212 F350.00
G01 X88.7935 Y61.7337 F350.00
G01 X88.7067 Y61.7978 F350.00
G01 X88.6378 Y61.8394 F350.00
G01 X88.6378 Y62.2500 F350.00
G01 X88.8297 Y62.2502 F350.00
G01 X88.8755 Y62.2527 F350.00
G01 X88.9306 Y62.2609 F350.00
G01 X88.9846 Y62.2744 F350.00
G01 X89.0371 Y62.2932 F350.00
G01 X89.0874 Y62.3170 F350.00
G01 X89.1352 Y62.3457 F350.00
G01 X89.1800 Y62.3789 F350.00
G01 X89.2141 Y62.4095 F350.00
G01 X89.2280 Y62.4234 F350.00
G01 X89.2555 Y62.4538 F350.00
G01 X89.2647 Y62.4653 F350.00
G01 X89.2918 Y62.5023 F350.00
G01 X89.3156 Y62.5415 F350.00
G01 X89.3249 Y62.5588 F350.00
G01 X89.3443 Y62.6004 F350.00
G01 X89.3631 Y62.6529 F350.00
G01 X89.3766 Y62.7069 F350.00
G01 X89.3848 Y62.7620 F350.00
G01 X89.3875 Y62.8176 F350.00
G01 X89.3875 Y64.5824 F350.00
G01 X89.3848 Y64.6380 F350.00
G01 X89.3775 Y64.6883 F350.00
G01 X89.3744 Y64.7027 F350.00
G01 X89.3657 Y64.7377 F350.00
G01 X89.3600 Y64.7565 F350.00
G01 X89.3443 Y64.7996 F350.00
G01 X89.3249 Y64.8412 F350.00
G01 X89.3156 Y64.8585 F350.00
G01 X89.2918 Y64.8977 F350.00
G01 X89.2647 Y64.9347 F350.00
G01 X89.2522 Y64.9499 F350.00
G01 X89.2212 Y64.9837 F350.00
G01 X89.1874 Y65.0147 F350.00
G01 X89.1722 Y65.0272 F350.00
G01 X89.1352 Y65.0543 F350.00
G01 X89.0960 Y65.0781 F350.00
G01 X89.0787 Y65.0874 F350.00
G01 X89.0371 Y65.1068 F350.00
G01 X88.9846 Y65.1256 F350.00
G01 X88.9402 Y65.1369 F350.00
G01 X88.9209 Y65.1408 F350.00
G01 X88.8755 Y65.1473 F350.00
G01 X88.8199 Y65.1500 F350.00
G01 X87.0551 Y65.1500 F350.00
G01 X86.9995 Y65.1473 F350.00
G01 X86.9492 Y65.1400 F350.00
G01 X86.9348 Y65.1369 F350.00
G01 X86.8998 Y65.1282 F350.00
G01 X86.8810 Y65.1225 F350.00
G01 X86.8379 Y65.1068 F350.00
G01 X86.7876 Y65.0830 F350.00
G01 X86.7481 Y65.0596 F350.00
G01 X86.7318 Y65.0487 F350.00
G01 X86.6950 Y65.0211 F350.00
G01 X86.6538 Y64.9837 F350.00
G01 X86.6228 Y64.9499 F350.00
G01 X86.6103 Y64.9347 F350.00
G01 X86.5832 Y64.8977 F350.00
G01 X86.5545 Y64.8499 F350.00
G01 X86.5307 Y64.7996 F350.00
G01 X86.5150 Y64.7565 F350.00
G01 X86.5093 Y64.7377 F350.00
G01 X86.4984 Y64.6931 F350.00
G01 X86.4902 Y64.6380 F350.00
G01 X86.4875 Y64.5824 F350.00
G01 X86.4875 Y62.8176 F350.00
G01 X86.4902 Y62.7620 F350.00
G01 X86.4967 Y62.7166 F350.00
G01 X86.5006 Y62.6973 F350.00
G01 X86.5119 Y62.6529 F350.00
G01 X86.5307 Y62.6004 F350.00
G01 X86.5545 Y62.5501 F350.00
G01 X86.5832 Y62.5023 F350.00
G01 X86.6164 Y62.4575 F350.00
G01 X86.6538 Y62.4163 F350.00
G01 X86.6950 Y62.3789 F350.00
G01 X86.7398 Y62.3457 F350.00
G01 X86.7833 Y62.3194 F350.00
G01 X86.7963 Y62.3126 F350.00
G01 X86.8379 Y62.2932 F350.00
G01 X86.8810 Y62.2775 F350.00
G01 X86.8998 Y62.2718 F350.00
G01 X86.9396 Y62.2619 F350.00
G01 X86.9541 Y62.2592 F350.00
G01 X86.9995 Y62.2527 F350.00
G01 X87.0502 Y62.2501 F350.00
G01 X87.2372 Y62.2500 F350.00
G01 X87.2372 Y61.6903 F350.00
G01 X87.1986 Y61.6553 F350.00
G01 X87.1880 Y61.6450 F350.00
G01 X87.1188 Y61.5687 F350.00
G01 X87.1093 Y61.5574 F350.00
G01 X87.0422 Y61.4667 F350.00
G01 X86.9865 Y61.3742 F350.00
G01 X86.9794 Y61.3613 F350.00
G01 X86.9313 Y61.2592 F350.00
G01 X86.8917 Y61.1483 F350.00
G01 X86.8631 Y61.0341 F350.00
G01 X86.8463 Y60.9225 F350.00
G01 X86.8451 Y60.9078 F350.00
G01 X86.8400 Y60.8000 F350.00
G01 X86.8401 Y58.7951 F350.00
G01 X86.8451 Y58.6922 F350.00
G01 X86.8470 Y58.6726 F350.00
G01 X86.8631 Y58.5659 F350.00
G01 X86.8891 Y58.4611 F350.00
G01 X86.8948 Y58.4423 F350.00
G01 X86.9313 Y58.3408 F350.00
G01 X86.9794 Y58.2387 F350.00
G01 X86.9865 Y58.2258 F350.00
G01 X87.0422 Y58.1333 F350.00
G01 X87.1063 Y58.0465 F350.00
G01 X87.1155 Y58.0350 F350.00
G01 X87.1847 Y57.9586 F350.00
G01 X87.1986 Y57.9447 F350.00
G01 X87.2787 Y57.8724 F350.00
G01 X87.3397 Y57.8268 F350.00
G01 X87.3397 Y56.9401 F350.00
G01 X77.0048 Y46.6052 F350.00
G01 X76.9587 Y46.5542 F350.00
G01 X76.9178 Y46.4990 F350.00
G01 X76.8824 Y46.4401 F350.00
G01 X76.8531 Y46.3780 F350.00
G01 X76.8299 Y46.3133 F350.00
G01 X76.8132 Y46.2466 F350.00
G01 X76.8031 Y46.1786 F350.00
G01 X76.7997 Y46.1100 F350.00
G01 X76.7997 Y34.7503 F350.00
G01 X42.0045 Y34.7503 F350.00
G01 X41.9453 Y34.8095 F350.00
G01 X41.9453 Y38.4168 F350.00
G01 X41.9985 Y38.4563 F350.00
G01 X42.0100 Y38.4655 F350.00
G01 X42.0864 Y38.5347 F350.00
G01 X42.0970 Y38.5450 F350.00
G01 X42.1726 Y38.6287 F350.00
G01 X42.2371 Y38.7153 F350.00
G01 X42.2454 Y38.7274 F350.00
G01 X42.3033 Y38.8243 F350.00
G01 X42.3537 Y38.9308 F350.00
G01 X42.3933 Y39.0417 F350.00
G01 X42.4219 Y39.1559 F350.00
G01 X42.4392 Y39.2724 F350.00
G01 X42.4449 Y39.3851 F350.00
G01 X42.4449 Y40.3949 F350.00
G01 X42.4392 Y40.5076 F350.00
G01 X42.4236 Y40.6144 F350.00
G01 X42.4198 Y40.6337 F350.00
G01 X42.3933 Y40.7383 F350.00
G01 X42.3572 Y40.8401 F350.00
G01 X42.3497 Y40.8582 F350.00
G01 X42.3033 Y40.9557 F350.00
G01 X42.2428 Y41.0567 F350.00
G01 X42.1726 Y41.1513 F350.00
G01 X42.1003 Y41.2314 F350.00
G01 X42.0864 Y41.2453 F350.00
G01 X42.0063 Y41.3176 F350.00
G01 X41.9197 Y41.3821 F350.00
G01 X41.9034 Y41.3930 F350.00
G01 X41.8107 Y41.4483 F350.00
G01 X41.7042 Y41.4987 F350.00
G01 X41.5933 Y41.5383 F350.00
G01 X41.4887 Y41.5648 F350.00
G01 X41.4694 Y41.5686 F350.00
G01 X41.3724 Y41.5830 F350.00
G01 X41.3528 Y41.5849 F350.00
G01 X41.2450 Y41.5900 F350.00
G01 X41.1274 Y41.5842 F350.00
G01 X41.0109 Y41.5669 F350.00
G01 X40.9061 Y41.5409 F350.00
G01 X40.8873 Y41.5352 F350.00
G01 X40.7949 Y41.5022 F350.00
G01 X40.7768 Y41.4947 F350.00
G01 X40.6793 Y41.4483 F350.00
G01 X40.5866 Y41.3930 F350.00
G01 X40.5703 Y41.3821 F350.00
G01 X40.4915 Y41.3237 F350.00
G01 X40.4763 Y41.3112 F350.00
G01 X40.3965 Y41.2385 F350.00
G01 X40.3174 Y41.1513 F350.00
G01 X40.2529 Y41.0647 F350.00
G01 X40.2420 Y41.0484 F350.00
G01 X40.1867 Y40.9557 F350.00
G01 X40.1363 Y40.8492 F350.00
G01 X40.0967 Y40.7383 F350.00
G01 X40.0681 Y40.6241 F350.00
G01 X40.0508 Y40.5076 F350.00
G01 X40.0452 Y40.3998 F350.00
G01 X40.0451 Y39.3851 F350.00
G01 X40.0508 Y39.2724 F350.00
G01 X40.0672 Y39.1607 F350.00
G01 X40.0702 Y39.1463 F350.00
G01 X40.0967 Y39.0417 F350.00
G01 X40.1363 Y38.9308 F350.00
G01 X40.1867 Y38.8243 F350.00
G01 X40.2446 Y38.7274 F350.00
G01 X40.2529 Y38.7153 F350.00
G01 X40.3174 Y38.6287 F350.00
G01 X40.3930 Y38.5450 F350.00
G01 X40.4036 Y38.5347 F350.00
G01 X40.4800 Y38.4655 F350.00
G01 X40.4915 Y38.4563 F350.00
G01 X40.5447 Y38.4168 F350.00
G01 X40.5448 Y34.5146 F350.00
G01 X40.5481 Y34.4508 F350.00
G01 X40.5582 Y34.3829 F350.00
G01 X40.5749 Y34.3162 F350.00
G01 X40.5945 Y34.2607 F350.00
G01 X40.6020 Y34.2425 F350.00
G01 X40.6274 Y34.1894 F350.00
G01 X40.6628 Y34.1304 F350.00
G01 X40.7037 Y34.0752 F350.00
G01 X40.7431 Y34.0314 F350.00
G01 X41.2193 Y33.5548 F350.00
G01 X41.2628 Y33.5151 F350.00
G01 X41.2780 Y33.5027 F350.00
G01 X41.3254 Y33.4678 F350.00
G01 X41.3758 Y33.4373 F350.00
G01 X41.3931 Y33.4280 F350.00
G01 X41.4465 Y33.4031 F350.00
G01 X41.5019 Y33.3830 F350.00
G01 X41.5207 Y33.3773 F350.00
G01 X41.5779 Y33.3632 F350.00
G01 X41.6458 Y33.3531 F350.00
G01 X41.7145 Y33.3497 F350.00
G01 X45.2097 Y33.3497 F350.00
G01 X45.2097 Y32.0232 F350.00
G01 X45.1565 Y31.9837 F350.00
G01 X45.1450 Y31.9745 F350.00
G01 X45.0686 Y31.9053 F350.00
G01 X45.0580 Y31.8950 F350.00
G01 X44.9824 Y31.8113 F350.00
G01 X44.9179 Y31.7247 F350.00
G01 X44.9096 Y31.7126 F350.00
G01 X44.8517 Y31.6157 F350.00
G01 X44.8013 Y31.5092 F350.00
G01 X44.7617 Y31.3983 F350.00
G01 X44.7341 Y31.2889 F350.00
G01 X44.7314 Y31.2744 F350.00
G01 X44.7158 Y31.1676 F350.00
G01 X44.7101 Y31.0549 F350.00
G01 X44.7100 Y30.0500 F350.00
G01 X44.7158 Y29.9324 F350.00
G01 X44.7331 Y29.8159 F350.00
G01 X44.7591 Y29.7111 F350.00
G01 X44.7648 Y29.6923 F350.00
G01 X44.7978 Y29.5999 F350.00
G01 X44.8053 Y29.5818 F350.00
G01 X44.8517 Y29.4843 F350.00
G01 X44.9122 Y29.3833 F350.00
G01 X44.9824 Y29.2887 F350.00
G01 X45.0547 Y29.2086 F350.00
G01 X45.0686 Y29.1947 F350.00
G01 X45.1413 Y29.1288 F350.00
G01 X45.1565 Y29.1163 F350.00
G01 X45.2433 Y29.0522 F350.00
G01 X45.3443 Y28.9917 F350.00
G01 X45.4508 Y28.9413 F350.00
G01 X45.5523 Y28.9048 F350.00
G01 X45.5711 Y28.8991 F350.00
G01 X45.6663 Y28.8752 F350.00
G01 X45.6807 Y28.8722 F350.00
G01 X45.7924 Y28.8558 F350.00
G01 X45.9100 Y28.8500 F350.00
G01 X46.0276 Y28.8558 F350.00
G01 X46.1441 Y28.8731 F350.00
G01 X46.2583 Y28.9017 F350.00
G01 X46.3692 Y28.9413 F350.00
G01 X46.4757 Y28.9917 F350.00
G01 X46.5767 Y29.0522 F350.00
G01 X46.6713 Y29.1224 F350.00
G01 X46.7585 Y29.2015 F350.00
G01 X46.8376 Y29.2887 F350.00
G01 X46.9078 Y29.3833 F350.00
G01 X46.9683 Y29.4843 F350.00
G01 X47.0187 Y29.5908 F350.00
G01 X47.0583 Y29.7017 F350.00
G01 X47.0869 Y29.8159 F350.00
G01 X47.1042 Y29.9324 F350.00
G01 X47.1099 Y30.0451 F350.00
G01 X47.1100 Y31.0500 F350.00
G01 X47.1049 Y31.1578 F350.00
G01 X47.1037 Y31.1725 F350.00
G01 X47.0869 Y31.2841 F350.00
G01 X47.0583 Y31.3983 F350.00
G01 X47.0187 Y31.5092 F350.00
G01 X46.9727 Y31.6069 F350.00
G01 X46.9659 Y31.6200 F350.00
G01 X46.9078 Y31.7167 F350.00
G01 X46.8437 Y31.8035 F350.00
G01 X46.8345 Y31.8150 F350.00
G01 X46.7653 Y31.8914 F350.00
G01 X46.7514 Y31.9053 F350.00
G01 X46.6713 Y31.9776 F350.00
G01 X46.6103 Y32.0232 F350.00
G01 X46.6103 Y33.3497 F350.00
G01 X77.2406 Y33.3497 F350.00
G01 X77.2967 Y33.3299 F350.00
G01 X77.3634 Y33.3132 F350.00
G01 X77.4314 Y33.3031 F350.00
G01 X77.5000 Y33.2997 F350.00
G01 X86.8099 Y33.2997 F350.00
G01 X98.1097 Y21.9999 F350.00
G01 X98.1097 Y20.4232 F350.00
G01 X98.0487 Y20.3776 F350.00
G01 X97.9686 Y20.3053 F350.00
G01 X97.9547 Y20.2914 F350.00
G01 X97.8855 Y20.2150 F350.00
G01 X97.8763 Y20.2035 F350.00
G01 X97.8122 Y20.1167 F350.00
G01 X97.7541 Y20.0200 F350.00
G01 X97.7473 Y20.0069 F350.00
G01 X97.7013 Y19.9092 F350.00
G01 X97.6617 Y19.7983 F350.00
G01 X97.6331 Y19.6841 F350.00
G01 X97.6158 Y19.5676 F350.00
G01 X97.6100 Y19.4500 F350.00
G01 X97.6100 Y17.4500 F350.00
G01 X97.6154 Y17.3373 F350.00
G01 X97.6170 Y17.3226 F350.00
G01 X97.6314 Y17.2256 F350.00
G01 X97.6352 Y17.2063 F350.00
G01 X97.6617 Y17.1017 F350.00
G01 X97.7013 Y16.9908 F350.00
G01 X97.7517 Y16.8843 F350.00
G01 X97.8070 Y16.7916 F350.00
G01 X97.8179 Y16.7753 F350.00
G01 X97.8763 Y16.6965 F350.00
G01 X97.8888 Y16.6813 F350.00
G01 X97.9615 Y16.6015 F350.00
G01 X98.0487 Y16.5224 F350.00
G01 X98.1433 Y16.4522 F350.00
G01 X98.2358 Y16.3965 F350.00
G01 X98.2531 Y16.3873 F350.00
G01 X98.3418 Y16.3453 F350.00
G01 X98.3599 Y16.3378 F350.00
G01 X98.4617 Y16.3017 F350.00
G01 X98.5711 Y16.2741 F350.00
G01 X98.5856 Y16.2714 F350.00
G01 X98.6924 Y16.2558 F350.00
G01 X98.8100 Y16.2500 F350.00
G01 X98.9276 Y16.2558 F350.00
G01 X99.0441 Y16.2731 F350.00
G01 X99.1583 Y16.3017 F350.00
G01 X99.2692 Y16.3413 F350.00
G01 X99.3757 Y16.3917 F350.00
G01 X99.4767 Y16.4522 F350.00
G01 X99.5713 Y16.5224 F350.00
G01 X99.6585 Y16.6015 F350.00
G01 X99.7376 Y16.6887 F350.00
G01 X99.8078 Y16.7833 F350.00
G01 X99.8683 Y16.8843 F350.00
G01 X99.9187 Y16.9908 F350.00
G01 X99.9583 Y17.1017 F350.00
G01 X99.9848 Y17.2063 F350.00
G01 X99.9878 Y17.2207 F350.00
G01 X100.0042 Y17.3324 F350.00
G01 X100.0100 Y17.4500 F350.00
G01 X100.0100 Y19.4500 F350.00
G01 X100.0042 Y19.5676 F350.00
G01 X99.9869 Y19.6841 F350.00
G01 X99.9583 Y19.7983 F350.00
G01 X99.9187 Y19.9092 F350.00
G01 X99.8727 Y20.0069 F350.00
G01 X99.8659 Y20.0200 F350.00
G01 X99.8078 Y20.1167 F350.00
G01 X99.7437 Y20.2035 F350.00
G01 X99.7345 Y20.2150 F350.00
G01 X99.6653 Y20.2914 F350.00
G01 X99.6514 Y20.3053 F350.00
G01 X99.5713 Y20.3776 F350.00
G01 X99.5103 Y20.4232 F350.00
G01 X99.5103 Y21.5897 F350.00
G01 X106.4299 Y21.5897 F350.00
G01 X108.5100 Y19.5097 F350.00
G01 X108.5100 Y17.8000 F350.00
G01 X108.5105 Y17.7853 F350.00
G01 X108.5115 Y17.7755 F350.00
G01 X108.5149 Y17.7562 F350.00
G01 X108.5186 Y17.7419 F350.00
G01 X108.5217 Y17.7326 F350.00
G01 X108.5272 Y17.7190 F350.00
G01 X108.5314 Y17.7101 F350.00
G01 X108.5360 Y17.7014 F350.00
G01 X108.5437 Y17.6889 F350.00
G01 X108.5523 Y17.6770 F350.00
G01 X108.5618 Y17.6657 F350.00
G01 X108.5721 Y17.6552 F350.00
G01 X108.5831 Y17.6454 F350.00
G01 X108.5948 Y17.6365 F350.00
G01 X108.6030 Y17.6310 F350.00
G01 X108.6114 Y17.6260 F350.00
G01 X108.6245 Y17.6192 F350.00
G01 X108.6380 Y17.6134 F350.00
G01 X108.6519 Y17.6086 F350.00
G01 X108.6662 Y17.6049 F350.00
G01 X108.6758 Y17.6029 F350.00
G01 X108.6904 Y17.6010 F350.00
G01 X108.7051 Y17.6001 F350.00
G01 X109.0097 Y17.6000 F350.00
G01 X109.0097 Y15.5000 F350.00
G01 X109.0131 Y15.4314 F350.00
G01 X109.0223 Y15.3682 F350.00
G01 X109.0254 Y15.3538 F350.00
G01 X109.0373 Y15.3062 F350.00
G01 X109.0430 Y15.2874 F350.00
G01 X109.0631 Y15.2320 F350.00
G01 X109.0880 Y15.1787 F350.00
G01 X109.0973 Y15.1614 F350.00
G01 X109.1278 Y15.1110 F350.00
G01 X109.1627 Y15.0635 F350.00
G01 X109.1751 Y15.0483 F350.00
G01 X109.2148 Y15.0048 F350.00
G01 X109.2583 Y14.9651 F350.00
G01 X109.2735 Y14.9527 F350.00
G01 X109.3210 Y14.9178 F350.00
G01 X109.3714 Y14.8873 F350.00
G01 X109.3887 Y14.8780 F350.00
G01 X109.4420 Y14.8531 F350.00
G01 X109.5020 Y14.8314 F350.00
G01 X109.5162 Y14.8273 F350.00
G01 X109.5638 Y14.8154 F350.00
G01 X109.5831 Y14.8115 F350.00
G01 X109.6414 Y14.8031 F350.00
G01 X109.7100 Y14.7997 F350.00
G01 X125.4600 Y14.7997 F350.00
G01 X125.5286 Y14.8031 F350.00
G01 X125.5966 Y14.8132 F350.00
G01 X125.6633 Y14.8299 F350.00
G01 X125.7280 Y14.8531 F350.00
G01 X125.7901 Y14.8824 F350.00
G01 X125.8490 Y14.9178 F350.00
G01 X125.9042 Y14.9587 F350.00
G01 X125.9480 Y14.9981 F350.00
G01 X125.9619 Y15.0120 F350.00
G01 X125.9981 Y15.0520 F350.00
G01 X126.0073 Y15.0635 F350.00
G01 X126.0366 Y15.1029 F350.00
G01 X126.0475 Y15.1193 F350.00
G01 X126.0752 Y15.1656 F350.00
G01 X126.0820 Y15.1787 F350.00
G01 X126.1069 Y15.2320 F350.00
G01 X126.1301 Y15.2967 F350.00
G01 X126.1468 Y15.3634 F350.00
G01 X126.1557 Y15.4216 F350.00
G01 X126.1573 Y15.4363 F350.00
G01 X126.1603 Y15.5000 F350.00
G01 X126.1603 Y17.6000 F350.00
G01 X126.4649 Y17.6001 F350.00
G01 X126.4845 Y17.6015 F350.00
G01 X126.4990 Y17.6038 F350.00
G01 X126.5133 Y17.6072 F350.00
G01 X126.5320 Y17.6134 F350.00
G01 X126.5455 Y17.6192 F350.00
G01 X126.5586 Y17.6260 F350.00
G01 X126.5711 Y17.6337 F350.00
G01 X126.5830 Y17.6423 F350.00
G01 X126.5943 Y17.6518 F350.00
G01 X126.6048 Y17.6621 F350.00
G01 X126.6146 Y17.6731 F350.00
G01 X126.6235 Y17.6848 F350.00
G01 X126.6315 Y17.6972 F350.00
G01 X126.6386 Y17.7101 F350.00
G01 X126.6448 Y17.7235 F350.00
G01 X126.6499 Y17.7373 F350.00
G01 X126.6540 Y17.7514 F350.00
G01 X126.6571 Y17.7658 F350.00
G01 X126.6590 Y17.7804 F350.00
G01 X126.6599 Y17.7951 F350.00
G01 X126.6600 Y20.8000 F350.00
G01 X126.6590 Y20.8196 F350.00
G01 X126.6571 Y20.8342 F350.00
G01 X126.6540 Y20.8486 F350.00
G01 X126.6499 Y20.8627 F350.00
G01 X126.6448 Y20.8765 F350.00
G01 X126.6408 Y20.8855 F350.00
G01 X126.6340 Y20.8986 F350.00
G01 X126.6263 Y20.9111 F350.00
G01 X126.6177 Y20.9230 F350.00
G01 X126.6082 Y20.9343 F350.00
G01 X126.5979 Y20.9448 F350.00
G01 X126.5869 Y20.9546 F350.00
G01 X126.5752 Y20.9635 F350.00
G01 X126.5628 Y20.9715 F350.00
G01 X126.5499 Y20.9786 F350.00
G01 X126.5365 Y20.9848 F350.00
G01 X126.5274 Y20.9883 F350.00
G01 X126.5133 Y20.9928 F350.00
G01 X126.4990 Y20.9962 F350.00
G01 X126.4845 Y20.9985 F350.00
G01 X126.4649 Y20.9999 F350.00
G01 X126.1603 Y21.0000 F350.00
G01 X126.1603 Y23.0997 F350.00
G01 X131.5000 Y23.0997 F350.00
G01 X131.5588 Y23.1024 F350.00
G01 X131.5784 Y23.1043 F350.00
G01 X131.6366 Y23.1132 F350.00
G01 X131.6986 Y23.1285 F350.00
G01 X131.7126 Y23.1330 F350.00
G01 X131.7680 Y23.1531 F350.00
G01 X131.8213 Y23.1780 F350.00
G01 X131.8386 Y23.1873 F350.00
G01 X131.8890 Y23.2178 F350.00
G01 X131.9365 Y23.2527 F350.00
G01 X131.9517 Y23.2651 F350.00
G01 X131.9916 Y23.3014 F350.00
G01 X133.4952 Y24.8048 F350.00
G01 X133.5413 Y24.8558 F350.00
G01 X133.5766 Y24.9029 F350.00
G01 X133.5875 Y24.9193 F350.00
G01 X133.6176 Y24.9699 F350.00
G01 X133.6430 Y25.0231 F350.00
G01 X133.6505 Y25.0412 F350.00
G01 X133.6701 Y25.0967 F350.00
G01 X133.6858 Y25.1586 F350.00
G01 X133.6885 Y25.1731 F350.00
G01 X133.6969 Y25.2314 F350.00
G01 X133.7003 Y25.3000 F350.00
G01 X133.7003 Y48.0500 F350.00
G01 X133.6969 Y48.1186 F350.00
G01 X133.6885 Y48.1769 F350.00
G01 X133.6858 Y48.1914 F350.00
G01 X133.6701 Y48.2533 F350.00
G01 X133.6505 Y48.3088 F350.00
G01 X133.6430 Y48.3269 F350.00
G01 X133.6176 Y48.3801 F350.00
G01 X133.5875 Y48.4307 F350.00
G01 X133.5766 Y48.4471 F350.00
G01 X133.5413 Y48.4942 F350.00
G01 X133.4986 Y48.5416 F350.00
G01 X128.9952 Y53.0452 F350.00
G01 X128.9442 Y53.0913 F350.00
G01 X128.8971 Y53.1266 F350.00
G01 X128.8807 Y53.1375 F350.00
G01 X128.8301 Y53.1676 F350.00
G01 X128.7680 Y53.1969 F350.00
G01 X128.7126 Y53.2170 F350.00
G01 X128.6938 Y53.2227 F350.00
G01 X128.6366 Y53.2368 F350.00
G01 X128.5686 Y53.2469 F350.00
G01 X128.5000 Y53.2503 F350.00
G01 X107.2232 Y53.2503 F350.00
G01 X107.1776 Y53.3113 F350.00
G01 X107.1020 Y53.3950 F350.00
G01 X107.0914 Y53.4053 F350.00
G01 X107.0187 Y53.4712 F350.00
G01 X107.0074 Y53.4807 F350.00
G01 X106.9167 Y53.5478 F350.00
G01 X106.8242 Y53.6035 F350.00
G01 X106.8069 Y53.6127 F350.00
G01 X106.7182 Y53.6547 F350.00
G01 X106.7047 Y53.6605 F350.00
G01 X106.6904 Y53.6657 F350.00
G01 X106.6904 Y55.1879 F350.00
G01 X106.7082 Y55.1953 F350.00
G01 X106.7969 Y55.2373 F350.00
G01 X106.8142 Y55.2465 F350.00
G01 X106.9067 Y55.3022 F350.00
G01 X107.0013 Y55.3724 F350.00
G01 X107.0885 Y55.4515 F350.00
G01 X107.1612 Y55.5313 F350.00
G01 X107.1737 Y55.5465 F350.00
G01 X107.2321 Y55.6253 F350.00
G01 X107.2430 Y55.6416 F350.00
G01 X107.2983 Y55.7343 F350.00
G01 X107.3487 Y55.8408 F350.00
G01 X107.3883 Y55.9517 F350.00
G01 X107.4148 Y56.0563 F350.00
G01 X107.4186 Y56.0756 F350.00
G01 X107.4330 Y56.1726 F350.00
G01 X107.4349 Y56.1922 F350.00
G01 X107.4400 Y56.3000 F350.00
G01 X107.4342 Y56.4176 F350.00
G01 X107.4169 Y56.5341 F350.00
G01 X107.3909 Y56.6389 F350.00
G01 X107.3852 Y56.6577 F350.00
G01 X107.3487 Y56.7592 F350.00
G01 X107.3027 Y56.8569 F350.00
G01 X107.2935 Y56.8742 F350.00
G01 X107.2378 Y56.9667 F350.00
G01 X107.1737 Y57.0535 F350.00
G01 X107.1612 Y57.0687 F350.00
G01 X107.0885 Y57.1485 F350.00
G01 X107.0087 Y57.2212 F350.00
G01 X106.9935 Y57.2337 F350.00
G01 X106.9067 Y57.2978 F350.00
G01 X106.8142 Y57.3535 F350.00
G01 X106.7969 Y57.3627 F350.00
G01 X106.7082 Y57.4047 F350.00
G01 X106.6904 Y57.4121 F350.00
G01 X106.6904 Y58.9379 F350.00
G01 X106.7082 Y58.9453 F350.00
G01 X106.8057 Y58.9917 F350.00
G01 X106.9067 Y59.0522 F350.00
G01 X107.0013 Y59.1224 F350.00
G01 X107.0814 Y59.1947 F350.00
G01 X107.0953 Y59.2086 F350.00
G01 X107.1612 Y59.2813 F350.00
G01 X107.1737 Y59.2965 F350.00
G01 X107.2378 Y59.3833 F350.00
G01 X107.2935 Y59.4758 F350.00
G01 X107.3027 Y59.4931 F350.00
G01 X107.3487 Y59.5908 F350.00
G01 X107.3883 Y59.7017 F350.00
G01 X107.4169 Y59.8159 F350.00
G01 X107.4342 Y59.9324 F350.00
G01 X107.4400 Y60.0500 F350.00
G01 X107.4349 Y60.1578 F350.00
G01 X107.4330 Y60.1774 F350.00
G01 X107.4169 Y60.2841 F350.00
G01 X107.3909 Y60.3889 F350.00
G01 X107.3852 Y60.4077 F350.00
G01 X107.3522 Y60.5001 F350.00
G01 X107.3447 Y60.5182 F350.00
G01 X107.2983 Y60.6157 F350.00
G01 X107.2404 Y60.7126 F350.00
G01 X107.2321 Y60.7247 F350.00
G01 X107.1676 Y60.8113 F350.00
G01 X107.0953 Y60.8914 F350.00
G01 X107.0814 Y60.9053 F350.00
G01 X107.0087 Y60.9712 F350.00
G01 X106.9935 Y60.9837 F350.00
G01 X106.9067 Y61.0478 F350.00
G01 X106.8057 Y61.1083 F350.00
G01 X106.6992 Y61.1587 F350.00
G01 X106.5883 Y61.1983 F350.00
G01 X106.4837 Y61.2248 F350.00
G01 X106.4644 Y61.2286 F350.00
G01 X106.3576 Y61.2442 F350.00
G01 X106.2498 Y61.2498 F350.00
G01 X105.5303 Y61.2500 F350.00
G01 X97.1852 Y69.5952 F350.00
G01 X97.1342 Y69.6413 F350.00
G01 X97.0871 Y69.6766 F350.00
G01 X97.0707 Y69.6875 F350.00
G01 X97.0201 Y69.7176 F350.00
G01 X96.9669 Y69.7430 F350.00
G01 X96.9488 Y69.7505 F350.00
G01 X96.8933 Y69.7701 F350.00
G01 X96.8362 Y69.7846 F350.00
G01 X96.8169 Y69.7885 F350.00
G01 X96.7586 Y69.7969 F350.00
G01 X96.6900 Y69.8003 F350.00
G01 X44.5500 Y69.8003 F350.00
G01 X44.4814 Y69.7969 F350.00
G01 X44.4231 Y69.7885 F350.00
G01 X44.4086 Y69.7858 F350.00
G01 X44.3467 Y69.7701 F350.00
G01 X44.2912 Y69.7505 F350.00
G01 X44.2731 Y69.7430 F350.00
G01 X44.2199 Y69.7176 F350.00
G01 X44.1693 Y69.6875 F350.00
G01 X44.1529 Y69.6766 F350.00
G01 X44.1058 Y69.6413 F350.00
G01 X44.0548 Y69.5952 F350.00
G01 X15.0014 Y40.5416 F350.00
G01 X14.9587 Y40.4942 F350.00
G01 X14.9178 Y40.4390 F350.00
G01 X14.8824 Y40.3801 F350.00
G01 X14.8570 Y40.3269 F350.00
G01 X14.8512 Y40.3134 F350.00
G01 X14.8330 Y40.2626 F350.00
G01 X14.8273 Y40.2438 F350.00
G01 X14.8132 Y40.1866 F350.00
G01 X14.8031 Y40.1186 F350.00
G01 X14.7997 Y40.0500 F350.00
G01 X14.7997 Y38.2500 F350.00
G01 X14.7451 Y38.2499 F350.00
G01 X14.6618 Y38.2458 F350.00
G01 X14.6471 Y38.2442 F350.00
G01 X14.5743 Y38.2334 F350.00
G01 X14.5599 Y38.2307 F350.00
G01 X14.4742 Y38.2091 F350.00
G01 X14.3956 Y38.1812 F350.00
G01 X14.3775 Y38.1737 F350.00
G01 X14.3022 Y38.1378 F350.00
G01 X14.2305 Y38.0951 F350.00
G01 X14.2142 Y38.0842 F350.00
G01 X14.1473 Y38.0344 F350.00
G01 X14.0818 Y37.9752 F350.00
G01 X14.0715 Y37.9646 F350.00
G01 X14.0221 Y37.9101 F350.00
G01 X14.0126 Y37.8988 F350.00
G01 X13.9629 Y37.8318 F350.00
G01 X13.9574 Y37.8237 F350.00
G01 X13.9433 Y37.8003 F350.00
G01 X5.6402 Y37.8000 F350.00
G01 X5.5912 Y37.7976 F350.00
G01 X5.5765 Y37.7963 F350.00
G01 X5.5231 Y37.7885 F350.00
G01 X5.5038 Y37.7846 F350.00
G01 X5.4514 Y37.7715 F350.00
G01 X5.4374 Y37.7670 F350.00
G01 X5.3820 Y37.7469 F350.00
G01 X5.3351 Y37.7250 F350.00
G01 X4.0750 Y37.7250 F350.00
G01 X3.9941 Y37.7213 F350.00
G01 X3.9746 Y37.7193 F350.00
G01 X3.8945 Y37.7072 F350.00
G01 X3.8159 Y37.6878 F350.00
G01 X3.7972 Y37.6821 F350.00
G01 X3.7302 Y37.6581 F350.00
G01 X3.7165 Y37.6527 F350.00
G01 X3.6390 Y37.6158 F350.00
G01 X3.5652 Y37.5718 F350.00
G01 X3.5531 Y37.5635 F350.00
G01 X3.4920 Y37.5181 F350.00
G01 X3.4844 Y37.5119 F350.00
G01 X3.4715 Y37.5003 F350.00
G01 X2.3000 Y37.5003 F350.00
G01 X2.2412 Y37.4976 F350.00
G01 X2.2216 Y37.4957 F350.00
G01 X2.1634 Y37.4868 F350.00
G01 X2.0967 Y37.4701 F350.00
G01 X2.0320 Y37.4469 F350.00
G01 X1.9699 Y37.4176 F350.00
G01 X1.9110 Y37.3822 F350.00
G01 X1.8558 Y37.3413 F350.00
G01 X1.8048 Y37.2952 F350.00
G01 X1.7587 Y37.2442 F350.00
G01 X1.7178 Y37.1890 F350.00
G01 X1.6824 Y37.1301 F350.00
G01 X1.6531 Y37.0680 F350.00
G01 X1.6330 Y37.0126 F350.00
G01 X1.6273 Y36.9938 F350.00
G01 X1.6142 Y36.9414 F350.00
G01 X1.6115 Y36.9269 F350.00
G01 X1.6031 Y36.8686 F350.00
G01 X1.5997 Y36.8000 F350.00
G01 X1.6000 Y18.0402 F350.00
G00 Z0.5000
G00 X4.3319 Y20.4001
G01 F250.00
G01 Z-0.0500
G01 F350.00
G01 X4.3476 Y20.2958 F350.00
G01 X4.3730 Y20.1934 F350.00
G01 X4.3787 Y20.1746 F350.00
G01 X4.4144 Y20.0753 F350.00
G01 X4.4593 Y19.9799 F350.00
G01 X4.4686 Y19.9626 F350.00
G01 X4.5230 Y19.8722 F350.00
G01 X4.5917 Y19.7796 F350.00
G01 X4.6624 Y19.7013 F350.00
G01 X4.6763 Y19.6874 F350.00
G01 X4.7546 Y19.6167 F350.00
G01 X4.8472 Y19.5480 F350.00
G01 X4.9376 Y19.4936 F350.00
G01 X4.9549 Y19.4843 F350.00
G01 X5.0503 Y19.4394 F350.00
G01 X5.1496 Y19.4037 F350.00
G01 X5.1684 Y19.3980 F350.00
G01 X5.2708 Y19.3726 F350.00
G01 X5.3751 Y19.3569 F350.00
G01 X5.3946 Y19.3549 F350.00
G01 X5.5000 Y19.3500 F350.00
G01 X5.6054 Y19.3549 F350.00
G01 X5.6249 Y19.3569 F350.00
G01 X5.7196 Y19.3709 F350.00
G01 X5.7388 Y19.3747 F350.00
G01 X5.8411 Y19.4006 F350.00
G01 X5.9405 Y19.4359 F350.00
G01 X5.9586 Y19.4434 F350.00
G01 X6.0539 Y19.4887 F350.00
G01 X6.1445 Y19.5428 F350.00
G01 X6.1608 Y19.5537 F350.00
G01 X6.2454 Y19.6167 F350.00
G01 X6.3309 Y19.6941 F350.00
G01 X6.4083 Y19.7796 F350.00
G01 X6.4713 Y19.8642 F350.00
G01 X6.4822 Y19.8805 F350.00
G01 X6.5363 Y19.9711 F350.00
G01 X6.5856 Y20.0753 F350.00
G01 X6.6213 Y20.1746 F350.00
G01 X6.6270 Y20.1934 F350.00
G01 X6.6503 Y20.2862 F350.00
G01 X6.6533 Y20.3006 F350.00
G01 X6.6693 Y20.4098 F350.00
G01 X6.6749 Y20.5201 F350.00
G01 X6.6750 Y21.5750 F350.00
G01 X6.6693 Y21.6902 F350.00
G01 X6.6524 Y21.8042 F350.00
G01 X6.6244 Y21.9161 F350.00
G01 X6.5856 Y22.0247 F350.00
G01 X6.5363 Y22.1289 F350.00
G01 X6.4770 Y22.2278 F350.00
G01 X6.4083 Y22.3204 F350.00
G01 X6.3309 Y22.4059 F350.00
G01 X6.2454 Y22.4833 F350.00
G01 X6.1528 Y22.5520 F350.00
G01 X6.0539 Y22.6113 F350.00
G01 X5.9497 Y22.6606 F350.00
G01 X5.8411 Y22.6994 F350.00
G01 X5.7292 Y22.7274 F350.00
G01 X5.6152 Y22.7443 F350.00
G01 X5.5000 Y22.7500 F350.00
G01 X5.3848 Y22.7443 F350.00
G01 X5.2708 Y22.7274 F350.00
G01 X5.1589 Y22.6994 F350.00
G01 X5.0503 Y22.6606 F350.00
G01 X4.9461 Y22.6113 F350.00
G01 X4.8472 Y22.5520 F350.00
G01 X4.7546 Y22.4833 F350.00
G01 X4.6691 Y22.4059 F350.00
G01 X4.5917 Y22.3204 F350.00
G01 X4.5287 Y22.2358 F350.00
G01 X4.5178 Y22.2195 F350.00
G01 X4.4637 Y22.1289 F350.00
G01 X4.4144 Y22.0247 F350.00
G01 X4.3787 Y21.9254 F350.00
G01 X4.3730 Y21.9066 F350.00
G01 X4.3497 Y21.8138 F350.00
G01 X4.3467 Y21.7994 F350.00
G01 X4.3307 Y21.6902 F350.00
G01 X4.3250 Y21.5750 F350.00
G01 X4.3250 Y20.5250 F350.00
G01 X4.3299 Y20.4196 F350.00
G01 X4.3319 Y20.4001 F350.00
G00 Z0.5000
G00 X8.3000 Y26.5402
G01 F250.00
G01 Z-0.0500
G01 F350.00
G01 X8.3031 Y26.4814 F350.00
G01 X8.3132 Y26.4134 F350.00
G01 X8.3299 Y26.3467 F350.00
G01 X8.3495 Y26.2912 F350.00
G01 X8.3550 Y26.2775 F350.00
G01 X8.3780 Y26.2287 F350.00
G01 X8.3873 Y26.2114 F350.00
G01 X8.4178 Y26.1610 F350.00
G01 X8.4527 Y26.1135 F350.00
G01 X8.4619 Y26.1020 F350.00
G01 X8.5048 Y26.0548 F350.00
G01 X9.7997 Y24.7599 F350.00
G01 X9.7997 Y22.5171 F350.00
G01 X9.7623 Y22.4893 F350.00
G01 X9.7508 Y22.4801 F350.00
G01 X9.6727 Y22.4093 F350.00
G01 X9.6624 Y22.3987 F350.00
G01 X9.5949 Y22.3242 F350.00
G01 X9.5857 Y22.3127 F350.00
G01 X9.5230 Y22.2278 F350.00
G01 X9.4661 Y22.1332 F350.00
G01 X9.4593 Y22.1201 F350.00
G01 X9.4144 Y22.0247 F350.00
G01 X9.3756 Y21.9161 F350.00
G01 X9.3476 Y21.8042 F350.00
G01 X9.3319 Y21.6999 F350.00
G01 X9.3302 Y21.6853 F350.00
G01 X9.3250 Y21.5750 F350.00
G01 X9.3250 Y20.5250 F350.00
G01 X9.3299 Y20.4196 F350.00
G01 X9.3319 Y20.4001 F350.00
G01 X9.3459 Y20.3054 F350.00
G01 X9.3497 Y20.2862 F350.00
G01 X9.3756 Y20.1839 F350.00
G01 X9.4126 Y20.0799 F350.00
G01 X9.4184 Y20.0664 F350.00
G01 X9.4637 Y19.9711 F350.00
G01 X9.5230 Y19.8722 F350.00
G01 X9.5917 Y19.7796 F350.00
G01 X9.6691 Y19.6941 F350.00
G01 X9.7546 Y19.6167 F350.00
G01 X9.8472 Y19.5480 F350.00
G01 X9.9461 Y19.4887 F350.00
G01 X10.0503 Y19.4394 F350.00
G01 X10.1589 Y19.4006 F350.00
G01 X10.2708 Y19.3726 F350.00
G01 X10.3848 Y19.3557 F350.00
G01 X10.5000 Y19.3500 F350.00
G01 X10.6152 Y19.3557 F350.00
G01 X10.7292 Y19.3726 F350.00
G01 X10.8411 Y19.4006 F350.00
G01 X10.9451 Y19.4376 F350.00
G01 X10.9586 Y19.4434 F350.00
G01 X11.0539 Y19.4887 F350.00
G01 X11.1528 Y19.5480 F350.00
G01 X11.2454 Y19.6167 F350.00
G01 X11.3237 Y19.6874 F350.00
G01 X11.3376 Y19.7013 F350.00
G01 X11.4083 Y19.7796 F350.00
G01 X11.4713 Y19.8642 F350.00
G01 X11.4822 Y19.8805 F350.00
G01 X11.5314 Y19.9626 F350.00
G01 X11.5407 Y19.9799 F350.00
G01 X11.5856 Y20.0753 F350.00
G01 X11.6229 Y20.1792 F350.00
G01 X11.6270 Y20.1934 F350.00
G01 X11.6503 Y20.2862 F350.00
G01 X11.6541 Y20.3054 F350.00
G01 X11.6693 Y20.4098 F350.00
G01 X11.6749 Y20.5201 F350.00
G01 X11.6750 Y21.5750 F350.00
G01 X11.6693 Y21.6902 F350.00
G01 X11.6524 Y21.8042 F350.00
G01 X11.6244 Y21.9161 F350.00
G01 X11.5856 Y22.0247 F350.00
G01 X11.5407 Y22.1201 F350.00
G01 X11.5339 Y22.1332 F350.00
G01 X11.4770 Y22.2278 F350.00
G01 X11.4143 Y22.3127 F350.00
G01 X11.4051 Y22.3242 F350.00
G01 X11.3376 Y22.3987 F350.00
G01 X11.3273 Y22.4093 F350.00
G01 X11.2492 Y22.4801 F350.00
G01 X11.2377 Y22.4893 F350.00
G01 X11.2003 Y22.5171 F350.00
G01 X11.2002 Y25.0549 F350.00
G01 X11.1969 Y25.1186 F350.00
G01 X11.1868 Y25.1866 F350.00
G01 X11.1701 Y25.2533 F350.00
G01 X11.1488 Y25.3134 F350.00
G01 X11.1430 Y25.3269 F350.00
G01 X11.1176 Y25.3801 F350.00
G01 X11.0822 Y25.4390 F350.00
G01 X11.0413 Y25.4942 F350.00
G01 X10.9986 Y25.5416 F350.00
G01 X9.7003 Y26.8401 F350.00
G01 X9.7003 Y30.7599 F350.00
G01 X13.5401 Y34.5997 F350.00
G01 X14.1093 Y34.5997 F350.00
G01 X14.1399 Y34.5721 F350.00
G01 X14.1512 Y34.5626 F350.00
G01 X14.2142 Y34.5158 F350.00
G01 X14.2263 Y34.5074 F350.00
G01 X14.3022 Y34.4622 F350.00
G01 X14.3819 Y34.4242 F350.00
G01 X14.3956 Y34.4188 F350.00
G01 X14.4649 Y34.3940 F350.00
G01 X14.4837 Y34.3883 F350.00
G01 X14.5647 Y34.3683 F350.00
G01 X14.6569 Y34.3546 F350.00
G01 X14.7500 Y34.3500 F350.00
G01 X16.2500 Y34.3500 F350.00
G01 X16.3431 Y34.3546 F350.00
G01 X16.4353 Y34.3683 F350.00
G01 X16.5258 Y34.3909 F350.00
G01 X16.6090 Y34.4205 F350.00
G01 X16.6225 Y34.4263 F350.00
G01 X16.6978 Y34.4622 F350.00
G01 X16.7737 Y34.5074 F350.00
G01 X16.7858 Y34.5158 F350.00
G01 X16.8488 Y34.5626 F350.00
G01 X16.8601 Y34.5721 F350.00
G01 X16.8907 Y34.5997 F350.00
G01 X18.6000 Y34.5997 F350.00
G01 X18.6686 Y34.6031 F350.00
G01 X18.7269 Y34.6115 F350.00
G01 X18.7414 Y34.6142 F350.00
G01 X18.8033 Y34.6299 F350.00
G01 X18.8588 Y34.6495 F350.00
G01 X18.8769 Y34.6570 F350.00
G01 X18.9301 Y34.6824 F350.00
G01 X18.9807 Y34.7125 F350.00
G01 X18.9971 Y34.7234 F350.00
G01 X19.0442 Y34.7587 F350.00
G01 X19.0916 Y34.8014 F350.00
G01 X21.1401 Y36.8497 F350.00
G01 X24.2500 Y36.8497 F350.00
G01 X24.3088 Y36.8524 F350.00
G01 X24.3284 Y36.8543 F350.00
G01 X24.3818 Y36.8623 F350.00
G01 X24.3962 Y36.8654 F350.00
G01 X24.4533 Y36.8799 F350.00
G01 X24.5088 Y36.8995 F350.00
G01 X24.5225 Y36.9050 F350.00
G01 X24.5801 Y36.9324 F350.00
G01 X24.6390 Y36.9678 F350.00
G01 X24.6942 Y37.0087 F350.00
G01 X24.7380 Y37.0481 F350.00
G01 X26.9986 Y39.3084 F350.00
G01 X27.0349 Y39.3483 F350.00
G01 X27.0473 Y39.3635 F350.00
G01 X27.0822 Y39.4110 F350.00
G01 X27.1127 Y39.4614 F350.00
G01 X27.1220 Y39.4787 F350.00
G01 X27.1469 Y39.5320 F350.00
G01 X27.1701 Y39.5967 F350.00
G01 X27.1868 Y39.6634 F350.00
G01 X27.1957 Y39.7216 F350.00
G01 X27.1976 Y39.7412 F350.00
G01 X27.2003 Y39.8000 F350.00
G01 X27.2003 Y45.0099 F350.00
G01 X42.5850 Y60.3947 F350.00
G01 X42.5852 Y59.7002 F350.00
G01 X42.5908 Y59.5924 F350.00
G01 X42.6064 Y59.4856 F350.00
G01 X42.6102 Y59.4663 F350.00
G01 X42.6353 Y59.3664 F350.00
G01 X42.6398 Y59.3523 F350.00
G01 X42.6728 Y59.2599 F350.00
G01 X42.6803 Y59.2418 F350.00
G01 X42.7267 Y59.1443 F350.00
G01 X42.7872 Y59.0433 F350.00
G01 X42.8574 Y58.9487 F350.00
G01 X42.9297 Y58.8686 F350.00
G01 X42.9436 Y58.8547 F350.00
G01 X43.0163 Y58.7888 F350.00
G01 X43.0315 Y58.7763 F350.00
G01 X43.1183 Y58.7122 F350.00
G01 X43.2193 Y58.6517 F350.00
G01 X43.3258 Y58.6013 F350.00
G01 X43.4367 Y58.5617 F350.00
G01 X43.5509 Y58.5331 F350.00
G01 X43.6674 Y58.5158 F350.00
G01 X43.7850 Y58.5100 F350.00
G01 X43.8928 Y58.5151 F350.00
G01 X43.9124 Y58.5170 F350.00
G01 X44.0191 Y58.5331 F350.00
G01 X44.1239 Y58.5591 F350.00
G01 X44.1427 Y58.5648 F350.00
G01 X44.2351 Y58.5978 F350.00
G01 X44.2532 Y58.6053 F350.00
G01 X44.3507 Y58.6517 F350.00
G01 X44.4517 Y58.7122 F350.00
G01 X44.5463 Y58.7824 F350.00
G01 X44.6335 Y58.8615 F350.00
G01 X44.7062 Y58.9413 F350.00
G01 X44.7187 Y58.9565 F350.00
G01 X44.7828 Y59.0433 F350.00
G01 X44.8433 Y59.1443 F350.00
G01 X44.8937 Y59.2508 F350.00
G01 X44.9302 Y59.3523 F350.00
G01 X44.9359 Y59.3711 F350.00
G01 X44.9598 Y59.4663 F350.00
G01 X44.9628 Y59.4807 F350.00
G01 X44.9792 Y59.5924 F350.00
G01 X44.9849 Y59.7051 F350.00
G01 X44.9850 Y60.7100 F350.00
G01 X44.9796 Y60.8227 F350.00
G01 X44.9780 Y60.8374 F350.00
G01 X44.9619 Y60.9441 F350.00
G01 X44.9359 Y61.0489 F350.00
G01 X44.9302 Y61.0677 F350.00
G01 X44.8937 Y61.1692 F350.00
G01 X44.8477 Y61.2669 F350.00
G01 X44.8385 Y61.2842 F350.00
G01 X44.7854 Y61.3726 F350.00
G01 X44.7771 Y61.3847 F350.00
G01 X44.7126 Y61.4713 F350.00
G01 X44.6403 Y61.5514 F350.00
G01 X44.6300 Y61.5620 F350.00
G01 X44.5537 Y61.6312 F350.00
G01 X44.5424 Y61.6407 F350.00
G01 X44.4557 Y61.7050 F350.00
G01 X44.4434 Y61.7130 F350.00
G01 X44.4003 Y61.7389 F350.00
G01 X44.4003 Y62.2099 F350.00
G01 X49.0901 Y66.8997 F350.00
G01 X91.2997 Y66.8997 F350.00
G01 X91.2997 Y65.1500 F350.00
G01 X91.1078 Y65.1498 F350.00
G01 X91.0620 Y65.1473 F350.00
G01 X91.0166 Y65.1408 F350.00
G01 X91.0021 Y65.1381 F350.00
G01 X90.9623 Y65.1282 F350.00
G01 X90.9482 Y65.1241 F350.00
G01 X90.9050 Y65.1086 F350.00
G01 X90.8914 Y65.1028 F350.00
G01 X90.8544 Y65.0852 F350.00
G01 X90.8415 Y65.0781 F350.00
G01 X90.8023 Y65.0543 F350.00
G01 X90.7653 Y65.0272 F350.00
G01 X90.7501 Y65.0147 F350.00
G01 X90.7163 Y64.9837 F350.00
G01 X90.6789 Y64.9425 F350.00
G01 X90.6457 Y64.8977 F350.00
G01 X90.6219 Y64.8585 F350.00
G01 X90.6126 Y64.8412 F350.00
G01 X90.5932 Y64.7996 F350.00
G01 X90.5775 Y64.7565 F350.00
G01 X90.5731 Y64.7424 F350.00
G01 X90.5631 Y64.7027 F350.00
G01 X90.5592 Y64.6834 F350.00
G01 X90.5527 Y64.6380 F350.00
G01 X90.5500 Y64.5824 F350.00
G01 X90.5501 Y62.8127 F350.00
G01 X90.5527 Y62.7620 F350.00
G01 X90.5592 Y62.7166 F350.00
G01 X90.5631 Y62.6973 F350.00
G01 X90.5744 Y62.6529 F350.00
G01 X90.5932 Y62.6004 F350.00
G01 X90.6170 Y62.5501 F350.00
G01 X90.6457 Y62.5023 F350.00
G01 X90.6789 Y62.4575 F350.00
G01 X90.7163 Y62.4163 F350.00
G01 X90.7575 Y62.3789 F350.00
G01 X90.8023 Y62.3457 F350.00
G01 X90.8458 Y62.3194 F350.00
G01 X90.8588 Y62.3126 F350.00
G01 X90.9004 Y62.2932 F350.00
G01 X90.9435 Y62.2775 F350.00
G01 X90.9623 Y62.2718 F350.00
G01 X91.0021 Y62.2619 F350.00
G01 X91.0166 Y62.2592 F350.00
G01 X91.0620 Y62.2527 F350.00
G01 X91.1127 Y62.2501 F350.00
G01 X91.2997 Y62.2500 F350.00
G01 X91.2997 Y62.0000 F350.00
G01 X89.5800 Y62.0000 F350.00
G01 X89.5653 Y61.9995 F350.00
G01 X89.5555 Y61.9985 F350.00
G01 X89.5410 Y61.9962 F350.00
G01 X89.5267 Y61.9928 F350.00
G01 X89.5126 Y61.9883 F350.00
G01 X89.4990 Y61.9828 F350.00
G01 X89.4857 Y61.9764 F350.00
G01 X89.4772 Y61.9715 F350.00
G01 X89.4648 Y61.9635 F350.00
G01 X89.4531 Y61.9546 F350.00
G01 X89.4421 Y61.9448 F350.00
G01 X89.4318 Y61.9343 F350.00
G01 X89.4254 Y61.9269 F350.00
G01 X89.4165 Y61.9152 F350.00
G01 X89.4110 Y61.9070 F350.00
G01 X89.4036 Y61.8943 F350.00
G01 X89.3972 Y61.8810 F350.00
G01 X89.3917 Y61.8674 F350.00
G01 X89.3886 Y61.8581 F350.00
G01 X89.3838 Y61.8390 F350.00
G01 X89.3810 Y61.8196 F350.00
G01 X89.3800 Y61.8000 F350.00
G01 X89.3801 Y57.7951 F350.00
G01 X89.3815 Y57.7755 F350.00
G01 X89.3849 Y57.7562 F350.00
G01 X89.3886 Y57.7419 F350.00
G01 X89.3952 Y57.7235 F350.00
G01 X89.4014 Y57.7101 F350.00
G01 X89.4110 Y57.6930 F350.00
G01 X89.4223 Y57.6770 F350.00
G01 X89.4318 Y57.6657 F350.00
G01 X89.4457 Y57.6518 F350.00
G01 X89.4609 Y57.6394 F350.00
G01 X89.4730 Y57.6310 F350.00
G01 X89.4901 Y57.6214 F350.00
G01 X89.5080 Y57.6134 F350.00
G01 X89.5267 Y57.6072 F350.00
G01 X89.5410 Y57.6038 F350.00
G01 X89.5604 Y57.6010 F350.00
G01 X89.5800 Y57.6000 F350.00
G01 X91.5849 Y57.6001 F350.00
G01 X91.6045 Y57.6015 F350.00
G01 X91.6190 Y57.6038 F350.00
G01 X91.6381 Y57.6086 F350.00
G01 X91.6565 Y57.6152 F350.00
G01 X91.6699 Y57.6214 F350.00
G01 X91.6870 Y57.6310 F350.00
G01 X91.7030 Y57.6423 F350.00
G01 X91.7179 Y57.6552 F350.00
G01 X91.7314 Y57.6694 F350.00
G01 X91.7435 Y57.6848 F350.00
G01 X91.7540 Y57.7014 F350.00
G01 X91.7608 Y57.7145 F350.00
G01 X91.7666 Y57.7280 F350.00
G01 X91.7728 Y57.7467 F350.00
G01 X91.7771 Y57.7658 F350.00
G01 X91.7795 Y57.7853 F350.00
G01 X91.7800 Y57.8000 F350.00
G01 X91.7800 Y60.0097 F350.00
G01 X92.5019 Y60.7320 F350.00
G01 X92.5413 Y60.7758 F350.00
G01 X92.5822 Y60.8310 F350.00
G01 X92.6176 Y60.8899 F350.00
G01 X92.6469 Y60.9520 F350.00
G01 X92.6701 Y61.0167 F350.00
G01 X92.6868 Y61.0834 F350.00
G01 X92.6969 Y61.1514 F350.00
G01 X92.7000 Y61.2102 F350.00
G01 X92.7003 Y62.2500 F350.00
G01 X92.8922 Y62.2502 F350.00
G01 X92.9380 Y62.2527 F350.00
G01 X92.9931 Y62.2609 F350.00
G01 X93.0471 Y62.2744 F350.00
G01 X93.0996 Y62.2932 F350.00
G01 X93.1499 Y62.3170 F350.00
G01 X93.1977 Y62.3457 F350.00
G01 X93.2425 Y62.3789 F350.00
G01 X93.2766 Y62.4095 F350.00
G01 X93.2905 Y62.4234 F350.00
G01 X93.3180 Y62.4538 F350.00
G01 X93.3272 Y62.4653 F350.00
G01 X93.3543 Y62.5023 F350.00
G01 X93.3781 Y62.5415 F350.00
G01 X93.3874 Y62.5588 F350.00
G01 X93.4068 Y62.6004 F350.00
G01 X93.4256 Y62.6529 F350.00
G01 X93.4391 Y62.7069 F350.00
G01 X93.4473 Y62.7620 F350.00
G01 X93.4500 Y62.8176 F350.00
G01 X93.4500 Y64.5824 F350.00
G01 X93.4473 Y64.6380 F350.00
G01 X93.4408 Y64.6834 F350.00
G01 X93.4369 Y64.7027 F350.00
G01 X93.4256 Y64.7471 F350.00
G01 X93.4068 Y64.7996 F350.00
G01 X93.3830 Y64.8499 F350.00
G01 X93.3543 Y64.8977 F350.00
G01 X93.3211 Y64.9425 F350.00
G01 X93.2837 Y64.9837 F350.00
G01 X93.2425 Y65.0211 F350.00
G01 X93.1977 Y65.0543 F350.00
G01 X93.1542 Y65.0806 F350.00
G01 X93.1412 Y65.0874 F350.00
G01 X93.0996 Y65.1068 F350.00
G01 X93.0565 Y65.1225 F350.00
G01 X93.0377 Y65.1282 F350.00
G01 X92.9979 Y65.1381 F350.00
G01 X92.9834 Y65.1408 F350.00
G01 X92.9380 Y65.1473 F350.00
G01 X92.8873 Y65.1499 F350.00
G01 X92.7003 Y65.1500 F350.00
G01 X92.7002 Y67.6049 F350.00
G01 X92.6969 Y67.6686 F350.00
G01 X92.6885 Y67.7269 F350.00
G01 X92.6846 Y67.7462 F350.00
G01 X92.6701 Y67.8033 F350.00
G01 X92.6505 Y67.8588 F350.00
G01 X92.6430 Y67.8769 F350.00
G01 X92.6198 Y67.9257 F350.00
G01 X92.6127 Y67.9386 F350.00
G01 X92.5875 Y67.9807 F350.00
G01 X92.5766 Y67.9971 F350.00
G01 X92.5413 Y68.0442 F350.00
G01 X92.5019 Y68.0880 F350.00
G01 X92.4880 Y68.1019 F350.00
G01 X92.4442 Y68.1413 F350.00
G01 X92.3971 Y68.1766 F350.00
G01 X92.3807 Y68.1875 F350.00
G01 X92.3301 Y68.2176 F350.00
G01 X92.2769 Y68.2430 F350.00
G01 X92.2588 Y68.2505 F350.00
G01 X92.2033 Y68.2701 F350.00
G01 X92.1366 Y68.2868 F350.00
G01 X92.0784 Y68.2957 F350.00
G01 X92.0588 Y68.2976 F350.00
G01 X92.0000 Y68.3003 F350.00
G01 X48.8000 Y68.3003 F350.00
G01 X48.7314 Y68.2969 F350.00
G01 X48.6731 Y68.2885 F350.00
G01 X48.6538 Y68.2846 F350.00
G01 X48.5967 Y68.2701 F350.00
G01 X48.5412 Y68.2505 F350.00
G01 X48.5231 Y68.2430 F350.00
G01 X48.4743 Y68.2198 F350.00
G01 X48.4614 Y68.2127 F350.00
G01 X48.4193 Y68.1875 F350.00
G01 X48.4029 Y68.1766 F350.00
G01 X48.3558 Y68.1413 F350.00
G01 X48.3048 Y68.0952 F350.00
G01 X26.0048 Y45.7952 F350.00
G01 X25.9587 Y45.7442 F350.00
G01 X25.9178 Y45.6890 F350.00
G01 X25.8873 Y45.6386 F350.00
G01 X25.8780 Y45.6213 F350.00
G01 X25.8550 Y45.5725 F350.00
G01 X25.8495 Y45.5588 F350.00
G01 X25.8299 Y45.5033 F350.00
G01 X25.8132 Y45.4366 F350.00
G01 X25.8031 Y45.3686 F350.00
G01 X25.7998 Y45.3049 F350.00
G01 X25.7997 Y40.0901 F350.00
G01 X23.9599 Y38.2503 F350.00
G01 X20.8451 Y38.2502 F350.00
G01 X20.7814 Y38.2469 F350.00
G01 X20.7134 Y38.2368 F350.00
G01 X20.6467 Y38.2201 F350.00
G01 X20.5866 Y38.1988 F350.00
G01 X20.5731 Y38.1930 F350.00
G01 X20.5199 Y38.1676 F350.00
G01 X20.4610 Y38.1322 F350.00
G01 X20.4058 Y38.0913 F350.00
G01 X20.3584 Y38.0486 F350.00
G01 X18.3099 Y36.0003 F350.00
G01 X16.8907 Y36.0003 F350.00
G01 X16.8601 Y36.0279 F350.00
G01 X16.8488 Y36.0374 F350.00
G01 X16.7858 Y36.0842 F350.00
G01 X16.7737 Y36.0926 F350.00
G01 X16.6978 Y36.1378 F350.00
G01 X16.6181 Y36.1758 F350.00
G01 X16.6044 Y36.1812 F350.00
G01 X16.5351 Y36.2060 F350.00
G01 X16.5163 Y36.2117 F350.00
G01 X16.4353 Y36.2317 F350.00
G01 X16.3529 Y36.2442 F350.00
G01 X16.3382 Y36.2458 F350.00
G01 X16.2500 Y36.2500 F350.00
G01 X14.7500 Y36.2500 F350.00
G01 X14.6569 Y36.2454 F350.00
G01 X14.5647 Y36.2317 F350.00
G01 X14.4742 Y36.2091 F350.00
G01 X14.3910 Y36.1795 F350.00
G01 X14.3775 Y36.1737 F350.00
G01 X14.3022 Y36.1378 F350.00
G01 X14.2263 Y36.0926 F350.00
G01 X14.2142 Y36.0842 F350.00
G01 X14.1512 Y36.0374 F350.00
G01 X14.1399 Y36.0279 F350.00
G01 X14.1093 Y36.0003 F350.00
G01 X13.2402 Y36.0000 F350.00
G01 X13.1814 Y35.9969 F350.00
G01 X13.1134 Y35.9868 F350.00
G01 X13.0467 Y35.9701 F350.00
G01 X12.9912 Y35.9505 F350.00
G01 X12.9775 Y35.9450 F350.00
G01 X12.9199 Y35.9176 F350.00
G01 X12.8610 Y35.8822 F350.00
G01 X12.8058 Y35.8413 F350.00
G01 X12.7548 Y35.7952 F350.00
G01 X8.5014 Y31.5416 F350.00
G01 X8.4587 Y31.4942 F350.00
G01 X8.4178 Y31.4390 F350.00
G01 X8.3824 Y31.3801 F350.00
G01 X8.3531 Y31.3180 F350.00
G01 X8.3299 Y31.2533 F350.00
G01 X8.3132 Y31.1866 F350.00
G01 X8.3031 Y31.1186 F350.00
G01 X8.3000 Y31.0598 F350.00
G01 X8.3000 Y26.5402 F350.00
G00 Z0.5000
G00 X11.3070 Y30.6726
G01 F250.00
G01 Z-0.0500
G01 F350.00
G01 X11.3231 Y30.5659 F350.00
G01 X11.3491 Y30.4611 F350.00
G01 X11.3548 Y30.4423 F350.00
G01 X11.3878 Y30.3499 F350.00
G01 X11.3953 Y30.3318 F350.00
G01 X11.4417 Y30.2343 F350.00
G01 X11.5022 Y30.1333 F350.00
G01 X11.5724 Y30.0387 F350.00
G01 X11.6447 Y29.9586 F350.00
G01 X11.6586 Y29.9447 F350.00
G01 X11.7387 Y29.8724 F350.00
G01 X11.8253 Y29.8079 F350.00
G01 X11.8416 Y29.7970 F350.00
G01 X11.9300 Y29.7441 F350.00
G01 X11.9431 Y29.7373 F350.00
G01 X12.0408 Y29.6913 F350.00
G01 X12.1517 Y29.6517 F350.00
G01 X12.2659 Y29.6231 F350.00
G01 X12.3775 Y29.6063 F350.00
G01 X12.3922 Y29.6051 F350.00
G01 X12.5000 Y29.6000 F350.00
G01 X13.2097 Y29.6000 F350.00
G01 X17.5084 Y25.3014 F350.00
G01 X17.5558 Y25.2587 F350.00
G01 X17.6029 Y25.2234 F350.00
G01 X17.6193 Y25.2125 F350.00
G01 X17.6699 Y25.1824 F350.00
G01 X17.7320 Y25.1531 F350.00
G01 X17.7874 Y25.1330 F350.00
G01 X17.8062 Y25.1273 F350.00
G01 X17.8586 Y25.1142 F350.00
G01 X17.8731 Y25.1115 F350.00
G01 X17.9314 Y25.1031 F350.00
G01 X18.0000 Y25.0997 F350.00
G01 X47.7497 Y25.0997 F350.00
G01 X47.7498 Y20.5773 F350.00
G01 X47.7531 Y20.5136 F350.00
G01 X47.7632 Y20.4456 F350.00
G01 X47.7799 Y20.3790 F350.00
G01 X47.7995 Y20.3234 F350.00
G01 X47.8050 Y20.3097 F350.00
G01 X47.8280 Y20.2609 F350.00
G01 X47.8373 Y20.2436 F350.00
G01 X47.8678 Y20.1932 F350.00
G01 X47.9087 Y20.1380 F350.00
G01 X47.9548 Y20.0871 F350.00
G01 X71.8371 Y-3.7952 F350.00
G01 X71.8880 Y-3.8413 F350.00
G01 X71.9352 Y-3.8766 F350.00
G01 X71.9515 Y-3.8875 F350.00
G01 X72.0021 Y-3.9176 F350.00
G01 X72.0553 Y-3.9430 F350.00
G01 X72.0734 Y-3.9505 F350.00
G01 X72.1290 Y-3.9701 F350.00
G01 X72.1860 Y-3.9846 F350.00
G01 X72.2053 Y-3.9885 F350.00
G01 X72.2636 Y-3.9969 F350.00
G01 X72.3322 Y-4.0003 F350.00
G01 X100.0800 Y-4.0003 F350.00
G01 X100.1486 Y-3.9969 F350.00
G01 X100.2069 Y-3.9885 F350.00
G01 X100.2214 Y-3.9858 F350.00
G01 X100.2833 Y-3.9701 F350.00
G01 X100.3388 Y-3.9505 F350.00
G01 X100.3569 Y-3.9430 F350.00
G01 X100.4101 Y-3.9176 F350.00
G01 X100.4607 Y-3.8875 F350.00
G01 X100.4771 Y-3.8766 F350.00
G01 X100.5242 Y-3.8413 F350.00
G01 X100.5680 Y-3.8019 F350.00
G01 X100.5819 Y-3.7880 F350.00
G01 X100.6213 Y-3.7442 F350.00
G01 X100.6566 Y-3.6971 F350.00
G01 X100.6675 Y-3.6807 F350.00
G01 X100.6976 Y-3.6301 F350.00
G01 X100.7230 Y-3.5769 F350.00
G01 X100.7305 Y-3.5588 F350.00
G01 X100.7470 Y-3.5126 F350.00
G01 X100.7515 Y-3.4986 F350.00
G01 X100.7668 Y-3.4366 F350.00
G01 X100.7757 Y-3.3784 F350.00
G01 X100.7776 Y-3.3588 F350.00
G01 X100.7802 Y-3.3049 F350.00
G01 X100.7803 Y-2.1832 F350.00
G01 X100.8335 Y-2.1437 F350.00
G01 X100.8450 Y-2.1345 F350.00
G01 X100.9214 Y-2.0653 F350.00
G01 X100.9320 Y-2.0550 F350.00
G01 X101.0076 Y-1.9713 F350.00
G01 X101.0721 Y-1.8847 F350.00
G01 X101.0804 Y-1.8726 F350.00
G01 X101.1383 Y-1.7757 F350.00
G01 X101.1887 Y-1.6692 F350.00
G01 X101.2283 Y-1.5583 F350.00
G01 X101.2548 Y-1.4537 F350.00
G01 X101.2586 Y-1.4344 F350.00
G01 X101.2742 Y-1.3276 F350.00
G01 X101.2799 Y-1.2149 F350.00
G01 X101.2800 Y-0.0103 F350.00
G01 X102.6986 Y1.4084 F350.00
G01 X102.7349 Y1.4483 F350.00
G01 X102.7473 Y1.4635 F350.00
G01 X102.7822 Y1.5110 F350.00
G01 X102.8127 Y1.5614 F350.00
G01 X102.8220 Y1.5787 F350.00
G01 X102.8469 Y1.6320 F350.00
G01 X102.8670 Y1.6874 F350.00
G01 X102.8715 Y1.7014 F350.00
G01 X102.8868 Y1.7634 F350.00
G01 X102.8957 Y1.8216 F350.00
G01 X102.8976 Y1.8412 F350.00
G01 X102.9003 Y1.9000 F350.00
G01 X102.9003 Y5.6572 F350.00
G01 X110.0897 Y5.6572 F350.00
G01 X110.0899 Y5.4653 F350.00
G01 X110.0924 Y5.4195 F350.00
G01 X110.0989 Y5.3741 F350.00
G01 X110.1016 Y5.3596 F350.00
G01 X110.1115 Y5.3198 F350.00
G01 X110.1156 Y5.3057 F350.00
G01 X110.1310 Y5.2625 F350.00
G01 X110.1368 Y5.2489 F350.00
G01 X110.1544 Y5.2119 F350.00
G01 X110.1615 Y5.1990 F350.00
G01 X110.1853 Y5.1598 F350.00
G01 X110.2125 Y5.1228 F350.00
G01 X110.2249 Y5.1076 F350.00
G01 X110.2559 Y5.0737 F350.00
G01 X110.2972 Y5.0363 F350.00
G01 X110.3419 Y5.0031 F350.00
G01 X110.3812 Y4.9793 F350.00
G01 X110.3941 Y4.9722 F350.00
G01 X110.4311 Y4.9547 F350.00
G01 X110.4446 Y4.9489 F350.00
G01 X110.4878 Y4.9334 F350.00
G01 X110.5020 Y4.9293 F350.00
G01 X110.5466 Y4.9184 F350.00
G01 X110.5919 Y4.9114 F350.00
G01 X110.6066 Y4.9098 F350.00
G01 X110.6524 Y4.9075 F350.00
G01 X112.4220 Y4.9075 F350.00
G01 X112.4776 Y4.9102 F350.00
G01 X112.5327 Y4.9184 F350.00
G01 X112.5773 Y4.9293 F350.00
G01 X112.5961 Y4.9350 F350.00
G01 X112.6392 Y4.9507 F350.00
G01 X112.6896 Y4.9745 F350.00
G01 X112.7291 Y4.9979 F350.00
G01 X112.7454 Y5.0088 F350.00
G01 X112.7821 Y5.0363 F350.00
G01 X112.8234 Y5.0737 F350.00
G01 X112.8544 Y5.1076 F350.00
G01 X112.8668 Y5.1228 F350.00
G01 X112.8940 Y5.1598 F350.00
G01 X112.9226 Y5.2075 F350.00
G01 X112.9425 Y5.2489 F350.00
G01 X112.9500 Y5.2671 F350.00
G01 X112.9652 Y5.3103 F350.00
G01 X112.9766 Y5.3548 F350.00
G01 X112.9804 Y5.3741 F350.00
G01 X112.9869 Y5.4195 F350.00
G01 X112.9897 Y5.4751 F350.00
G01 X112.9897 Y7.2398 F350.00
G01 X112.9869 Y7.2955 F350.00
G01 X112.9796 Y7.3457 F350.00
G01 X112.9766 Y7.3602 F350.00
G01 X112.9678 Y7.3951 F350.00
G01 X112.9621 Y7.4139 F350.00
G01 X112.9464 Y7.4571 F350.00
G01 X112.9226 Y7.5074 F350.00
G01 X112.8992 Y7.5469 F350.00
G01 X112.8883 Y7.5632 F350.00
G01 X112.8608 Y7.5999 F350.00
G01 X112.8234 Y7.6412 F350.00
G01 X112.7896 Y7.6722 F350.00
G01 X112.7744 Y7.6847 F350.00
G01 X112.7374 Y7.7118 F350.00
G01 X112.6896 Y7.7405 F350.00
G01 X112.6392 Y7.7643 F350.00
G01 X112.5961 Y7.7800 F350.00
G01 X112.5773 Y7.7857 F350.00
G01 X112.5423 Y7.7944 F350.00
G01 X112.5279 Y7.7975 F350.00
G01 X112.4776 Y7.8047 F350.00
G01 X112.4220 Y7.8075 F350.00
G01 X110.6573 Y7.8075 F350.00
G01 X110.6017 Y7.8047 F350.00
G01 X110.5562 Y7.7982 F350.00
G01 X110.5370 Y7.7944 F350.00
G01 X110.4925 Y7.7830 F350.00
G01 X110.4401 Y7.7643 F350.00
G01 X110.3897 Y7.7405 F350.00
G01 X110.3419 Y7.7118 F350.00
G01 X110.2972 Y7.6786 F350.00
G01 X110.2559 Y7.6412 F350.00
G01 X110.2185 Y7.5999 F350.00
G01 X110.1853 Y7.5552 F350.00
G01 X110.1590 Y7.5117 F350.00
G01 X110.1523 Y7.4986 F350.00
G01 X110.1329 Y7.4571 F350.00
G01 X110.1172 Y7.4139 F350.00
G01 X110.1115 Y7.3951 F350.00
G01 X110.1016 Y7.3554 F350.00
G01 X110.0989 Y7.3409 F350.00
G01 X110.0924 Y7.2955 F350.00
G01 X110.0897 Y7.2447 F350.00
G01 X110.0897 Y7.0577 F350.00
G01 X102.9003 Y7.0577 F350.00
G01 X102.9003 Y13.5099 F350.00
G01 X103.7019 Y14.3120 F350.00
G01 X103.7349 Y14.3483 F350.00
G01 X103.7444 Y14.3596 F350.00
G01 X103.7766 Y14.4029 F350.00
G01 X103.7875 Y14.4193 F350.00
G01 X103.8152 Y14.4656 F350.00
G01 X103.8220 Y14.4787 F350.00
G01 X103.8469 Y14.5320 F350.00
G01 X103.8611 Y14.5708 F350.00
G01 X104.3886 Y15.0984 F350.00
G01 X104.4313 Y15.1458 F350.00
G01 X104.4666 Y15.1929 F350.00
G01 X104.4775 Y15.2093 F350.00
G01 X104.5052 Y15.2556 F350.00
G01 X104.5120 Y15.2687 F350.00
G01 X104.5369 Y15.3220 F350.00
G01 X104.5601 Y15.3867 F350.00
G01 X104.5768 Y15.4534 F350.00
G01 X104.5857 Y15.5116 F350.00
G01 X104.5873 Y15.5263 F350.00
G01 X104.5903 Y15.5900 F350.00
G01 X104.5903 Y16.4768 F350.00
G01 X104.6513 Y16.5224 F350.00
G01 X104.7314 Y16.5947 F350.00
G01 X104.7453 Y16.6086 F350.00
G01 X104.8145 Y16.6850 F350.00
G01 X104.8237 Y16.6965 F350.00
G01 X104.8878 Y16.7833 F350.00
G01 X104.9459 Y16.8800 F350.00
G01 X104.9527 Y16.8931 F350.00
G01 X104.9987 Y16.9908 F350.00
G01 X105.0383 Y17.1017 F350.00
G01 X105.0669 Y17.2159 F350.00
G01 X105.0830 Y17.3226 F350.00
G01 X105.0849 Y17.3422 F350.00
G01 X105.0900 Y17.4500 F350.00
G01 X105.0899 Y19.4549 F350.00
G01 X105.0842 Y19.5676 F350.00
G01 X105.0669 Y19.6841 F350.00
G01 X105.0383 Y19.7983 F350.00
G01 X105.0022 Y19.9001 F350.00
G01 X104.9967 Y19.9137 F350.00
G01 X104.9483 Y20.0157 F350.00
G01 X104.8878 Y20.1167 F350.00
G01 X104.8176 Y20.2113 F350.00
G01 X104.7453 Y20.2914 F350.00
G01 X104.7314 Y20.3053 F350.00
G01 X104.6587 Y20.3712 F350.00
G01 X104.6435 Y20.3837 F350.00
G01 X104.5567 Y20.4478 F350.00
G01 X104.4557 Y20.5083 F350.00
G01 X104.3492 Y20.5587 F350.00
G01 X104.2383 Y20.5983 F350.00
G01 X104.1241 Y20.6269 F350.00
G01 X104.0174 Y20.6430 F350.00
G01 X103.9978 Y20.6449 F350.00
G01 X103.8998 Y20.6498 F350.00
G01 X103.8802 Y20.6498 F350.00
G01 X103.7724 Y20.6442 F350.00
G01 X103.6559 Y20.6269 F350.00
G01 X103.5417 Y20.5983 F350.00
G01 X103.4399 Y20.5622 F350.00
G01 X103.4218 Y20.5547 F350.00
G01 X103.3243 Y20.5083 F350.00
G01 X103.2233 Y20.4478 F350.00
G01 X103.1365 Y20.3837 F350.00
G01 X103.1213 Y20.3712 F350.00
G01 X103.0486 Y20.3053 F350.00
G01 X103.0347 Y20.2914 F350.00
G01 X102.9624 Y20.2113 F350.00
G01 X102.8922 Y20.1167 F350.00
G01 X102.8317 Y20.0157 F350.00
G01 X102.7853 Y19.9182 F350.00
G01 X102.7778 Y19.9001 F350.00
G01 X102.7448 Y19.8077 F350.00
G01 X102.7391 Y19.7889 F350.00
G01 X102.7131 Y19.6841 F350.00
G01 X102.6958 Y19.5676 F350.00
G01 X102.6900 Y19.4500 F350.00
G01 X102.6900 Y17.4500 F350.00
G01 X102.6951 Y17.3422 F350.00
G01 X102.6963 Y17.3275 F350.00
G01 X102.7131 Y17.2159 F350.00
G01 X102.7417 Y17.1017 F350.00
G01 X102.7813 Y16.9908 F350.00
G01 X102.8273 Y16.8931 F350.00
G01 X102.8341 Y16.8800 F350.00
G01 X102.8922 Y16.7833 F350.00
G01 X102.9563 Y16.6965 F350.00
G01 X102.9655 Y16.6850 F350.00
G01 X103.0347 Y16.6086 F350.00
G01 X103.0486 Y16.5947 F350.00
G01 X103.1287 Y16.5224 F350.00
G01 X103.1897 Y16.4768 F350.00
G01 X103.1897 Y15.8801 F350.00
G01 X102.7048 Y15.3952 F350.00
G01 X102.6619 Y15.3480 F350.00
G01 X102.6527 Y15.3365 F350.00
G01 X102.6178 Y15.2890 F350.00
G01 X102.5848 Y15.2344 F350.00
G01 X102.5780 Y15.2213 F350.00
G01 X102.5550 Y15.1725 F350.00
G01 X102.5495 Y15.1588 F350.00
G01 X102.5389 Y15.1292 F350.00
G01 X101.7048 Y14.2952 F350.00
G01 X101.6587 Y14.2442 F350.00
G01 X101.6234 Y14.1971 F350.00
G01 X101.6125 Y14.1807 F350.00
G01 X101.5824 Y14.1301 F350.00
G01 X101.5531 Y14.0680 F350.00
G01 X101.5330 Y14.0126 F350.00
G01 X101.5273 Y13.9938 F350.00
G01 X101.5132 Y13.9366 F350.00
G01 X101.5037 Y13.8735 F350.00
G01 X101.5024 Y13.8588 F350.00
G01 X101.4997 Y13.8000 F350.00
G01 X101.4997 Y2.1901 F350.00
G01 X100.9381 Y1.6284 F350.00
G01 X100.9285 Y1.6385 F350.00
G01 X100.9214 Y1.6453 F350.00
G01 X100.8487 Y1.7112 F350.00
G01 X100.8335 Y1.7237 F350.00
G01 X100.7467 Y1.7878 F350.00
G01 X100.6457 Y1.8483 F350.00
G01 X100.5482 Y1.8947 F350.00
G01 X100.5301 Y1.9022 F350.00
G01 X100.4283 Y1.9383 F350.00
G01 X100.3141 Y1.9669 F350.00
G01 X100.2074 Y1.9830 F350.00
G01 X100.1878 Y1.9849 F350.00
G01 X100.0800 Y1.9900 F350.00
G01 X99.9624 Y1.9842 F350.00
G01 X99.8556 Y1.9686 F350.00
G01 X99.8363 Y1.9648 F350.00
G01 X99.7317 Y1.9383 F350.00
G01 X99.6299 Y1.9022 F350.00
G01 X99.6118 Y1.8947 F350.00
G01 X99.5143 Y1.8483 F350.00
G01 X99.4133 Y1.7878 F350.00
G01 X99.3187 Y1.7176 F350.00
G01 X99.2315 Y1.6385 F350.00
G01 X99.1524 Y1.5513 F350.00
G01 X99.0822 Y1.4567 F350.00
G01 X99.0217 Y1.3557 F350.00
G01 X98.9733 Y1.2537 F350.00
G01 X98.9678 Y1.2401 F350.00
G01 X98.9317 Y1.1383 F350.00
G01 X98.9031 Y1.0241 F350.00
G01 X98.8858 Y0.9076 F350.00
G01 X98.8801 Y0.7949 F350.00
G01 X98.8800 Y-1.2100 F350.00
G01 X98.8858 Y-1.3276 F350.00
G01 X98.9031 Y-1.4441 F350.00
G01 X98.9317 Y-1.5583 F350.00
G01 X98.9713 Y-1.6692 F350.00
G01 X99.0173 Y-1.7669 F350.00
G01 X99.0241 Y-1.7800 F350.00
G01 X99.0822 Y-1.8767 F350.00
G01 X99.1463 Y-1.9635 F350.00
G01 X99.1555 Y-1.9750 F350.00
G01 X99.2247 Y-2.0514 F350.00
G01 X99.2386 Y-2.0653 F350.00
G01 X99.3187 Y-2.1376 F350.00
G01 X99.3797 Y-2.1832 F350.00
G01 X99.3797 Y-2.5997 F350.00
G01 X72.6223 Y-2.5997 F350.00
G01 X49.1503 Y20.8723 F350.00
G01 X49.1503 Y28.8268 F350.00
G01 X49.2035 Y28.8663 F350.00
G01 X49.2150 Y28.8755 F350.00
G01 X49.2914 Y28.9447 F350.00
G01 X49.3020 Y28.9550 F350.00
G01 X49.3776 Y29.0387 F350.00
G01 X49.4421 Y29.1253 F350.00
G01 X49.4504 Y29.1374 F350.00
G01 X49.5083 Y29.2343 F350.00
G01 X49.5587 Y29.3408 F350.00
G01 X49.5983 Y29.4517 F350.00
G01 X49.6269 Y29.5659 F350.00
G01 X49.6442 Y29.6824 F350.00
G01 X49.6499 Y29.7951 F350.00
G01 X49.6500 Y31.3000 F350.00
G01 X49.6449 Y31.4078 F350.00
G01 X49.6430 Y31.4274 F350.00
G01 X49.6269 Y31.5341 F350.00
G01 X49.6009 Y31.6389 F350.00
G01 X49.5952 Y31.6577 F350.00
G01 X49.5587 Y31.7592 F350.00
G01 X49.5083 Y31.8657 F350.00
G01 X49.4530 Y31.9584 F350.00
G01 X49.4421 Y31.9747 F350.00
G01 X49.3776 Y32.0613 F350.00
G01 X49.3053 Y32.1414 F350.00
G01 X49.2914 Y32.1553 F350.00
G01 X49.2113 Y32.2276 F350.00
G01 X49.1247 Y32.2921 F350.00
G01 X49.1126 Y32.3004 F350.00
G01 X49.0242 Y32.3535 F350.00
G01 X49.0069 Y32.3627 F350.00
G01 X48.9092 Y32.4087 F350.00
G01 X48.8077 Y32.4452 F350.00
G01 X48.7889 Y32.4509 F350.00
G01 X48.6841 Y32.4769 F350.00
G01 X48.5676 Y32.4942 F350.00
G01 X48.4500 Y32.5000 F350.00
G01 X48.3422 Y32.4949 F350.00
G01 X48.3226 Y32.4930 F350.00
G01 X48.2159 Y32.4769 F350.00
G01 X48.1111 Y32.4509 F350.00
G01 X48.0923 Y32.4452 F350.00
G01 X47.9908 Y32.4087 F350.00
G01 X47.8843 Y32.3583 F350.00
G01 X47.7916 Y32.3030 F350.00
G01 X47.7753 Y32.2921 F350.00
G01 X47.6887 Y32.2276 F350.00
G01 X47.6086 Y32.1553 F350.00
G01 X47.5947 Y32.1414 F350.00
G01 X47.5224 Y32.0613 F350.00
G01 X47.4522 Y31.9667 F350.00
G01 X47.3965 Y31.8742 F350.00
G01 X47.3873 Y31.8569 F350.00
G01 X47.3413 Y31.7592 F350.00
G01 X47.3048 Y31.6577 F350.00
G01 X47.2991 Y31.6389 F350.00
G01 X47.2741 Y31.5389 F350.00
G01 X47.2714 Y31.5244 F350.00
G01 X47.2558 Y31.4176 F350.00
G01 X47.2500 Y31.3000 F350.00
G01 X47.2501 Y29.7951 F350.00
G01 X47.2558 Y29.6824 F350.00
G01 X47.2722 Y29.5707 F350.00
G01 X47.2752 Y29.5563 F350.00
G01 X47.3017 Y29.4517 F350.00
G01 X47.3413 Y29.3408 F350.00
G01 X47.3917 Y29.2343 F350.00
G01 X47.4496 Y29.1374 F350.00
G01 X47.4579 Y29.1253 F350.00
G01 X47.5224 Y29.0387 F350.00
G01 X47.5980 Y28.9550 F350.00
G01 X47.6086 Y28.9447 F350.00
G01 X47.6850 Y28.8755 F350.00
G01 X47.6965 Y28.8663 F350.00
G01 X47.7497 Y28.8268 F350.00
G01 X47.7497 Y26.5003 F350.00
G01 X25.4503 Y26.5003 F350.00
G01 X25.4503 Y34.5099 F350.00
G01 X26.7401 Y35.7997 F350.00
G01 X35.2049 Y35.7998 F350.00
G01 X35.2686 Y35.8031 F350.00
G01 X35.3269 Y35.8115 F350.00
G01 X35.3462 Y35.8154 F350.00
G01 X35.4033 Y35.8299 F350.00
G01 X35.4588 Y35.8495 F350.00
G01 X35.4769 Y35.8570 F350.00
G01 X35.5301 Y35.8824 F350.00
G01 X35.5807 Y35.9125 F350.00
G01 X35.5971 Y35.9234 F350.00
G01 X35.6442 Y35.9587 F350.00
G01 X35.6952 Y36.0048 F350.00
G01 X36.6602 Y36.9698 F350.00
G01 X36.7063 Y37.0208 F350.00
G01 X36.7416 Y37.0679 F350.00
G01 X36.7525 Y37.0843 F350.00
G01 X36.7826 Y37.1349 F350.00
G01 X36.8119 Y37.1970 F350.00
G01 X36.8351 Y37.2617 F350.00
G01 X36.8518 Y37.3284 F350.00
G01 X36.8607 Y37.3866 F350.00
G01 X36.8623 Y37.4013 F350.00
G01 X36.8653 Y37.4650 F350.00
G01 X36.8653 Y38.4168 F350.00
G01 X36.9185 Y38.4563 F350.00
G01 X36.9300 Y38.4655 F350.00
G01 X37.0064 Y38.5347 F350.00
G01 X37.0170 Y38.5450 F350.00
G01 X37.0926 Y38.6287 F350.00
G01 X37.1571 Y38.7153 F350.00
G01 X37.1654 Y38.7274 F350.00
G01 X37.2233 Y38.8243 F350.00
G01 X37.2737 Y38.9308 F350.00
G01 X37.3133 Y39.0417 F350.00
G01 X37.3419 Y39.1559 F350.00
G01 X37.3592 Y39.2724 F350.00
G01 X37.3649 Y39.3851 F350.00
G01 X37.3649 Y40.3949 F350.00
G01 X37.3599 Y40.4978 F350.00
G01 X37.3580 Y40.5174 F350.00
G01 X37.3419 Y40.6241 F350.00
G01 X37.3147 Y40.7336 F350.00
G01 X37.3102 Y40.7477 F350.00
G01 X37.2737 Y40.8492 F350.00
G01 X37.2233 Y40.9557 F350.00
G01 X37.1628 Y41.0567 F350.00
G01 X37.0926 Y41.1513 F350.00
G01 X37.0135 Y41.2385 F350.00
G01 X36.9263 Y41.3176 F350.00
G01 X36.8317 Y41.3878 F350.00
G01 X36.7307 Y41.4483 F350.00
G01 X36.6242 Y41.4987 F350.00
G01 X36.5133 Y41.5383 F350.00
G01 X36.3991 Y41.5669 F350.00
G01 X36.2826 Y41.5842 F350.00
G01 X36.1650 Y41.5900 F350.00
G01 X36.0474 Y41.5842 F350.00
G01 X35.9309 Y41.5669 F350.00
G01 X35.8261 Y41.5409 F350.00
G01 X35.8073 Y41.5352 F350.00
G01 X35.7058 Y41.4987 F350.00
G01 X35.6081 Y41.4527 F350.00
G01 X35.5908 Y41.4435 F350.00
G01 X35.5066 Y41.3930 F350.00
G01 X35.4903 Y41.3821 F350.00
G01 X35.4037 Y41.3176 F350.00
G01 X35.3236 Y41.2453 F350.00
G01 X35.3097 Y41.2314 F350.00
G01 X35.2374 Y41.1513 F350.00
G01 X35.1672 Y41.0567 F350.00
G01 X35.1067 Y40.9557 F350.00
G01 X35.0563 Y40.8492 F350.00
G01 X35.0167 Y40.7383 F350.00
G01 X34.9902 Y40.6337 F350.00
G01 X34.9864 Y40.6144 F350.00
G01 X34.9720 Y40.5174 F350.00
G01 X34.9701 Y40.4978 F350.00
G01 X34.9650 Y40.3900 F350.00
G01 X34.9650 Y39.3900 F350.00
G01 X34.9701 Y39.2822 F350.00
G01 X34.9713 Y39.2675 F350.00
G01 X34.9881 Y39.1559 F350.00
G01 X35.0167 Y39.0417 F350.00
G01 X35.0563 Y38.9308 F350.00
G01 X35.1023 Y38.8331 F350.00
G01 X35.1091 Y38.8200 F350.00
G01 X35.1672 Y38.7233 F350.00
G01 X35.2313 Y38.6365 F350.00
G01 X35.2405 Y38.6250 F350.00
G01 X35.3097 Y38.5486 F350.00
G01 X35.3236 Y38.5347 F350.00
G01 X35.4037 Y38.4624 F350.00
G01 X35.4647 Y38.4168 F350.00
G01 X35.4647 Y37.7551 F350.00
G01 X34.9099 Y37.2003 F350.00
G01 X26.4500 Y37.2003 F350.00
G01 X26.3814 Y37.1969 F350.00
G01 X26.3182 Y37.1877 F350.00
G01 X26.3038 Y37.1846 F350.00
G01 X26.2562 Y37.1727 F350.00
G01 X26.2374 Y37.1670 F350.00
G01 X26.1820 Y37.1469 F350.00
G01 X26.1199 Y37.1176 F350.00
G01 X26.0693 Y37.0875 F350.00
G01 X26.0529 Y37.0766 F350.00
G01 X26.0058 Y37.0413 F350.00
G01 X25.9620 Y37.0019 F350.00
G01 X24.2548 Y35.2952 F350.00
G01 X24.2119 Y35.2480 F350.00
G01 X24.2027 Y35.2365 F350.00
G01 X24.1678 Y35.1890 F350.00
G01 X24.1373 Y35.1386 F350.00
G01 X24.1280 Y35.1213 F350.00
G01 X24.1050 Y35.0725 F350.00
G01 X24.0995 Y35.0588 F350.00
G01 X24.0799 Y35.0033 F350.00
G01 X24.0632 Y34.9366 F350.00
G01 X24.0531 Y34.8686 F350.00
G01 X24.0498 Y34.8049 F350.00
G01 X24.0497 Y26.5003 F350.00
G01 X18.2901 Y26.5003 F350.00
G01 X14.5575 Y30.2328 F350.00
G01 X14.5627 Y30.2431 F350.00
G01 X14.6087 Y30.3408 F350.00
G01 X14.6483 Y30.4517 F350.00
G01 X14.6769 Y30.5659 F350.00
G01 X14.6930 Y30.6726 F350.00
G01 X14.6949 Y30.6922 F350.00
G01 X14.7000 Y30.8000 F350.00
G01 X14.6949 Y30.9078 F350.00
G01 X14.6930 Y30.9274 F350.00
G01 X14.6786 Y31.0244 F350.00
G01 X14.6748 Y31.0437 F350.00
G01 X14.6483 Y31.1483 F350.00
G01 X14.6087 Y31.2592 F350.00
G01 X14.5583 Y31.3657 F350.00
G01 X14.4978 Y31.4667 F350.00
G01 X14.4276 Y31.5613 F350.00
G01 X14.3553 Y31.6414 F350.00
G01 X14.3414 Y31.6553 F350.00
G01 X14.2687 Y31.7212 F350.00
G01 X14.2535 Y31.7337 F350.00
G01 X14.1667 Y31.7978 F350.00
G01 X14.0742 Y31.8535 F350.00
G01 X14.0569 Y31.8627 F350.00
G01 X13.9592 Y31.9087 F350.00
G01 X13.8530 Y31.9468 F350.00
G01 X13.8389 Y31.9509 F350.00
G01 X13.7437 Y31.9748 F350.00
G01 X13.7244 Y31.9786 F350.00
G01 X13.6176 Y31.9942 F350.00
G01 X13.5098 Y31.9998 F350.00
G01 X12.4902 Y31.9998 F350.00
G01 X12.3922 Y31.9949 F350.00
G01 X12.3726 Y31.9930 F350.00
G01 X12.2659 Y31.9769 F350.00
G01 X12.1611 Y31.9509 F350.00
G01 X12.1423 Y31.9452 F350.00
G01 X12.0408 Y31.9087 F350.00
G01 X11.9387 Y31.8606 F350.00
G01 X11.9258 Y31.8535 F350.00
G01 X11.8416 Y31.8030 F350.00
G01 X11.8253 Y31.7921 F350.00
G01 X11.7387 Y31.7276 F350.00
G01 X11.6515 Y31.6485 F350.00
G01 X11.5724 Y31.5613 F350.00
G01 X11.5079 Y31.4747 F350.00
G01 X11.4970 Y31.4584 F350.00
G01 X11.4417 Y31.3657 F350.00
G01 X11.3953 Y31.2682 F350.00
G01 X11.3878 Y31.2501 F350.00
G01 X11.3517 Y31.1483 F350.00
G01 X11.3231 Y31.0341 F350.00
G01 X11.3058 Y30.9176 F350.00
G01 X11.3002 Y30.8098 F350.00
G01 X11.3002 Y30.7902 F350.00
G01 X11.3051 Y30.6922 F350.00
G01 X11.3070 Y30.6726 F350.00
G00 Z0.5000
G00 X3.1557 Y34.6996
G01 F250.00
G01 Z-0.0500
G01 F350.00
G01 X3.1678 Y34.6195 F350.00
G01 X3.1872 Y34.5409 F350.00
G01 X3.1929 Y34.5222 F350.00
G01 X3.2169 Y34.4552 F350.00
G01 X3.2244 Y34.4370 F350.00
G01 X3.2592 Y34.3640 F350.00
G01 X3.3059 Y34.2861 F350.00
G01 X3.3600 Y34.2132 F350.00
G01 X3.4142 Y34.1530 F350.00
G01 X3.4280 Y34.1392 F350.00
G01 X3.4882 Y34.0850 F350.00
G01 X3.5531 Y34.0365 F350.00
G01 X3.5694 Y34.0256 F350.00
G01 X3.6347 Y33.9866 F350.00
G01 X3.6477 Y33.9798 F350.00
G01 X3.7210 Y33.9454 F350.00
G01 X3.8065 Y33.9148 F350.00
G01 X3.8945 Y33.8928 F350.00
G01 X3.9843 Y33.8795 F350.00
G01 X4.0750 Y33.8750 F350.00
G01 X4.6497 Y33.8750 F350.00
G01 X4.6497 Y33.4500 F350.00
G01 X4.6524 Y33.3912 F350.00
G01 X4.6543 Y33.3716 F350.00
G01 X4.6632 Y33.3134 F350.00
G01 X4.6773 Y33.2562 F350.00
G01 X4.6814 Y33.2420 F350.00
G01 X4.6995 Y33.1912 F350.00
G01 X4.7070 Y33.1731 F350.00
G01 X4.7324 Y33.1199 F350.00
G01 X4.7678 Y33.0610 F350.00
G01 X4.8087 Y33.0058 F350.00
G01 X4.8548 Y32.9548 F350.00
G01 X6.0497 Y31.7599 F350.00
G01 X6.0497 Y24.5500 F350.00
G01 X6.0524 Y24.4912 F350.00
G01 X6.0543 Y24.4716 F350.00
G01 X6.0632 Y24.4134 F350.00
G01 X6.0773 Y24.3562 F350.00
G01 X6.0830 Y24.3374 F350.00
G01 X6.1031 Y24.2820 F350.00
G01 X6.1324 Y24.2199 F350.00
G01 X6.1625 Y24.1693 F350.00
G01 X6.1734 Y24.1529 F350.00
G01 X6.2027 Y24.1135 F350.00
G01 X6.2119 Y24.1020 F350.00
G01 X6.2548 Y24.0548 F350.00
G01 X7.2997 Y23.0099 F350.00
G01 X7.2997 Y22.5171 F350.00
G01 X7.2623 Y22.4893 F350.00
G01 X7.2508 Y22.4801 F350.00
G01 X7.1727 Y22.4093 F350.00
G01 X7.1624 Y22.3987 F350.00
G01 X7.0949 Y22.3242 F350.00
G01 X7.0857 Y22.3127 F350.00
G01 X7.0230 Y22.2278 F350.00
G01 X6.9661 Y22.1332 F350.00
G01 X6.9593 Y22.1201 F350.00
G01 X6.9144 Y22.0247 F350.00
G01 X6.8756 Y21.9161 F350.00
G01 X6.8476 Y21.8042 F350.00
G01 X6.8312 Y21.6950 F350.00
G01 X6.8299 Y21.6804 F350.00
G01 X6.8250 Y21.5750 F350.00
G01 X6.8250 Y20.5250 F350.00
G01 X6.8299 Y20.4196 F350.00
G01 X6.8319 Y20.4001 F350.00
G01 X6.8459 Y20.3054 F350.00
G01 X6.8497 Y20.2862 F350.00
G01 X6.8756 Y20.1839 F350.00
G01 X6.9144 Y20.0753 F350.00
G01 X6.9593 Y19.9799 F350.00
G01 X6.9686 Y19.9626 F350.00
G01 X7.0230 Y19.8722 F350.00
G01 X7.0886 Y19.7834 F350.00
G01 X7.0981 Y19.7722 F350.00
G01 X7.1624 Y19.7013 F350.00
G01 X7.1727 Y19.6907 F350.00
G01 X7.2508 Y19.6199 F350.00
G01 X7.2623 Y19.6107 F350.00
G01 X7.2997 Y19.5829 F350.00
G01 X7.2998 Y19.5051 F350.00
G01 X7.3024 Y19.4512 F350.00
G01 X7.3037 Y19.4365 F350.00
G01 X7.3132 Y19.3734 F350.00
G01 X7.3273 Y19.3162 F350.00
G01 X7.3330 Y19.2974 F350.00
G01 X7.3495 Y19.2512 F350.00
G01 X7.3550 Y19.2375 F350.00
G01 X7.3780 Y19.1887 F350.00
G01 X7.3873 Y19.1714 F350.00
G01 X7.4151 Y19.1251 F350.00
G01 X7.4234 Y19.1129 F350.00
G01 X7.4587 Y19.0658 F350.00
G01 X7.4981 Y19.0220 F350.00
G01 X12.0159 Y14.5038 F350.00
G01 X12.0159 Y13.3000 F350.00
G01 X11.6791 Y13.2999 F350.00
G01 X11.6644 Y13.2990 F350.00
G01 X11.6498 Y13.2971 F350.00
G01 X11.6354 Y13.2940 F350.00
G01 X11.6213 Y13.2899 F350.00
G01 X11.6075 Y13.2848 F350.00
G01 X11.5941 Y13.2786 F350.00
G01 X11.5812 Y13.2715 F350.00
G01 X11.5688 Y13.2635 F350.00
G01 X11.5571 Y13.2546 F350.00
G01 X11.5461 Y13.2448 F350.00
G01 X11.5392 Y13.2379 F350.00
G01 X11.5294 Y13.2269 F350.00
G01 X11.5205 Y13.2152 F350.00
G01 X11.5125 Y13.2028 F350.00
G01 X11.5054 Y13.1899 F350.00
G01 X11.4992 Y13.1765 F350.00
G01 X11.4941 Y13.1627 F350.00
G01 X11.4900 Y13.1486 F350.00
G01 X11.4869 Y13.1342 F350.00
G01 X11.4850 Y13.1196 F350.00
G01 X11.4840 Y13.1000 F350.00
G01 X11.4840 Y10.1000 F350.00
G01 X11.4845 Y10.0853 F350.00
G01 X11.4862 Y10.0707 F350.00
G01 X11.4889 Y10.0562 F350.00
G01 X11.4926 Y10.0419 F350.00
G01 X11.4974 Y10.0280 F350.00
G01 X11.5032 Y10.0145 F350.00
G01 X11.5100 Y10.0014 F350.00
G01 X11.5177 Y9.9889 F350.00
G01 X11.5263 Y9.9770 F350.00
G01 X11.5326 Y9.9694 F350.00
G01 X11.5392 Y9.9621 F350.00
G01 X11.5497 Y9.9518 F350.00
G01 X11.5571 Y9.9454 F350.00
G01 X11.5688 Y9.9365 F350.00
G01 X11.5770 Y9.9310 F350.00
G01 X11.5897 Y9.9236 F350.00
G01 X11.6030 Y9.9172 F350.00
G01 X11.6120 Y9.9134 F350.00
G01 X11.6213 Y9.9101 F350.00
G01 X11.6354 Y9.9060 F350.00
G01 X11.6547 Y9.9022 F350.00
G01 X11.6693 Y9.9005 F350.00
G01 X11.6791 Y9.9001 F350.00
G01 X13.6840 Y9.9000 F350.00
G01 X13.7036 Y9.9010 F350.00
G01 X13.7230 Y9.9038 F350.00
G01 X13.7421 Y9.9086 F350.00
G01 X13.7605 Y9.9152 F350.00
G01 X13.7739 Y9.9214 F350.00
G01 X13.7868 Y9.9285 F350.00
G01 X13.7992 Y9.9365 F350.00
G01 X13.8109 Y9.9454 F350.00
G01 X13.8219 Y9.9552 F350.00
G01 X13.8322 Y9.9657 F350.00
G01 X13.8417 Y9.9770 F350.00
G01 X13.8475 Y9.9848 F350.00
G01 X13.8555 Y9.9972 F350.00
G01 X13.8626 Y10.0101 F350.00
G01 X13.8688 Y10.0235 F350.00
G01 X13.8723 Y10.0326 F350.00
G01 X13.8768 Y10.0467 F350.00
G01 X13.8802 Y10.0610 F350.00
G01 X13.8825 Y10.0755 F350.00
G01 X13.8838 Y10.0902 F350.00
G01 X13.8840 Y13.1000 F350.00
G01 X13.8835 Y13.1147 F350.00
G01 X13.8818 Y13.1293 F350.00
G01 X13.8791 Y13.1438 F350.00
G01 X13.8754 Y13.1581 F350.00
G01 X13.8706 Y13.1720 F350.00
G01 X13.8668 Y13.1810 F350.00
G01 X13.8604 Y13.1943 F350.00
G01 X13.8530 Y13.2070 F350.00
G01 X13.8446 Y13.2191 F350.00
G01 X13.8354 Y13.2306 F350.00
G01 X13.8254 Y13.2414 F350.00
G01 X13.8183 Y13.2482 F350.00
G01 X13.8070 Y13.2577 F350.00
G01 X13.7951 Y13.2663 F350.00
G01 X13.7826 Y13.2740 F350.00
G01 X13.7695 Y13.2808 F350.00
G01 X13.7560 Y13.2866 F350.00
G01 X13.7421 Y13.2914 F350.00
G01 X13.7278 Y13.2951 F350.00
G01 X13.7085 Y13.2985 F350.00
G01 X13.6938 Y13.2998 F350.00
G01 X13.4164 Y13.3000 F350.00
G01 X13.4163 Y14.7988 F350.00
G01 X13.4130 Y14.8625 F350.00
G01 X13.4029 Y14.9305 F350.00
G01 X13.3862 Y14.9972 F350.00
G01 X13.3631 Y15.0619 F350.00
G01 X13.3337 Y15.1240 F350.00
G01 X13.2984 Y15.1829 F350.00
G01 X13.2574 Y15.2381 F350.00
G01 X13.2113 Y15.2890 F350.00
G01 X8.8181 Y19.6822 F350.00
G01 X8.8273 Y19.6907 F350.00
G01 X8.8376 Y19.7013 F350.00
G01 X8.9019 Y19.7722 F350.00
G01 X8.9143 Y19.7873 F350.00
G01 X8.9770 Y19.8722 F350.00
G01 X9.0314 Y19.9626 F350.00
G01 X9.0407 Y19.9799 F350.00
G01 X9.0856 Y20.0753 F350.00
G01 X9.1244 Y20.1839 F350.00
G01 X9.1524 Y20.2958 F350.00
G01 X9.1681 Y20.4001 F350.00
G01 X9.1701 Y20.4196 F350.00
G01 X9.1750 Y20.5250 F350.00
G01 X9.1749 Y21.5799 F350.00
G01 X9.1701 Y21.6804 F350.00
G01 X9.1681 Y21.6999 F350.00
G01 X9.1524 Y21.8042 F350.00
G01 X9.1258 Y21.9114 F350.00
G01 X9.1213 Y21.9254 F350.00
G01 X9.0891 Y22.0155 F350.00
G01 X9.0816 Y22.0336 F350.00
G01 X9.0363 Y22.1289 F350.00
G01 X8.9822 Y22.2195 F350.00
G01 X8.9742 Y22.2318 F350.00
G01 X8.9083 Y22.3204 F350.00
G01 X8.8343 Y22.4023 F350.00
G01 X8.8237 Y22.4126 F350.00
G01 X8.7492 Y22.4801 F350.00
G01 X8.7377 Y22.4893 F350.00
G01 X8.7003 Y22.5171 F350.00
G01 X8.7003 Y23.3000 F350.00
G01 X8.6973 Y23.3637 F350.00
G01 X8.6957 Y23.3784 F350.00
G01 X8.6868 Y23.4366 F350.00
G01 X8.6701 Y23.5033 F350.00
G01 X8.6469 Y23.5680 F350.00
G01 X8.6220 Y23.6213 F350.00
G01 X8.6152 Y23.6344 F350.00
G01 X8.5875 Y23.6807 F350.00
G01 X8.5766 Y23.6971 F350.00
G01 X8.5413 Y23.7442 F350.00
G01 X8.4986 Y23.7916 F350.00
G01 X7.4503 Y24.8401 F350.00
G01 X7.4503 Y32.0500 F350.00
G01 X7.4469 Y32.1186 F350.00
G01 X7.4385 Y32.1769 F350.00
G01 X7.4346 Y32.1962 F350.00
G01 X7.4201 Y32.2533 F350.00
G01 X7.4005 Y32.3088 F350.00
G01 X7.3930 Y32.3269 F350.00
G01 X7.3676 Y32.3801 F350.00
G01 X7.3375 Y32.4307 F350.00
G01 X7.3266 Y32.4471 F350.00
G01 X7.2913 Y32.4942 F350.00
G01 X7.2452 Y32.5452 F350.00
G01 X6.0503 Y33.7401 F350.00
G01 X6.0503 Y33.8750 F350.00
G01 X6.6299 Y33.8751 F350.00
G01 X6.7157 Y33.8795 F350.00
G01 X6.8006 Y33.8919 F350.00
G01 X6.8150 Y33.8949 F350.00
G01 X6.8841 Y33.9122 F350.00
G01 X6.9028 Y33.9179 F350.00
G01 X6.9790 Y33.9454 F350.00
G01 X7.0523 Y33.9798 F350.00
G01 X7.0696 Y33.9891 F350.00
G01 X7.1389 Y34.0309 F350.00
G01 X7.2041 Y34.0789 F350.00
G01 X7.2192 Y34.0914 F350.00
G01 X7.2791 Y34.1459 F350.00
G01 X7.3400 Y34.2132 F350.00
G01 X7.3941 Y34.2861 F350.00
G01 X7.4359 Y34.3554 F350.00
G01 X7.4452 Y34.3727 F350.00
G01 X7.4756 Y34.4370 F350.00
G01 X7.4831 Y34.4552 F350.00
G01 X7.5102 Y34.5315 F350.00
G01 X7.5301 Y34.6100 F350.00
G01 X7.5339 Y34.6292 F350.00
G01 X7.5443 Y34.6996 F350.00
G01 X7.5463 Y34.7191 F350.00
G01 X7.5500 Y34.8000 F350.00
G01 X7.5455 Y34.8907 F350.00
G01 X7.5322 Y34.9805 F350.00
G01 X7.5128 Y35.0591 F350.00
G01 X7.5071 Y35.0778 F350.00
G01 X7.4796 Y35.1540 F350.00
G01 X7.4408 Y35.2360 F350.00
G01 X7.3994 Y35.3056 F350.00
G01 X7.3885 Y35.3219 F350.00
G01 X7.3400 Y35.3868 F350.00
G01 X7.2858 Y35.4470 F350.00
G01 X7.2720 Y35.4608 F350.00
G01 X7.2118 Y35.5150 F350.00
G01 X7.1469 Y35.5635 F350.00
G01 X7.1306 Y35.5744 F350.00
G01 X7.0610 Y35.6158 F350.00
G01 X6.9880 Y35.6506 F350.00
G01 X6.9698 Y35.6581 F350.00
G01 X6.8935 Y35.6852 F350.00
G01 X6.8150 Y35.7051 F350.00
G01 X6.8006 Y35.7081 F350.00
G01 X6.7157 Y35.7205 F350.00
G01 X6.6250 Y35.7250 F350.00
G01 X4.0750 Y35.7250 F350.00
G01 X3.9843 Y35.7205 F350.00
G01 X3.8945 Y35.7072 F350.00
G01 X3.8065 Y35.6852 F350.00
G01 X3.7210 Y35.6546 F350.00
G01 X3.6390 Y35.6158 F350.00
G01 X3.5611 Y35.5691 F350.00
G01 X3.4882 Y35.5150 F350.00
G01 X3.4209 Y35.4541 F350.00
G01 X3.3600 Y35.3868 F350.00
G01 X3.3059 Y35.3139 F350.00
G01 X3.2592 Y35.2360 F350.00
G01 X3.2204 Y35.1540 F350.00
G01 X3.1898 Y35.0685 F350.00
G01 X3.1678 Y34.9805 F350.00
G01 X3.1545 Y34.8907 F350.00
G01 X3.1500 Y34.8000 F350.00
G01 X3.1537 Y34.7191 F350.00
G01 X3.1557 Y34.6996 F350.00
G00 Z0.5000
G00 X26.8000 Y34.9324
G01 F250.00
G01 Z-0.0500
G01 F350.00
G01 X26.8000 Y33.1676 F350.00
G01 X26.8027 Y33.1120 F350.00
G01 X26.8109 Y33.0569 F350.00
G01 X26.8218 Y33.0123 F350.00
G01 X26.8275 Y32.9935 F350.00
G01 X26.8432 Y32.9504 F350.00
G01 X26.8670 Y32.9001 F350.00
G01 X26.8904 Y32.8606 F350.00
G01 X26.9013 Y32.8443 F350.00
G01 X26.9289 Y32.8075 F350.00
G01 X26.9663 Y32.7663 F350.00
G01 X27.0075 Y32.7289 F350.00
G01 X27.0443 Y32.7013 F350.00
G01 X27.0606 Y32.6904 F350.00
G01 X27.1001 Y32.6670 F350.00
G01 X27.1504 Y32.6432 F350.00
G01 X27.1935 Y32.6275 F350.00
G01 X27.2123 Y32.6218 F350.00
G01 X27.2473 Y32.6131 F350.00
G01 X27.2617 Y32.6100 F350.00
G01 X27.3120 Y32.6027 F350.00
G01 X27.3676 Y32.6000 F350.00
G01 X29.1324 Y32.6000 F350.00
G01 X29.1880 Y32.6027 F350.00
G01 X29.2334 Y32.6092 F350.00
G01 X29.2527 Y32.6131 F350.00
G01 X29.2971 Y32.6244 F350.00
G01 X29.3496 Y32.6432 F350.00
G01 X29.3999 Y32.6670 F350.00
G01 X29.4477 Y32.6957 F350.00
G01 X29.4925 Y32.7289 F350.00
G01 X29.5337 Y32.7663 F350.00
G01 X29.5711 Y32.8075 F350.00
G01 X29.6043 Y32.8523 F350.00
G01 X29.6306 Y32.8958 F350.00
G01 X29.6374 Y32.9088 F350.00
G01 X29.6568 Y32.9504 F350.00
G01 X29.6725 Y32.9935 F350.00
G01 X29.6782 Y33.0123 F350.00
G01 X29.6881 Y33.0521 F350.00
G01 X29.6908 Y33.0666 F350.00
G01 X29.6973 Y33.1120 F350.00
G01 X29.6999 Y33.1627 F350.00
G01 X29.7000 Y33.3497 F350.00
G01 X35.5049 Y33.3498 F350.00
G01 X35.5588 Y33.3524 F350.00
G01 X35.5784 Y33.3543 F350.00
G01 X35.6366 Y33.3632 F350.00
G01 X35.6938 Y33.3773 F350.00
G01 X35.7126 Y33.3830 F350.00
G01 X35.7680 Y33.4031 F350.00
G01 X35.8213 Y33.4280 F350.00
G01 X35.8386 Y33.4373 F350.00
G01 X35.8890 Y33.4678 F350.00
G01 X35.9365 Y33.5027 F350.00
G01 X35.9517 Y33.5151 F350.00
G01 X35.9952 Y33.5548 F350.00
G01 X38.7452 Y36.3048 F350.00
G01 X38.7913 Y36.3558 F350.00
G01 X38.8322 Y36.4110 F350.00
G01 X38.8676 Y36.4699 F350.00
G01 X38.8950 Y36.5275 F350.00
G01 X38.9005 Y36.5412 F350.00
G01 X38.9201 Y36.5967 F350.00
G01 X38.9368 Y36.6634 F350.00
G01 X38.9469 Y36.7314 F350.00
G01 X38.9503 Y36.8000 F350.00
G01 X38.9503 Y41.7599 F350.00
G01 X39.7901 Y42.5997 F350.00
G01 X71.0247 Y42.5997 F350.00
G01 X71.0247 Y41.3632 F350.00
G01 X70.9637 Y41.3176 F350.00
G01 X70.8836 Y41.2453 F350.00
G01 X70.8697 Y41.2314 F350.00
G01 X70.8005 Y41.1550 F350.00
G01 X70.7913 Y41.1435 F350.00
G01 X70.7272 Y41.0567 F350.00
G01 X70.6715 Y40.9642 F350.00
G01 X70.6644 Y40.9513 F350.00
G01 X70.6203 Y40.8582 F350.00
G01 X70.6128 Y40.8401 F350.00
G01 X70.5767 Y40.7383 F350.00
G01 X70.5502 Y40.6337 F350.00
G01 X70.5464 Y40.6144 F350.00
G01 X70.5308 Y40.5076 F350.00
G01 X70.5250 Y40.3900 F350.00
G01 X70.5251 Y39.3851 F350.00
G01 X70.5308 Y39.2724 F350.00
G01 X70.5481 Y39.1559 F350.00
