%
(; SHAPEOKO POSTPROCESSED v1)
( Source: FRONT_NCC_2.4mm_0.4mm_cnc.nc )
( Stripped: M30 only - kept T#/M6/M0/M1/MSG for Shapeoko/Carbide Motion )
( Wrapped with Shapeoko start/end blocks - mirrors 1001.nc structure )
G90        ( absolute positioning )
G17        ( XY plane select )
G21        ( mm units )
G94        ( feedrate units/min )
G28 G91 Z0 ( safe Z home - assumes machine has been homed )
G90        ( back to absolute )
G54        ( work coordinate system 1 )
M5         ( ensure spindle off at start )

(G-CODE GENERATED BY FLATCAM v8.994 - www.flatcam.org - Version Date: 2020/11/7)

(Name: FRONT_NCC_2.4mm_0.4mm_cnc)
(Type: G-code from Geometry)
(Units: MM)

(Created on Friday, 26 June 2026 at 05:19)

(This preprocessor is used with a motion controller loaded with GRBL firmware.)
(It is configured to be compatible with almost any version of GRBL firmware.)

(TOOL DIAMETER: 2.4 mm)
(Feedrate_XY: 350.0 mm/min)
(Feedrate_Z: 250.0 mm/min)
(Feedrate rapids 1500.0 mm/min)

(Z_Cut: -0.05 mm)
(Z_Move: 0.5 mm)
(Z Start: None mm)
(Z End: 40.0 mm)
(X,Y End: None mm)
(Steps per circle: 64)
(Steps per circle: 64)
(Preprocessor Geometry: grbl_11)

(X range:    0.9997 ...  134.3003  mm)
(Y range:   -4.6003 ...   70.4003  mm)

(Spindle Speed: 0.0 RPM)
G21
G90
G17
G94


G01 F350.00

M5             
G00 Z40.0000
G00 X0.0000 Y0.0000                
T1 M6
(MSG, Change to Tool Dia = 2.4000)
M0
G00 Z40.0000

M03
G01 F350.00
G00 X3.5450 Y5.4403
G01 F250.00
G01 Z-0.0500
G01 F350.00
G01 X61.1875 Y5.4403 F350.00
G01 X62.7475 Y3.8803 F350.00
G01 X17.3240 Y3.8803 F350.00
G00 Z0.5000
G00 X17.4240 Y2.3203
G01 F250.00
G01 Z-0.0500
G01 F350.00
G01 X64.3075 Y2.3203 F350.00
G01 X65.8675 Y0.7603 F350.00
G01 X17.0581 Y0.7603 F350.00
G00 Z0.5000
G00 X13.3899 Y0.7603
G01 F250.00
G01 Z-0.0500
G01 F350.00
G01 X10.6220 Y0.7603 F350.00
G01 X13.0240 Y2.3203 F350.00
G01 X6.9760 Y2.3203 F350.00
G00 Z0.5000
G00 X6.8760 Y3.8803
G01 F250.00
G01 Z-0.0500
G01 F350.00
G01 X13.1240 Y3.8803 F350.00
G00 Z0.5000
G00 X10.4840 Y10.6003
G01 F250.00
G01 Z-0.0500
G01 F350.00
G01 X10.2043 Y10.6003 F350.00
G01 X9.5160 Y11.2885 F350.00
G01 X9.5160 Y12.2250 F350.00
G01 X9.5156 Y12.2544 F350.00
G01 X9.5146 Y12.2839 F350.00
G01 X9.5097 Y12.3819 F350.00
G01 X9.5079 Y12.4113 F350.00
G01 X9.5054 Y12.4406 F350.00
G01 X9.5022 Y12.4699 F350.00
G01 X9.4982 Y12.4991 F350.00
G01 X9.4838 Y12.5962 F350.00
G01 X9.4791 Y12.6252 F350.00
G01 X9.4737 Y12.6542 F350.00
G01 X9.4676 Y12.6830 F350.00
G01 X9.4608 Y12.7117 F350.00
G01 X9.4370 Y12.8069 F350.00
G01 X9.4295 Y12.8353 F350.00
G01 X9.4213 Y12.8636 F350.00
G01 X9.4124 Y12.8917 F350.00
G01 X9.4028 Y12.9196 F350.00
G01 X9.3697 Y13.0120 F350.00
G01 X9.3595 Y13.0396 F350.00
G01 X9.3485 Y13.0669 F350.00
G01 X9.3369 Y13.0940 F350.00
G01 X9.3247 Y13.1207 F350.00
G01 X9.2827 Y13.2095 F350.00
G01 X9.2698 Y13.2359 F350.00
G01 X9.2562 Y13.2621 F350.00
G01 X9.2420 Y13.2879 F350.00
G01 X9.2272 Y13.3133 F350.00
G01 X9.1767 Y13.3975 F350.00
G01 X9.1613 Y13.4226 F350.00
G01 X9.1452 Y13.4473 F350.00
G01 X9.1286 Y13.4715 F350.00
G01 X9.1113 Y13.4954 F350.00
G01 X9.0529 Y13.5742 F350.00
G01 X9.0350 Y13.5977 F350.00
G01 X9.0163 Y13.6211 F350.00
G01 X9.0163 Y16.0892 F350.00
G01 X11.0116 Y14.0939 F350.00
G01 X10.9930 Y14.0811 F350.00
G01 X10.9692 Y14.0638 F350.00
G01 X10.9457 Y14.0460 F350.00
G01 X10.9227 Y14.0276 F350.00
G01 X10.9002 Y14.0087 F350.00
G01 X10.8781 Y13.9891 F350.00
G01 X10.8566 Y13.9691 F350.00
G01 X10.8355 Y13.9485 F350.00
G01 X10.8149 Y13.9274 F350.00
G01 X10.7949 Y13.9059 F350.00
G01 X10.7753 Y13.8838 F350.00
G01 X10.7564 Y13.8613 F350.00
G01 X10.7380 Y13.8383 F350.00
G01 X10.7202 Y13.8148 F350.00
G01 X10.7029 Y13.7910 F350.00
G01 X10.6862 Y13.7667 F350.00
G01 X10.6702 Y13.7420 F350.00
G01 X10.6547 Y13.7169 F350.00
G01 X10.6399 Y13.6915 F350.00
G01 X10.6257 Y13.6657 F350.00
G01 X10.6121 Y13.6395 F350.00
G01 X10.5992 Y13.6131 F350.00
G01 X10.5869 Y13.5863 F350.00
G01 X10.5753 Y13.5592 F350.00
G01 X10.5644 Y13.5319 F350.00
G01 X10.5541 Y13.5043 F350.00
G01 X10.5446 Y13.4764 F350.00
G01 X10.5357 Y13.4483 F350.00
G01 X10.5275 Y13.4201 F350.00
G01 X10.5200 Y13.3916 F350.00
G01 X10.5132 Y13.3629 F350.00
G01 X10.5071 Y13.3341 F350.00
G01 X10.5017 Y13.3052 F350.00
G01 X10.4970 Y13.2761 F350.00
G01 X10.4930 Y13.2469 F350.00
G01 X10.4898 Y13.2176 F350.00
G01 X10.4873 Y13.1883 F350.00
G01 X10.4854 Y13.1589 F350.00
G01 X10.4844 Y13.1294 F350.00
G01 X10.4840 Y13.1000 F350.00
G01 X10.4840 Y10.6003 F350.00
G01 X10.4840 Y11.6803 F350.00
G01 X9.5160 Y11.6803 F350.00
G00 Z0.5000
G00 X9.2675 Y13.2403
G01 F250.00
G01 Z-0.0500
G01 F350.00
G01 X10.4923 Y13.2403 F350.00
G01 X10.3052 Y14.8003 F350.00
G01 X9.0163 Y14.8003 F350.00
G00 Z0.5000
G00 X5.6157 Y14.8003
G01 F250.00
G01 Z-0.0500
G01 F350.00
G01 X2.3964 Y14.8003 F350.00
G01 X2.2059 Y16.3529 F350.00
G01 X2.2706 Y16.3501 F350.00
G01 X2.3000 Y16.3497 F350.00
G01 X5.2957 Y16.3497 F350.00
G01 X5.6157 Y16.0297 F350.00
G01 X5.6157 Y14.2584 F350.00
G01 X5.5906 Y14.2685 F350.00
G01 X5.5630 Y14.2787 F350.00
G01 X5.4706 Y14.3118 F350.00
G01 X5.4410 Y14.3219 F350.00
G01 X5.4135 Y14.3306 F350.00
G01 X5.3858 Y14.3386 F350.00
G01 X5.3579 Y14.3460 F350.00
G01 X5.2627 Y14.3698 F350.00
G01 X5.2340 Y14.3766 F350.00
G01 X5.2052 Y14.3827 F350.00
G01 X5.1762 Y14.3881 F350.00
G01 X5.1472 Y14.3928 F350.00
G01 X5.0501 Y14.4072 F350.00
G01 X5.0209 Y14.4112 F350.00
G01 X4.9916 Y14.4144 F350.00
G01 X4.9623 Y14.4169 F350.00
G01 X4.9329 Y14.4187 F350.00
G01 X4.8349 Y14.4236 F350.00
G01 X4.8054 Y14.4246 F350.00
G01 X4.7760 Y14.4250 F350.00
G01 X4.7466 Y14.4246 F350.00
G01 X4.7171 Y14.4236 F350.00
G01 X4.6191 Y14.4187 F350.00
G01 X4.5897 Y14.4169 F350.00
G01 X4.5604 Y14.4144 F350.00
G01 X4.5311 Y14.4112 F350.00
G01 X4.5019 Y14.4072 F350.00
G01 X4.4048 Y14.3928 F350.00
G01 X4.3758 Y14.3881 F350.00
G01 X4.3468 Y14.3827 F350.00
G01 X4.3180 Y14.3766 F350.00
G01 X4.2893 Y14.3698 F350.00
G01 X4.1941 Y14.3460 F350.00
G01 X4.1657 Y14.3385 F350.00
G01 X4.1374 Y14.3303 F350.00
G01 X4.1093 Y14.3214 F350.00
G01 X4.0814 Y14.3118 F350.00
G01 X3.9890 Y14.2787 F350.00
G01 X3.9614 Y14.2685 F350.00
G01 X3.9341 Y14.2575 F350.00
G01 X3.9070 Y14.2459 F350.00
G01 X3.8803 Y14.2337 F350.00
G01 X3.7915 Y14.1917 F350.00
G01 X3.7651 Y14.1788 F350.00
G01 X3.7389 Y14.1652 F350.00
G01 X3.7131 Y14.1510 F350.00
G01 X3.6877 Y14.1362 F350.00
G01 X3.6035 Y14.0857 F350.00
G01 X3.5784 Y14.0703 F350.00
G01 X3.5537 Y14.0542 F350.00
G01 X3.5295 Y14.0376 F350.00
G01 X3.5056 Y14.0203 F350.00
G01 X3.4268 Y13.9619 F350.00
G01 X3.4033 Y13.9440 F350.00
G01 X3.3803 Y13.9256 F350.00
G01 X3.3578 Y13.9067 F350.00
G01 X3.3357 Y13.8872 F350.00
G01 X3.2630 Y13.8212 F350.00
G01 X3.2414 Y13.8012 F350.00
G01 X3.2204 Y13.7806 F350.00
G01 X3.1998 Y13.7596 F350.00
G01 X3.1798 Y13.7380 F350.00
G01 X3.1138 Y13.6653 F350.00
G01 X3.0943 Y13.6432 F350.00
G01 X3.0754 Y13.6207 F350.00
G01 X3.0570 Y13.5977 F350.00
G01 X3.0391 Y13.5742 F350.00
G01 X2.9807 Y13.4954 F350.00
G01 X2.9634 Y13.4715 F350.00
G01 X2.9468 Y13.4473 F350.00
G01 X2.9307 Y13.4226 F350.00
G01 X2.9153 Y13.3975 F350.00
G01 X2.8648 Y13.3133 F350.00
G01 X2.8500 Y13.2879 F350.00
G01 X2.8358 Y13.2621 F350.00
G01 X2.8222 Y13.2359 F350.00
G01 X2.8093 Y13.2095 F350.00
G01 X2.7673 Y13.1207 F350.00
G01 X2.7551 Y13.0940 F350.00
G01 X2.7435 Y13.0669 F350.00
G01 X2.7325 Y13.0396 F350.00
G01 X2.7223 Y13.0120 F350.00
G01 X2.6892 Y12.9196 F350.00
G01 X2.6791 Y12.8900 F350.00
G01 X2.6704 Y12.8625 F350.00
G01 X2.6624 Y12.8348 F350.00
G01 X2.6456 Y12.7694 F350.00
G01 X2.2059 Y16.3529 F350.00
G01 X2.5879 Y13.2403 F350.00
G01 X2.8245 Y13.2403 F350.00
G00 Z0.5000
G00 X3.1622 Y8.5603
G01 F250.00
G01 Z-0.0500
G01 F350.00
G01 X7.4352 Y8.5603 F350.00
G00 Z0.5000
G00 X6.0460 Y9.1794
G01 F250.00
G01 Z-0.0500
G01 F350.00
G01 X6.0695 Y9.1624 F350.00
G01 X6.0937 Y9.1458 F350.00
G01 X6.1184 Y9.1297 F350.00
G01 X6.1435 Y9.1143 F350.00
G01 X6.2277 Y9.0638 F350.00
G01 X6.2531 Y9.0490 F350.00
G01 X6.2789 Y9.0348 F350.00
G01 X6.3051 Y9.0212 F350.00
G01 X6.3315 Y9.0083 F350.00
G01 X6.4203 Y8.9663 F350.00
G01 X6.4470 Y8.9541 F350.00
G01 X6.4741 Y8.9425 F350.00
G01 X6.5014 Y8.9315 F350.00
G01 X6.5290 Y8.9213 F350.00
G01 X6.6237 Y8.8874 F350.00
G01 X6.6510 Y8.8781 F350.00
G01 X6.6785 Y8.8694 F350.00
G01 X6.7062 Y8.8614 F350.00
G01 X6.7341 Y8.8540 F350.00
G01 X6.8293 Y8.8302 F350.00
G01 X6.8580 Y8.8234 F350.00
G01 X6.8868 Y8.8173 F350.00
G01 X6.9158 Y8.8119 F350.00
G01 X6.9448 Y8.8072 F350.00
G01 X7.0419 Y8.7928 F350.00
G01 X7.0711 Y8.7888 F350.00
G01 X7.1004 Y8.7856 F350.00
G01 X7.1297 Y8.7831 F350.00
G01 X7.2171 Y8.7784 F350.00
G01 X8.2977 Y7.6977 F350.00
G01 X8.3188 Y7.6772 F350.00
G01 X8.3404 Y7.6571 F350.00
G01 X8.3988 Y7.6047 F350.00
G01 X8.4214 Y7.5857 F350.00
G01 X8.4444 Y7.5673 F350.00
G01 X8.4678 Y7.5495 F350.00
G01 X8.5311 Y7.5030 F350.00
G01 X8.5554 Y7.4863 F350.00
G01 X8.5801 Y7.4702 F350.00
G01 X8.6052 Y7.4548 F350.00
G01 X8.6727 Y7.4147 F350.00
G01 X8.6985 Y7.4005 F350.00
G01 X8.7247 Y7.3869 F350.00
G01 X8.7511 Y7.3740 F350.00
G01 X8.8223 Y7.3408 F350.00
G01 X8.8493 Y7.3292 F350.00
G01 X8.8767 Y7.3182 F350.00
G01 X8.9527 Y7.2906 F350.00
G01 X8.9800 Y7.2813 F350.00
G01 X9.0076 Y7.2726 F350.00
G01 X9.0353 Y7.2646 F350.00
G01 X9.1108 Y7.2453 F350.00
G01 X9.1395 Y7.2385 F350.00
G01 X9.1683 Y7.2324 F350.00
G01 X9.1973 Y7.2270 F350.00
G01 X9.2749 Y7.2151 F350.00
G01 X9.3041 Y7.2112 F350.00
G01 X9.3333 Y7.2079 F350.00
G01 X9.3627 Y7.2054 F350.00
G01 X9.3921 Y7.2036 F350.00
G01 X9.4706 Y7.2001 F350.00
G01 X9.5000 Y7.1997 F350.00
G01 X17.6000 Y7.1997 F350.00
G01 X17.6294 Y7.2001 F350.00
G01 X17.7079 Y7.2036 F350.00
G01 X17.7373 Y7.2054 F350.00
G01 X17.7667 Y7.2079 F350.00
G01 X17.7959 Y7.2112 F350.00
G01 X17.8737 Y7.2224 F350.00
G01 X17.9027 Y7.2270 F350.00
G01 X17.9317 Y7.2324 F350.00
G01 X17.9605 Y7.2385 F350.00
G01 X17.9892 Y7.2453 F350.00
G01 X18.0653 Y7.2648 F350.00
G01 X18.0936 Y7.2730 F350.00
G01 X18.1216 Y7.2819 F350.00
G01 X18.1495 Y7.2914 F350.00
G01 X18.2233 Y7.3182 F350.00
G01 X18.2507 Y7.3292 F350.00
G01 X18.2777 Y7.3408 F350.00
G01 X18.3489 Y7.3740 F350.00
G01 X18.3753 Y7.3869 F350.00
G01 X18.4015 Y7.4005 F350.00
G01 X18.4273 Y7.4147 F350.00
G01 X18.4948 Y7.4548 F350.00
G01 X18.5199 Y7.4702 F350.00
G01 X18.5446 Y7.4863 F350.00
G01 X18.5689 Y7.5030 F350.00
G01 X18.5928 Y7.5202 F350.00
G01 X18.6556 Y7.5673 F350.00
G01 X18.6786 Y7.5857 F350.00
G01 X18.7012 Y7.6047 F350.00
G01 X18.7596 Y7.6571 F350.00
G01 X18.7812 Y7.6772 F350.00
G01 X18.8023 Y7.6977 F350.00
G01 X18.8228 Y7.7188 F350.00
G01 X18.8429 Y7.7404 F350.00
G01 X18.8953 Y7.7988 F350.00
G01 X18.9143 Y7.8214 F350.00
G01 X18.9327 Y7.8444 F350.00
G01 X18.9505 Y7.8678 F350.00
G01 X18.9970 Y7.9311 F350.00
G01 X19.0137 Y7.9554 F350.00
G01 X19.0298 Y7.9801 F350.00
G01 X19.0705 Y8.0473 F350.00
G01 X19.0853 Y8.0727 F350.00
G01 X19.0995 Y8.0985 F350.00
G01 X19.1131 Y8.1247 F350.00
G01 X19.1470 Y8.1955 F350.00
G01 X19.1592 Y8.2223 F350.00
G01 X19.1708 Y8.2493 F350.00
G01 X19.1818 Y8.2767 F350.00
G01 X19.2086 Y8.3505 F350.00
G01 X19.2174 Y8.3763 F350.00
G01 X19.2266 Y8.4050 F350.00
G01 X19.2350 Y8.4340 F350.00
G01 X19.2427 Y8.4632 F350.00
G01 X19.2615 Y8.5395 F350.00
G01 X19.2676 Y8.5683 F350.00
G01 X19.2730 Y8.5973 F350.00
G01 X19.2776 Y8.6263 F350.00
G01 X19.2888 Y8.7041 F350.00
G01 X19.2921 Y8.7333 F350.00
G01 X19.2946 Y8.7627 F350.00
G01 X19.2964 Y8.7921 F350.00
G01 X19.2999 Y8.8706 F350.00
G01 X19.3003 Y8.9000 F350.00
G01 X19.3003 Y19.4500 F350.00
G01 X19.2999 Y19.4794 F350.00
G01 X19.2964 Y19.5579 F350.00
G01 X19.2946 Y19.5873 F350.00
G01 X19.2921 Y19.6167 F350.00
G01 X19.2888 Y19.6459 F350.00
G01 X19.2849 Y19.6751 F350.00
G01 X19.2730 Y19.7527 F350.00
G01 X19.2676 Y19.7817 F350.00
G01 X19.2615 Y19.8105 F350.00
G01 X19.2547 Y19.8392 F350.00
G01 X19.2352 Y19.9153 F350.00
G01 X19.2270 Y19.9436 F350.00
G01 X19.2181 Y19.9716 F350.00
G01 X19.2086 Y19.9995 F350.00
G01 X19.1818 Y20.0733 F350.00
G01 X19.1708 Y20.1007 F350.00
G01 X19.1592 Y20.1277 F350.00
G01 X19.1470 Y20.1545 F350.00
G01 X19.1131 Y20.2253 F350.00
G01 X19.0995 Y20.2515 F350.00
G01 X19.0853 Y20.2773 F350.00
G01 X19.0452 Y20.3448 F350.00
G01 X19.0298 Y20.3699 F350.00
G01 X19.0137 Y20.3946 F350.00
G01 X18.9970 Y20.4189 F350.00
G01 X18.9505 Y20.4822 F350.00
G01 X18.9327 Y20.5056 F350.00
G01 X18.9143 Y20.5286 F350.00
G01 X18.8953 Y20.5512 F350.00
G01 X18.8429 Y20.6096 F350.00
G01 X18.8228 Y20.6312 F350.00
G01 X18.8023 Y20.6523 F350.00
G01 X15.1301 Y24.3244 F350.00
G01 X15.1817 Y24.3818 F350.00
G01 X15.2006 Y24.4043 F350.00
G01 X15.2190 Y24.4273 F350.00
G01 X15.2369 Y24.4508 F350.00
G01 X15.2953 Y24.5296 F350.00
G01 X15.3126 Y24.5535 F350.00
G01 X15.3292 Y24.5777 F350.00
G01 X15.3453 Y24.6024 F350.00
G01 X15.3607 Y24.6275 F350.00
G01 X15.4112 Y24.7117 F350.00
G01 X15.4260 Y24.7371 F350.00
G01 X15.4402 Y24.7629 F350.00
G01 X15.4538 Y24.7891 F350.00
G01 X15.4667 Y24.8155 F350.00
G01 X15.5087 Y24.9043 F350.00
G01 X15.5209 Y24.9310 F350.00
G01 X15.5325 Y24.9581 F350.00
G01 X15.5435 Y24.9854 F350.00
G01 X15.5537 Y25.0130 F350.00
G01 X15.5868 Y25.1054 F350.00
G01 X15.5969 Y25.1350 F350.00
G01 X15.6056 Y25.1625 F350.00
G01 X15.6136 Y25.1902 F350.00
G01 X15.6210 Y25.2181 F350.00
G01 X15.6448 Y25.3133 F350.00
G01 X15.6516 Y25.3420 F350.00
G01 X15.6577 Y25.3708 F350.00
G01 X15.6631 Y25.3998 F350.00
G01 X15.6678 Y25.4288 F350.00
G01 X15.6822 Y25.5259 F350.00
G01 X15.6862 Y25.5551 F350.00
G01 X15.6894 Y25.5844 F350.00
G01 X15.6919 Y25.6137 F350.00
G01 X15.6965 Y25.6990 F350.00
G01 X16.7977 Y24.5977 F350.00
G01 X16.8188 Y24.5772 F350.00
G01 X16.8768 Y24.5242 F350.00
G01 X16.8988 Y24.5047 F350.00
G01 X16.9214 Y24.4857 F350.00
G01 X16.9444 Y24.4673 F350.00
G01 X17.0072 Y24.4202 F350.00
G01 X17.0311 Y24.4030 F350.00
G01 X17.0554 Y24.3863 F350.00
G01 X17.0801 Y24.3702 F350.00
G01 X17.1473 Y24.3295 F350.00
G01 X17.1727 Y24.3147 F350.00
G01 X17.1985 Y24.3005 F350.00
G01 X17.2247 Y24.2869 F350.00
G01 X17.2511 Y24.2740 F350.00
G01 X17.3223 Y24.2408 F350.00
G01 X17.3493 Y24.2292 F350.00
G01 X17.3767 Y24.2182 F350.00
G01 X17.4043 Y24.2080 F350.00
G01 X17.4763 Y24.1826 F350.00
G01 X17.5050 Y24.1734 F350.00
G01 X17.5340 Y24.1650 F350.00
G01 X17.5632 Y24.1573 F350.00
G01 X17.6395 Y24.1385 F350.00
G01 X17.6683 Y24.1324 F350.00
G01 X17.6973 Y24.1270 F350.00
G01 X17.7749 Y24.1151 F350.00
G01 X17.8041 Y24.1112 F350.00
G01 X17.8333 Y24.1079 F350.00
G01 X17.8627 Y24.1054 F350.00
G01 X17.8921 Y24.1036 F350.00
G01 X17.9706 Y24.1001 F350.00
G01 X18.0000 Y24.0997 F350.00
G01 X46.7497 Y24.0997 F350.00
G01 X46.7497 Y20.5822 F350.00
G01 X46.7501 Y20.5528 F350.00
G01 X46.7536 Y20.4743 F350.00
G01 X46.7554 Y20.4449 F350.00
G01 X46.7579 Y20.4156 F350.00
G01 X46.7612 Y20.3863 F350.00
G01 X46.7651 Y20.3571 F350.00
G01 X46.7770 Y20.2795 F350.00
G01 X46.7824 Y20.2505 F350.00
G01 X46.7885 Y20.2217 F350.00
G01 X46.8073 Y20.1454 F350.00
G01 X46.8148 Y20.1170 F350.00
G01 X46.8230 Y20.0887 F350.00
G01 X46.8319 Y20.0606 F350.00
G01 X46.8580 Y19.9865 F350.00
G01 X46.8682 Y19.9589 F350.00
G01 X46.8792 Y19.9316 F350.00
G01 X46.8908 Y19.9045 F350.00
G01 X46.9030 Y19.8777 F350.00
G01 X46.9369 Y19.8069 F350.00
G01 X46.9505 Y19.7807 F350.00
G01 X46.9647 Y19.7549 F350.00
G01 X47.0048 Y19.6874 F350.00
G01 X47.0202 Y19.6623 F350.00
G01 X47.0363 Y19.6376 F350.00
G01 X47.0530 Y19.6133 F350.00
G01 X47.0702 Y19.5895 F350.00
G01 X47.1173 Y19.5266 F350.00
G01 X47.1357 Y19.5036 F350.00
G01 X47.1547 Y19.4811 F350.00
G01 X47.2071 Y19.4226 F350.00
G01 X47.2272 Y19.4011 F350.00
G01 X47.2477 Y19.3800 F350.00
G01 X70.0685 Y-3.4408 F350.00
G01 X16.6851 Y0.3318 F350.00
G01 X16.7370 Y0.3788 F350.00
G01 X16.7586 Y0.3988 F350.00
G01 X16.7796 Y0.4194 F350.00
G01 X16.8002 Y0.4404 F350.00
G01 X16.8202 Y0.4620 F350.00
G01 X16.8862 Y0.5347 F350.00
G01 X16.9057 Y0.5568 F350.00
G01 X16.9246 Y0.5793 F350.00
G01 X16.9430 Y0.6023 F350.00
G01 X16.9609 Y0.6258 F350.00
G01 X17.0193 Y0.7046 F350.00
G01 X17.0366 Y0.7285 F350.00
G01 X17.0532 Y0.7527 F350.00
G01 X17.0693 Y0.7774 F350.00
G01 X17.0847 Y0.8025 F350.00
G01 X17.1352 Y0.8867 F350.00
G01 X17.1500 Y0.9121 F350.00
G01 X17.1642 Y0.9379 F350.00
G01 X17.1778 Y0.9641 F350.00
G01 X17.1907 Y0.9905 F350.00
G01 X17.2327 Y1.0793 F350.00
G01 X17.2449 Y1.1060 F350.00
G01 X17.2565 Y1.1331 F350.00
G01 X17.2675 Y1.1604 F350.00
G01 X17.2777 Y1.1880 F350.00
G01 X17.3197 Y1.3062 F350.00
G01 X17.3288 Y1.3350 F350.00
G01 X17.3373 Y1.3640 F350.00
G01 X17.3450 Y1.3931 F350.00
G01 X17.3688 Y1.4883 F350.00
G01 X17.3756 Y1.5170 F350.00
G01 X17.3817 Y1.5458 F350.00
G01 X17.3871 Y1.5748 F350.00
G01 X17.3918 Y1.6038 F350.00
G01 X17.4062 Y1.7009 F350.00
G01 X17.4102 Y1.7301 F350.00
G01 X17.4134 Y1.7594 F350.00
G01 X17.4159 Y1.7887 F350.00
G01 X17.4177 Y1.8181 F350.00
G01 X17.4226 Y1.9161 F350.00
G01 X17.4236 Y1.9456 F350.00
G01 X17.4240 Y1.9750 F350.00
G01 X17.4240 Y3.2250 F350.00
G01 X17.4236 Y3.2544 F350.00
G01 X17.4226 Y3.2839 F350.00
G01 X17.4177 Y3.3819 F350.00
G01 X17.4159 Y3.4113 F350.00
G01 X17.4134 Y3.4406 F350.00
G01 X17.4102 Y3.4699 F350.00
G01 X17.4062 Y3.4991 F350.00
G01 X17.3918 Y3.5962 F350.00
G01 X17.3871 Y3.6252 F350.00
G01 X17.3817 Y3.6542 F350.00
G01 X17.3756 Y3.6830 F350.00
G01 X17.3688 Y3.7117 F350.00
G01 X17.3450 Y3.8069 F350.00
G01 X17.3375 Y3.8353 F350.00
G01 X17.3293 Y3.8636 F350.00
G01 X17.3204 Y3.8917 F350.00
G01 X17.3108 Y3.9196 F350.00
G01 X17.2777 Y4.0120 F350.00
G01 X17.2675 Y4.0396 F350.00
G01 X17.2565 Y4.0669 F350.00
G01 X17.2449 Y4.0940 F350.00
G01 X17.2327 Y4.1207 F350.00
G01 X17.1907 Y4.2095 F350.00
G01 X17.1778 Y4.2359 F350.00
G01 X17.1642 Y4.2621 F350.00
G01 X17.1500 Y4.2879 F350.00
G01 X17.1352 Y4.3133 F350.00
G01 X17.0847 Y4.3975 F350.00
G01 X17.0693 Y4.4226 F350.00
G01 X17.0532 Y4.4473 F350.00
G01 X17.0366 Y4.4715 F350.00
G01 X17.0193 Y4.4954 F350.00
G01 X16.9609 Y4.5742 F350.00
G01 X16.9430 Y4.5977 F350.00
G01 X16.9246 Y4.6207 F350.00
G01 X16.9057 Y4.6432 F350.00
G01 X16.8862 Y4.6653 F350.00
G01 X16.8202 Y4.7380 F350.00
G01 X16.8002 Y4.7596 F350.00
G01 X16.7796 Y4.7806 F350.00
G01 X16.7586 Y4.8012 F350.00
G01 X16.7370 Y4.8212 F350.00
G01 X16.6643 Y4.8872 F350.00
G01 X16.6422 Y4.9067 F350.00
G01 X16.6197 Y4.9256 F350.00
G01 X16.5967 Y4.9440 F350.00
G01 X16.5732 Y4.9619 F350.00
G01 X16.4944 Y5.0203 F350.00
G01 X16.4705 Y5.0376 F350.00
G01 X16.4463 Y5.0542 F350.00
G01 X16.4216 Y5.0703 F350.00
G01 X16.3965 Y5.0857 F350.00
G01 X16.3123 Y5.1362 F350.00
G01 X16.2869 Y5.1510 F350.00
G01 X16.2611 Y5.1652 F350.00
G01 X16.2349 Y5.1788 F350.00
G01 X16.2085 Y5.1917 F350.00
G01 X16.1197 Y5.2337 F350.00
G01 X16.0930 Y5.2459 F350.00
G01 X16.0659 Y5.2575 F350.00
G01 X16.0386 Y5.2685 F350.00
G01 X16.0110 Y5.2787 F350.00
G01 X15.9186 Y5.3118 F350.00
G01 X15.8928 Y5.3207 F350.00
G01 X15.8640 Y5.3298 F350.00
G01 X15.8350 Y5.3383 F350.00
G01 X15.8059 Y5.3460 F350.00
G01 X15.7107 Y5.3698 F350.00
G01 X15.6820 Y5.3766 F350.00
G01 X15.6532 Y5.3827 F350.00
G01 X15.6242 Y5.3881 F350.00
G01 X15.5952 Y5.3928 F350.00
G01 X15.4981 Y5.4072 F350.00
G01 X15.4689 Y5.4112 F350.00
G01 X15.4396 Y5.4144 F350.00
G01 X15.4103 Y5.4169 F350.00
G01 X15.3809 Y5.4187 F350.00
G01 X15.2829 Y5.4236 F350.00
G01 X15.2534 Y5.4246 F350.00
G01 X15.2240 Y5.4250 F350.00
G01 X15.1946 Y5.4246 F350.00
G01 X15.1651 Y5.4236 F350.00
G01 X15.0671 Y5.4187 F350.00
G01 X15.0377 Y5.4169 F350.00
G01 X15.0084 Y5.4144 F350.00
G01 X14.9791 Y5.4112 F350.00
G01 X14.9499 Y5.4072 F350.00
G01 X14.8528 Y5.3928 F350.00
G01 X14.8238 Y5.3881 F350.00
G01 X14.7948 Y5.3827 F350.00
G01 X14.7660 Y5.3766 F350.00
G01 X14.7373 Y5.3698 F350.00
G01 X14.6421 Y5.3460 F350.00
G01 X14.6137 Y5.3385 F350.00
G01 X14.5854 Y5.3303 F350.00
G01 X14.5573 Y5.3214 F350.00
G01 X14.5294 Y5.3118 F350.00
G01 X14.4370 Y5.2787 F350.00
G01 X14.4094 Y5.2685 F350.00
G01 X14.3821 Y5.2575 F350.00
G01 X14.3550 Y5.2459 F350.00
G01 X14.3283 Y5.2337 F350.00
G01 X14.2395 Y5.1917 F350.00
G01 X14.2131 Y5.1788 F350.00
G01 X14.1869 Y5.1652 F350.00
G01 X14.1611 Y5.1510 F350.00
G01 X14.1357 Y5.1362 F350.00
G01 X14.0515 Y5.0857 F350.00
G01 X14.0264 Y5.0703 F350.00
G01 X14.0017 Y5.0542 F350.00
G01 X13.9775 Y5.0376 F350.00
G01 X13.9536 Y5.0203 F350.00
G01 X13.8748 Y4.9619 F350.00
G01 X13.8513 Y4.9440 F350.00
G01 X13.8283 Y4.9256 F350.00
G01 X13.8058 Y4.9067 F350.00
G01 X13.7837 Y4.8872 F350.00
G01 X13.7110 Y4.8212 F350.00
G01 X13.6894 Y4.8012 F350.00
G01 X13.6684 Y4.7806 F350.00
G01 X13.6478 Y4.7596 F350.00
G01 X13.6278 Y4.7380 F350.00
G01 X13.5618 Y4.6653 F350.00
G01 X13.5423 Y4.6432 F350.00
G01 X13.5234 Y4.6207 F350.00
G01 X13.5050 Y4.5977 F350.00
G01 X13.4871 Y4.5742 F350.00
G01 X13.4287 Y4.4954 F350.00
G01 X13.4114 Y4.4715 F350.00
G01 X13.3948 Y4.4473 F350.00
G01 X13.3787 Y4.4226 F350.00
G01 X13.3633 Y4.3975 F350.00
G01 X13.3128 Y4.3133 F350.00
G01 X13.2980 Y4.2879 F350.00
G01 X13.2838 Y4.2621 F350.00
G01 X13.2702 Y4.2359 F350.00
G01 X13.2573 Y4.2095 F350.00
G01 X13.2153 Y4.1207 F350.00
G01 X13.2031 Y4.0940 F350.00
G01 X13.1915 Y4.0669 F350.00
G01 X13.1805 Y4.0396 F350.00
G01 X13.1703 Y4.0120 F350.00
G01 X13.1364 Y3.9173 F350.00
G01 X13.1271 Y3.8900 F350.00
G01 X13.1184 Y3.8625 F350.00
G01 X13.1104 Y3.8348 F350.00
G01 X13.1030 Y3.8069 F350.00
G01 X13.0792 Y3.7117 F350.00
G01 X13.0724 Y3.6830 F350.00
G01 X13.0663 Y3.6542 F350.00
G01 X13.0609 Y3.6252 F350.00
G01 X13.0562 Y3.5962 F350.00
G01 X13.0418 Y3.4991 F350.00
G01 X13.0378 Y3.4699 F350.00
G01 X13.0346 Y3.4406 F350.00
G01 X13.0321 Y3.4113 F350.00
G01 X13.0303 Y3.3819 F350.00
G01 X13.0254 Y3.2839 F350.00
G01 X13.0244 Y3.2544 F350.00
G01 X13.0240 Y3.2250 F350.00
G01 X13.0240 Y1.9750 F350.00
G01 X13.0244 Y1.9456 F350.00
G01 X13.0254 Y1.9161 F350.00
G01 X13.0303 Y1.8181 F350.00
G01 X13.0321 Y1.7887 F350.00
G01 X13.0346 Y1.7594 F350.00
G01 X13.0378 Y1.7301 F350.00
G01 X13.0418 Y1.7009 F350.00
G01 X13.0562 Y1.6038 F350.00
G01 X13.0609 Y1.5748 F350.00
G01 X13.0663 Y1.5458 F350.00
G01 X13.0724 Y1.5170 F350.00
G01 X13.0792 Y1.4883 F350.00
G01 X13.1030 Y1.3931 F350.00
G01 X13.1105 Y1.3647 F350.00
G01 X13.1187 Y1.3364 F350.00
G01 X13.1276 Y1.3083 F350.00
G01 X13.1372 Y1.2804 F350.00
G01 X13.1703 Y1.1880 F350.00
G01 X13.1805 Y1.1604 F350.00
G01 X13.1915 Y1.1331 F350.00
G01 X13.2031 Y1.1060 F350.00
G01 X13.2153 Y1.0793 F350.00
G01 X13.2573 Y0.9905 F350.00
G01 X13.2702 Y0.9641 F350.00
G01 X13.2838 Y0.9379 F350.00
G01 X13.2980 Y0.9121 F350.00
G01 X13.3128 Y0.8867 F350.00
G01 X13.3633 Y0.8025 F350.00
G01 X13.3787 Y0.7774 F350.00
G01 X13.3948 Y0.7527 F350.00
G01 X13.4114 Y0.7285 F350.00
G01 X13.4287 Y0.7046 F350.00
G01 X13.4871 Y0.6258 F350.00
G01 X13.5050 Y0.6023 F350.00
G01 X13.5234 Y0.5793 F350.00
G01 X13.5451 Y0.5537 F350.00
G01 X6.7628 Y1.0330 F350.00
G01 X6.7969 Y1.1060 F350.00
G01 X6.8085 Y1.1331 F350.00
G01 X6.8195 Y1.1604 F350.00
G01 X6.8297 Y1.1880 F350.00
G01 X6.8717 Y1.3062 F350.00
G01 X6.8808 Y1.3350 F350.00
G01 X6.8893 Y1.3640 F350.00
G01 X6.8970 Y1.3931 F350.00
G01 X6.9208 Y1.4883 F350.00
G01 X6.9276 Y1.5170 F350.00
G01 X6.9337 Y1.5458 F350.00
G01 X6.9391 Y1.5748 F350.00
G01 X6.9438 Y1.6038 F350.00
G01 X6.9582 Y1.7009 F350.00
G01 X6.9622 Y1.7301 F350.00
G01 X6.9654 Y1.7594 F350.00
G01 X6.9679 Y1.7887 F350.00
G01 X6.9697 Y1.8181 F350.00
G01 X6.9746 Y1.9161 F350.00
G01 X6.9756 Y1.9456 F350.00
G01 X6.9760 Y1.9750 F350.00
G01 X6.9760 Y3.2250 F350.00
G01 X6.9756 Y3.2544 F350.00
G01 X6.9746 Y3.2839 F350.00
G01 X6.9697 Y3.3819 F350.00
G01 X6.9679 Y3.4113 F350.00
G01 X6.9654 Y3.4406 F350.00
G01 X6.9622 Y3.4699 F350.00
G01 X6.9582 Y3.4991 F350.00
G01 X6.9438 Y3.5962 F350.00
G01 X6.9391 Y3.6252 F350.00
G01 X6.9337 Y3.6542 F350.00
G01 X6.9276 Y3.6830 F350.00
G01 X6.9208 Y3.7117 F350.00
G01 X6.8970 Y3.8069 F350.00
G01 X6.8895 Y3.8353 F350.00
G01 X6.8813 Y3.8636 F350.00
G01 X6.8724 Y3.8917 F350.00
G01 X6.8628 Y3.9196 F350.00
G01 X6.8297 Y4.0120 F350.00
G01 X6.8195 Y4.0396 F350.00
G01 X6.8085 Y4.0669 F350.00
G01 X6.7969 Y4.0940 F350.00
G01 X6.7847 Y4.1207 F350.00
G01 X6.7427 Y4.2095 F350.00
G01 X6.7298 Y4.2359 F350.00
G01 X6.7162 Y4.2621 F350.00
G01 X6.7020 Y4.2879 F350.00
G01 X6.6872 Y4.3133 F350.00
G01 X6.6367 Y4.3975 F350.00
G01 X6.6213 Y4.4226 F350.00
G01 X6.6052 Y4.4473 F350.00
G01 X6.5886 Y4.4715 F350.00
G01 X6.5713 Y4.4954 F350.00
G01 X6.5129 Y4.5742 F350.00
G01 X6.4950 Y4.5977 F350.00
G01 X6.4766 Y4.6207 F350.00
G01 X6.4577 Y4.6432 F350.00
G01 X6.4382 Y4.6653 F350.00
G01 X6.3722 Y4.7380 F350.00
G01 X6.3522 Y4.7596 F350.00
G01 X6.3316 Y4.7806 F350.00
G01 X6.3106 Y4.8012 F350.00
G01 X6.2890 Y4.8212 F350.00
G01 X6.2163 Y4.8872 F350.00
G01 X6.1942 Y4.9067 F350.00
G01 X6.1717 Y4.9256 F350.00
G01 X6.1487 Y4.9440 F350.00
G01 X6.1252 Y4.9619 F350.00
G01 X6.0464 Y5.0203 F350.00
G01 X6.0225 Y5.0376 F350.00
G01 X5.9983 Y5.0542 F350.00
G01 X5.9736 Y5.0703 F350.00
G01 X5.9485 Y5.0857 F350.00
G01 X5.8643 Y5.1362 F350.00
G01 X5.8389 Y5.1510 F350.00
G01 X5.8131 Y5.1652 F350.00
G01 X5.7869 Y5.1788 F350.00
G01 X5.7605 Y5.1917 F350.00
G01 X5.6717 Y5.2337 F350.00
G01 X5.6450 Y5.2459 F350.00
G01 X5.6179 Y5.2575 F350.00
G01 X5.5906 Y5.2685 F350.00
G01 X5.5630 Y5.2787 F350.00
G01 X5.4448 Y5.3207 F350.00
G01 X5.4160 Y5.3298 F350.00
G01 X5.3870 Y5.3383 F350.00
G01 X5.3579 Y5.3460 F350.00
G01 X5.2627 Y5.3698 F350.00
G01 X5.2340 Y5.3766 F350.00
G01 X5.2052 Y5.3827 F350.00
G01 X5.1762 Y5.3881 F350.00
G01 X5.1472 Y5.3928 F350.00
G01 X5.0501 Y5.4072 F350.00
G01 X5.0209 Y5.4112 F350.00
G01 X4.9916 Y5.4144 F350.00
G01 X4.9623 Y5.4169 F350.00
G01 X4.9329 Y5.4187 F350.00
G01 X4.8349 Y5.4236 F350.00
G01 X4.8054 Y5.4246 F350.00
G01 X4.7760 Y5.4250 F350.00
G01 X4.7466 Y5.4246 F350.00
G01 X4.7171 Y5.4236 F350.00
G01 X4.6191 Y5.4187 F350.00
G01 X4.5897 Y5.4169 F350.00
G01 X4.5604 Y5.4144 F350.00
G01 X4.5311 Y5.4112 F350.00
G01 X4.5019 Y5.4072 F350.00
G01 X4.4048 Y5.3928 F350.00
G01 X4.3758 Y5.3881 F350.00
G01 X4.3468 Y5.3827 F350.00
G01 X4.3180 Y5.3766 F350.00
G01 X4.2893 Y5.3698 F350.00
G01 X4.1941 Y5.3460 F350.00
G01 X4.1657 Y5.3385 F350.00
G01 X4.1374 Y5.3303 F350.00
G01 X4.1093 Y5.3214 F350.00
G01 X4.0814 Y5.3118 F350.00
G01 X3.9890 Y5.2787 F350.00
G01 X3.9614 Y5.2685 F350.00
G01 X3.9341 Y5.2575 F350.00
G01 X3.9070 Y5.2459 F350.00
G01 X3.8803 Y5.2337 F350.00
G01 X3.7915 Y5.1917 F350.00
G01 X3.7651 Y5.1788 F350.00
G01 X3.7389 Y5.1652 F350.00
G01 X3.7131 Y5.1510 F350.00
G01 X3.6877 Y5.1362 F350.00
G01 X3.5896 Y5.0772 F350.00
G01 X3.0299 Y9.6382 F350.00
G01 X3.0570 Y9.6023 F350.00
G01 X3.0754 Y9.5793 F350.00
G01 X3.0943 Y9.5568 F350.00
G01 X3.1138 Y9.5347 F350.00
G01 X3.1798 Y9.4620 F350.00
G01 X3.1998 Y9.4404 F350.00
G01 X3.2204 Y9.4194 F350.00
G01 X3.2414 Y9.3988 F350.00
G01 X3.2630 Y9.3788 F350.00
G01 X3.3357 Y9.3128 F350.00
G01 X3.3578 Y9.2933 F350.00
G01 X3.3803 Y9.2744 F350.00
G01 X3.4033 Y9.2560 F350.00
G01 X3.4268 Y9.2381 F350.00
G01 X3.5056 Y9.1797 F350.00
G01 X3.5295 Y9.1624 F350.00
G01 X3.5537 Y9.1458 F350.00
G01 X3.5784 Y9.1297 F350.00
G01 X3.6035 Y9.1143 F350.00
G01 X3.6877 Y9.0638 F350.00
G01 X3.7131 Y9.0490 F350.00
G01 X3.7389 Y9.0348 F350.00
G01 X3.7651 Y9.0212 F350.00
G01 X3.7915 Y9.0083 F350.00
G01 X3.8803 Y8.9663 F350.00
G01 X3.9070 Y8.9541 F350.00
G01 X3.9341 Y8.9425 F350.00
G01 X3.9614 Y8.9315 F350.00
G01 X3.9890 Y8.9213 F350.00
G01 X4.0837 Y8.8874 F350.00
G01 X4.1110 Y8.8781 F350.00
G01 X4.1385 Y8.8694 F350.00
G01 X4.1662 Y8.8614 F350.00
G01 X4.1941 Y8.8540 F350.00
G01 X4.2893 Y8.8302 F350.00
G01 X4.3180 Y8.8234 F350.00
G01 X4.3468 Y8.8173 F350.00
G01 X4.3758 Y8.8119 F350.00
G01 X4.4048 Y8.8072 F350.00
G01 X4.5019 Y8.7928 F350.00
G01 X4.5311 Y8.7888 F350.00
G01 X4.5604 Y8.7856 F350.00
G01 X4.5897 Y8.7831 F350.00
G01 X4.6191 Y8.7813 F350.00
G01 X4.7171 Y8.7764 F350.00
G01 X4.7466 Y8.7754 F350.00
G01 X4.7760 Y8.7750 F350.00
G01 X4.8054 Y8.7754 F350.00
G01 X4.8349 Y8.7764 F350.00
G01 X4.9329 Y8.7813 F350.00
G01 X4.9623 Y8.7831 F350.00
G01 X4.9916 Y8.7856 F350.00
G01 X5.0209 Y8.7888 F350.00
G01 X5.0501 Y8.7928 F350.00
G01 X5.1472 Y8.8072 F350.00
G01 X5.1762 Y8.8119 F350.00
G01 X5.2052 Y8.8173 F350.00
G01 X5.2340 Y8.8234 F350.00
G01 X5.2627 Y8.8302 F350.00
G01 X5.3579 Y8.8540 F350.00
G01 X5.3863 Y8.8615 F350.00
G01 X5.4146 Y8.8697 F350.00
G01 X5.4427 Y8.8786 F350.00
G01 X5.4706 Y8.8882 F350.00
G01 X5.5630 Y8.9213 F350.00
G01 X5.5906 Y8.9315 F350.00
G01 X5.6179 Y8.9425 F350.00
G01 X5.6450 Y8.9541 F350.00
G01 X5.6717 Y8.9663 F350.00
G01 X5.7605 Y9.0083 F350.00
G01 X5.7869 Y9.0212 F350.00
G01 X5.8131 Y9.0348 F350.00
G01 X5.8389 Y9.0490 F350.00
G01 X5.8643 Y9.0638 F350.00
G01 X5.9485 Y9.1143 F350.00
G01 X5.9736 Y9.1297 F350.00
G01 X5.9983 Y9.1458 F350.00
G01 X6.0225 Y9.1624 F350.00
G01 X6.0460 Y9.1794 F350.00
G01 X3.3536 Y7.0003 F350.00
G01 X59.6275 Y7.0003 F350.00
G01 X58.0675 Y8.5603 F350.00
G01 X19.2659 Y8.5603 F350.00
G00 Z0.5000
G00 X19.3003 Y10.1203
G01 F250.00
G01 Z-0.0500
G01 F350.00
G01 X56.5075 Y10.1203 F350.00
G01 X54.9475 Y11.6803 F350.00
G01 X19.3003 Y11.6803 F350.00
G01 X19.3003 Y13.2403 F350.00
G01 X53.3875 Y13.2403 F350.00
G01 X51.8275 Y14.8003 F350.00
G01 X19.3003 Y14.8003 F350.00
G01 X19.3003 Y16.3603 F350.00
G01 X50.2675 Y16.3603 F350.00
G01 X48.7075 Y17.9203 F350.00
G01 X19.3003 Y17.9203 F350.00
G00 Z0.5000
G00 X19.2999 Y19.4803
G01 F250.00
G01 Z-0.0500
G01 F350.00
G01 X47.1554 Y19.4803 F350.00
G00 Z0.5000
G00 X46.7497 Y21.0403
G01 F250.00
G01 Z-0.0500
G01 F350.00
G01 X18.4143 Y21.0403 F350.00
G01 X16.8543 Y22.6003 F350.00
G01 X46.7497 Y22.6003 F350.00
G00 Z0.5000
G00 X50.1503 Y22.6003
G01 F250.00
G01 Z-0.0500
G01 F350.00
G01 X96.0952 Y22.6003 F350.00
G01 X94.5352 Y24.1603 F350.00
G01 X50.1503 Y24.1603 F350.00
G01 X50.1503 Y25.7203 F350.00
G01 X92.9752 Y25.7203 F350.00
G01 X91.4152 Y27.2803 F350.00
G01 X50.1503 Y27.2803 F350.00
G01 X50.4284 Y28.8403 F350.00
G01 X89.8552 Y28.8403 F350.00
G01 X88.2952 Y30.4003 F350.00
G01 X50.6500 Y30.4003 F350.00
G00 Z0.5000
G00 X50.5484 Y31.9603
G01 F250.00
G01 Z-0.0500
G01 F350.00
G01 X86.7352 Y31.9603 F350.00
G00 Z0.5000
G00 X88.4243 Y35.0803
G01 F250.00
G01 Z-0.0500
G01 F350.00
G01 X109.3147 Y35.0803 F350.00
G00 Z0.5000
G00 X109.6227 Y33.5203
G01 F250.00
G01 Z-0.0500
G01 F350.00
G01 X89.9843 Y33.5203 F350.00
G01 X91.5443 Y31.9603 F350.00
G01 X131.2997 Y31.9603 F350.00
G01 X131.2997 Y30.4003 F350.00
G01 X93.1043 Y30.4003 F350.00
G01 X94.6643 Y28.8403 F350.00
G01 X110.4294 Y28.8403 F350.00
G00 Z0.5000
G00 X109.8000 Y27.2803
G01 F250.00
G01 Z-0.0500
G01 F350.00
G01 X96.2243 Y27.2803 F350.00
G01 X97.7843 Y25.7203 F350.00
G01 X109.8785 Y25.7203 F350.00
G00 Z0.5000
G00 X109.8063 Y26.1431
G01 F250.00
G01 Z-0.0500
G01 F350.00
G01 X109.8081 Y26.1137 F350.00
G01 X109.8106 Y26.0844 F350.00
G01 X109.8138 Y26.0551 F350.00
G01 X109.8178 Y26.0259 F350.00
G01 X109.8322 Y25.9288 F350.00
G01 X109.8369 Y25.8998 F350.00
G01 X109.8423 Y25.8708 F350.00
G01 X109.8484 Y25.8420 F350.00
G01 X109.8552 Y25.8133 F350.00
G01 X109.8790 Y25.7181 F350.00
G01 X109.8865 Y25.6897 F350.00
G01 X109.8947 Y25.6614 F350.00
G01 X109.9036 Y25.6333 F350.00
G01 X109.9132 Y25.6054 F350.00
G01 X109.9463 Y25.5130 F350.00
G01 X109.9565 Y25.4854 F350.00
G01 X109.9675 Y25.4581 F350.00
G01 X109.9791 Y25.4310 F350.00
G01 X109.9913 Y25.4043 F350.00
G01 X110.0333 Y25.3155 F350.00
G01 X110.0462 Y25.2891 F350.00
G01 X110.0598 Y25.2629 F350.00
G01 X110.0740 Y25.2371 F350.00
G01 X110.0888 Y25.2117 F350.00
G01 X110.1393 Y25.1275 F350.00
G01 X110.1547 Y25.1024 F350.00
G01 X110.1708 Y25.0777 F350.00
G01 X110.1874 Y25.0535 F350.00
G01 X110.2047 Y25.0296 F350.00
G01 X110.2631 Y24.9508 F350.00
G01 X110.2810 Y24.9273 F350.00
G01 X110.2994 Y24.9043 F350.00
G01 X110.3183 Y24.8818 F350.00
G01 X110.3378 Y24.8597 F350.00
G01 X110.4038 Y24.7870 F350.00
G01 X110.4238 Y24.7654 F350.00
G01 X110.4444 Y24.7444 F350.00
G01 X110.4654 Y24.7238 F350.00
G01 X110.4870 Y24.7038 F350.00
G01 X110.5597 Y24.6378 F350.00
G01 X110.5818 Y24.6183 F350.00
G01 X110.6043 Y24.5994 F350.00
G01 X110.6273 Y24.5810 F350.00
G01 X110.6508 Y24.5631 F350.00
G01 X110.7296 Y24.5047 F350.00
G01 X110.7535 Y24.4874 F350.00
G01 X110.7777 Y24.4708 F350.00
G01 X110.8024 Y24.4547 F350.00
G01 X110.8275 Y24.4393 F350.00
G01 X110.9117 Y24.3888 F350.00
G01 X110.9371 Y24.3740 F350.00
G01 X110.9629 Y24.3598 F350.00
G01 X110.9891 Y24.3462 F350.00
G01 X111.0155 Y24.3333 F350.00
G01 X111.1043 Y24.2913 F350.00
G01 X111.1310 Y24.2791 F350.00
G01 X111.1581 Y24.2675 F350.00
G01 X111.1854 Y24.2565 F350.00
G01 X111.2130 Y24.2463 F350.00
G01 X111.3312 Y24.2043 F350.00
G01 X111.3600 Y24.1952 F350.00
G01 X111.3890 Y24.1867 F350.00
G01 X111.4181 Y24.1790 F350.00
G01 X111.5133 Y24.1552 F350.00
G01 X111.5420 Y24.1484 F350.00
G01 X111.5708 Y24.1423 F350.00
G01 X111.5998 Y24.1369 F350.00
G01 X111.6288 Y24.1322 F350.00
G01 X111.7259 Y24.1178 F350.00
G01 X111.7551 Y24.1138 F350.00
G01 X111.7844 Y24.1106 F350.00
G01 X111.8137 Y24.1081 F350.00
G01 X111.8431 Y24.1063 F350.00
G01 X111.9411 Y24.1014 F350.00
G01 X111.9706 Y24.1004 F350.00
G01 X112.0000 Y24.1000 F350.00
G01 X112.0294 Y24.1004 F350.00
G01 X112.0589 Y24.1014 F350.00
G01 X112.1569 Y24.1063 F350.00
G01 X112.1863 Y24.1081 F350.00
G01 X112.2156 Y24.1106 F350.00
G01 X112.2449 Y24.1138 F350.00
G01 X112.2741 Y24.1178 F350.00
G01 X112.3712 Y24.1322 F350.00
G01 X112.4002 Y24.1369 F350.00
G01 X112.4292 Y24.1423 F350.00
G01 X112.4580 Y24.1484 F350.00
G01 X112.4867 Y24.1552 F350.00
G01 X112.5819 Y24.1790 F350.00
G01 X112.6103 Y24.1865 F350.00
G01 X112.6386 Y24.1947 F350.00
G01 X112.6667 Y24.2036 F350.00
G01 X112.6946 Y24.2132 F350.00
G01 X112.7870 Y24.2463 F350.00
G01 X112.8146 Y24.2565 F350.00
G01 X112.8419 Y24.2675 F350.00
G01 X112.8690 Y24.2791 F350.00
G01 X112.8957 Y24.2913 F350.00
G01 X112.9845 Y24.3333 F350.00
G01 X113.0109 Y24.3462 F350.00
G01 X113.0371 Y24.3598 F350.00
G01 X113.0629 Y24.3740 F350.00
G01 X113.0883 Y24.3888 F350.00
G01 X113.1725 Y24.4393 F350.00
G01 X113.1976 Y24.4547 F350.00
G01 X113.2223 Y24.4708 F350.00
G01 X113.2465 Y24.4874 F350.00
G01 X113.2704 Y24.5047 F350.00
G01 X113.3492 Y24.5631 F350.00
G01 X113.3727 Y24.5810 F350.00
G01 X113.3957 Y24.5994 F350.00
G01 X113.4182 Y24.6183 F350.00
G01 X113.4403 Y24.6378 F350.00
G01 X113.5130 Y24.7038 F350.00
G01 X113.5346 Y24.7238 F350.00
G01 X113.5556 Y24.7444 F350.00
G01 X113.5762 Y24.7654 F350.00
G01 X113.5962 Y24.7870 F350.00
G01 X113.6622 Y24.8597 F350.00
G01 X113.6817 Y24.8818 F350.00
G01 X113.7006 Y24.9043 F350.00
G01 X113.7190 Y24.9273 F350.00
G01 X113.7369 Y24.9508 F350.00
G01 X113.7953 Y25.0296 F350.00
G01 X113.8126 Y25.0535 F350.00
G01 X113.8292 Y25.0777 F350.00
G01 X113.8453 Y25.1024 F350.00
G01 X113.8607 Y25.1275 F350.00
G01 X113.9112 Y25.2117 F350.00
G01 X113.9260 Y25.2371 F350.00
G01 X113.9402 Y25.2629 F350.00
G01 X113.9538 Y25.2891 F350.00
G01 X113.9667 Y25.3155 F350.00
G01 X114.0087 Y25.4043 F350.00
G01 X114.0209 Y25.4310 F350.00
G01 X114.0325 Y25.4581 F350.00
G01 X114.0435 Y25.4854 F350.00
G01 X114.0537 Y25.5130 F350.00
G01 X114.0957 Y25.6312 F350.00
G01 X114.1048 Y25.6600 F350.00
G01 X114.1133 Y25.6890 F350.00
G01 X114.1210 Y25.7181 F350.00
G01 X114.1448 Y25.8133 F350.00
G01 X114.1516 Y25.8420 F350.00
G01 X114.1577 Y25.8708 F350.00
G01 X114.1631 Y25.8998 F350.00
G01 X114.1678 Y25.9288 F350.00
G01 X114.1822 Y26.0259 F350.00
G01 X114.1862 Y26.0551 F350.00
G01 X114.1894 Y26.0844 F350.00
G01 X114.1919 Y26.1137 F350.00
G01 X114.1937 Y26.1431 F350.00
G01 X114.1986 Y26.2411 F350.00
G01 X114.1996 Y26.2706 F350.00
G01 X114.2000 Y26.3000 F350.00
G01 X114.2000 Y27.3000 F350.00
G01 X114.1996 Y27.3294 F350.00
G01 X114.1986 Y27.3589 F350.00
G01 X114.1937 Y27.4569 F350.00
G01 X114.1919 Y27.4863 F350.00
G01 X114.1894 Y27.5156 F350.00
G01 X114.1862 Y27.5449 F350.00
G01 X114.1822 Y27.5741 F350.00
G01 X114.1678 Y27.6712 F350.00
G01 X114.1631 Y27.7002 F350.00
G01 X114.1577 Y27.7292 F350.00
G01 X114.1516 Y27.7580 F350.00
G01 X114.1448 Y27.7867 F350.00
G01 X114.1210 Y27.8819 F350.00
G01 X114.1135 Y27.9103 F350.00
G01 X114.1053 Y27.9386 F350.00
G01 X114.0964 Y27.9667 F350.00
G01 X114.0868 Y27.9946 F350.00
G01 X114.0537 Y28.0870 F350.00
G01 X114.0435 Y28.1146 F350.00
G01 X114.0325 Y28.1419 F350.00
G01 X114.0209 Y28.1690 F350.00
G01 X114.0087 Y28.1957 F350.00
G01 X113.9667 Y28.2845 F350.00
G01 X113.9538 Y28.3109 F350.00
G01 X113.9402 Y28.3371 F350.00
G01 X113.9260 Y28.3629 F350.00
G01 X113.9112 Y28.3883 F350.00
G01 X113.8607 Y28.4725 F350.00
G01 X113.8453 Y28.4976 F350.00
G01 X113.8292 Y28.5223 F350.00
G01 X113.8126 Y28.5465 F350.00
G01 X113.7953 Y28.5704 F350.00
G01 X113.7369 Y28.6492 F350.00
G01 X113.7190 Y28.6727 F350.00
G01 X113.7006 Y28.6957 F350.00
G01 X113.6817 Y28.7182 F350.00
G01 X113.6622 Y28.7403 F350.00
G01 X113.5962 Y28.8130 F350.00
G01 X113.5762 Y28.8346 F350.00
G01 X113.5556 Y28.8556 F350.00
G01 X113.5346 Y28.8762 F350.00
G01 X113.5130 Y28.8962 F350.00
G01 X113.4403 Y28.9622 F350.00
G01 X113.4182 Y28.9817 F350.00
G01 X113.3957 Y29.0006 F350.00
G01 X113.3727 Y29.0190 F350.00
G01 X113.3492 Y29.0369 F350.00
G01 X113.2704 Y29.0953 F350.00
G01 X113.2465 Y29.1126 F350.00
G01 X113.2223 Y29.1292 F350.00
G01 X113.1976 Y29.1453 F350.00
G01 X113.1725 Y29.1607 F350.00
G01 X113.0883 Y29.2112 F350.00
G01 X113.0629 Y29.2260 F350.00
G01 X113.0371 Y29.2402 F350.00
G01 X113.0109 Y29.2538 F350.00
G01 X112.9845 Y29.2667 F350.00
G01 X112.8957 Y29.3087 F350.00
G01 X112.8690 Y29.3209 F350.00
G01 X112.8419 Y29.3325 F350.00
G01 X112.8146 Y29.3435 F350.00
G01 X112.7870 Y29.3537 F350.00
G01 X112.6946 Y29.3868 F350.00
G01 X112.6688 Y29.3957 F350.00
G01 X112.6400 Y29.4048 F350.00
G01 X112.6110 Y29.4133 F350.00
G01 X112.5819 Y29.4210 F350.00
G01 X112.4867 Y29.4448 F350.00
G01 X112.4580 Y29.4516 F350.00
G01 X112.4292 Y29.4577 F350.00
G01 X112.4002 Y29.4631 F350.00
G01 X112.3712 Y29.4678 F350.00
G01 X112.2741 Y29.4822 F350.00
G01 X112.2449 Y29.4862 F350.00
G01 X112.2156 Y29.4894 F350.00
G01 X112.1863 Y29.4919 F350.00
G01 X112.1569 Y29.4937 F350.00
G01 X112.0589 Y29.4986 F350.00
G01 X112.0294 Y29.4996 F350.00
G01 X112.0000 Y29.5000 F350.00
G01 X111.9706 Y29.4996 F350.00
G01 X111.9411 Y29.4986 F350.00
G01 X111.8431 Y29.4937 F350.00
G01 X111.8137 Y29.4919 F350.00
G01 X111.7844 Y29.4894 F350.00
G01 X111.7551 Y29.4862 F350.00
G01 X111.7259 Y29.4822 F350.00
G01 X111.6288 Y29.4678 F350.00
G01 X111.5998 Y29.4631 F350.00
G01 X111.5708 Y29.4577 F350.00
G01 X111.5420 Y29.4516 F350.00
G01 X111.5133 Y29.4448 F350.00
G01 X111.4181 Y29.4210 F350.00
G01 X111.3897 Y29.4135 F350.00
G01 X111.3614 Y29.4053 F350.00
G01 X111.3333 Y29.3964 F350.00
G01 X111.3054 Y29.3868 F350.00
G01 X111.2130 Y29.3537 F350.00
G01 X111.1854 Y29.3435 F350.00
G01 X111.1581 Y29.3325 F350.00
G01 X111.1310 Y29.3209 F350.00
G01 X111.1043 Y29.3087 F350.00
G01 X111.0155 Y29.2667 F350.00
G01 X110.9891 Y29.2538 F350.00
G01 X110.9629 Y29.2402 F350.00
G01 X110.9371 Y29.2260 F350.00
G01 X110.9117 Y29.2112 F350.00
G01 X110.8275 Y29.1607 F350.00
G01 X110.8024 Y29.1453 F350.00
G01 X110.7777 Y29.1292 F350.00
G01 X110.7535 Y29.1126 F350.00
G01 X110.7296 Y29.0953 F350.00
G01 X110.6508 Y29.0369 F350.00
G01 X110.6273 Y29.0190 F350.00
G01 X110.6043 Y29.0006 F350.00
G01 X110.5818 Y28.9817 F350.00
G01 X110.5597 Y28.9622 F350.00
G01 X110.4870 Y28.8962 F350.00
G01 X110.4654 Y28.8762 F350.00
G01 X110.4444 Y28.8556 F350.00
G01 X110.4238 Y28.8346 F350.00
G01 X110.4038 Y28.8130 F350.00
G01 X110.3378 Y28.7403 F350.00
G01 X110.3183 Y28.7182 F350.00
G01 X110.2994 Y28.6957 F350.00
G01 X110.2810 Y28.6727 F350.00
G01 X110.2631 Y28.6492 F350.00
G01 X110.2047 Y28.5704 F350.00
G01 X110.1874 Y28.5465 F350.00
G01 X110.1708 Y28.5223 F350.00
G01 X110.1547 Y28.4976 F350.00
G01 X110.1393 Y28.4725 F350.00
G01 X110.0888 Y28.3883 F350.00
G01 X110.0740 Y28.3629 F350.00
G01 X110.0598 Y28.3371 F350.00
G01 X110.0462 Y28.3109 F350.00
G01 X110.0333 Y28.2845 F350.00
G01 X109.9913 Y28.1957 F350.00
G01 X109.9791 Y28.1690 F350.00
G01 X109.9675 Y28.1419 F350.00
G01 X109.9565 Y28.1146 F350.00
G01 X109.9463 Y28.0870 F350.00
G01 X109.9132 Y27.9946 F350.00
G01 X109.9043 Y27.9688 F350.00
G01 X109.8952 Y27.9400 F350.00
G01 X109.8867 Y27.9110 F350.00
G01 X109.8790 Y27.8819 F350.00
G01 X109.8552 Y27.7867 F350.00
G01 X109.8484 Y27.7580 F350.00
G01 X109.8423 Y27.7292 F350.00
G01 X109.8369 Y27.7002 F350.00
G01 X109.8322 Y27.6712 F350.00
G01 X109.8178 Y27.5741 F350.00
G01 X109.8138 Y27.5449 F350.00
G01 X109.8106 Y27.5156 F350.00
G01 X109.8081 Y27.4863 F350.00
G01 X109.8063 Y27.4569 F350.00
G01 X109.8014 Y27.3589 F350.00
G01 X109.8004 Y27.3294 F350.00
G01 X109.8000 Y27.3000 F350.00
G01 X109.8000 Y26.3000 F350.00
G01 X109.8004 Y26.2706 F350.00
G01 X109.8014 Y26.2411 F350.00
G01 X109.8063 Y26.1431 F350.00
G00 Z0.5000
G00 X111.4931 Y24.1603
G01 F250.00
G01 Z-0.0500
G01 F350.00
G01 X99.3443 Y24.1603 F350.00
G00 Z0.5000
G00 X106.0896 Y19.4803
G01 F250.00
G01 Z-0.0500
G01 F350.00
G01 X107.1252 Y19.4803 F350.00
G01 X107.5100 Y17.9203 F350.00
G01 X106.0900 Y17.9203 F350.00
G00 Z0.5000
G00 X105.8003 Y16.3603
G01 F250.00
G01 Z-0.0500
G01 F350.00
G01 X108.0097 Y16.3603 F350.00
G00 Z0.5000
G00 X108.1609 Y14.8003
G01 F250.00
G01 Z-0.0500
G01 F350.00
G01 X105.3956 Y14.8003 F350.00
G00 Z0.5000
G00 X104.0448 Y13.2403
G01 F250.00
G01 Z-0.0500
G01 F350.00
G01 X124.0463 Y13.2403 F350.00
G01 X121.8350 Y11.6803 F350.00
G01 X103.9003 Y11.6803 F350.00
G01 X103.9003 Y10.1203 F350.00
G01 X119.6237 Y10.1203 F350.00
G01 X117.4124 Y8.5603 F350.00
G01 X113.2668 Y8.5603 F350.00
G00 Z0.5000
G00 X113.9897 Y7.0003
G01 F250.00
G01 Z-0.0500
G01 F350.00
G01 X115.2011 Y7.0003 F350.00
G01 X113.9897 Y6.1456 F350.00
G01 X113.9897 Y7.2398 F350.00
G01 X113.9893 Y7.2693 F350.00
G01 X113.9882 Y7.2987 F350.00
G01 X113.9846 Y7.3641 F350.00
G01 X113.9821 Y7.3935 F350.00
G01 X113.9789 Y7.4228 F350.00
G01 X113.9696 Y7.4876 F350.00
G01 X113.9649 Y7.5167 F350.00
G01 X113.9595 Y7.5457 F350.00
G01 X113.9534 Y7.5745 F350.00
G01 X113.9466 Y7.6031 F350.00
G01 X113.9304 Y7.6666 F350.00
G01 X113.9222 Y7.6949 F350.00
G01 X113.9133 Y7.7230 F350.00
G01 X113.9037 Y7.7508 F350.00
G01 X113.8813 Y7.8124 F350.00
G01 X113.8703 Y7.8397 F350.00
G01 X113.8587 Y7.8668 F350.00
G01 X113.8310 Y7.9262 F350.00
G01 X113.8181 Y7.9527 F350.00
G01 X113.8045 Y7.9788 F350.00
G01 X113.7903 Y8.0046 F350.00
G01 X113.7570 Y8.0610 F350.00
G01 X113.7415 Y8.0861 F350.00
G01 X113.7255 Y8.1108 F350.00
G01 X113.7088 Y8.1351 F350.00
G01 X113.6701 Y8.1879 F350.00
G01 X113.6522 Y8.2113 F350.00
G01 X113.6338 Y8.2343 F350.00
G01 X113.6149 Y8.2569 F350.00
G01 X113.5711 Y8.3057 F350.00
G01 X113.5511 Y8.3272 F350.00
G01 X113.5305 Y8.3483 F350.00
G01 X113.5094 Y8.3689 F350.00
G01 X113.4878 Y8.3889 F350.00
G01 X113.4390 Y8.4327 F350.00
G01 X113.4165 Y8.4516 F350.00
G01 X113.3935 Y8.4700 F350.00
G01 X113.3701 Y8.4879 F350.00
G01 X113.3172 Y8.5266 F350.00
G01 X113.2929 Y8.5433 F350.00
G01 X113.2683 Y8.5593 F350.00
G01 X113.2122 Y8.5933 F350.00
G01 X113.1868 Y8.6082 F350.00
G01 X113.1610 Y8.6224 F350.00
G01 X113.1348 Y8.6359 F350.00
G01 X113.0758 Y8.6643 F350.00
G01 X113.0490 Y8.6765 F350.00
G01 X113.0219 Y8.6881 F350.00
G01 X112.9946 Y8.6991 F350.00
G01 X112.9330 Y8.7215 F350.00
G01 X112.9072 Y8.7304 F350.00
G01 X112.8785 Y8.7395 F350.00
G01 X112.8495 Y8.7480 F350.00
G01 X112.8203 Y8.7557 F350.00
G01 X112.7567 Y8.7713 F350.00
G01 X112.7278 Y8.7774 F350.00
G01 X112.6989 Y8.7827 F350.00
G01 X112.6698 Y8.7874 F350.00
G01 X112.6049 Y8.7967 F350.00
G01 X112.5757 Y8.7999 F350.00
G01 X112.5463 Y8.8025 F350.00
G01 X112.4809 Y8.8060 F350.00
G01 X112.4515 Y8.8071 F350.00
G01 X112.4220 Y8.8075 F350.00
G01 X110.6573 Y8.8075 F350.00
G01 X110.6279 Y8.8071 F350.00
G01 X110.5984 Y8.8060 F350.00
G01 X110.5330 Y8.8025 F350.00
G01 X110.5036 Y8.7999 F350.00
G01 X110.4744 Y8.7967 F350.00
G01 X110.4095 Y8.7874 F350.00
G01 X110.3804 Y8.7827 F350.00
G01 X110.3515 Y8.7774 F350.00
G01 X110.3227 Y8.7713 F350.00
G01 X110.2940 Y8.7645 F350.00
G01 X110.2305 Y8.7482 F350.00
G01 X110.2022 Y8.7400 F350.00
G01 X110.1742 Y8.7311 F350.00
G01 X110.1463 Y8.7215 F350.00
G01 X110.0847 Y8.6991 F350.00
G01 X110.0574 Y8.6881 F350.00
G01 X110.0303 Y8.6765 F350.00
G01 X109.9709 Y8.6489 F350.00
G01 X109.9445 Y8.6359 F350.00
G01 X109.9183 Y8.6224 F350.00
G01 X109.8925 Y8.6082 F350.00
G01 X109.8671 Y8.5933 F350.00
G01 X109.8111 Y8.5593 F350.00
G01 X109.7864 Y8.5433 F350.00
G01 X109.7621 Y8.5266 F350.00
G01 X109.7382 Y8.5094 F350.00
G01 X109.6858 Y8.4700 F350.00
G01 X109.6628 Y8.4516 F350.00
G01 X109.6403 Y8.4327 F350.00
G01 X109.5915 Y8.3889 F350.00
G01 X109.5699 Y8.3689 F350.00
G01 X109.5488 Y8.3483 F350.00
G01 X109.5282 Y8.3272 F350.00
G01 X109.5082 Y8.3057 F350.00
G01 X109.4645 Y8.2569 F350.00
G01 X109.4455 Y8.2343 F350.00
G01 X109.4271 Y8.2113 F350.00
G01 X109.3878 Y8.1589 F350.00
G01 X109.3705 Y8.1351 F350.00
G01 X109.3539 Y8.1108 F350.00
G01 X109.3378 Y8.0861 F350.00
G01 X109.3204 Y8.0577 F350.00
G01 X103.9003 Y8.0577 F350.00
G01 X103.9003 Y13.0957 F350.00
G01 X104.4023 Y13.5977 F350.00
G01 X104.4228 Y13.6188 F350.00
G01 X104.4429 Y13.6404 F350.00
G01 X104.4953 Y13.6988 F350.00
G01 X104.5143 Y13.7214 F350.00
G01 X104.5327 Y13.7444 F350.00
G01 X104.5505 Y13.7678 F350.00
G01 X104.5970 Y13.8311 F350.00
G01 X104.6137 Y13.8554 F350.00
G01 X104.6298 Y13.8801 F350.00
G01 X104.6452 Y13.9052 F350.00
G01 X104.6705 Y13.9473 F350.00
G01 X104.6853 Y13.9727 F350.00
G01 X104.6952 Y13.9906 F350.00
G01 X105.0923 Y14.3877 F350.00
G01 X105.1128 Y14.4088 F350.00
G01 X105.1658 Y14.4668 F350.00
G01 X105.1853 Y14.4888 F350.00
G01 X105.2043 Y14.5114 F350.00
G01 X105.2227 Y14.5344 F350.00
G01 X105.2698 Y14.5972 F350.00
G01 X105.2870 Y14.6211 F350.00
G01 X105.3037 Y14.6454 F350.00
G01 X105.3198 Y14.6701 F350.00
G01 X105.3352 Y14.6952 F350.00
G01 X105.3753 Y14.7627 F350.00
G01 X105.3895 Y14.7885 F350.00
G01 X105.4031 Y14.8147 F350.00
G01 X105.4160 Y14.8411 F350.00
G01 X105.4492 Y14.9123 F350.00
G01 X105.4608 Y14.9393 F350.00
G01 X105.4718 Y14.9667 F350.00
G01 X105.4820 Y14.9943 F350.00
G01 X105.4994 Y15.0427 F350.00
G01 X105.5087 Y15.0700 F350.00
G01 X105.5174 Y15.0976 F350.00
G01 X105.5254 Y15.1253 F350.00
G01 X105.5447 Y15.2008 F350.00
G01 X105.5515 Y15.2295 F350.00
G01 X105.5576 Y15.2583 F350.00
G01 X105.5630 Y15.2873 F350.00
G01 X105.5676 Y15.3163 F350.00
G01 X105.5788 Y15.3941 F350.00
G01 X105.5821 Y15.4233 F350.00
G01 X105.5846 Y15.4527 F350.00
G01 X105.5864 Y15.4821 F350.00
G01 X105.5899 Y15.5606 F350.00
G01 X105.5903 Y15.5900 F350.00
G01 X105.5903 Y16.0539 F350.00
G01 X105.6090 Y16.0773 F350.00
G01 X105.6269 Y16.1008 F350.00
G01 X105.6853 Y16.1796 F350.00
G01 X105.7026 Y16.2035 F350.00
G01 X105.7192 Y16.2277 F350.00
G01 X105.7353 Y16.2524 F350.00
G01 X105.7507 Y16.2775 F350.00
G01 X105.8012 Y16.3617 F350.00
G01 X105.8160 Y16.3871 F350.00
G01 X105.8302 Y16.4129 F350.00
G01 X105.8438 Y16.4391 F350.00
G01 X105.8567 Y16.4655 F350.00
G01 X105.8987 Y16.5543 F350.00
G01 X105.9109 Y16.5810 F350.00
G01 X105.9225 Y16.6081 F350.00
G01 X105.9335 Y16.6354 F350.00
G01 X105.9437 Y16.6630 F350.00
G01 X105.9776 Y16.7577 F350.00
G01 X105.9869 Y16.7850 F350.00
G01 X105.9956 Y16.8125 F350.00
G01 X106.0036 Y16.8402 F350.00
G01 X106.0110 Y16.8681 F350.00
G01 X106.0348 Y16.9633 F350.00
G01 X106.0416 Y16.9920 F350.00
G01 X106.0477 Y17.0208 F350.00
G01 X106.0531 Y17.0498 F350.00
G01 X106.0578 Y17.0788 F350.00
G01 X106.0722 Y17.1759 F350.00
G01 X106.0762 Y17.2051 F350.00
G01 X106.0794 Y17.2344 F350.00
G01 X106.0819 Y17.2637 F350.00
G01 X106.0837 Y17.2931 F350.00
G01 X106.0886 Y17.3911 F350.00
G01 X106.0896 Y17.4206 F350.00
G01 X106.0900 Y17.4500 F350.00
G01 X106.0900 Y19.4500 F350.00
G01 X106.0896 Y19.4794 F350.00
G01 X106.0886 Y19.5089 F350.00
G01 X106.0837 Y19.6069 F350.00
G01 X106.0819 Y19.6363 F350.00
G01 X106.0794 Y19.6656 F350.00
G01 X106.0762 Y19.6949 F350.00
G01 X106.0722 Y19.7241 F350.00
G01 X106.0578 Y19.8212 F350.00
G01 X106.0531 Y19.8502 F350.00
G01 X106.0477 Y19.8792 F350.00
G01 X106.0416 Y19.9080 F350.00
G01 X106.0348 Y19.9367 F350.00
G01 X106.0110 Y20.0319 F350.00
G01 X106.0035 Y20.0603 F350.00
G01 X105.9953 Y20.0886 F350.00
G01 X105.9864 Y20.1167 F350.00
G01 X105.9768 Y20.1446 F350.00
G01 X105.9437 Y20.2370 F350.00
G01 X105.9335 Y20.2646 F350.00
G01 X105.9225 Y20.2919 F350.00
G01 X105.9109 Y20.3190 F350.00
G01 X105.8987 Y20.3457 F350.00
G01 X105.8567 Y20.4345 F350.00
G01 X105.8438 Y20.4609 F350.00
G01 X105.8302 Y20.4871 F350.00
G01 X105.8160 Y20.5129 F350.00
G01 X105.8012 Y20.5383 F350.00
G01 X105.7704 Y20.5897 F350.00
G01 X106.0157 Y20.5897 F350.00
G01 X107.5100 Y19.0955 F350.00
G01 X107.5100 Y17.8000 F350.00
G01 X107.5104 Y17.7706 F350.00
G01 X107.5114 Y17.7411 F350.00
G01 X107.5133 Y17.7117 F350.00
G01 X107.5158 Y17.6824 F350.00
G01 X107.5190 Y17.6531 F350.00
G01 X107.5230 Y17.6239 F350.00
G01 X107.5277 Y17.5948 F350.00
G01 X107.5331 Y17.5659 F350.00
G01 X107.5392 Y17.5371 F350.00
G01 X107.5460 Y17.5084 F350.00
G01 X107.5535 Y17.4799 F350.00
G01 X107.5617 Y17.4517 F350.00
G01 X107.5706 Y17.4236 F350.00
G01 X107.5801 Y17.3957 F350.00
G01 X107.5904 Y17.3681 F350.00
G01 X107.6013 Y17.3408 F350.00
G01 X107.6129 Y17.3137 F350.00
G01 X107.6252 Y17.2869 F350.00
G01 X107.6381 Y17.2605 F350.00
G01 X107.6517 Y17.2343 F350.00
G01 X107.6659 Y17.2085 F350.00
G01 X107.6807 Y17.1831 F350.00
G01 X107.6962 Y17.1580 F350.00
G01 X107.7122 Y17.1333 F350.00
G01 X107.7289 Y17.1090 F350.00
G01 X107.7462 Y17.0852 F350.00
G01 X107.7640 Y17.0617 F350.00
G01 X107.7824 Y17.0387 F350.00
G01 X107.8013 Y17.0162 F350.00
G01 X107.8209 Y16.9941 F350.00
G01 X107.8409 Y16.9726 F350.00
G01 X107.8615 Y16.9515 F350.00
G01 X107.8826 Y16.9309 F350.00
G01 X107.9041 Y16.9109 F350.00
G01 X107.9262 Y16.8913 F350.00
G01 X107.9487 Y16.8724 F350.00
G01 X107.9717 Y16.8540 F350.00
G01 X107.9952 Y16.8362 F350.00
G01 X108.0097 Y16.8256 F350.00
G01 X108.0097 Y15.5000 F350.00
G01 X108.0101 Y15.4706 F350.00
G01 X108.0112 Y15.4411 F350.00
G01 X108.0154 Y15.3627 F350.00
G01 X108.0179 Y15.3333 F350.00
G01 X108.0212 Y15.3041 F350.00
G01 X108.0251 Y15.2749 F350.00
G01 X108.0370 Y15.1973 F350.00
G01 X108.0424 Y15.1683 F350.00
G01 X108.0485 Y15.1395 F350.00
G01 X108.0553 Y15.1108 F350.00
G01 X108.0748 Y15.0347 F350.00
G01 X108.0830 Y15.0064 F350.00
G01 X108.0919 Y14.9784 F350.00
G01 X108.1180 Y14.9043 F350.00
G01 X108.1282 Y14.8767 F350.00
G01 X108.1392 Y14.8493 F350.00
G01 X108.1508 Y14.8223 F350.00
G01 X108.1630 Y14.7955 F350.00
G01 X108.1969 Y14.7247 F350.00
G01 X108.2105 Y14.6985 F350.00
G01 X108.2247 Y14.6727 F350.00
G01 X108.2648 Y14.6052 F350.00
G01 X108.2802 Y14.5801 F350.00
G01 X108.2963 Y14.5554 F350.00
G01 X108.3130 Y14.5311 F350.00
G01 X108.3302 Y14.5072 F350.00
G01 X108.3773 Y14.4444 F350.00
G01 X108.3957 Y14.4214 F350.00
G01 X108.4147 Y14.3988 F350.00
G01 X108.4342 Y14.3768 F350.00
G01 X108.4872 Y14.3188 F350.00
G01 X108.5077 Y14.2977 F350.00
G01 X108.5288 Y14.2772 F350.00
G01 X108.5504 Y14.2571 F350.00
G01 X108.6088 Y14.2047 F350.00
G01 X108.6314 Y14.1857 F350.00
G01 X108.6544 Y14.1673 F350.00
G01 X108.7172 Y14.1202 F350.00
G01 X108.7411 Y14.1030 F350.00
G01 X108.7654 Y14.0863 F350.00
G01 X108.7901 Y14.0702 F350.00
G01 X108.8152 Y14.0548 F350.00
G01 X108.8827 Y14.0147 F350.00
G01 X108.9085 Y14.0005 F350.00
G01 X108.9347 Y13.9869 F350.00
G01 X108.9611 Y13.9740 F350.00
G01 X109.0323 Y13.9408 F350.00
G01 X109.0593 Y13.9292 F350.00
G01 X109.0867 Y13.9182 F350.00
G01 X109.1605 Y13.8914 F350.00
G01 X109.1863 Y13.8826 F350.00
G01 X109.2150 Y13.8734 F350.00
G01 X109.2440 Y13.8650 F350.00
G01 X109.2732 Y13.8573 F350.00
G01 X109.3495 Y13.8385 F350.00
G01 X109.3783 Y13.8324 F350.00
G01 X109.4073 Y13.8270 F350.00
G01 X109.4849 Y13.8151 F350.00
G01 X109.5141 Y13.8112 F350.00
G01 X109.5433 Y13.8079 F350.00
G01 X109.5727 Y13.8054 F350.00
G01 X109.6021 Y13.8036 F350.00
G01 X109.6806 Y13.8001 F350.00
G01 X109.7100 Y13.7997 F350.00
G01 X124.8394 Y13.7997 F350.00
G01 X113.9897 Y6.1456 F350.00
G00 Z0.5000
G00 X110.7785 Y3.8803
G01 F250.00
G01 Z-0.0500
G01 F350.00
G01 X103.9003 Y3.8803 F350.00
G01 X103.9003 Y2.3203 F350.00
G01 X108.5673 Y2.3203 F350.00
G01 X106.3560 Y0.7603 F350.00
G01 X103.4609 Y0.7603 F350.00
G01 X104.1447 Y-0.7997 F350.00
G01 X102.2800 Y-0.7997 F350.00
G00 Z0.5000
G00 X101.9698 Y-2.3341
G01 F250.00
G01 Z-0.0500
G01 F350.00
G01 X102.0060 Y-2.2729 F350.00
G01 X102.0202 Y-2.2471 F350.00
G01 X102.0338 Y-2.2209 F350.00
G01 X102.0467 Y-2.1945 F350.00
G01 X102.0887 Y-2.1057 F350.00
G01 X102.1009 Y-2.0790 F350.00
G01 X102.1125 Y-2.0519 F350.00
G01 X102.1235 Y-2.0246 F350.00
G01 X102.1337 Y-1.9970 F350.00
G01 X102.1757 Y-1.8788 F350.00
G01 X102.1848 Y-1.8500 F350.00
G01 X102.1933 Y-1.8210 F350.00
G01 X102.2010 Y-1.7919 F350.00
G01 X102.2248 Y-1.6967 F350.00
G01 X102.2316 Y-1.6680 F350.00
G01 X102.2377 Y-1.6392 F350.00
G01 X102.2431 Y-1.6102 F350.00
G01 X102.2478 Y-1.5812 F350.00
G01 X102.2622 Y-1.4841 F350.00
G01 X102.2662 Y-1.4549 F350.00
G01 X102.2694 Y-1.4256 F350.00
G01 X102.2719 Y-1.3963 F350.00
G01 X102.2737 Y-1.3669 F350.00
G01 X102.2786 Y-1.2689 F350.00
G01 X102.2796 Y-1.2394 F350.00
G01 X102.2800 Y-1.2100 F350.00
G01 X102.2800 Y-0.4245 F350.00
G01 X103.4023 Y0.6977 F350.00
G01 X103.4228 Y0.7188 F350.00
G01 X103.4758 Y0.7768 F350.00
G01 X103.4953 Y0.7988 F350.00
G01 X103.5143 Y0.8214 F350.00
G01 X103.5327 Y0.8444 F350.00
G01 X103.5798 Y0.9072 F350.00
G01 X103.5970 Y0.9311 F350.00
G01 X103.6137 Y0.9554 F350.00
G01 X103.6298 Y0.9801 F350.00
G01 X103.6452 Y1.0052 F350.00
G01 X103.6853 Y1.0727 F350.00
G01 X103.6995 Y1.0985 F350.00
G01 X103.7131 Y1.1247 F350.00
G01 X103.7260 Y1.1511 F350.00
G01 X103.7592 Y1.2223 F350.00
G01 X103.7708 Y1.2493 F350.00
G01 X103.7818 Y1.2767 F350.00
G01 X103.8094 Y1.3527 F350.00
G01 X103.8187 Y1.3800 F350.00
G01 X103.8274 Y1.4076 F350.00
G01 X103.8354 Y1.4353 F350.00
G01 X103.8547 Y1.5108 F350.00
G01 X103.8615 Y1.5395 F350.00
G01 X103.8676 Y1.5683 F350.00
G01 X103.8730 Y1.5973 F350.00
G01 X103.8849 Y1.6749 F350.00
G01 X103.8888 Y1.7041 F350.00
G01 X103.8921 Y1.7333 F350.00
G01 X103.8946 Y1.7627 F350.00
G01 X103.8964 Y1.7921 F350.00
G01 X103.8999 Y1.8706 F350.00
G01 X103.9003 Y1.9000 F350.00
G01 X103.9003 Y4.6572 F350.00
G01 X109.3204 Y4.6572 F350.00
G01 X109.3378 Y4.6289 F350.00
G01 X109.3539 Y4.6042 F350.00
G01 X109.3705 Y4.5799 F350.00
G01 X109.4093 Y4.5271 F350.00
G01 X109.4271 Y4.5036 F350.00
G01 X109.4455 Y4.4806 F350.00
G01 X109.4645 Y4.4581 F350.00
G01 X109.4840 Y4.4360 F350.00
G01 X109.5282 Y4.3877 F350.00
G01 X109.5488 Y4.3666 F350.00
G01 X109.5699 Y4.3461 F350.00
G01 X109.5915 Y4.3260 F350.00
G01 X109.6403 Y4.2823 F350.00
G01 X109.6628 Y4.2633 F350.00
G01 X109.6858 Y4.2449 F350.00
G01 X109.7092 Y4.2271 F350.00
G01 X109.7621 Y4.1883 F350.00
G01 X109.7864 Y4.1717 F350.00
G01 X109.8111 Y4.1556 F350.00
G01 X109.8671 Y4.1216 F350.00
G01 X109.8925 Y4.1068 F350.00
G01 X109.9183 Y4.0926 F350.00
G01 X109.9445 Y4.0790 F350.00
G01 X110.0035 Y4.0507 F350.00
G01 X110.0303 Y4.0384 F350.00
G01 X110.0574 Y4.0268 F350.00
G01 X110.0847 Y4.0159 F350.00
G01 X110.1485 Y3.9927 F350.00
G01 X110.1758 Y3.9833 F350.00
G01 X110.2034 Y3.9746 F350.00
G01 X110.2311 Y3.9666 F350.00
G01 X110.2940 Y3.9505 F350.00
G01 X110.3227 Y3.9437 F350.00
G01 X110.3515 Y3.9376 F350.00
G01 X110.3804 Y3.9322 F350.00
G01 X110.4452 Y3.9222 F350.00
G01 X110.4744 Y3.9183 F350.00
G01 X110.5036 Y3.9150 F350.00
G01 X110.5330 Y3.9125 F350.00
G01 X110.5984 Y3.9089 F350.00
G01 X110.6279 Y3.9078 F350.00
G01 X110.6573 Y3.9075 F350.00
G01 X110.8171 Y3.9075 F350.00
G01 X101.9698 Y-2.3341 F350.00
G00 Z0.5000
G00 X100.4997 Y3.8803
G01 F250.00
G01 Z-0.0500
G01 F350.00
G01 X67.5565 Y3.8803 F350.00
G01 X69.1165 Y2.3203 F350.00
G01 X88.3398 Y2.3203 F350.00
G00 Z0.5000
G00 X87.7200 Y0.7603
G01 F250.00
G01 Z-0.0500
G01 F350.00
G01 X70.6765 Y0.7603 F350.00
G01 X72.2365 Y-0.7997 F350.00
G01 X87.7200 Y-0.7997 F350.00
G00 Z0.5000
G00 X96.0804 Y7.0003
G01 F250.00
G01 Z-0.0500
G01 F350.00
G01 X64.4365 Y7.0003 F350.00
G01 X62.8765 Y8.5603 F350.00
G01 X95.8500 Y8.5603 F350.00
G00 Z0.5000
G00 X95.9456 Y10.1203
G01 F250.00
G01 Z-0.0500
G01 F350.00
G01 X61.3165 Y10.1203 F350.00
G01 X59.7565 Y11.6803 F350.00
G01 X100.4997 Y11.6803 F350.00
G01 X100.4997 Y13.2403 F350.00
G01 X58.1965 Y13.2403 F350.00
G01 X56.6365 Y14.8003 F350.00
G01 X100.8258 Y14.8003 F350.00
G00 Z0.5000
G00 X101.2490 Y15.2535
G01 F250.00
G01 Z-0.0500
G01 F350.00
G01 X100.9977 Y15.0023 F350.00
G01 X100.9772 Y14.9812 F350.00
G01 X100.9242 Y14.9232 F350.00
G01 X100.9047 Y14.9012 F350.00
G01 X100.8857 Y14.8786 F350.00
G01 X100.8673 Y14.8556 F350.00
G01 X100.8202 Y14.7928 F350.00
G01 X100.8030 Y14.7689 F350.00
G01 X100.7863 Y14.7446 F350.00
G01 X100.7702 Y14.7199 F350.00
G01 X100.7548 Y14.6948 F350.00
G01 X100.7147 Y14.6273 F350.00
G01 X100.7005 Y14.6015 F350.00
G01 X100.6869 Y14.5753 F350.00
G01 X100.6740 Y14.5489 F350.00
G01 X100.6408 Y14.4777 F350.00
G01 X100.6292 Y14.4507 F350.00
G01 X100.6182 Y14.4233 F350.00
G01 X100.5914 Y14.3495 F350.00
G01 X100.5813 Y14.3200 F350.00
G01 X100.5726 Y14.2924 F350.00
G01 X100.5646 Y14.2647 F350.00
G01 X100.5453 Y14.1892 F350.00
G01 X100.5385 Y14.1605 F350.00
G01 X100.5324 Y14.1317 F350.00
G01 X100.5270 Y14.1027 F350.00
G01 X100.5224 Y14.0737 F350.00
G01 X100.5112 Y13.9959 F350.00
G01 X100.5079 Y13.9667 F350.00
G01 X100.5054 Y13.9373 F350.00
G01 X100.5012 Y13.8589 F350.00
G01 X100.5001 Y13.8294 F350.00
G01 X100.4997 Y13.8000 F350.00
G01 X100.4997 Y10.4319 F350.00
G01 X100.4858 Y10.4533 F350.00
G01 X100.4691 Y10.4776 F350.00
G01 X100.4519 Y10.5014 F350.00
G01 X100.4126 Y10.5539 F350.00
G01 X100.3942 Y10.5769 F350.00
G01 X100.3752 Y10.5994 F350.00
G01 X100.3315 Y10.6482 F350.00
G01 X100.3114 Y10.6698 F350.00
G01 X100.2908 Y10.6908 F350.00
G01 X100.2698 Y10.7114 F350.00
G01 X100.2482 Y10.7315 F350.00
G01 X100.1994 Y10.7752 F350.00
G01 X100.1769 Y10.7942 F350.00
G01 X100.1539 Y10.8126 F350.00
G01 X100.1014 Y10.8519 F350.00
G01 X100.0776 Y10.8691 F350.00
G01 X100.0533 Y10.8858 F350.00
G01 X100.0286 Y10.9019 F350.00
G01 X99.9726 Y10.9359 F350.00
G01 X99.9471 Y10.9507 F350.00
G01 X99.9213 Y10.9649 F350.00
G01 X99.8952 Y10.9785 F350.00
G01 X99.8687 Y10.9914 F350.00
G01 X99.8093 Y11.0191 F350.00
G01 X99.7823 Y11.0307 F350.00
G01 X99.7549 Y11.0416 F350.00
G01 X99.7273 Y11.0519 F350.00
G01 X99.6676 Y11.0729 F350.00
G01 X99.6388 Y11.0821 F350.00
G01 X99.6098 Y11.0905 F350.00
G01 X99.5807 Y11.0982 F350.00
G01 X99.5170 Y11.1138 F350.00
G01 X99.4882 Y11.1199 F350.00
G01 X99.4592 Y11.1253 F350.00
G01 X99.4302 Y11.1299 F350.00
G01 X99.3653 Y11.1392 F350.00
G01 X99.3360 Y11.1425 F350.00
G01 X99.3067 Y11.1450 F350.00
G01 X99.2412 Y11.1486 F350.00
G01 X99.2118 Y11.1496 F350.00
G01 X99.1824 Y11.1500 F350.00
G01 X97.4176 Y11.1500 F350.00
G01 X97.3882 Y11.1496 F350.00
G01 X97.3588 Y11.1486 F350.00
G01 X97.2933 Y11.1450 F350.00
G01 X97.2640 Y11.1425 F350.00
G01 X97.2347 Y11.1392 F350.00
G01 X97.2055 Y11.1352 F350.00
G01 X97.1408 Y11.1253 F350.00
G01 X97.1118 Y11.1199 F350.00
G01 X97.0830 Y11.1138 F350.00
G01 X97.0193 Y11.0982 F350.00
G01 X96.9909 Y11.0907 F350.00
G01 X96.9626 Y11.0825 F350.00
G01 X96.9345 Y11.0736 F350.00
G01 X96.9067 Y11.0640 F350.00
G01 X96.8451 Y11.0416 F350.00
G01 X96.8177 Y11.0307 F350.00
G01 X96.7907 Y11.0191 F350.00
G01 X96.7313 Y10.9914 F350.00
G01 X96.7048 Y10.9785 F350.00
G01 X96.6787 Y10.9649 F350.00
G01 X96.6529 Y10.9507 F350.00
G01 X96.5965 Y10.9173 F350.00
G01 X96.5714 Y10.9019 F350.00
G01 X96.5467 Y10.8858 F350.00
G01 X96.5224 Y10.8691 F350.00
G01 X96.4986 Y10.8519 F350.00
G01 X96.4461 Y10.8126 F350.00
G01 X96.4231 Y10.7942 F350.00
G01 X96.4006 Y10.7752 F350.00
G01 X96.3785 Y10.7557 F350.00
G01 X96.3302 Y10.7114 F350.00
G01 X96.3092 Y10.6908 F350.00
G01 X96.2886 Y10.6698 F350.00
G01 X96.2443 Y10.6215 F350.00
G01 X96.2248 Y10.5994 F350.00
G01 X96.2058 Y10.5769 F350.00
G01 X96.1874 Y10.5539 F350.00
G01 X96.1696 Y10.5304 F350.00
G01 X96.1309 Y10.4776 F350.00
G01 X96.1142 Y10.4533 F350.00
G01 X96.0981 Y10.4286 F350.00
G01 X96.0641 Y10.3726 F350.00
G01 X96.0493 Y10.3471 F350.00
G01 X96.0351 Y10.3213 F350.00
G01 X96.0215 Y10.2952 F350.00
G01 X96.0086 Y10.2687 F350.00
G01 X95.9809 Y10.2093 F350.00
G01 X95.9693 Y10.1823 F350.00
G01 X95.9584 Y10.1549 F350.00
G01 X95.9360 Y10.0933 F350.00
G01 X95.9258 Y10.0638 F350.00
G01 X95.9172 Y10.0363 F350.00
G01 X95.9091 Y10.0086 F350.00
G01 X95.9018 Y9.9807 F350.00
G01 X95.8862 Y9.9170 F350.00
G01 X95.8801 Y9.8882 F350.00
G01 X95.8747 Y9.8592 F350.00
G01 X95.8648 Y9.7945 F350.00
G01 X95.8608 Y9.7653 F350.00
G01 X95.8575 Y9.7360 F350.00
G01 X95.8550 Y9.7067 F350.00
G01 X95.8532 Y9.6773 F350.00
G01 X95.8504 Y9.6118 F350.00
G01 X95.8500 Y9.5824 F350.00
G01 X95.8500 Y7.8176 F350.00
G01 X95.8504 Y7.7882 F350.00
G01 X95.8514 Y7.7588 F350.00
G01 X95.8550 Y7.6933 F350.00
G01 X95.8575 Y7.6640 F350.00
G01 X95.8608 Y7.6347 F350.00
G01 X95.8701 Y7.5698 F350.00
G01 X95.8747 Y7.5408 F350.00
G01 X95.8801 Y7.5118 F350.00
G01 X95.8862 Y7.4830 F350.00
G01 X95.8930 Y7.4543 F350.00
G01 X95.9093 Y7.3909 F350.00
G01 X95.9175 Y7.3626 F350.00
G01 X95.9264 Y7.3345 F350.00
G01 X95.9360 Y7.3067 F350.00
G01 X95.9584 Y7.2451 F350.00
G01 X95.9693 Y7.2177 F350.00
G01 X95.9809 Y7.1907 F350.00
G01 X95.9932 Y7.1639 F350.00
G01 X96.0215 Y7.1048 F350.00
G01 X96.0351 Y7.0787 F350.00
G01 X96.0493 Y7.0529 F350.00
G01 X96.0641 Y7.0274 F350.00
G01 X96.0981 Y6.9714 F350.00
G01 X96.1142 Y6.9467 F350.00
G01 X96.1309 Y6.9224 F350.00
G01 X96.1481 Y6.8986 F350.00
G01 X96.1874 Y6.8461 F350.00
G01 X96.2058 Y6.8231 F350.00
G01 X96.2248 Y6.8006 F350.00
G01 X96.2443 Y6.7785 F350.00
G01 X96.2886 Y6.7302 F350.00
G01 X96.3092 Y6.7092 F350.00
G01 X96.3302 Y6.6886 F350.00
G01 X96.3518 Y6.6685 F350.00
G01 X96.4006 Y6.6248 F350.00
G01 X96.4231 Y6.6058 F350.00
G01 X96.4461 Y6.5874 F350.00
G01 X96.4986 Y6.5481 F350.00
G01 X96.5224 Y6.5309 F350.00
G01 X96.5467 Y6.5142 F350.00
G01 X96.5714 Y6.4981 F350.00
G01 X96.6274 Y6.4641 F350.00
G01 X96.6529 Y6.4493 F350.00
G01 X96.6787 Y6.4351 F350.00
G01 X96.7048 Y6.4215 F350.00
G01 X96.7313 Y6.4086 F350.00
G01 X96.7907 Y6.3809 F350.00
G01 X96.8177 Y6.3693 F350.00
G01 X96.8451 Y6.3584 F350.00
G01 X96.8727 Y6.3481 F350.00
G01 X96.9324 Y6.3271 F350.00
G01 X96.9612 Y6.3179 F350.00
G01 X96.9902 Y6.3095 F350.00
G01 X97.0193 Y6.3018 F350.00
G01 X97.0830 Y6.2862 F350.00
G01 X97.1118 Y6.2801 F350.00
G01 X97.1408 Y6.2747 F350.00
G01 X97.2055 Y6.2648 F350.00
G01 X97.2347 Y6.2608 F350.00
G01 X97.2640 Y6.2575 F350.00
G01 X97.2933 Y6.2550 F350.00
G01 X97.3588 Y6.2514 F350.00
G01 X97.3882 Y6.2504 F350.00
G01 X97.4176 Y6.2500 F350.00
G01 X99.1824 Y6.2500 F350.00
G01 X99.2118 Y6.2504 F350.00
G01 X99.2773 Y6.2532 F350.00
G01 X99.3067 Y6.2550 F350.00
G01 X99.3360 Y6.2575 F350.00
G01 X99.3653 Y6.2608 F350.00
G01 X99.4302 Y6.2701 F350.00
G01 X99.4592 Y6.2747 F350.00
G01 X99.4882 Y6.2801 F350.00
G01 X99.5170 Y6.2862 F350.00
G01 X99.5457 Y6.2930 F350.00
G01 X99.6091 Y6.3093 F350.00
G01 X99.6374 Y6.3175 F350.00
G01 X99.6655 Y6.3264 F350.00
G01 X99.6933 Y6.3360 F350.00
G01 X99.7549 Y6.3584 F350.00
G01 X99.7823 Y6.3693 F350.00
G01 X99.8093 Y6.3809 F350.00
G01 X99.8687 Y6.4086 F350.00
G01 X99.8952 Y6.4215 F350.00
G01 X99.9213 Y6.4351 F350.00
G01 X99.9471 Y6.4493 F350.00
G01 X99.9726 Y6.4641 F350.00
G01 X100.0286 Y6.4981 F350.00
G01 X100.0533 Y6.5142 F350.00
G01 X100.0776 Y6.5309 F350.00
G01 X100.1014 Y6.5481 F350.00
G01 X100.1539 Y6.5874 F350.00
G01 X100.1769 Y6.6058 F350.00
G01 X100.1994 Y6.6248 F350.00
G01 X100.2482 Y6.6685 F350.00
G01 X100.2698 Y6.6886 F350.00
G01 X100.2908 Y6.7092 F350.00
G01 X100.3114 Y6.7302 F350.00
G01 X100.3315 Y6.7518 F350.00
G01 X100.3752 Y6.8006 F350.00
G01 X100.3942 Y6.8231 F350.00
G01 X100.4126 Y6.8461 F350.00
G01 X100.4519 Y6.8986 F350.00
G01 X100.4691 Y6.9224 F350.00
G01 X100.4858 Y6.9467 F350.00
G01 X100.4997 Y6.9681 F350.00
G01 X100.4997 Y2.9495 F350.00
G01 X100.4802 Y2.9531 F350.00
G01 X100.4512 Y2.9578 F350.00
G01 X100.3541 Y2.9722 F350.00
G01 X100.3249 Y2.9762 F350.00
G01 X100.2956 Y2.9794 F350.00
G01 X100.2663 Y2.9819 F350.00
G01 X100.2369 Y2.9837 F350.00
G01 X100.1389 Y2.9886 F350.00
G01 X100.1094 Y2.9896 F350.00
G01 X100.0800 Y2.9900 F350.00
G01 X100.0506 Y2.9896 F350.00
G01 X100.0211 Y2.9886 F350.00
G01 X99.9231 Y2.9837 F350.00
G01 X99.8937 Y2.9819 F350.00
G01 X99.8644 Y2.9794 F350.00
G01 X99.8351 Y2.9762 F350.00
G01 X99.8059 Y2.9722 F350.00
G01 X99.7088 Y2.9578 F350.00
G01 X99.6798 Y2.9531 F350.00
G01 X99.6508 Y2.9477 F350.00
G01 X99.6220 Y2.9416 F350.00
G01 X99.5933 Y2.9348 F350.00
G01 X99.4981 Y2.9110 F350.00
G01 X99.4697 Y2.9035 F350.00
G01 X99.4414 Y2.8953 F350.00
G01 X99.4133 Y2.8864 F350.00
G01 X99.3854 Y2.8768 F350.00
G01 X99.2930 Y2.8437 F350.00
G01 X99.2654 Y2.8335 F350.00
G01 X99.2381 Y2.8225 F350.00
G01 X99.2110 Y2.8109 F350.00
G01 X99.1843 Y2.7987 F350.00
G01 X99.0955 Y2.7567 F350.00
G01 X99.0691 Y2.7438 F350.00
G01 X99.0429 Y2.7302 F350.00
G01 X99.0171 Y2.7160 F350.00
G01 X98.9917 Y2.7012 F350.00
G01 X98.9075 Y2.6507 F350.00
G01 X98.8824 Y2.6353 F350.00
G01 X98.8577 Y2.6192 F350.00
G01 X98.8335 Y2.6026 F350.00
G01 X98.8100 Y2.5856 F350.00
G01 X98.7865 Y2.6026 F350.00
G01 X98.7623 Y2.6192 F350.00
G01 X98.7376 Y2.6353 F350.00
G01 X98.7125 Y2.6507 F350.00
G01 X98.6283 Y2.7012 F350.00
G01 X98.6029 Y2.7160 F350.00
G01 X98.5771 Y2.7302 F350.00
G01 X98.5509 Y2.7438 F350.00
G01 X98.5245 Y2.7567 F350.00
G01 X98.4357 Y2.7987 F350.00
G01 X98.4090 Y2.8109 F350.00
G01 X98.3819 Y2.8225 F350.00
G01 X98.3546 Y2.8335 F350.00
G01 X98.3270 Y2.8437 F350.00
G01 X98.2088 Y2.8857 F350.00
G01 X98.1800 Y2.8948 F350.00
G01 X98.1510 Y2.9033 F350.00
G01 X98.1219 Y2.9110 F350.00
G01 X98.0267 Y2.9348 F350.00
G01 X97.9980 Y2.9416 F350.00
G01 X97.9692 Y2.9477 F350.00
G01 X97.9402 Y2.9531 F350.00
G01 X97.9112 Y2.9578 F350.00
G01 X97.8141 Y2.9722 F350.00
G01 X97.7849 Y2.9762 F350.00
G01 X97.7556 Y2.9794 F350.00
G01 X97.7263 Y2.9819 F350.00
G01 X97.6969 Y2.9837 F350.00
G01 X97.5989 Y2.9886 F350.00
G01 X97.5694 Y2.9896 F350.00
G01 X97.5400 Y2.9900 F350.00
G01 X97.5106 Y2.9896 F350.00
G01 X97.4811 Y2.9886 F350.00
G01 X97.3831 Y2.9837 F350.00
G01 X97.3537 Y2.9819 F350.00
G01 X97.3244 Y2.9794 F350.00
G01 X97.2951 Y2.9762 F350.00
G01 X97.2659 Y2.9722 F350.00
G01 X97.1688 Y2.9578 F350.00
G01 X97.1398 Y2.9531 F350.00
G01 X97.1108 Y2.9477 F350.00
G01 X97.0820 Y2.9416 F350.00
G01 X97.0533 Y2.9348 F350.00
G01 X96.9581 Y2.9110 F350.00
G01 X96.9297 Y2.9035 F350.00
G01 X96.9014 Y2.8953 F350.00
G01 X96.8733 Y2.8864 F350.00
G01 X96.8454 Y2.8768 F350.00
G01 X96.7530 Y2.8437 F350.00
G01 X96.7254 Y2.8335 F350.00
G01 X96.6981 Y2.8225 F350.00
G01 X96.6710 Y2.8109 F350.00
G01 X96.6443 Y2.7987 F350.00
G01 X96.5555 Y2.7567 F350.00
G01 X96.5291 Y2.7438 F350.00
G01 X96.5029 Y2.7302 F350.00
G01 X96.4771 Y2.7160 F350.00
G01 X96.4517 Y2.7012 F350.00
G01 X96.3675 Y2.6507 F350.00
G01 X96.3424 Y2.6353 F350.00
G01 X96.3177 Y2.6192 F350.00
G01 X96.2935 Y2.6026 F350.00
G01 X96.2700 Y2.5856 F350.00
G01 X96.2465 Y2.6026 F350.00
G01 X96.2223 Y2.6192 F350.00
G01 X96.1976 Y2.6353 F350.00
G01 X96.1725 Y2.6507 F350.00
G01 X96.0883 Y2.7012 F350.00
G01 X96.0629 Y2.7160 F350.00
G01 X96.0371 Y2.7302 F350.00
G01 X96.0109 Y2.7438 F350.00
G01 X95.9845 Y2.7567 F350.00
G01 X95.8957 Y2.7987 F350.00
G01 X95.8690 Y2.8109 F350.00
G01 X95.8419 Y2.8225 F350.00
G01 X95.8146 Y2.8335 F350.00
G01 X95.7870 Y2.8437 F350.00
G01 X95.6688 Y2.8857 F350.00
G01 X95.6400 Y2.8948 F350.00
G01 X95.6110 Y2.9033 F350.00
G01 X95.5819 Y2.9110 F350.00
G01 X95.4867 Y2.9348 F350.00
G01 X95.4580 Y2.9416 F350.00
G01 X95.4292 Y2.9477 F350.00
G01 X95.4002 Y2.9531 F350.00
G01 X95.3712 Y2.9578 F350.00
G01 X95.2741 Y2.9722 F350.00
G01 X95.2449 Y2.9762 F350.00
G01 X95.2156 Y2.9794 F350.00
G01 X95.1863 Y2.9819 F350.00
G01 X95.1569 Y2.9837 F350.00
G01 X95.0589 Y2.9886 F350.00
G01 X95.0294 Y2.9896 F350.00
G01 X95.0000 Y2.9900 F350.00
G01 X94.9706 Y2.9896 F350.00
G01 X94.9411 Y2.9886 F350.00
G01 X94.8431 Y2.9837 F350.00
G01 X94.8137 Y2.9819 F350.00
G01 X94.7844 Y2.9794 F350.00
G01 X94.7551 Y2.9762 F350.00
G01 X94.7259 Y2.9722 F350.00
G01 X94.6288 Y2.9578 F350.00
G01 X94.5998 Y2.9531 F350.00
G01 X94.5708 Y2.9477 F350.00
G01 X94.5420 Y2.9416 F350.00
G01 X94.5133 Y2.9348 F350.00
G01 X94.4181 Y2.9110 F350.00
G01 X94.3897 Y2.9035 F350.00
G01 X94.3614 Y2.8953 F350.00
G01 X94.3333 Y2.8864 F350.00
G01 X94.3054 Y2.8768 F350.00
G01 X94.2130 Y2.8437 F350.00
G01 X94.1854 Y2.8335 F350.00
G01 X94.1581 Y2.8225 F350.00
G01 X94.1310 Y2.8109 F350.00
G01 X94.1043 Y2.7987 F350.00
G01 X94.0155 Y2.7567 F350.00
G01 X93.9891 Y2.7438 F350.00
G01 X93.9629 Y2.7302 F350.00
G01 X93.9371 Y2.7160 F350.00
G01 X93.9117 Y2.7012 F350.00
G01 X93.8275 Y2.6507 F350.00
G01 X93.8024 Y2.6353 F350.00
G01 X93.7777 Y2.6192 F350.00
G01 X93.7535 Y2.6026 F350.00
G01 X93.7300 Y2.5856 F350.00
G01 X93.7065 Y2.6026 F350.00
G01 X93.6823 Y2.6192 F350.00
G01 X93.6576 Y2.6353 F350.00
G01 X93.6325 Y2.6507 F350.00
G01 X93.5483 Y2.7012 F350.00
G01 X93.5229 Y2.7160 F350.00
G01 X93.4971 Y2.7302 F350.00
G01 X93.4709 Y2.7438 F350.00
G01 X93.4445 Y2.7567 F350.00
G01 X93.3557 Y2.7987 F350.00
G01 X93.3290 Y2.8109 F350.00
G01 X93.3019 Y2.8225 F350.00
G01 X93.2746 Y2.8335 F350.00
G01 X93.2470 Y2.8437 F350.00
G01 X93.1523 Y2.8776 F350.00
G01 X93.1250 Y2.8869 F350.00
G01 X93.0975 Y2.8956 F350.00
G01 X93.0698 Y2.9036 F350.00
G01 X93.0419 Y2.9110 F350.00
G01 X92.9467 Y2.9348 F350.00
G01 X92.9180 Y2.9416 F350.00
G01 X92.8892 Y2.9477 F350.00
G01 X92.8602 Y2.9531 F350.00
G01 X92.8312 Y2.9578 F350.00
G01 X92.7341 Y2.9722 F350.00
G01 X92.7049 Y2.9762 F350.00
G01 X92.6756 Y2.9794 F350.00
G01 X92.6463 Y2.9819 F350.00
G01 X92.6169 Y2.9837 F350.00
G01 X92.5189 Y2.9886 F350.00
G01 X92.4894 Y2.9896 F350.00
G01 X92.4600 Y2.9900 F350.00
G01 X92.4306 Y2.9896 F350.00
G01 X92.4011 Y2.9886 F350.00
G01 X92.3031 Y2.9837 F350.00
G01 X92.2737 Y2.9819 F350.00
G01 X92.2444 Y2.9794 F350.00
G01 X92.2151 Y2.9762 F350.00
G01 X92.1859 Y2.9722 F350.00
G01 X92.0888 Y2.9578 F350.00
G01 X92.0598 Y2.9531 F350.00
G01 X92.0308 Y2.9477 F350.00
G01 X92.0020 Y2.9416 F350.00
G01 X91.9733 Y2.9348 F350.00
G01 X91.8781 Y2.9110 F350.00
G01 X91.8497 Y2.9035 F350.00
G01 X91.8214 Y2.8953 F350.00
G01 X91.7933 Y2.8864 F350.00
G01 X91.7654 Y2.8768 F350.00
G01 X91.6730 Y2.8437 F350.00
G01 X91.6454 Y2.8335 F350.00
G01 X91.6181 Y2.8225 F350.00
G01 X91.5910 Y2.8109 F350.00
G01 X91.5643 Y2.7987 F350.00
G01 X91.4755 Y2.7567 F350.00
G01 X91.4491 Y2.7438 F350.00
G01 X91.4229 Y2.7302 F350.00
G01 X91.3971 Y2.7160 F350.00
G01 X91.3717 Y2.7012 F350.00
G01 X91.2875 Y2.6507 F350.00
G01 X91.2624 Y2.6353 F350.00
G01 X91.2377 Y2.6192 F350.00
G01 X91.2135 Y2.6026 F350.00
G01 X91.1900 Y2.5856 F350.00
G01 X91.1665 Y2.6026 F350.00
G01 X91.1423 Y2.6192 F350.00
G01 X91.1176 Y2.6353 F350.00
G01 X91.0925 Y2.6507 F350.00
G01 X91.0083 Y2.7012 F350.00
G01 X90.9829 Y2.7160 F350.00
G01 X90.9571 Y2.7302 F350.00
G01 X90.9309 Y2.7438 F350.00
G01 X90.9045 Y2.7567 F350.00
G01 X90.8157 Y2.7987 F350.00
G01 X90.7890 Y2.8109 F350.00
G01 X90.7619 Y2.8225 F350.00
G01 X90.7346 Y2.8335 F350.00
G01 X90.7070 Y2.8437 F350.00
G01 X90.5888 Y2.8857 F350.00
G01 X90.5600 Y2.8948 F350.00
G01 X90.5310 Y2.9033 F350.00
G01 X90.5019 Y2.9110 F350.00
G01 X90.4067 Y2.9348 F350.00
G01 X90.3780 Y2.9416 F350.00
G01 X90.3492 Y2.9477 F350.00
G01 X90.3202 Y2.9531 F350.00
G01 X90.2912 Y2.9578 F350.00
G01 X90.1941 Y2.9722 F350.00
G01 X90.1649 Y2.9762 F350.00
G01 X90.1356 Y2.9794 F350.00
G01 X90.1063 Y2.9819 F350.00
G01 X90.0769 Y2.9837 F350.00
G01 X89.9789 Y2.9886 F350.00
G01 X89.9494 Y2.9896 F350.00
G01 X89.9200 Y2.9900 F350.00
G01 X89.8906 Y2.9896 F350.00
G01 X89.8611 Y2.9886 F350.00
G01 X89.7631 Y2.9837 F350.00
G01 X89.7337 Y2.9819 F350.00
G01 X89.7044 Y2.9794 F350.00
G01 X89.6751 Y2.9762 F350.00
G01 X89.6459 Y2.9722 F350.00
G01 X89.5488 Y2.9578 F350.00
G01 X89.5198 Y2.9531 F350.00
G01 X89.4908 Y2.9477 F350.00
G01 X89.4620 Y2.9416 F350.00
G01 X89.4333 Y2.9348 F350.00
G01 X89.3381 Y2.9110 F350.00
G01 X89.3097 Y2.9035 F350.00
G01 X89.2814 Y2.8953 F350.00
G01 X89.2533 Y2.8864 F350.00
G01 X89.2254 Y2.8768 F350.00
G01 X89.1330 Y2.8437 F350.00
G01 X89.1054 Y2.8335 F350.00
G01 X89.0781 Y2.8225 F350.00
G01 X89.0510 Y2.8109 F350.00
G01 X89.0243 Y2.7987 F350.00
G01 X88.9355 Y2.7567 F350.00
G01 X88.9091 Y2.7438 F350.00
G01 X88.8829 Y2.7302 F350.00
G01 X88.8571 Y2.7160 F350.00
G01 X88.8317 Y2.7012 F350.00
G01 X88.7475 Y2.6507 F350.00
G01 X88.7224 Y2.6353 F350.00
G01 X88.6977 Y2.6192 F350.00
G01 X88.6735 Y2.6026 F350.00
G01 X88.6496 Y2.5853 F350.00
G01 X88.5708 Y2.5269 F350.00
G01 X88.5473 Y2.5090 F350.00
G01 X88.5243 Y2.4906 F350.00
G01 X88.5018 Y2.4717 F350.00
G01 X88.4797 Y2.4522 F350.00
G01 X88.4070 Y2.3862 F350.00
G01 X88.3854 Y2.3662 F350.00
G01 X88.3644 Y2.3456 F350.00
G01 X88.3438 Y2.3246 F350.00
G01 X88.3238 Y2.3030 F350.00
G01 X88.2578 Y2.2303 F350.00
G01 X88.2383 Y2.2082 F350.00
G01 X88.2194 Y2.1857 F350.00
G01 X88.2010 Y2.1627 F350.00
G01 X88.1831 Y2.1392 F350.00
G01 X88.1247 Y2.0604 F350.00
G01 X88.1074 Y2.0365 F350.00
G01 X88.0908 Y2.0123 F350.00
G01 X88.0747 Y1.9876 F350.00
G01 X88.0593 Y1.9625 F350.00
G01 X88.0088 Y1.8783 F350.00
G01 X87.9940 Y1.8529 F350.00
G01 X87.9798 Y1.8271 F350.00
G01 X87.9662 Y1.8009 F350.00
G01 X87.9533 Y1.7745 F350.00
G01 X87.9113 Y1.6857 F350.00
G01 X87.8991 Y1.6590 F350.00
G01 X87.8875 Y1.6319 F350.00
G01 X87.8765 Y1.6046 F350.00
G01 X87.8663 Y1.5770 F350.00
G01 X87.8243 Y1.4588 F350.00
G01 X87.8152 Y1.4300 F350.00
G01 X87.8067 Y1.4010 F350.00
G01 X87.7990 Y1.3719 F350.00
G01 X87.7752 Y1.2767 F350.00
G01 X87.7684 Y1.2480 F350.00
G01 X87.7623 Y1.2192 F350.00
G01 X87.7569 Y1.1902 F350.00
G01 X87.7522 Y1.1612 F350.00
G01 X87.7378 Y1.0641 F350.00
G01 X87.7338 Y1.0349 F350.00
G01 X87.7306 Y1.0056 F350.00
G01 X87.7281 Y0.9763 F350.00
G01 X87.7263 Y0.9469 F350.00
G01 X87.7214 Y0.8489 F350.00
G01 X87.7204 Y0.8194 F350.00
G01 X87.7200 Y0.7900 F350.00
G01 X87.7200 Y-1.2100 F350.00
G01 X87.7204 Y-1.2394 F350.00
G01 X87.7214 Y-1.2689 F350.00
G01 X87.7263 Y-1.3669 F350.00
G01 X87.7281 Y-1.3963 F350.00
G01 X87.7306 Y-1.4256 F350.00
G01 X87.7338 Y-1.4549 F350.00
G01 X87.7378 Y-1.4841 F350.00
G01 X87.7552 Y-1.5997 F350.00
G01 X73.0365 Y-1.5997 F350.00
G01 X50.1503 Y21.2865 F350.00
G01 X50.1503 Y28.4039 F350.00
G01 X50.1690 Y28.4273 F350.00
G01 X50.1869 Y28.4508 F350.00
G01 X50.2453 Y28.5296 F350.00
G01 X50.2626 Y28.5535 F350.00
G01 X50.2792 Y28.5777 F350.00
G01 X50.2953 Y28.6024 F350.00
G01 X50.3107 Y28.6275 F350.00
G01 X50.3612 Y28.7117 F350.00
G01 X50.3760 Y28.7371 F350.00
G01 X50.3902 Y28.7629 F350.00
G01 X50.4038 Y28.7891 F350.00
G01 X50.4167 Y28.8155 F350.00
G01 X50.4587 Y28.9043 F350.00
G01 X50.4709 Y28.9310 F350.00
G01 X50.4825 Y28.9581 F350.00
G01 X50.4935 Y28.9854 F350.00
G01 X50.5037 Y29.0130 F350.00
G01 X50.5457 Y29.1312 F350.00
G01 X50.5548 Y29.1600 F350.00
G01 X50.5633 Y29.1890 F350.00
G01 X50.5710 Y29.2181 F350.00
G01 X50.5948 Y29.3133 F350.00
G01 X50.6016 Y29.3420 F350.00
G01 X50.6077 Y29.3708 F350.00
G01 X50.6131 Y29.3998 F350.00
G01 X50.6178 Y29.4288 F350.00
G01 X50.6322 Y29.5259 F350.00
G01 X50.6362 Y29.5551 F350.00
G01 X50.6394 Y29.5844 F350.00
G01 X50.6419 Y29.6137 F350.00
G01 X50.6437 Y29.6431 F350.00
G01 X50.6486 Y29.7411 F350.00
G01 X50.6496 Y29.7706 F350.00
G01 X50.6500 Y29.8000 F350.00
G01 X50.6500 Y31.3000 F350.00
G01 X50.6496 Y31.3294 F350.00
G01 X50.6486 Y31.3589 F350.00
G01 X50.6437 Y31.4569 F350.00
G01 X50.6419 Y31.4863 F350.00
G01 X50.6394 Y31.5156 F350.00
G01 X50.6362 Y31.5449 F350.00
G01 X50.6322 Y31.5741 F350.00
G01 X50.6178 Y31.6712 F350.00
G01 X50.6131 Y31.7002 F350.00
G01 X50.6077 Y31.7292 F350.00
G01 X50.6016 Y31.7580 F350.00
G01 X50.5948 Y31.7867 F350.00
G01 X50.5710 Y31.8819 F350.00
G01 X50.5635 Y31.9103 F350.00
G01 X50.5553 Y31.9386 F350.00
G01 X50.5464 Y31.9667 F350.00
G01 X50.5368 Y31.9946 F350.00
G01 X50.5037 Y32.0870 F350.00
G01 X50.4935 Y32.1146 F350.00
G01 X50.4825 Y32.1419 F350.00
G01 X50.4709 Y32.1690 F350.00
G01 X50.4587 Y32.1957 F350.00
G01 X50.4167 Y32.2845 F350.00
G01 X50.4038 Y32.3109 F350.00
G01 X50.3832 Y32.3497 F350.00
G01 X77.0932 Y32.3497 F350.00
G01 X77.1395 Y32.3385 F350.00
G01 X77.1683 Y32.3324 F350.00
G01 X77.1973 Y32.3270 F350.00
G01 X77.2749 Y32.3151 F350.00
G01 X77.3041 Y32.3112 F350.00
G01 X77.3333 Y32.3079 F350.00
G01 X77.3627 Y32.3054 F350.00
G01 X77.3921 Y32.3036 F350.00
G01 X77.4706 Y32.3001 F350.00
G01 X77.5000 Y32.2997 F350.00
G01 X86.3957 Y32.2997 F350.00
G01 X97.1097 Y21.5857 F350.00
G01 X97.1097 Y21.4834 F350.00
G01 X97.0846 Y21.4935 F350.00
G01 X97.0570 Y21.5037 F350.00
G01 X96.9623 Y21.5376 F350.00
G01 X96.9350 Y21.5469 F350.00
G01 X96.9075 Y21.5556 F350.00
G01 X96.8798 Y21.5636 F350.00
G01 X96.8519 Y21.5710 F350.00
G01 X96.7567 Y21.5948 F350.00
G01 X96.7280 Y21.6016 F350.00
G01 X96.6992 Y21.6077 F350.00
G01 X96.6702 Y21.6131 F350.00
G01 X96.6412 Y21.6178 F350.00
G01 X96.5441 Y21.6322 F350.00
G01 X96.5149 Y21.6362 F350.00
G01 X96.4856 Y21.6394 F350.00
G01 X96.4563 Y21.6419 F350.00
G01 X96.4269 Y21.6437 F350.00
G01 X96.3289 Y21.6486 F350.00
G01 X96.2994 Y21.6496 F350.00
G01 X96.2700 Y21.6500 F350.00
G01 X96.2406 Y21.6496 F350.00
G01 X96.2111 Y21.6486 F350.00
G01 X96.1131 Y21.6437 F350.00
G01 X96.0837 Y21.6419 F350.00
G01 X96.0544 Y21.6394 F350.00
G01 X96.0251 Y21.6362 F350.00
G01 X95.9959 Y21.6322 F350.00
G01 X95.8988 Y21.6178 F350.00
G01 X95.8698 Y21.6131 F350.00
G01 X95.8408 Y21.6077 F350.00
G01 X95.8120 Y21.6016 F350.00
G01 X95.7833 Y21.5948 F350.00
G01 X95.6881 Y21.5710 F350.00
G01 X95.6597 Y21.5635 F350.00
G01 X95.6314 Y21.5553 F350.00
G01 X95.6033 Y21.5464 F350.00
G01 X95.5754 Y21.5368 F350.00
G01 X95.4830 Y21.5037 F350.00
G01 X95.4554 Y21.4935 F350.00
G01 X95.4281 Y21.4825 F350.00
G01 X95.4010 Y21.4709 F350.00
G01 X95.3743 Y21.4587 F350.00
G01 X95.2855 Y21.4167 F350.00
G01 X95.2591 Y21.4038 F350.00
G01 X95.2329 Y21.3902 F350.00
G01 X95.2071 Y21.3760 F350.00
G01 X95.1817 Y21.3612 F350.00
G01 X95.0975 Y21.3107 F350.00
G01 X95.0724 Y21.2953 F350.00
G01 X95.0477 Y21.2792 F350.00
G01 X95.0235 Y21.2626 F350.00
G01 X95.0000 Y21.2456 F350.00
G01 X94.9765 Y21.2626 F350.00
G01 X94.9523 Y21.2792 F350.00
G01 X94.9276 Y21.2953 F350.00
G01 X94.9025 Y21.3107 F350.00
G01 X94.8183 Y21.3612 F350.00
G01 X94.7929 Y21.3760 F350.00
G01 X94.7671 Y21.3902 F350.00
G01 X94.7409 Y21.4038 F350.00
G01 X94.7145 Y21.4167 F350.00
G01 X94.6257 Y21.4587 F350.00
G01 X94.5990 Y21.4709 F350.00
G01 X94.5719 Y21.4825 F350.00
G01 X94.5446 Y21.4935 F350.00
G01 X94.5170 Y21.5037 F350.00
G01 X94.3988 Y21.5457 F350.00
G01 X94.3700 Y21.5548 F350.00
G01 X94.3410 Y21.5633 F350.00
G01 X94.3119 Y21.5710 F350.00
G01 X94.2167 Y21.5948 F350.00
G01 X94.1880 Y21.6016 F350.00
G01 X94.1592 Y21.6077 F350.00
G01 X94.1302 Y21.6131 F350.00
G01 X94.1012 Y21.6178 F350.00
G01 X94.0041 Y21.6322 F350.00
G01 X93.9749 Y21.6362 F350.00
G01 X93.9456 Y21.6394 F350.00
G01 X93.9163 Y21.6419 F350.00
G01 X93.8869 Y21.6437 F350.00
G01 X93.7889 Y21.6486 F350.00
G01 X93.7594 Y21.6496 F350.00
G01 X93.7300 Y21.6500 F350.00
G01 X93.7006 Y21.6496 F350.00
G01 X93.6711 Y21.6486 F350.00
G01 X93.5731 Y21.6437 F350.00
G01 X93.5437 Y21.6419 F350.00
G01 X93.5144 Y21.6394 F350.00
G01 X93.4851 Y21.6362 F350.00
G01 X93.4559 Y21.6322 F350.00
G01 X93.3588 Y21.6178 F350.00
G01 X93.3298 Y21.6131 F350.00
G01 X93.3008 Y21.6077 F350.00
G01 X93.2720 Y21.6016 F350.00
G01 X93.2433 Y21.5948 F350.00
G01 X93.1481 Y21.5710 F350.00
G01 X93.1197 Y21.5635 F350.00
G01 X93.0914 Y21.5553 F350.00
G01 X93.0633 Y21.5464 F350.00
G01 X93.0354 Y21.5368 F350.00
G01 X92.9430 Y21.5037 F350.00
G01 X92.9154 Y21.4935 F350.00
G01 X92.8881 Y21.4825 F350.00
G01 X92.8610 Y21.4709 F350.00
G01 X92.8343 Y21.4587 F350.00
G01 X92.7455 Y21.4167 F350.00
G01 X92.7191 Y21.4038 F350.00
G01 X92.6929 Y21.3902 F350.00
G01 X92.6671 Y21.3760 F350.00
G01 X92.6417 Y21.3612 F350.00
G01 X92.5575 Y21.3107 F350.00
G01 X92.5324 Y21.2953 F350.00
G01 X92.5077 Y21.2792 F350.00
G01 X92.4835 Y21.2626 F350.00
G01 X92.4600 Y21.2456 F350.00
G01 X92.4365 Y21.2626 F350.00
G01 X92.4123 Y21.2792 F350.00
G01 X92.3876 Y21.2953 F350.00
G01 X92.3625 Y21.3107 F350.00
G01 X92.2783 Y21.3612 F350.00
G01 X92.2529 Y21.3760 F350.00
G01 X92.2271 Y21.3902 F350.00
G01 X92.2009 Y21.4038 F350.00
G01 X92.1745 Y21.4167 F350.00
G01 X92.0857 Y21.4587 F350.00
G01 X92.0590 Y21.4709 F350.00
G01 X92.0319 Y21.4825 F350.00
G01 X92.0046 Y21.4935 F350.00
G01 X91.9770 Y21.5037 F350.00
G01 X91.8588 Y21.5457 F350.00
G01 X91.8300 Y21.5548 F350.00
G01 X91.8010 Y21.5633 F350.00
G01 X91.7719 Y21.5710 F350.00
G01 X91.6767 Y21.5948 F350.00
G01 X91.6480 Y21.6016 F350.00
G01 X91.6192 Y21.6077 F350.00
G01 X91.5902 Y21.6131 F350.00
G01 X91.5612 Y21.6178 F350.00
G01 X91.4641 Y21.6322 F350.00
G01 X91.4349 Y21.6362 F350.00
G01 X91.4056 Y21.6394 F350.00
G01 X91.3763 Y21.6419 F350.00
G01 X91.3469 Y21.6437 F350.00
G01 X91.2489 Y21.6486 F350.00
G01 X91.2194 Y21.6496 F350.00
G01 X91.1900 Y21.6500 F350.00
G01 X91.1606 Y21.6496 F350.00
G01 X91.1311 Y21.6486 F350.00
G01 X91.0331 Y21.6437 F350.00
G01 X91.0037 Y21.6419 F350.00
G01 X90.9744 Y21.6394 F350.00
G01 X90.9451 Y21.6362 F350.00
G01 X90.9159 Y21.6322 F350.00
G01 X90.8188 Y21.6178 F350.00
G01 X90.7898 Y21.6131 F350.00
G01 X90.7608 Y21.6077 F350.00
G01 X90.7320 Y21.6016 F350.00
G01 X90.7033 Y21.5948 F350.00
G01 X90.6081 Y21.5710 F350.00
G01 X90.5797 Y21.5635 F350.00
G01 X90.5514 Y21.5553 F350.00
G01 X90.5233 Y21.5464 F350.00
G01 X90.4954 Y21.5368 F350.00
G01 X90.4030 Y21.5037 F350.00
G01 X90.3754 Y21.4935 F350.00
G01 X90.3481 Y21.4825 F350.00
G01 X90.3210 Y21.4709 F350.00
G01 X90.2943 Y21.4587 F350.00
G01 X90.2055 Y21.4167 F350.00
G01 X90.1791 Y21.4038 F350.00
G01 X90.1529 Y21.3902 F350.00
G01 X90.1271 Y21.3760 F350.00
G01 X90.1017 Y21.3612 F350.00
G01 X90.0175 Y21.3107 F350.00
G01 X89.9924 Y21.2953 F350.00
G01 X89.9677 Y21.2792 F350.00
G01 X89.9435 Y21.2626 F350.00
G01 X89.9200 Y21.2456 F350.00
G01 X89.8965 Y21.2626 F350.00
G01 X89.8723 Y21.2792 F350.00
G01 X89.8476 Y21.2953 F350.00
G01 X89.8225 Y21.3107 F350.00
G01 X89.7383 Y21.3612 F350.00
G01 X89.7129 Y21.3760 F350.00
G01 X89.6871 Y21.3902 F350.00
G01 X89.6609 Y21.4038 F350.00
G01 X89.6345 Y21.4167 F350.00
G01 X89.5457 Y21.4587 F350.00
G01 X89.5190 Y21.4709 F350.00
G01 X89.4919 Y21.4825 F350.00
G01 X89.4646 Y21.4935 F350.00
G01 X89.4370 Y21.5037 F350.00
G01 X89.3188 Y21.5457 F350.00
G01 X89.2900 Y21.5548 F350.00
G01 X89.2610 Y21.5633 F350.00
G01 X89.2319 Y21.5710 F350.00
G01 X89.1367 Y21.5948 F350.00
G01 X89.1080 Y21.6016 F350.00
G01 X89.0792 Y21.6077 F350.00
G01 X89.0502 Y21.6131 F350.00
G01 X89.0212 Y21.6178 F350.00
G01 X88.9241 Y21.6322 F350.00
G01 X88.8949 Y21.6362 F350.00
G01 X88.8656 Y21.6394 F350.00
G01 X88.8363 Y21.6419 F350.00
G01 X88.8069 Y21.6437 F350.00
G01 X88.7089 Y21.6486 F350.00
G01 X88.6794 Y21.6496 F350.00
G01 X88.6500 Y21.6500 F350.00
G01 X88.6206 Y21.6496 F350.00
G01 X88.5911 Y21.6486 F350.00
G01 X88.4931 Y21.6437 F350.00
G01 X88.4637 Y21.6419 F350.00
G01 X88.4344 Y21.6394 F350.00
G01 X88.4051 Y21.6362 F350.00
G01 X88.3759 Y21.6322 F350.00
G01 X88.2788 Y21.6178 F350.00
G01 X88.2498 Y21.6131 F350.00
G01 X88.2208 Y21.6077 F350.00
G01 X88.1920 Y21.6016 F350.00
G01 X88.1633 Y21.5948 F350.00
G01 X88.0681 Y21.5710 F350.00
G01 X88.0397 Y21.5635 F350.00
G01 X88.0114 Y21.5553 F350.00
G01 X87.9833 Y21.5464 F350.00
G01 X87.9554 Y21.5368 F350.00
G01 X87.8630 Y21.5037 F350.00
G01 X87.8354 Y21.4935 F350.00
G01 X87.8081 Y21.4825 F350.00
G01 X87.7810 Y21.4709 F350.00
G01 X87.7543 Y21.4587 F350.00
G01 X87.6655 Y21.4167 F350.00
G01 X87.6391 Y21.4038 F350.00
G01 X87.6129 Y21.3902 F350.00
G01 X87.5871 Y21.3760 F350.00
G01 X87.5617 Y21.3612 F350.00
G01 X87.4775 Y21.3107 F350.00
G01 X87.4524 Y21.2953 F350.00
G01 X87.4277 Y21.2792 F350.00
G01 X87.4035 Y21.2626 F350.00
G01 X87.3800 Y21.2456 F350.00
G01 X87.3565 Y21.2626 F350.00
G01 X87.3323 Y21.2792 F350.00
G01 X87.3076 Y21.2953 F350.00
G01 X87.2825 Y21.3107 F350.00
G01 X87.1983 Y21.3612 F350.00
G01 X87.1729 Y21.3760 F350.00
G01 X87.1471 Y21.3902 F350.00
G01 X87.1209 Y21.4038 F350.00
G01 X87.0945 Y21.4167 F350.00
G01 X87.0057 Y21.4587 F350.00
G01 X86.9790 Y21.4709 F350.00
G01 X86.9519 Y21.4825 F350.00
G01 X86.9246 Y21.4935 F350.00
G01 X86.8970 Y21.5037 F350.00
G01 X86.8046 Y21.5368 F350.00
G01 X86.7788 Y21.5457 F350.00
G01 X86.7500 Y21.5548 F350.00
G01 X86.7210 Y21.5633 F350.00
G01 X86.6919 Y21.5710 F350.00
G01 X86.5967 Y21.5948 F350.00
G01 X86.5680 Y21.6016 F350.00
G01 X86.5392 Y21.6077 F350.00
G01 X86.5102 Y21.6131 F350.00
G01 X86.4812 Y21.6178 F350.00
G01 X86.3841 Y21.6322 F350.00
G01 X86.3549 Y21.6362 F350.00
G01 X86.3256 Y21.6394 F350.00
G01 X86.2963 Y21.6419 F350.00
G01 X86.2669 Y21.6437 F350.00
G01 X86.1689 Y21.6486 F350.00
G01 X86.1394 Y21.6496 F350.00
G01 X86.1100 Y21.6500 F350.00
G01 X86.0806 Y21.6496 F350.00
G01 X86.0511 Y21.6486 F350.00
G01 X85.9531 Y21.6437 F350.00
G01 X85.9237 Y21.6419 F350.00
G01 X85.8944 Y21.6394 F350.00
G01 X85.8651 Y21.6362 F350.00
G01 X85.8359 Y21.6322 F350.00
G01 X85.7388 Y21.6178 F350.00
G01 X85.7098 Y21.6131 F350.00
G01 X85.6808 Y21.6077 F350.00
G01 X85.6520 Y21.6016 F350.00
G01 X85.6233 Y21.5948 F350.00
G01 X85.5281 Y21.5710 F350.00
G01 X85.4997 Y21.5635 F350.00
G01 X85.4714 Y21.5553 F350.00
G01 X85.4433 Y21.5464 F350.00
G01 X85.4154 Y21.5368 F350.00
G01 X85.3230 Y21.5037 F350.00
G01 X85.2954 Y21.4935 F350.00
G01 X85.2681 Y21.4825 F350.00
G01 X85.2410 Y21.4709 F350.00
G01 X85.2143 Y21.4587 F350.00
G01 X85.1255 Y21.4167 F350.00
G01 X85.0991 Y21.4038 F350.00
G01 X85.0729 Y21.3902 F350.00
G01 X85.0471 Y21.3760 F350.00
G01 X85.0217 Y21.3612 F350.00
G01 X84.9375 Y21.3107 F350.00
G01 X84.9124 Y21.2953 F350.00
G01 X84.8877 Y21.2792 F350.00
G01 X84.8635 Y21.2626 F350.00
G01 X84.8396 Y21.2453 F350.00
G01 X84.7608 Y21.1869 F350.00
G01 X84.7373 Y21.1690 F350.00
G01 X84.7143 Y21.1506 F350.00
G01 X84.6918 Y21.1317 F350.00
G01 X84.6697 Y21.1122 F350.00
G01 X84.5970 Y21.0462 F350.00
G01 X84.5754 Y21.0262 F350.00
G01 X84.5544 Y21.0056 F350.00
G01 X84.5338 Y20.9846 F350.00
G01 X84.5138 Y20.9630 F350.00
G01 X84.4478 Y20.8903 F350.00
G01 X84.4283 Y20.8682 F350.00
G01 X84.4094 Y20.8457 F350.00
G01 X84.3910 Y20.8227 F350.00
G01 X84.3731 Y20.7992 F350.00
G01 X84.3147 Y20.7204 F350.00
G01 X84.2974 Y20.6965 F350.00
G01 X84.2808 Y20.6723 F350.00
G01 X84.2647 Y20.6476 F350.00
G01 X84.2493 Y20.6225 F350.00
G01 X84.1988 Y20.5383 F350.00
G01 X84.1840 Y20.5129 F350.00
G01 X84.1698 Y20.4871 F350.00
G01 X84.1562 Y20.4609 F350.00
G01 X84.1433 Y20.4345 F350.00
G01 X84.1013 Y20.3457 F350.00
G01 X84.0891 Y20.3190 F350.00
G01 X84.0775 Y20.2919 F350.00
G01 X84.0665 Y20.2646 F350.00
G01 X84.0563 Y20.2370 F350.00
G01 X84.0224 Y20.1423 F350.00
G01 X84.0131 Y20.1150 F350.00
G01 X84.0044 Y20.0875 F350.00
G01 X83.9964 Y20.0598 F350.00
G01 X83.9890 Y20.0319 F350.00
G01 X83.9652 Y19.9367 F350.00
G01 X83.9584 Y19.9080 F350.00
G01 X83.9523 Y19.8792 F350.00
G01 X83.9469 Y19.8502 F350.00
G01 X83.9422 Y19.8212 F350.00
G01 X83.9278 Y19.7241 F350.00
G01 X83.9238 Y19.6949 F350.00
G01 X83.9206 Y19.6656 F350.00
G01 X83.9181 Y19.6363 F350.00
G01 X83.9163 Y19.6069 F350.00
G01 X83.9114 Y19.5089 F350.00
G01 X83.9104 Y19.4794 F350.00
G01 X83.9100 Y19.4500 F350.00
G01 X83.9100 Y17.4500 F350.00
G01 X83.9104 Y17.4206 F350.00
G01 X83.9114 Y17.3911 F350.00
G01 X83.9163 Y17.2931 F350.00
G01 X83.9181 Y17.2637 F350.00
G01 X83.9206 Y17.2344 F350.00
G01 X83.9238 Y17.2051 F350.00
G01 X83.9278 Y17.1759 F350.00
G01 X83.9422 Y17.0788 F350.00
G01 X83.9469 Y17.0498 F350.00
G01 X83.9523 Y17.0208 F350.00
G01 X83.9584 Y16.9920 F350.00
G01 X83.9652 Y16.9633 F350.00
G01 X83.9890 Y16.8681 F350.00
G01 X83.9965 Y16.8397 F350.00
G01 X84.0047 Y16.8114 F350.00
G01 X84.0136 Y16.7833 F350.00
G01 X84.0232 Y16.7554 F350.00
G01 X84.0563 Y16.6630 F350.00
G01 X84.0665 Y16.6354 F350.00
G01 X84.0775 Y16.6081 F350.00
G01 X84.0891 Y16.5810 F350.00
G01 X84.1013 Y16.5543 F350.00
G01 X84.1433 Y16.4655 F350.00
G01 X84.1562 Y16.4391 F350.00
G01 X84.1698 Y16.4129 F350.00
G01 X84.1840 Y16.3871 F350.00
G01 X84.1988 Y16.3617 F350.00
G01 X84.2493 Y16.2775 F350.00
G01 X84.2647 Y16.2524 F350.00
G01 X84.2808 Y16.2277 F350.00
G01 X84.2974 Y16.2035 F350.00
G01 X84.3147 Y16.1796 F350.00
G01 X84.3731 Y16.1008 F350.00
G01 X84.3910 Y16.0773 F350.00
G01 X84.4094 Y16.0543 F350.00
G01 X84.4283 Y16.0318 F350.00
G01 X84.4478 Y16.0097 F350.00
G01 X84.5138 Y15.9370 F350.00
G01 X84.5338 Y15.9154 F350.00
G01 X84.5544 Y15.8944 F350.00
G01 X84.5754 Y15.8738 F350.00
G01 X84.5970 Y15.8538 F350.00
G01 X84.6697 Y15.7878 F350.00
G01 X84.6918 Y15.7683 F350.00
G01 X84.7143 Y15.7494 F350.00
G01 X84.7373 Y15.7310 F350.00
G01 X84.7608 Y15.7131 F350.00
G01 X84.8396 Y15.6547 F350.00
G01 X84.8635 Y15.6374 F350.00
G01 X84.8877 Y15.6208 F350.00
G01 X84.9124 Y15.6047 F350.00
G01 X84.9375 Y15.5893 F350.00
G01 X85.0217 Y15.5388 F350.00
G01 X85.0471 Y15.5240 F350.00
G01 X85.0729 Y15.5098 F350.00
G01 X85.0991 Y15.4962 F350.00
G01 X85.1255 Y15.4833 F350.00
G01 X85.2143 Y15.4413 F350.00
G01 X85.2410 Y15.4291 F350.00
G01 X85.2681 Y15.4175 F350.00
G01 X85.2954 Y15.4065 F350.00
G01 X85.3230 Y15.3963 F350.00
G01 X85.4412 Y15.3543 F350.00
G01 X85.4700 Y15.3452 F350.00
G01 X85.4990 Y15.3367 F350.00
G01 X85.5281 Y15.3290 F350.00
G01 X85.6233 Y15.3052 F350.00
G01 X85.6520 Y15.2984 F350.00
G01 X85.6808 Y15.2923 F350.00
G01 X85.7098 Y15.2869 F350.00
G01 X85.7388 Y15.2822 F350.00
G01 X85.8359 Y15.2678 F350.00
G01 X85.8651 Y15.2638 F350.00
G01 X85.8944 Y15.2606 F350.00
G01 X85.9237 Y15.2581 F350.00
G01 X85.9531 Y15.2563 F350.00
G01 X86.0511 Y15.2514 F350.00
G01 X86.0806 Y15.2504 F350.00
G01 X86.1100 Y15.2500 F350.00
G01 X86.1394 Y15.2504 F350.00
G01 X86.1689 Y15.2514 F350.00
G01 X86.2669 Y15.2563 F350.00
G01 X86.2963 Y15.2581 F350.00
G01 X86.3256 Y15.2606 F350.00
G01 X86.3549 Y15.2638 F350.00
G01 X86.3841 Y15.2678 F350.00
G01 X86.4812 Y15.2822 F350.00
G01 X86.5102 Y15.2869 F350.00
G01 X86.5392 Y15.2923 F350.00
G01 X86.5680 Y15.2984 F350.00
G01 X86.5967 Y15.3052 F350.00
G01 X86.6919 Y15.3290 F350.00
G01 X86.7203 Y15.3365 F350.00
G01 X86.7486 Y15.3447 F350.00
G01 X86.7767 Y15.3536 F350.00
G01 X86.8046 Y15.3632 F350.00
G01 X86.8970 Y15.3963 F350.00
G01 X86.9246 Y15.4065 F350.00
G01 X86.9519 Y15.4175 F350.00
G01 X86.9790 Y15.4291 F350.00
G01 X87.0057 Y15.4413 F350.00
G01 X87.0945 Y15.4833 F350.00
G01 X87.1209 Y15.4962 F350.00
G01 X87.1471 Y15.5098 F350.00
G01 X87.1729 Y15.5240 F350.00
G01 X87.1983 Y15.5388 F350.00
G01 X87.2825 Y15.5893 F350.00
G01 X87.3076 Y15.6047 F350.00
G01 X87.3323 Y15.6208 F350.00
G01 X87.3565 Y15.6374 F350.00
G01 X87.3800 Y15.6544 F350.00
G01 X87.4035 Y15.6374 F350.00
G01 X87.4277 Y15.6208 F350.00
G01 X87.4524 Y15.6047 F350.00
G01 X87.4775 Y15.5893 F350.00
G01 X87.5617 Y15.5388 F350.00
G01 X87.5871 Y15.5240 F350.00
G01 X87.6129 Y15.5098 F350.00
G01 X87.6391 Y15.4962 F350.00
G01 X87.6655 Y15.4833 F350.00
G01 X87.7543 Y15.4413 F350.00
G01 X87.7810 Y15.4291 F350.00
G01 X87.8081 Y15.4175 F350.00
G01 X87.8354 Y15.4065 F350.00
G01 X87.8630 Y15.3963 F350.00
G01 X87.9577 Y15.3624 F350.00
G01 X87.9850 Y15.3531 F350.00
G01 X88.0125 Y15.3444 F350.00
G01 X88.0402 Y15.3364 F350.00
G01 X88.0681 Y15.3290 F350.00
G01 X88.1633 Y15.3052 F350.00
G01 X88.1920 Y15.2984 F350.00
G01 X88.2208 Y15.2923 F350.00
G01 X88.2498 Y15.2869 F350.00
G01 X88.2788 Y15.2822 F350.00
G01 X88.3759 Y15.2678 F350.00
G01 X88.4051 Y15.2638 F350.00
G01 X88.4344 Y15.2606 F350.00
G01 X88.4637 Y15.2581 F350.00
G01 X88.4931 Y15.2563 F350.00
G01 X88.5911 Y15.2514 F350.00
G01 X88.6206 Y15.2504 F350.00
G01 X88.6500 Y15.2500 F350.00
G01 X88.6794 Y15.2504 F350.00
G01 X88.7089 Y15.2514 F350.00
G01 X88.8069 Y15.2563 F350.00
G01 X88.8363 Y15.2581 F350.00
G01 X88.8656 Y15.2606 F350.00
G01 X88.8949 Y15.2638 F350.00
G01 X88.9241 Y15.2678 F350.00
G01 X89.0212 Y15.2822 F350.00
G01 X89.0502 Y15.2869 F350.00
G01 X89.0792 Y15.2923 F350.00
G01 X89.1080 Y15.2984 F350.00
G01 X89.1367 Y15.3052 F350.00
G01 X89.2319 Y15.3290 F350.00
G01 X89.2603 Y15.3365 F350.00
G01 X89.2886 Y15.3447 F350.00
G01 X89.3167 Y15.3536 F350.00
G01 X89.3446 Y15.3632 F350.00
G01 X89.4370 Y15.3963 F350.00
G01 X89.4646 Y15.4065 F350.00
G01 X89.4919 Y15.4175 F350.00
G01 X89.5190 Y15.4291 F350.00
G01 X89.5457 Y15.4413 F350.00
G01 X89.6345 Y15.4833 F350.00
G01 X89.6609 Y15.4962 F350.00
G01 X89.6871 Y15.5098 F350.00
G01 X89.7129 Y15.5240 F350.00
G01 X89.7383 Y15.5388 F350.00
G01 X89.8225 Y15.5893 F350.00
G01 X89.8476 Y15.6047 F350.00
G01 X89.8723 Y15.6208 F350.00
G01 X89.8965 Y15.6374 F350.00
G01 X89.9200 Y15.6544 F350.00
G01 X89.9435 Y15.6374 F350.00
G01 X89.9677 Y15.6208 F350.00
G01 X89.9924 Y15.6047 F350.00
G01 X90.0175 Y15.5893 F350.00
G01 X90.1017 Y15.5388 F350.00
G01 X90.1271 Y15.5240 F350.00
G01 X90.1529 Y15.5098 F350.00
G01 X90.1791 Y15.4962 F350.00
G01 X90.2055 Y15.4833 F350.00
G01 X90.2943 Y15.4413 F350.00
G01 X90.3210 Y15.4291 F350.00
G01 X90.3481 Y15.4175 F350.00
G01 X90.3754 Y15.4065 F350.00
G01 X90.4030 Y15.3963 F350.00
G01 X90.5212 Y15.3543 F350.00
G01 X90.5500 Y15.3452 F350.00
G01 X90.5790 Y15.3367 F350.00
G01 X90.6081 Y15.3290 F350.00
G01 X90.7033 Y15.3052 F350.00
G01 X90.7320 Y15.2984 F350.00
G01 X90.7608 Y15.2923 F350.00
G01 X90.7898 Y15.2869 F350.00
G01 X90.8188 Y15.2822 F350.00
G01 X90.9159 Y15.2678 F350.00
G01 X90.9451 Y15.2638 F350.00
G01 X90.9744 Y15.2606 F350.00
G01 X91.0037 Y15.2581 F350.00
G01 X91.0331 Y15.2563 F350.00
G01 X91.1311 Y15.2514 F350.00
G01 X91.1606 Y15.2504 F350.00
G01 X91.1900 Y15.2500 F350.00
G01 X91.2194 Y15.2504 F350.00
G01 X91.2489 Y15.2514 F350.00
G01 X91.3469 Y15.2563 F350.00
G01 X91.3763 Y15.2581 F350.00
G01 X91.4056 Y15.2606 F350.00
G01 X91.4349 Y15.2638 F350.00
G01 X91.4641 Y15.2678 F350.00
G01 X91.5612 Y15.2822 F350.00
G01 X91.5902 Y15.2869 F350.00
G01 X91.6192 Y15.2923 F350.00
G01 X91.6480 Y15.2984 F350.00
G01 X91.6767 Y15.3052 F350.00
G01 X91.7719 Y15.3290 F350.00
G01 X91.8003 Y15.3365 F350.00
G01 X91.8286 Y15.3447 F350.00
G01 X91.8567 Y15.3536 F350.00
G01 X91.8846 Y15.3632 F350.00
G01 X91.9770 Y15.3963 F350.00
G01 X92.0046 Y15.4065 F350.00
G01 X92.0319 Y15.4175 F350.00
G01 X92.0590 Y15.4291 F350.00
G01 X92.0857 Y15.4413 F350.00
G01 X92.1745 Y15.4833 F350.00
G01 X92.2009 Y15.4962 F350.00
G01 X92.2271 Y15.5098 F350.00
G01 X92.2529 Y15.5240 F350.00
G01 X92.2783 Y15.5388 F350.00
G01 X92.3625 Y15.5893 F350.00
G01 X92.3876 Y15.6047 F350.00
G01 X92.4123 Y15.6208 F350.00
G01 X92.4365 Y15.6374 F350.00
G01 X92.4600 Y15.6544 F350.00
G01 X92.4835 Y15.6374 F350.00
G01 X92.5077 Y15.6208 F350.00
G01 X92.5324 Y15.6047 F350.00
G01 X92.5575 Y15.5893 F350.00
G01 X92.6417 Y15.5388 F350.00
G01 X92.6671 Y15.5240 F350.00
G01 X92.6929 Y15.5098 F350.00
G01 X92.7191 Y15.4962 F350.00
G01 X92.7455 Y15.4833 F350.00
G01 X92.8343 Y15.4413 F350.00
G01 X92.8610 Y15.4291 F350.00
G01 X92.8881 Y15.4175 F350.00
G01 X92.9154 Y15.4065 F350.00
G01 X92.9430 Y15.3963 F350.00
G01 X93.0377 Y15.3624 F350.00
G01 X93.0650 Y15.3531 F350.00
G01 X93.0925 Y15.3444 F350.00
G01 X93.1202 Y15.3364 F350.00
G01 X93.1481 Y15.3290 F350.00
G01 X93.2433 Y15.3052 F350.00
G01 X93.2720 Y15.2984 F350.00
G01 X93.3008 Y15.2923 F350.00
G01 X93.3298 Y15.2869 F350.00
G01 X93.3588 Y15.2822 F350.00
G01 X93.4559 Y15.2678 F350.00
G01 X93.4851 Y15.2638 F350.00
G01 X93.5144 Y15.2606 F350.00
G01 X93.5437 Y15.2581 F350.00
G01 X93.5731 Y15.2563 F350.00
G01 X93.6711 Y15.2514 F350.00
G01 X93.7006 Y15.2504 F350.00
G01 X93.7300 Y15.2500 F350.00
G01 X93.7594 Y15.2504 F350.00
G01 X93.7889 Y15.2514 F350.00
G01 X93.8869 Y15.2563 F350.00
G01 X93.9163 Y15.2581 F350.00
G01 X93.9456 Y15.2606 F350.00
G01 X93.9749 Y15.2638 F350.00
G01 X94.0041 Y15.2678 F350.00
G01 X94.1012 Y15.2822 F350.00
G01 X94.1302 Y15.2869 F350.00
G01 X94.1592 Y15.2923 F350.00
G01 X94.1880 Y15.2984 F350.00
G01 X94.2167 Y15.3052 F350.00
G01 X94.3119 Y15.3290 F350.00
G01 X94.3403 Y15.3365 F350.00
G01 X94.3686 Y15.3447 F350.00
G01 X94.3967 Y15.3536 F350.00
G01 X94.4246 Y15.3632 F350.00
G01 X94.5170 Y15.3963 F350.00
G01 X94.5446 Y15.4065 F350.00
G01 X94.5719 Y15.4175 F350.00
G01 X94.5990 Y15.4291 F350.00
G01 X94.6257 Y15.4413 F350.00
G01 X94.7145 Y15.4833 F350.00
G01 X94.7409 Y15.4962 F350.00
G01 X94.7671 Y15.5098 F350.00
G01 X94.7929 Y15.5240 F350.00
G01 X94.8183 Y15.5388 F350.00
G01 X94.9025 Y15.5893 F350.00
G01 X94.9276 Y15.6047 F350.00
G01 X94.9523 Y15.6208 F350.00
G01 X94.9765 Y15.6374 F350.00
G01 X95.0000 Y15.6544 F350.00
G01 X95.0235 Y15.6374 F350.00
G01 X95.0477 Y15.6208 F350.00
G01 X95.0724 Y15.6047 F350.00
G01 X95.0975 Y15.5893 F350.00
G01 X95.1817 Y15.5388 F350.00
G01 X95.2071 Y15.5240 F350.00
G01 X95.2329 Y15.5098 F350.00
G01 X95.2591 Y15.4962 F350.00
G01 X95.2855 Y15.4833 F350.00
G01 X95.3743 Y15.4413 F350.00
G01 X95.4010 Y15.4291 F350.00
G01 X95.4281 Y15.4175 F350.00
G01 X95.4554 Y15.4065 F350.00
G01 X95.4830 Y15.3963 F350.00
G01 X95.5754 Y15.3632 F350.00
G01 X95.6012 Y15.3543 F350.00
G01 X95.6300 Y15.3452 F350.00
G01 X95.6590 Y15.3367 F350.00
G01 X95.6881 Y15.3290 F350.00
G01 X95.7833 Y15.3052 F350.00
G01 X95.8120 Y15.2984 F350.00
G01 X95.8408 Y15.2923 F350.00
G01 X95.8698 Y15.2869 F350.00
G01 X95.8988 Y15.2822 F350.00
G01 X95.9959 Y15.2678 F350.00
G01 X96.0251 Y15.2638 F350.00
G01 X96.0544 Y15.2606 F350.00
G01 X96.0837 Y15.2581 F350.00
G01 X96.1131 Y15.2563 F350.00
G01 X96.2111 Y15.2514 F350.00
G01 X96.2406 Y15.2504 F350.00
G01 X96.2700 Y15.2500 F350.00
G01 X96.2994 Y15.2504 F350.00
G01 X96.3289 Y15.2514 F350.00
G01 X96.4269 Y15.2563 F350.00
G01 X96.4563 Y15.2581 F350.00
G01 X96.4856 Y15.2606 F350.00
G01 X96.5149 Y15.2638 F350.00
G01 X96.5441 Y15.2678 F350.00
G01 X96.6412 Y15.2822 F350.00
G01 X96.6702 Y15.2869 F350.00
G01 X96.6992 Y15.2923 F350.00
G01 X96.7280 Y15.2984 F350.00
G01 X96.7567 Y15.3052 F350.00
G01 X96.8519 Y15.3290 F350.00
G01 X96.8803 Y15.3365 F350.00
G01 X96.9086 Y15.3447 F350.00
G01 X96.9367 Y15.3536 F350.00
G01 X96.9646 Y15.3632 F350.00
G01 X97.0570 Y15.3963 F350.00
G01 X97.0846 Y15.4065 F350.00
G01 X97.1119 Y15.4175 F350.00
G01 X97.1390 Y15.4291 F350.00
G01 X97.1657 Y15.4413 F350.00
G01 X97.2545 Y15.4833 F350.00
G01 X97.2809 Y15.4962 F350.00
G01 X97.3071 Y15.5098 F350.00
G01 X97.3329 Y15.5240 F350.00
G01 X97.3583 Y15.5388 F350.00
G01 X97.4425 Y15.5893 F350.00
G01 X97.4676 Y15.6047 F350.00
G01 X97.4923 Y15.6208 F350.00
G01 X97.5165 Y15.6374 F350.00
G01 X97.5400 Y15.6544 F350.00
G01 X97.5635 Y15.6374 F350.00
G01 X97.5877 Y15.6208 F350.00
G01 X97.6124 Y15.6047 F350.00
G01 X97.6375 Y15.5893 F350.00
G01 X97.7217 Y15.5388 F350.00
G01 X97.7471 Y15.5240 F350.00
G01 X97.7729 Y15.5098 F350.00
G01 X97.7991 Y15.4962 F350.00
G01 X97.8255 Y15.4833 F350.00
G01 X97.9143 Y15.4413 F350.00
G01 X97.9410 Y15.4291 F350.00
G01 X97.9681 Y15.4175 F350.00
G01 X97.9954 Y15.4065 F350.00
G01 X98.0230 Y15.3963 F350.00
G01 X98.1412 Y15.3543 F350.00
G01 X98.1700 Y15.3452 F350.00
G01 X98.1990 Y15.3367 F350.00
G01 X98.2281 Y15.3290 F350.00
G01 X98.3233 Y15.3052 F350.00
G01 X98.3520 Y15.2984 F350.00
G01 X98.3808 Y15.2923 F350.00
G01 X98.4098 Y15.2869 F350.00
G01 X98.4388 Y15.2822 F350.00
G01 X98.5359 Y15.2678 F350.00
G01 X98.5651 Y15.2638 F350.00
G01 X98.5944 Y15.2606 F350.00
G01 X98.6237 Y15.2581 F350.00
G01 X98.6531 Y15.2563 F350.00
G01 X98.7511 Y15.2514 F350.00
G01 X98.7806 Y15.2504 F350.00
G01 X98.8100 Y15.2500 F350.00
G01 X98.8394 Y15.2504 F350.00
G01 X98.8689 Y15.2514 F350.00
G01 X98.9669 Y15.2563 F350.00
G01 X98.9963 Y15.2581 F350.00
G01 X99.0256 Y15.2606 F350.00
G01 X99.0549 Y15.2638 F350.00
G01 X99.0841 Y15.2678 F350.00
G01 X99.1812 Y15.2822 F350.00
G01 X99.2102 Y15.2869 F350.00
G01 X99.2392 Y15.2923 F350.00
G01 X99.2680 Y15.2984 F350.00
G01 X99.2967 Y15.3052 F350.00
G01 X99.3919 Y15.3290 F350.00
G01 X99.4203 Y15.3365 F350.00
G01 X99.4486 Y15.3447 F350.00
G01 X99.4767 Y15.3536 F350.00
G01 X99.5046 Y15.3632 F350.00
G01 X99.5970 Y15.3963 F350.00
G01 X99.6246 Y15.4065 F350.00
G01 X99.6519 Y15.4175 F350.00
G01 X99.6790 Y15.4291 F350.00
G01 X99.7057 Y15.4413 F350.00
G01 X99.7945 Y15.4833 F350.00
G01 X99.8209 Y15.4962 F350.00
G01 X99.8471 Y15.5098 F350.00
G01 X99.8729 Y15.5240 F350.00
G01 X99.8983 Y15.5388 F350.00
G01 X99.9825 Y15.5893 F350.00
G01 X100.0076 Y15.6047 F350.00
G01 X100.0323 Y15.6208 F350.00
G01 X100.0565 Y15.6374 F350.00
G01 X100.0800 Y15.6544 F350.00
G01 X100.1035 Y15.6374 F350.00
G01 X100.1277 Y15.6208 F350.00
G01 X100.1524 Y15.6047 F350.00
G01 X100.1775 Y15.5893 F350.00
G01 X100.2617 Y15.5388 F350.00
G01 X100.2871 Y15.5240 F350.00
G01 X100.3129 Y15.5098 F350.00
G01 X100.3391 Y15.4962 F350.00
G01 X100.3655 Y15.4833 F350.00
G01 X100.4543 Y15.4413 F350.00
G01 X100.4810 Y15.4291 F350.00
G01 X100.5081 Y15.4175 F350.00
G01 X100.5354 Y15.4065 F350.00
G01 X100.5630 Y15.3963 F350.00
G01 X100.6812 Y15.3543 F350.00
G01 X100.7100 Y15.3452 F350.00
G01 X100.7390 Y15.3367 F350.00
G01 X100.7681 Y15.3290 F350.00
G01 X100.8633 Y15.3052 F350.00
G01 X100.8920 Y15.2984 F350.00
G01 X100.9208 Y15.2923 F350.00
G01 X100.9498 Y15.2869 F350.00
G01 X100.9788 Y15.2822 F350.00
G01 X101.0759 Y15.2678 F350.00
G01 X101.1051 Y15.2638 F350.00
G01 X101.1344 Y15.2606 F350.00
G01 X101.1637 Y15.2581 F350.00
G01 X101.2490 Y15.2535 F350.00
G00 Z0.5000
G00 X103.9003 Y8.5603
G01 F250.00
G01 Z-0.0500
G01 F350.00
G01 X109.8125 Y8.5603 F350.00
G00 Z0.5000
G00 X100.4997 Y5.4403
G01 F250.00
