%
(; SHAPEOKO POSTPROCESSED v1)
( Source: FRONT_NCC_3mm_0.4mm.nc )
( Stripped: M30 only - kept T#/M6/M0/M1/MSG for Shapeoko/Carbide Motion )
( Wrapped with Shapeoko start/end blocks - mirrors 1001.nc structure )
G90        ( absolute positioning )
G17        ( XY plane select )
G21        ( mm units )
G94        ( feedrate units/min )
G28 G91 Z0 ( safe Z home - assumes machine has been homed )
G90        ( back to absolute )
G54        ( work coordinate system 1 )
M5         ( ensure spindle off at start )

(G-CODE GENERATED BY FLATCAM v8.994 - www.flatcam.org - Version Date: 2020/11/7)

(Name: Buzzer PCB-F_Cu.gbr_ncc_cnc)
(Type: G-code from Geometry)
(Units: MM)

(Created on Friday, 26 June 2026 at 05:03)

(This preprocessor is used with a motion controller loaded with GRBL firmware.)
(It is configured to be compatible with almost any version of GRBL firmware.)

(TOOL DIAMETER: 3.0 mm)
(Feedrate_XY: 350.0 mm/min)
(Feedrate_Z: 250.0 mm/min)
(Feedrate rapids 1500.0 mm/min)

(Z_Cut: -0.05 mm)
(Z_Move: 0.5 mm)
(Z Start: None mm)
(Z End: 40.0 mm)
(X,Y End: None mm)
(Steps per circle: 64)
(Steps per circle: 64)
(Preprocessor Geometry: grbl_11)

(X range:    0.9997 ...  134.3003  mm)
(Y range:   -4.6003 ...   70.4003  mm)

(Spindle Speed: 0.0 RPM)
G21
G90
G17
G94


G01 F350.00

M5             
G00 Z40.0000
G00 X0.0000 Y0.0000                
T1 M6
(MSG, Change to Tool Dia = 3.0000)
M0
G00 Z40.0000

M03
G01 F350.00
G00 X3.6927 Y6.7003
G01 F250.00
G01 Z-0.0500
G01 F350.00
G01 X59.5032 Y6.7003 F350.00
G01 X57.5532 Y8.6503 F350.00
G01 X19.5842 Y8.6503 F350.00
G00 Z0.5000
G00 X19.6003 Y10.6003
G01 F250.00
G01 Z-0.0500
G01 F350.00
G01 X55.6032 Y10.6003 F350.00
G01 X53.6532 Y12.5503 F350.00
G01 X19.6003 Y12.5503 F350.00
G01 X19.6003 Y14.5003 F350.00
G01 X51.7032 Y14.5003 F350.00
G01 X49.7532 Y16.4503 F350.00
G01 X19.6003 Y16.4503 F350.00
G01 X19.6003 Y18.4003 F350.00
G01 X47.8032 Y18.4003 F350.00
G00 Z0.5000
G00 X46.4634 Y20.3503
G01 F250.00
G01 Z-0.0500
G01 F350.00
G01 X19.3859 Y20.3503 F350.00
G00 Z0.5000
G00 X17.5785 Y22.3003
G01 F250.00
G01 Z-0.0500
G01 F350.00
G01 X46.4497 Y22.3003 F350.00
G00 Z0.5000
G00 X50.4503 Y22.3003
G01 F250.00
G01 Z-0.0500
G01 F350.00
G01 X95.9710 Y22.3003 F350.00
G01 X94.0210 Y24.2503 F350.00
G01 X50.4503 Y24.2503 F350.00
G01 X50.4503 Y26.2003 F350.00
G01 X92.0710 Y26.2003 F350.00
G01 X90.1210 Y28.1503 F350.00
G01 X50.4503 Y28.1503 F350.00
G00 Z0.5000
G00 X50.9500 Y30.1003
G01 F250.00
G01 Z-0.0500
G01 F350.00
G01 X88.1710 Y30.1003 F350.00
G00 Z0.5000
G00 X91.8785 Y32.0503
G01 F250.00
G01 Z-0.0500
G01 F350.00
G01 X110.8020 Y32.0503 F350.00
G00 Z0.5000
G00 X113.1980 Y32.0503
G01 F250.00
G01 Z-0.0500
G01 F350.00
G01 X118.5520 Y32.0503 F350.00
G00 Z0.5000
G00 X120.9480 Y32.0503
G01 F250.00
G01 Z-0.0500
G01 F350.00
G01 X125.5520 Y32.0503 F350.00
G00 Z0.5000
G00 X127.9480 Y32.0503
G01 F250.00
G01 Z-0.0500
G01 F350.00
G01 X130.9997 Y32.0503 F350.00
G01 X130.9997 Y30.1003 F350.00
G01 X93.8285 Y30.1003 F350.00
G01 X95.7785 Y28.1503 F350.00
G01 X109.6503 Y28.1503 F350.00
G00 Z0.5000
G00 X109.5031 Y26.2003
G01 F250.00
G01 Z-0.0500
G01 F350.00
G01 X97.7285 Y26.2003 F350.00
G00 Z0.5000
G00 X107.1176 Y24.2503
G01 F250.00
G01 Z-0.0500
G01 F350.00
G01 X110.5695 Y24.2503 F350.00
G00 Z0.5000
G00 X109.5066 Y26.1284
G01 F250.00
G01 Z-0.0500
G01 F350.00
G01 X109.5089 Y26.0916 F350.00
G01 X109.5120 Y26.0550 F350.00
G01 X109.5161 Y26.0184 F350.00
G01 X109.5211 Y25.9819 F350.00
G01 X109.5355 Y25.8848 F350.00
G01 X109.5413 Y25.8485 F350.00
G01 X109.5480 Y25.8123 F350.00
G01 X109.5557 Y25.7763 F350.00
G01 X109.5642 Y25.7404 F350.00
G01 X109.5880 Y25.6452 F350.00
G01 X109.5974 Y25.6096 F350.00
G01 X109.6076 Y25.5743 F350.00
G01 X109.6188 Y25.5392 F350.00
G01 X109.6307 Y25.5044 F350.00
G01 X109.6638 Y25.4120 F350.00
G01 X109.6766 Y25.3775 F350.00
G01 X109.6903 Y25.3433 F350.00
G01 X109.7048 Y25.3095 F350.00
G01 X109.7201 Y25.2760 F350.00
G01 X109.7621 Y25.1873 F350.00
G01 X109.7782 Y25.1542 F350.00
G01 X109.7952 Y25.1215 F350.00
G01 X109.8129 Y25.0893 F350.00
G01 X109.8315 Y25.0574 F350.00
G01 X109.8819 Y24.9733 F350.00
G01 X109.9013 Y24.9419 F350.00
G01 X109.9213 Y24.9111 F350.00
G01 X109.9422 Y24.8807 F350.00
G01 X109.9637 Y24.8509 F350.00
G01 X110.0222 Y24.7721 F350.00
G01 X110.0445 Y24.7428 F350.00
G01 X110.0675 Y24.7140 F350.00
G01 X110.0912 Y24.6858 F350.00
G01 X110.1156 Y24.6583 F350.00
G01 X110.1815 Y24.5856 F350.00
G01 X110.2065 Y24.5586 F350.00
G01 X110.2322 Y24.5322 F350.00
G01 X110.2586 Y24.5065 F350.00
G01 X110.2856 Y24.4815 F350.00
G01 X110.3583 Y24.4156 F350.00
G01 X110.3858 Y24.3912 F350.00
G01 X110.4140 Y24.3675 F350.00
G01 X110.4428 Y24.3445 F350.00
G01 X110.4721 Y24.3222 F350.00
G01 X110.5509 Y24.2637 F350.00
G01 X110.5807 Y24.2422 F350.00
G01 X110.6111 Y24.2213 F350.00
G01 X110.6419 Y24.2013 F350.00
G01 X110.6733 Y24.1819 F350.00
G01 X110.7574 Y24.1315 F350.00
G01 X110.7893 Y24.1129 F350.00
G01 X110.8215 Y24.0952 F350.00
G01 X110.8542 Y24.0782 F350.00
G01 X110.8873 Y24.0621 F350.00
G01 X110.9760 Y24.0201 F350.00
G01 X111.0095 Y24.0048 F350.00
G01 X111.0433 Y23.9903 F350.00
G01 X111.0775 Y23.9766 F350.00
G01 X111.1120 Y23.9638 F350.00
G01 X111.2044 Y23.9307 F350.00
G01 X111.2366 Y23.9196 F350.00
G01 X111.2725 Y23.9082 F350.00
G01 X111.3088 Y23.8976 F350.00
G01 X111.3452 Y23.8880 F350.00
G01 X111.4404 Y23.8642 F350.00
G01 X111.4763 Y23.8557 F350.00
G01 X111.5123 Y23.8480 F350.00
G01 X111.5485 Y23.8413 F350.00
G01 X111.5848 Y23.8355 F350.00
G01 X111.6819 Y23.8211 F350.00
G01 X111.7184 Y23.8161 F350.00
G01 X111.7550 Y23.8120 F350.00
G01 X111.7916 Y23.8089 F350.00
G01 X111.8284 Y23.8066 F350.00
G01 X111.9264 Y23.8018 F350.00
G01 X111.9632 Y23.8005 F350.00
G01 X112.0000 Y23.8000 F350.00
G01 X112.0368 Y23.8005 F350.00
G01 X112.0736 Y23.8018 F350.00
G01 X112.1716 Y23.8066 F350.00
G01 X112.2084 Y23.8089 F350.00
G01 X112.2450 Y23.8120 F350.00
G01 X112.2816 Y23.8161 F350.00
G01 X112.3181 Y23.8211 F350.00
G01 X112.4152 Y23.8355 F350.00
G01 X112.4515 Y23.8413 F350.00
G01 X112.4877 Y23.8480 F350.00
G01 X112.5237 Y23.8557 F350.00
G01 X112.5596 Y23.8642 F350.00
G01 X112.6548 Y23.8880 F350.00
G01 X112.6904 Y23.8974 F350.00
G01 X112.7257 Y23.9076 F350.00
G01 X112.7608 Y23.9188 F350.00
G01 X112.7956 Y23.9307 F350.00
G01 X112.8880 Y23.9638 F350.00
G01 X112.9225 Y23.9766 F350.00
G01 X112.9567 Y23.9903 F350.00
G01 X112.9905 Y24.0048 F350.00
G01 X113.0240 Y24.0201 F350.00
G01 X113.1127 Y24.0621 F350.00
G01 X113.1458 Y24.0782 F350.00
G01 X113.1785 Y24.0952 F350.00
G01 X113.2107 Y24.1129 F350.00
G01 X113.2426 Y24.1315 F350.00
G01 X113.3267 Y24.1819 F350.00
G01 X113.3581 Y24.2013 F350.00
G01 X113.3889 Y24.2213 F350.00
G01 X113.4193 Y24.2422 F350.00
G01 X113.4491 Y24.2637 F350.00
G01 X113.5279 Y24.3222 F350.00
G01 X113.5572 Y24.3445 F350.00
G01 X113.5860 Y24.3675 F350.00
G01 X113.6142 Y24.3912 F350.00
G01 X113.6417 Y24.4156 F350.00
G01 X113.7144 Y24.4815 F350.00
G01 X113.7414 Y24.5065 F350.00
G01 X113.7678 Y24.5322 F350.00
G01 X113.7935 Y24.5586 F350.00
G01 X113.8185 Y24.5856 F350.00
G01 X113.8844 Y24.6583 F350.00
G01 X113.9088 Y24.6858 F350.00
G01 X113.9325 Y24.7140 F350.00
G01 X113.9555 Y24.7428 F350.00
G01 X113.9778 Y24.7721 F350.00
G01 X114.0363 Y24.8509 F350.00
G01 X114.0578 Y24.8807 F350.00
G01 X114.0787 Y24.9111 F350.00
G01 X114.0987 Y24.9419 F350.00
G01 X114.1181 Y24.9733 F350.00
G01 X114.1685 Y25.0574 F350.00
G01 X114.1871 Y25.0893 F350.00
G01 X114.2048 Y25.1215 F350.00
G01 X114.2218 Y25.1542 F350.00
G01 X114.2379 Y25.1873 F350.00
G01 X114.2799 Y25.2760 F350.00
G01 X114.2952 Y25.3095 F350.00
G01 X114.3097 Y25.3433 F350.00
G01 X114.3234 Y25.3775 F350.00
G01 X114.3362 Y25.4120 F350.00
G01 X114.3693 Y25.5044 F350.00
G01 X114.3804 Y25.5366 F350.00
G01 X114.3918 Y25.5725 F350.00
G01 X114.4024 Y25.6088 F350.00
G01 X114.4120 Y25.6452 F350.00
G01 X114.4358 Y25.7404 F350.00
G01 X114.4443 Y25.7763 F350.00
G01 X114.4520 Y25.8123 F350.00
G01 X114.4587 Y25.8485 F350.00
G01 X114.4645 Y25.8848 F350.00
G01 X114.4789 Y25.9819 F350.00
G01 X114.4839 Y26.0184 F350.00
G01 X114.4880 Y26.0550 F350.00
G01 X114.4911 Y26.0916 F350.00
G01 X114.4934 Y26.1284 F350.00
G01 X114.4982 Y26.2264 F350.00
G01 X114.4995 Y26.2632 F350.00
G01 X114.5000 Y26.3000 F350.00
G01 X114.5000 Y27.3000 F350.00
G01 X114.4995 Y27.3368 F350.00
G01 X114.4982 Y27.3736 F350.00
G01 X114.4934 Y27.4716 F350.00
G01 X114.4911 Y27.5084 F350.00
G01 X114.4880 Y27.5450 F350.00
G01 X114.4839 Y27.5816 F350.00
G01 X114.4789 Y27.6181 F350.00
G01 X114.4645 Y27.7152 F350.00
G01 X114.4587 Y27.7515 F350.00
G01 X114.4520 Y27.7877 F350.00
G01 X114.4443 Y27.8237 F350.00
G01 X114.4358 Y27.8596 F350.00
G01 X114.4120 Y27.9548 F350.00
G01 X114.4026 Y27.9904 F350.00
G01 X114.3924 Y28.0257 F350.00
G01 X114.3812 Y28.0608 F350.00
G01 X114.3693 Y28.0956 F350.00
G01 X114.3362 Y28.1880 F350.00
G01 X114.3234 Y28.2225 F350.00
G01 X114.3097 Y28.2567 F350.00
G01 X114.2952 Y28.2905 F350.00
G01 X114.2799 Y28.3240 F350.00
G01 X114.2379 Y28.4127 F350.00
G01 X114.2218 Y28.4458 F350.00
G01 X114.2048 Y28.4785 F350.00
G01 X114.1871 Y28.5107 F350.00
G01 X114.1685 Y28.5426 F350.00
G01 X114.1181 Y28.6267 F350.00
G01 X114.0987 Y28.6581 F350.00
G01 X114.0787 Y28.6889 F350.00
G01 X114.0578 Y28.7193 F350.00
G01 X114.0363 Y28.7491 F350.00
G01 X113.9778 Y28.8279 F350.00
G01 X113.9555 Y28.8572 F350.00
G01 X113.9325 Y28.8860 F350.00
G01 X113.9088 Y28.9142 F350.00
G01 X113.8844 Y28.9417 F350.00
G01 X113.8185 Y29.0144 F350.00
G01 X113.7935 Y29.0414 F350.00
G01 X113.7678 Y29.0678 F350.00
G01 X113.7414 Y29.0935 F350.00
G01 X113.7144 Y29.1185 F350.00
G01 X113.6417 Y29.1844 F350.00
G01 X113.6142 Y29.2088 F350.00
G01 X113.5860 Y29.2325 F350.00
G01 X113.5572 Y29.2555 F350.00
G01 X113.5279 Y29.2778 F350.00
G01 X113.4491 Y29.3363 F350.00
G01 X113.4193 Y29.3578 F350.00
G01 X113.3889 Y29.3787 F350.00
G01 X113.3581 Y29.3987 F350.00
G01 X113.3267 Y29.4181 F350.00
G01 X113.2426 Y29.4685 F350.00
G01 X113.2107 Y29.4871 F350.00
G01 X113.1785 Y29.5048 F350.00
G01 X113.1458 Y29.5218 F350.00
G01 X113.1127 Y29.5379 F350.00
G01 X113.0240 Y29.5799 F350.00
G01 X112.9905 Y29.5952 F350.00
G01 X112.9567 Y29.6097 F350.00
G01 X112.9225 Y29.6234 F350.00
G01 X112.8880 Y29.6362 F350.00
G01 X112.7956 Y29.6693 F350.00
G01 X112.7634 Y29.6804 F350.00
G01 X112.7275 Y29.6918 F350.00
G01 X112.6912 Y29.7024 F350.00
G01 X112.6548 Y29.7120 F350.00
G01 X112.5596 Y29.7358 F350.00
G01 X112.5237 Y29.7443 F350.00
G01 X112.4877 Y29.7520 F350.00
G01 X112.4515 Y29.7587 F350.00
G01 X112.4152 Y29.7645 F350.00
G01 X112.3181 Y29.7789 F350.00
G01 X112.2816 Y29.7839 F350.00
G01 X112.2450 Y29.7880 F350.00
G01 X112.2084 Y29.7911 F350.00
G01 X112.1716 Y29.7934 F350.00
G01 X112.0736 Y29.7982 F350.00
G01 X112.0368 Y29.7995 F350.00
G01 X112.0000 Y29.8000 F350.00
G01 X111.9632 Y29.7995 F350.00
G01 X111.9264 Y29.7982 F350.00
G01 X111.8284 Y29.7934 F350.00
G01 X111.7916 Y29.7911 F350.00
G01 X111.7550 Y29.7880 F350.00
G01 X111.7184 Y29.7839 F350.00
G01 X111.6819 Y29.7789 F350.00
G01 X111.5848 Y29.7645 F350.00
G01 X111.5485 Y29.7587 F350.00
G01 X111.5123 Y29.7520 F350.00
G01 X111.4763 Y29.7443 F350.00
G01 X111.4404 Y29.7358 F350.00
G01 X111.3452 Y29.7120 F350.00
G01 X111.3096 Y29.7026 F350.00
G01 X111.2743 Y29.6924 F350.00
G01 X111.2392 Y29.6812 F350.00
G01 X111.2044 Y29.6693 F350.00
G01 X111.1120 Y29.6362 F350.00
G01 X111.0775 Y29.6234 F350.00
G01 X111.0433 Y29.6097 F350.00
G01 X111.0095 Y29.5952 F350.00
G01 X110.9760 Y29.5799 F350.00
G01 X110.8873 Y29.5379 F350.00
G01 X110.8542 Y29.5218 F350.00
G01 X110.8215 Y29.5048 F350.00
G01 X110.7893 Y29.4871 F350.00
G01 X110.7574 Y29.4685 F350.00
G01 X110.6733 Y29.4181 F350.00
G01 X110.6419 Y29.3987 F350.00
G01 X110.6111 Y29.3787 F350.00
G01 X110.5807 Y29.3578 F350.00
G01 X110.5509 Y29.3363 F350.00
G01 X110.4721 Y29.2778 F350.00
G01 X110.4428 Y29.2555 F350.00
G01 X110.4140 Y29.2325 F350.00
G01 X110.3858 Y29.2088 F350.00
G01 X110.3583 Y29.1844 F350.00
G01 X110.2856 Y29.1185 F350.00
G01 X110.2586 Y29.0935 F350.00
G01 X110.2322 Y29.0678 F350.00
G01 X110.2065 Y29.0414 F350.00
G01 X110.1815 Y29.0144 F350.00
G01 X110.1156 Y28.9417 F350.00
G01 X110.0912 Y28.9142 F350.00
G01 X110.0675 Y28.8860 F350.00
G01 X110.0445 Y28.8572 F350.00
G01 X110.0222 Y28.8279 F350.00
G01 X109.9637 Y28.7491 F350.00
G01 X109.9422 Y28.7193 F350.00
G01 X109.9213 Y28.6889 F350.00
G01 X109.9013 Y28.6581 F350.00
G01 X109.8819 Y28.6267 F350.00
G01 X109.8315 Y28.5426 F350.00
G01 X109.8129 Y28.5107 F350.00
G01 X109.7952 Y28.4785 F350.00
G01 X109.7782 Y28.4458 F350.00
G01 X109.7621 Y28.4127 F350.00
G01 X109.7201 Y28.3240 F350.00
G01 X109.7048 Y28.2905 F350.00
G01 X109.6903 Y28.2567 F350.00
G01 X109.6766 Y28.2225 F350.00
G01 X109.6638 Y28.1880 F350.00
G01 X109.6307 Y28.0956 F350.00
G01 X109.6196 Y28.0634 F350.00
G01 X109.6082 Y28.0275 F350.00
G01 X109.5976 Y27.9912 F350.00
G01 X109.5880 Y27.9548 F350.00
G01 X109.5642 Y27.8596 F350.00
G01 X109.5557 Y27.8237 F350.00
G01 X109.5480 Y27.7877 F350.00
G01 X109.5413 Y27.7515 F350.00
G01 X109.5355 Y27.7152 F350.00
G01 X109.5211 Y27.6181 F350.00
G01 X109.5161 Y27.5816 F350.00
G01 X109.5120 Y27.5450 F350.00
G01 X109.5089 Y27.5084 F350.00
G01 X109.5066 Y27.4716 F350.00
G01 X109.5018 Y27.3736 F350.00
G01 X109.5005 Y27.3368 F350.00
G01 X109.5000 Y27.3000 F350.00
G01 X109.5000 Y26.3000 F350.00
G01 X109.5005 Y26.2632 F350.00
G01 X109.5018 Y26.2264 F350.00
G01 X109.5066 Y26.1284 F350.00
G01 X109.5385 Y22.3003 F350.00
G01 X123.4597 Y22.3003 F350.00
G00 Z0.5000
G00 X123.5214 Y24.2503
G01 F250.00
G01 Z-0.0500
G01 F350.00
G01 X121.1805 Y24.2503 F350.00
G00 Z0.5000
G00 X122.2469 Y26.2003
G01 F250.00
G01 Z-0.0500
G01 F350.00
G01 X124.2531 Y26.2003 F350.00
G00 Z0.5000
G00 X124.4003 Y28.1503
G01 F250.00
G01 Z-0.0500
G01 F350.00
G01 X122.0997 Y28.1503 F350.00
G00 Z0.5000
G00 X117.4003 Y28.1503
G01 F250.00
G01 Z-0.0500
G01 F350.00
G01 X114.3497 Y28.1503 F350.00
G00 Z0.5000
G00 X114.4969 Y26.2003
G01 F250.00
G01 Z-0.0500
G01 F350.00
G01 X117.2531 Y26.2003 F350.00
G01 X117.2566 Y26.1284 F350.00
G01 X117.2589 Y26.0916 F350.00
G01 X117.2620 Y26.0550 F350.00
G01 X117.2661 Y26.0184 F350.00
G01 X117.2711 Y25.9819 F350.00
G01 X117.2855 Y25.8848 F350.00
G01 X117.2913 Y25.8485 F350.00
G01 X117.2980 Y25.8123 F350.00
G01 X117.3057 Y25.7763 F350.00
G01 X117.3142 Y25.7404 F350.00
G01 X117.3380 Y25.6452 F350.00
G01 X117.3474 Y25.6096 F350.00
G01 X117.3576 Y25.5743 F350.00
G01 X117.3688 Y25.5392 F350.00
G01 X117.3807 Y25.5044 F350.00
G01 X117.4138 Y25.4120 F350.00
G01 X117.4266 Y25.3775 F350.00
G01 X117.4403 Y25.3433 F350.00
G01 X117.4548 Y25.3095 F350.00
G01 X117.4701 Y25.2760 F350.00
G01 X117.5121 Y25.1873 F350.00
G01 X117.5282 Y25.1542 F350.00
G01 X117.5452 Y25.1215 F350.00
G01 X117.5629 Y25.0893 F350.00
G01 X117.5815 Y25.0574 F350.00
G01 X117.6319 Y24.9733 F350.00
G01 X117.6513 Y24.9419 F350.00
G01 X117.6713 Y24.9111 F350.00
G01 X117.6922 Y24.8807 F350.00
G01 X117.7137 Y24.8509 F350.00
G01 X117.7722 Y24.7721 F350.00
G01 X117.7945 Y24.7428 F350.00
G01 X117.8175 Y24.7140 F350.00
G01 X117.8412 Y24.6858 F350.00
G01 X117.8656 Y24.6583 F350.00
G01 X117.9315 Y24.5856 F350.00
G01 X117.9565 Y24.5586 F350.00
G01 X117.9822 Y24.5322 F350.00
G01 X118.0086 Y24.5065 F350.00
G01 X118.0356 Y24.4815 F350.00
G01 X118.1083 Y24.4156 F350.00
G01 X118.1358 Y24.3912 F350.00
G01 X118.1640 Y24.3675 F350.00
G01 X118.1928 Y24.3445 F350.00
G01 X118.2221 Y24.3222 F350.00
G01 X118.3009 Y24.2637 F350.00
G01 X118.3307 Y24.2422 F350.00
G01 X118.3611 Y24.2213 F350.00
G01 X118.3919 Y24.2013 F350.00
G01 X118.4233 Y24.1819 F350.00
G01 X118.5074 Y24.1315 F350.00
G01 X118.5393 Y24.1129 F350.00
G01 X118.5715 Y24.0952 F350.00
G01 X118.6042 Y24.0782 F350.00
G01 X118.6373 Y24.0621 F350.00
G01 X118.7260 Y24.0201 F350.00
G01 X118.7595 Y24.0048 F350.00
G01 X118.7933 Y23.9903 F350.00
G01 X118.8275 Y23.9766 F350.00
G01 X118.8620 Y23.9638 F350.00
G01 X118.9544 Y23.9307 F350.00
G01 X118.9866 Y23.9196 F350.00
G01 X119.0225 Y23.9082 F350.00
G01 X119.0588 Y23.8976 F350.00
G01 X119.0952 Y23.8880 F350.00
G01 X119.1904 Y23.8642 F350.00
G01 X119.2263 Y23.8557 F350.00
G01 X119.2623 Y23.8480 F350.00
G01 X119.2985 Y23.8413 F350.00
G01 X119.3348 Y23.8355 F350.00
G01 X119.4319 Y23.8211 F350.00
G01 X119.4684 Y23.8161 F350.00
G01 X119.5050 Y23.8120 F350.00
G01 X119.5416 Y23.8089 F350.00
G01 X119.5784 Y23.8066 F350.00
G01 X119.6764 Y23.8018 F350.00
G01 X119.7132 Y23.8005 F350.00
G01 X119.7500 Y23.8000 F350.00
G01 X119.7868 Y23.8005 F350.00
G01 X119.8236 Y23.8018 F350.00
G01 X119.9216 Y23.8066 F350.00
G01 X119.9584 Y23.8089 F350.00
G01 X119.9950 Y23.8120 F350.00
G01 X120.0316 Y23.8161 F350.00
G01 X120.0681 Y23.8211 F350.00
G01 X120.1652 Y23.8355 F350.00
G01 X120.2015 Y23.8413 F350.00
G01 X120.2377 Y23.8480 F350.00
G01 X120.2737 Y23.8557 F350.00
G01 X120.3096 Y23.8642 F350.00
G01 X120.4048 Y23.8880 F350.00
G01 X120.4404 Y23.8974 F350.00
G01 X120.4757 Y23.9076 F350.00
G01 X120.5108 Y23.9188 F350.00
G01 X120.5456 Y23.9307 F350.00
G01 X120.6380 Y23.9638 F350.00
G01 X120.6725 Y23.9766 F350.00
G01 X120.7067 Y23.9903 F350.00
G01 X120.7405 Y24.0048 F350.00
G01 X120.7740 Y24.0201 F350.00
G01 X120.8627 Y24.0621 F350.00
G01 X120.8958 Y24.0782 F350.00
G01 X120.9285 Y24.0952 F350.00
G01 X120.9607 Y24.1129 F350.00
G01 X120.9926 Y24.1315 F350.00
G01 X121.0767 Y24.1819 F350.00
G01 X121.1081 Y24.2013 F350.00
G01 X121.1389 Y24.2213 F350.00
G01 X121.1693 Y24.2422 F350.00
G01 X121.1991 Y24.2637 F350.00
G01 X121.2779 Y24.3222 F350.00
G01 X121.3072 Y24.3445 F350.00
G01 X121.3360 Y24.3675 F350.00
G01 X121.3642 Y24.3912 F350.00
G01 X121.3917 Y24.4156 F350.00
G01 X121.4644 Y24.4815 F350.00
G01 X121.4914 Y24.5065 F350.00
G01 X121.5178 Y24.5322 F350.00
G01 X121.5435 Y24.5586 F350.00
G01 X121.5685 Y24.5856 F350.00
G01 X121.6344 Y24.6583 F350.00
G01 X121.6588 Y24.6858 F350.00
G01 X121.6825 Y24.7140 F350.00
G01 X121.7055 Y24.7428 F350.00
G01 X121.7278 Y24.7721 F350.00
G01 X121.7863 Y24.8509 F350.00
G01 X121.8078 Y24.8807 F350.00
G01 X121.8287 Y24.9111 F350.00
G01 X121.8487 Y24.9419 F350.00
G01 X121.8681 Y24.9733 F350.00
G01 X121.9185 Y25.0574 F350.00
G01 X121.9371 Y25.0893 F350.00
G01 X121.9548 Y25.1215 F350.00
G01 X121.9718 Y25.1542 F350.00
G01 X121.9879 Y25.1873 F350.00
G01 X122.0299 Y25.2760 F350.00
G01 X122.0452 Y25.3095 F350.00
G01 X122.0597 Y25.3433 F350.00
G01 X122.0734 Y25.3775 F350.00
G01 X122.0862 Y25.4120 F350.00
G01 X122.1193 Y25.5044 F350.00
G01 X122.1304 Y25.5366 F350.00
G01 X122.1418 Y25.5725 F350.00
G01 X122.1524 Y25.6088 F350.00
G01 X122.1620 Y25.6452 F350.00
G01 X122.1858 Y25.7404 F350.00
G01 X122.1943 Y25.7763 F350.00
G01 X122.2020 Y25.8123 F350.00
G01 X122.2087 Y25.8485 F350.00
G01 X122.2145 Y25.8848 F350.00
G01 X122.2289 Y25.9819 F350.00
G01 X122.2339 Y26.0184 F350.00
G01 X122.2380 Y26.0550 F350.00
G01 X122.2411 Y26.0916 F350.00
G01 X122.2434 Y26.1284 F350.00
G01 X122.2482 Y26.2264 F350.00
G01 X122.2495 Y26.2632 F350.00
G01 X122.2500 Y26.3000 F350.00
G01 X122.2500 Y27.3000 F350.00
G01 X122.2495 Y27.3368 F350.00
G01 X122.2482 Y27.3736 F350.00
G01 X122.2434 Y27.4716 F350.00
G01 X122.2411 Y27.5084 F350.00
G01 X122.2380 Y27.5450 F350.00
G01 X122.2339 Y27.5816 F350.00
G01 X122.2289 Y27.6181 F350.00
G01 X122.2145 Y27.7152 F350.00
G01 X122.2087 Y27.7515 F350.00
G01 X122.2020 Y27.7877 F350.00
G01 X122.1943 Y27.8237 F350.00
G01 X122.1858 Y27.8596 F350.00
G01 X122.1620 Y27.9548 F350.00
G01 X122.1526 Y27.9904 F350.00
G01 X122.1424 Y28.0257 F350.00
G01 X122.1312 Y28.0608 F350.00
G01 X122.1193 Y28.0956 F350.00
G01 X122.0862 Y28.1880 F350.00
G01 X122.0734 Y28.2225 F350.00
G01 X122.0597 Y28.2567 F350.00
G01 X122.0452 Y28.2905 F350.00
G01 X122.0299 Y28.3240 F350.00
G01 X121.9879 Y28.4127 F350.00
G01 X121.9718 Y28.4458 F350.00
G01 X121.9548 Y28.4785 F350.00
G01 X121.9371 Y28.5107 F350.00
G01 X121.9185 Y28.5426 F350.00
G01 X121.8681 Y28.6267 F350.00
G01 X121.8487 Y28.6581 F350.00
G01 X121.8287 Y28.6889 F350.00
G01 X121.8078 Y28.7193 F350.00
G01 X121.7863 Y28.7491 F350.00
G01 X121.7278 Y28.8279 F350.00
G01 X121.7055 Y28.8572 F350.00
G01 X121.6825 Y28.8860 F350.00
G01 X121.6588 Y28.9142 F350.00
G01 X121.6344 Y28.9417 F350.00
G01 X121.5685 Y29.0144 F350.00
G01 X121.5435 Y29.0414 F350.00
G01 X121.5178 Y29.0678 F350.00
G01 X121.4914 Y29.0935 F350.00
G01 X121.4644 Y29.1185 F350.00
G01 X121.3917 Y29.1844 F350.00
G01 X121.3642 Y29.2088 F350.00
G01 X121.3360 Y29.2325 F350.00
G01 X121.3072 Y29.2555 F350.00
G01 X121.2779 Y29.2778 F350.00
G01 X121.1991 Y29.3363 F350.00
G01 X121.1693 Y29.3578 F350.00
G01 X121.1389 Y29.3787 F350.00
G01 X121.1081 Y29.3987 F350.00
G01 X121.0767 Y29.4181 F350.00
G01 X120.9926 Y29.4685 F350.00
G01 X120.9607 Y29.4871 F350.00
G01 X120.9285 Y29.5048 F350.00
G01 X120.8958 Y29.5218 F350.00
G01 X120.8627 Y29.5379 F350.00
G01 X120.7740 Y29.5799 F350.00
G01 X120.7405 Y29.5952 F350.00
G01 X120.7067 Y29.6097 F350.00
G01 X120.6725 Y29.6234 F350.00
G01 X120.6380 Y29.6362 F350.00
G01 X120.5456 Y29.6693 F350.00
G01 X120.5134 Y29.6804 F350.00
G01 X120.4775 Y29.6918 F350.00
G01 X120.4412 Y29.7024 F350.00
G01 X120.4048 Y29.7120 F350.00
G01 X120.3096 Y29.7358 F350.00
G01 X120.2737 Y29.7443 F350.00
G01 X120.2377 Y29.7520 F350.00
G01 X120.2015 Y29.7587 F350.00
G01 X120.1652 Y29.7645 F350.00
G01 X120.0681 Y29.7789 F350.00
G01 X120.0316 Y29.7839 F350.00
G01 X119.9950 Y29.7880 F350.00
G01 X119.9584 Y29.7911 F350.00
G01 X119.9216 Y29.7934 F350.00
G01 X119.8236 Y29.7982 F350.00
G01 X119.7868 Y29.7995 F350.00
G01 X119.7500 Y29.8000 F350.00
G01 X119.7132 Y29.7995 F350.00
G01 X119.6764 Y29.7982 F350.00
G01 X119.5784 Y29.7934 F350.00
G01 X119.5416 Y29.7911 F350.00
G01 X119.5050 Y29.7880 F350.00
G01 X119.4684 Y29.7839 F350.00
G01 X119.4319 Y29.7789 F350.00
G01 X119.3348 Y29.7645 F350.00
G01 X119.2985 Y29.7587 F350.00
G01 X119.2623 Y29.7520 F350.00
G01 X119.2263 Y29.7443 F350.00
G01 X119.1904 Y29.7358 F350.00
G01 X119.0952 Y29.7120 F350.00
G01 X119.0596 Y29.7026 F350.00
G01 X119.0243 Y29.6924 F350.00
G01 X118.9892 Y29.6812 F350.00
G01 X118.9544 Y29.6693 F350.00
G01 X118.8620 Y29.6362 F350.00
G01 X118.8275 Y29.6234 F350.00
G01 X118.7933 Y29.6097 F350.00
G01 X118.7595 Y29.5952 F350.00
G01 X118.7260 Y29.5799 F350.00
G01 X118.6373 Y29.5379 F350.00
G01 X118.6042 Y29.5218 F350.00
G01 X118.5715 Y29.5048 F350.00
G01 X118.5393 Y29.4871 F350.00
G01 X118.5074 Y29.4685 F350.00
G01 X118.4233 Y29.4181 F350.00
G01 X118.3919 Y29.3987 F350.00
G01 X118.3611 Y29.3787 F350.00
G01 X118.3307 Y29.3578 F350.00
G01 X118.3009 Y29.3363 F350.00
G01 X118.2221 Y29.2778 F350.00
G01 X118.1928 Y29.2555 F350.00
G01 X118.1640 Y29.2325 F350.00
G01 X118.1358 Y29.2088 F350.00
G01 X118.1083 Y29.1844 F350.00
G01 X118.0356 Y29.1185 F350.00
G01 X118.0086 Y29.0935 F350.00
G01 X117.9822 Y29.0678 F350.00
G01 X117.9565 Y29.0414 F350.00
G01 X117.9315 Y29.0144 F350.00
G01 X117.8656 Y28.9417 F350.00
G01 X117.8412 Y28.9142 F350.00
G01 X117.8175 Y28.8860 F350.00
G01 X117.7945 Y28.8572 F350.00
G01 X117.7722 Y28.8279 F350.00
G01 X117.7137 Y28.7491 F350.00
G01 X117.6922 Y28.7193 F350.00
G01 X117.6713 Y28.6889 F350.00
G01 X117.6513 Y28.6581 F350.00
G01 X117.6319 Y28.6267 F350.00
G01 X117.5815 Y28.5426 F350.00
G01 X117.5629 Y28.5107 F350.00
G01 X117.5452 Y28.4785 F350.00
G01 X117.5282 Y28.4458 F350.00
G01 X117.5121 Y28.4127 F350.00
G01 X117.4701 Y28.3240 F350.00
G01 X117.4548 Y28.2905 F350.00
G01 X117.4403 Y28.2567 F350.00
G01 X117.4266 Y28.2225 F350.00
G01 X117.4138 Y28.1880 F350.00
G01 X117.3807 Y28.0956 F350.00
G01 X117.3696 Y28.0634 F350.00
G01 X117.3582 Y28.0275 F350.00
G01 X117.3476 Y27.9912 F350.00
G01 X117.3380 Y27.9548 F350.00
G01 X117.3142 Y27.8596 F350.00
G01 X117.3057 Y27.8237 F350.00
G01 X117.2980 Y27.7877 F350.00
G01 X117.2913 Y27.7515 F350.00
G01 X117.2855 Y27.7152 F350.00
G01 X117.2711 Y27.6181 F350.00
G01 X117.2661 Y27.5816 F350.00
G01 X117.2620 Y27.5450 F350.00
G01 X117.2589 Y27.5084 F350.00
G01 X117.2566 Y27.4716 F350.00
G01 X117.2518 Y27.3736 F350.00
G01 X117.2505 Y27.3368 F350.00
G01 X117.2500 Y27.3000 F350.00
G01 X117.2500 Y26.3000 F350.00
G01 X117.2505 Y26.2632 F350.00
G01 X117.2518 Y26.2264 F350.00
G01 X117.2566 Y26.1284 F350.00
G00 Z0.5000
G00 X118.3195 Y24.2503
G01 F250.00
G01 Z-0.0500
G01 F350.00
G01 X113.4305 Y24.2503 F350.00
G00 Z0.5000
G00 X107.2100 Y18.4003
G01 F250.00
G01 Z-0.0500
G01 F350.00
G01 X106.3900 Y18.4003 F350.00
G00 Z0.5000
G00 X106.1810 Y16.4503
G01 F250.00
G01 Z-0.0500
G01 F350.00
G01 X107.7097 Y16.4503 F350.00
G00 Z0.5000
G00 X107.9780 Y14.5003
G01 F250.00
G01 Z-0.0500
G01 F350.00
G01 X105.5672 Y14.5003 F350.00
G00 Z0.5000
G00 X104.2003 Y12.5503
G01 F250.00
G01 Z-0.0500
G01 F350.00
G01 X122.5478 Y12.5503 F350.00
G01 X123.8937 Y13.4997 F350.00
G01 X114.2897 Y6.7244 F350.00
G01 X114.2897 Y7.2398 F350.00
G01 X114.2892 Y7.2766 F350.00
G01 X114.2878 Y7.3134 F350.00
G01 X114.2838 Y7.3862 F350.00
G01 X114.2807 Y7.4229 F350.00
G01 X114.2766 Y7.4595 F350.00
G01 X114.2664 Y7.5317 F350.00
G01 X114.2605 Y7.5680 F350.00
G01 X114.2538 Y7.6042 F350.00
G01 X114.2461 Y7.6402 F350.00
G01 X114.2376 Y7.6760 F350.00
G01 X114.2195 Y7.7466 F350.00
G01 X114.2092 Y7.7820 F350.00
G01 X114.1981 Y7.8171 F350.00
G01 X114.1861 Y7.8519 F350.00
G01 X114.1612 Y7.9204 F350.00
G01 X114.1475 Y7.9545 F350.00
G01 X114.1330 Y7.9884 F350.00
G01 X114.1022 Y8.0545 F350.00
G01 X114.0861 Y8.0876 F350.00
G01 X114.0691 Y8.1202 F350.00
G01 X114.0514 Y8.1525 F350.00
G01 X114.0328 Y8.1843 F350.00
G01 X113.9950 Y8.2466 F350.00
G01 X113.9749 Y8.2774 F350.00
G01 X113.9541 Y8.3078 F350.00
G01 X113.9325 Y8.3376 F350.00
G01 X113.8887 Y8.3959 F350.00
G01 X113.8657 Y8.4247 F350.00
G01 X113.8420 Y8.4528 F350.00
G01 X113.7934 Y8.5071 F350.00
G01 X113.7683 Y8.5341 F350.00
G01 X113.7426 Y8.5605 F350.00
G01 X113.7163 Y8.5862 F350.00
G01 X113.6893 Y8.6112 F350.00
G01 X113.6350 Y8.6598 F350.00
G01 X113.6068 Y8.6835 F350.00
G01 X113.5781 Y8.7065 F350.00
G01 X113.5198 Y8.7503 F350.00
G01 X113.4900 Y8.7719 F350.00
G01 X113.4596 Y8.7927 F350.00
G01 X113.4288 Y8.8128 F350.00
G01 X113.3665 Y8.8507 F350.00
G01 X113.3347 Y8.8692 F350.00
G01 X113.3024 Y8.8869 F350.00
G01 X113.2697 Y8.9039 F350.00
G01 X113.2366 Y8.9201 F350.00
G01 X113.1706 Y8.9508 F350.00
G01 X113.1367 Y8.9653 F350.00
G01 X113.1025 Y8.9790 F350.00
G01 X113.0680 Y8.9918 F350.00
G01 X113.0019 Y9.0151 F350.00
G01 X112.9659 Y9.0265 F350.00
G01 X112.9297 Y9.0371 F350.00
G01 X112.8582 Y9.0555 F350.00
G01 X112.8224 Y9.0640 F350.00
G01 X112.7864 Y9.0716 F350.00
G01 X112.7502 Y9.0783 F350.00
G01 X112.6781 Y9.0895 F350.00
G01 X112.6417 Y9.0944 F350.00
G01 X112.6051 Y9.0985 F350.00
G01 X112.5684 Y9.1016 F350.00
G01 X112.5316 Y9.1039 F350.00
G01 X112.4588 Y9.1070 F350.00
G01 X112.4220 Y9.1075 F350.00
G01 X110.6573 Y9.1075 F350.00
G01 X110.6205 Y9.1070 F350.00
G01 X110.5837 Y9.1057 F350.00
G01 X110.5109 Y9.1016 F350.00
G01 X110.4742 Y9.0985 F350.00
G01 X110.4377 Y9.0944 F350.00
G01 X110.3655 Y9.0842 F350.00
G01 X110.3291 Y9.0783 F350.00
G01 X110.2929 Y9.0716 F350.00
G01 X110.2569 Y9.0640 F350.00
G01 X110.2211 Y9.0555 F350.00
G01 X110.1505 Y9.0373 F350.00
G01 X110.1152 Y9.0271 F350.00
G01 X110.0801 Y9.0159 F350.00
G01 X110.0452 Y9.0040 F350.00
G01 X109.9768 Y8.9790 F350.00
G01 X109.9426 Y8.9653 F350.00
G01 X109.9087 Y8.9508 F350.00
G01 X109.8427 Y8.9201 F350.00
G01 X109.8096 Y8.9039 F350.00
G01 X109.7769 Y8.8869 F350.00
G01 X109.7446 Y8.8692 F350.00
G01 X109.7128 Y8.8507 F350.00
G01 X109.6506 Y8.8128 F350.00
G01 X109.6197 Y8.7927 F350.00
G01 X109.5893 Y8.7719 F350.00
G01 X109.5595 Y8.7503 F350.00
G01 X109.5012 Y8.7065 F350.00
G01 X109.4725 Y8.6835 F350.00
G01 X109.4443 Y8.6598 F350.00
G01 X109.3900 Y8.6112 F350.00
G01 X109.3630 Y8.5862 F350.00
G01 X109.3367 Y8.5605 F350.00
G01 X109.3110 Y8.5341 F350.00
G01 X109.2859 Y8.5071 F350.00
G01 X109.2373 Y8.4528 F350.00
G01 X109.2136 Y8.4247 F350.00
G01 X109.1906 Y8.3959 F350.00
G01 X109.1617 Y8.3577 F350.00
G01 X104.2003 Y8.3577 F350.00
G01 X104.2003 Y12.9715 F350.00
G01 X104.6144 Y13.3856 F350.00
G01 X104.6401 Y13.4120 F350.00
G01 X104.6652 Y13.4389 F350.00
G01 X104.6981 Y13.4753 F350.00
G01 X104.7225 Y13.5029 F350.00
G01 X104.7462 Y13.5311 F350.00
G01 X104.7692 Y13.5598 F350.00
G01 X104.7915 Y13.5891 F350.00
G01 X104.8208 Y13.6285 F350.00
G01 X104.8423 Y13.6584 F350.00
G01 X104.8631 Y13.6887 F350.00
G01 X104.8832 Y13.7196 F350.00
G01 X104.9025 Y13.7509 F350.00
G01 X104.9361 Y13.8073 F350.00
G01 X105.3044 Y14.1756 F350.00
G01 X105.3301 Y14.2020 F350.00
G01 X105.3552 Y14.2289 F350.00
G01 X105.3881 Y14.2653 F350.00
G01 X105.4125 Y14.2929 F350.00
G01 X105.4362 Y14.3211 F350.00
G01 X105.4592 Y14.3498 F350.00
G01 X105.4815 Y14.3791 F350.00
G01 X105.5108 Y14.4185 F350.00
G01 X105.5323 Y14.4484 F350.00
G01 X105.5531 Y14.4787 F350.00
G01 X105.5732 Y14.5096 F350.00
G01 X105.5925 Y14.5409 F350.00
G01 X105.6178 Y14.5830 F350.00
G01 X105.6363 Y14.6148 F350.00
G01 X105.6541 Y14.6471 F350.00
G01 X105.6710 Y14.6798 F350.00
G01 X105.6872 Y14.7129 F350.00
G01 X105.7082 Y14.7572 F350.00
G01 X105.7235 Y14.7907 F350.00
G01 X105.7380 Y14.8245 F350.00
G01 X105.7517 Y14.8587 F350.00
G01 X105.7645 Y14.8932 F350.00
G01 X105.7820 Y14.9422 F350.00
G01 X105.7937 Y14.9764 F350.00
G01 X105.8045 Y15.0108 F350.00
G01 X105.8146 Y15.0454 F350.00
G01 X105.8238 Y15.0803 F350.00
G01 X105.8357 Y15.1279 F350.00
G01 X105.8442 Y15.1638 F350.00
G01 X105.8518 Y15.1998 F350.00
G01 X105.8586 Y15.2360 F350.00
G01 X105.8644 Y15.2723 F350.00
G01 X105.8716 Y15.3209 F350.00
G01 X105.8766 Y15.3574 F350.00
G01 X105.8806 Y15.3939 F350.00
G01 X105.8838 Y15.4306 F350.00
G01 X105.8860 Y15.4674 F350.00
G01 X105.8884 Y15.5164 F350.00
G01 X105.8898 Y15.5532 F350.00
G01 X105.8903 Y15.5900 F350.00
G01 X105.8903 Y15.9523 F350.00
G01 X105.9263 Y16.0009 F350.00
G01 X105.9478 Y16.0307 F350.00
G01 X105.9687 Y16.0611 F350.00
G01 X105.9887 Y16.0919 F350.00
G01 X106.0081 Y16.1233 F350.00
G01 X106.0585 Y16.2074 F350.00
G01 X106.0771 Y16.2393 F350.00
G01 X106.0948 Y16.2715 F350.00
G01 X106.1118 Y16.3042 F350.00
G01 X106.1279 Y16.3373 F350.00
G01 X106.1699 Y16.4260 F350.00
G01 X106.1852 Y16.4595 F350.00
G01 X106.1997 Y16.4933 F350.00
G01 X106.2134 Y16.5275 F350.00
G01 X106.2262 Y16.5620 F350.00
G01 X106.2593 Y16.6544 F350.00
G01 X106.2719 Y16.6913 F350.00
G01 X106.2828 Y16.7257 F350.00
G01 X106.2928 Y16.7604 F350.00
G01 X106.3020 Y16.7952 F350.00
G01 X106.3258 Y16.8904 F350.00
G01 X106.3343 Y16.9263 F350.00
G01 X106.3420 Y16.9623 F350.00
G01 X106.3487 Y16.9985 F350.00
G01 X106.3545 Y17.0348 F350.00
G01 X106.3689 Y17.1319 F350.00
G01 X106.3739 Y17.1684 F350.00
G01 X106.3780 Y17.2050 F350.00
G01 X106.3811 Y17.2416 F350.00
G01 X106.3834 Y17.2784 F350.00
G01 X106.3882 Y17.3764 F350.00
G01 X106.3895 Y17.4132 F350.00
G01 X106.3900 Y17.4500 F350.00
G01 X106.3900 Y19.4500 F350.00
G01 X106.3895 Y19.4868 F350.00
G01 X106.3882 Y19.5236 F350.00
G01 X106.3834 Y19.6216 F350.00
G01 X106.3811 Y19.6584 F350.00
G01 X106.3780 Y19.6950 F350.00
G01 X106.3739 Y19.7316 F350.00
G01 X106.3689 Y19.7681 F350.00
G01 X106.3613 Y19.8200 F350.00
G01 X107.2100 Y18.9712 F350.00
G01 X107.2100 Y17.8000 F350.00
G01 X107.2105 Y17.7632 F350.00
G01 X107.2118 Y17.7264 F350.00
G01 X107.2141 Y17.6897 F350.00
G01 X107.2172 Y17.6530 F350.00
G01 X107.2213 Y17.6164 F350.00
G01 X107.2262 Y17.5799 F350.00
G01 X107.2321 Y17.5436 F350.00
G01 X107.2388 Y17.5074 F350.00
G01 X107.2464 Y17.4713 F350.00
G01 X107.2550 Y17.4355 F350.00
G01 X107.2643 Y17.3999 F350.00
G01 X107.2746 Y17.3646 F350.00
G01 X107.2857 Y17.3295 F350.00
G01 X107.2977 Y17.2947 F350.00
G01 X107.3105 Y17.2602 F350.00
G01 X107.3242 Y17.2260 F350.00
G01 X107.3387 Y17.1921 F350.00
G01 X107.3540 Y17.1587 F350.00
G01 X107.3702 Y17.1256 F350.00
G01 X107.3871 Y17.0929 F350.00
G01 X107.4049 Y17.0607 F350.00
G01 X107.4234 Y17.0288 F350.00
G01 X107.4427 Y16.9975 F350.00
G01 X107.4628 Y16.9666 F350.00
G01 X107.4836 Y16.9363 F350.00
G01 X107.5052 Y16.9065 F350.00
G01 X107.5275 Y16.8772 F350.00
G01 X107.5505 Y16.8484 F350.00
G01 X107.5742 Y16.8202 F350.00
G01 X107.5986 Y16.7927 F350.00
G01 X107.6236 Y16.7657 F350.00
G01 X107.6493 Y16.7393 F350.00
G01 X107.6757 Y16.7136 F350.00
G01 X107.7097 Y16.6823 F350.00
G01 X107.7097 Y15.5000 F350.00
G01 X107.7102 Y15.4632 F350.00
G01 X107.7116 Y15.4264 F350.00
G01 X107.7140 Y15.3774 F350.00
G01 X107.7162 Y15.3406 F350.00
G01 X107.7194 Y15.3039 F350.00
G01 X107.7234 Y15.2674 F350.00
G01 X107.7284 Y15.2309 F350.00
G01 X107.7356 Y15.1823 F350.00
G01 X107.7414 Y15.1460 F350.00
G01 X107.7482 Y15.1098 F350.00
G01 X107.7558 Y15.0738 F350.00
G01 X107.7643 Y15.0379 F350.00
G01 X107.7762 Y14.9903 F350.00
G01 X107.7856 Y14.9547 F350.00
G01 X107.7959 Y14.9194 F350.00
G01 X107.8070 Y14.8843 F350.00
G01 X107.8190 Y14.8495 F350.00
G01 X107.8355 Y14.8032 F350.00
G01 X107.8483 Y14.7687 F350.00
G01 X107.8620 Y14.7345 F350.00
G01 X107.8765 Y14.7007 F350.00
G01 X107.8918 Y14.6672 F350.00
G01 X107.9128 Y14.6229 F350.00
G01 X107.9290 Y14.5898 F350.00
G01 X107.9459 Y14.5571 F350.00
G01 X107.9637 Y14.5248 F350.00
G01 X107.9822 Y14.4930 F350.00
G01 X108.0075 Y14.4509 F350.00
G01 X108.0268 Y14.4196 F350.00
G01 X108.0469 Y14.3887 F350.00
G01 X108.0677 Y14.3584 F350.00
G01 X108.0892 Y14.3285 F350.00
G01 X108.1185 Y14.2891 F350.00
G01 X108.1408 Y14.2598 F350.00
G01 X108.1638 Y14.2311 F350.00
G01 X108.1875 Y14.2029 F350.00
G01 X108.2119 Y14.1753 F350.00
G01 X108.2448 Y14.1389 F350.00
G01 X108.2699 Y14.1120 F350.00
G01 X108.2956 Y14.0856 F350.00
G01 X108.3220 Y14.0599 F350.00
G01 X108.3489 Y14.0348 F350.00
G01 X108.3853 Y14.0019 F350.00
G01 X108.4129 Y13.9775 F350.00
G01 X108.4411 Y13.9538 F350.00
G01 X108.4698 Y13.9308 F350.00
G01 X108.4991 Y13.9085 F350.00
G01 X108.5385 Y13.8792 F350.00
G01 X108.5684 Y13.8577 F350.00
G01 X108.5987 Y13.8369 F350.00
G01 X108.6296 Y13.8168 F350.00
G01 X108.6609 Y13.7975 F350.00
G01 X108.7030 Y13.7722 F350.00
G01 X108.7348 Y13.7537 F350.00
G01 X108.7671 Y13.7359 F350.00
G01 X108.7998 Y13.7190 F350.00
G01 X108.8329 Y13.7028 F350.00
G01 X108.8772 Y13.6818 F350.00
G01 X108.9107 Y13.6665 F350.00
G01 X108.9445 Y13.6520 F350.00
G01 X108.9787 Y13.6383 F350.00
G01 X109.0132 Y13.6255 F350.00
G01 X109.0916 Y13.5979 F350.00
G01 X109.1276 Y13.5864 F350.00
G01 X109.1638 Y13.5759 F350.00
G01 X109.2003 Y13.5662 F350.00
G01 X109.2479 Y13.5543 F350.00
G01 X109.2838 Y13.5458 F350.00
G01 X109.3198 Y13.5382 F350.00
G01 X109.3560 Y13.5314 F350.00
G01 X109.3923 Y13.5256 F350.00
G01 X109.4409 Y13.5184 F350.00
G01 X109.4774 Y13.5134 F350.00
G01 X109.5139 Y13.5094 F350.00
G01 X109.5506 Y13.5062 F350.00
G01 X109.5874 Y13.5040 F350.00
G01 X109.6364 Y13.5016 F350.00
G01 X109.6732 Y13.5002 F350.00
G01 X109.7100 Y13.4997 F350.00
G01 X123.8937 Y13.4997 F350.00
G00 Z0.5000
G00 X127.8696 Y16.3046
G01 F250.00
G01 Z-0.0500
G01 F350.00
G01 X127.4603 Y16.0158 F350.00
G01 X127.4603 Y16.3595 F350.00
G01 X127.4763 Y16.3557 F350.00
G01 X127.5123 Y16.3480 F350.00
G01 X127.5485 Y16.3413 F350.00
G01 X127.5848 Y16.3355 F350.00
G01 X127.6819 Y16.3211 F350.00
G01 X127.7184 Y16.3161 F350.00
G01 X127.7550 Y16.3120 F350.00
G01 X127.7916 Y16.3089 F350.00
G01 X127.8696 Y16.3046 F350.00
G00 Z0.5000
G00 X131.9735 Y21.8572
G01 F250.00
G01 Z-0.0500
G01 F350.00
G01 X131.9711 Y21.8493 F350.00
G01 X131.9636 Y21.8547 F350.00
G01 X131.9735 Y21.8572 F350.00
G00 Z0.5000
G00 X130.9997 Y26.2003
G01 F250.00
G01 Z-0.0500
G01 F350.00
G01 X129.2469 Y26.2003 F350.00
G00 Z0.5000
G00 X129.0997 Y28.1503
G01 F250.00
G01 Z-0.0500
G01 F350.00
G01 X130.9997 Y28.1503 F350.00
G01 X130.9997 Y34.0003 F350.00
G01 X129.6405 Y34.0003 F350.00
G00 Z0.5000
G00 X129.5207 Y35.9503
G01 F250.00
G01 Z-0.0500
G01 F350.00
G01 X130.9997 Y35.9503 F350.00
G00 Z0.5000
G00 X126.9946 Y37.9003
G01 F250.00
G01 Z-0.0500
G01 F350.00
G01 X119.6304 Y37.9003 F350.00
G00 Z0.5000
G00 X120.1099 Y39.8503
G01 F250.00
G01 Z-0.0500
G01 F350.00
G01 X126.5151 Y39.8503 F350.00
G00 Z0.5000
G00 X127.5182 Y41.8003
G01 F250.00
G01 Z-0.0500
G01 F350.00
G01 X119.1068 Y41.8003 F350.00
G01 X118.1998 Y43.7503 F350.00
G01 X128.4252 Y43.7503 F350.00
G00 Z0.5000
G00 X130.5748 Y43.7503
G01 F250.00
G01 Z-0.0500
G01 F350.00
G01 X130.9997 Y43.7503 F350.00
G01 X130.9997 Y43.9534 F350.00
G01 X130.9997 Y42.1466 F350.00
G01 X130.9464 Y42.1780 F350.00
G01 X130.9142 Y42.1958 F350.00
G01 X130.8815 Y42.2127 F350.00
G01 X130.8484 Y42.2289 F350.00
G01 X130.7154 Y42.2918 F350.00
G01 X130.6819 Y42.3071 F350.00
G01 X130.6481 Y42.3216 F350.00
G01 X130.6139 Y42.3353 F350.00
G01 X130.5794 Y42.3481 F350.00
G01 X130.4380 Y42.3987 F350.00
G01 X130.4039 Y42.4104 F350.00
G01 X130.3694 Y42.4212 F350.00
G01 X130.3348 Y42.4313 F350.00
G01 X130.2999 Y42.4405 F350.00
G01 X130.1571 Y42.4762 F350.00
G01 X130.1213 Y42.4847 F350.00
G01 X130.0853 Y42.4924 F350.00
G01 X130.0491 Y42.4991 F350.00
G01 X130.0127 Y42.5049 F350.00
G01 X129.8671 Y42.5265 F350.00
G01 X129.8306 Y42.5315 F350.00
G01 X129.7941 Y42.5356 F350.00
G01 X129.7574 Y42.5387 F350.00
G01 X129.7206 Y42.5410 F350.00
G01 X129.5736 Y42.5482 F350.00
G01 X129.5368 Y42.5495 F350.00
G01 X129.5000 Y42.5500 F350.00
G01 X129.4632 Y42.5495 F350.00
G01 X129.4264 Y42.5482 F350.00
G01 X129.2794 Y42.5410 F350.00
G01 X129.2426 Y42.5387 F350.00
G01 X129.2059 Y42.5356 F350.00
G01 X129.1694 Y42.5315 F350.00
G01 X129.1329 Y42.5265 F350.00
G01 X128.9873 Y42.5049 F350.00
G01 X128.9509 Y42.4991 F350.00
G01 X128.9147 Y42.4924 F350.00
G01 X128.8787 Y42.4847 F350.00
G01 X128.8429 Y42.4762 F350.00
G01 X128.7001 Y42.4405 F350.00
G01 X128.6645 Y42.4311 F350.00
G01 X128.6291 Y42.4208 F350.00
G01 X128.5941 Y42.4097 F350.00
G01 X128.5592 Y42.3977 F350.00
G01 X128.4206 Y42.3481 F350.00
G01 X128.3861 Y42.3353 F350.00
G01 X128.3519 Y42.3216 F350.00
G01 X128.3181 Y42.3071 F350.00
G01 X128.2846 Y42.2918 F350.00
G01 X128.1516 Y42.2289 F350.00
G01 X128.1185 Y42.2127 F350.00
G01 X128.0858 Y42.1958 F350.00
G01 X128.0536 Y42.1780 F350.00
G01 X128.0218 Y42.1595 F350.00
G01 X127.8955 Y42.0838 F350.00
G01 X127.8641 Y42.0645 F350.00
G01 X127.8333 Y42.0444 F350.00
G01 X127.8029 Y42.0236 F350.00
G01 X127.7731 Y42.0020 F350.00
G01 X127.6549 Y41.9143 F350.00
G01 X127.6256 Y41.8920 F350.00
G01 X127.5968 Y41.8690 F350.00
G01 X127.5687 Y41.8453 F350.00
G01 X127.5411 Y41.8209 F350.00
G01 X127.4320 Y41.7221 F350.00
G01 X127.4050 Y41.6970 F350.00
G01 X127.3787 Y41.6713 F350.00
G01 X127.3530 Y41.6450 F350.00
G01 X127.3279 Y41.6180 F350.00
G01 X127.2291 Y41.5089 F350.00
G01 X127.2047 Y41.4813 F350.00
G01 X127.1810 Y41.4532 F350.00
G01 X127.1580 Y41.4244 F350.00
G01 X127.1357 Y41.3951 F350.00
G01 X127.0480 Y41.2769 F350.00
G01 X127.0264 Y41.2471 F350.00
G01 X127.0056 Y41.2167 F350.00
G01 X126.9855 Y41.1859 F350.00
G01 X126.9662 Y41.1545 F350.00
G01 X126.8905 Y41.0282 F350.00
G01 X126.8720 Y40.9964 F350.00
G01 X126.8542 Y40.9642 F350.00
G01 X126.8373 Y40.9315 F350.00
G01 X126.8211 Y40.8984 F350.00
G01 X126.7582 Y40.7654 F350.00
G01 X126.7429 Y40.7319 F350.00
G01 X126.7284 Y40.6981 F350.00
G01 X126.7147 Y40.6639 F350.00
G01 X126.7019 Y40.6294 F350.00
G01 X126.6523 Y40.4908 F350.00
G01 X126.6396 Y40.4539 F350.00
G01 X126.6288 Y40.4194 F350.00
G01 X126.6187 Y40.3848 F350.00
G01 X126.6095 Y40.3499 F350.00
G01 X126.5738 Y40.2071 F350.00
G01 X126.5653 Y40.1713 F350.00
G01 X126.5576 Y40.1353 F350.00
G01 X126.5509 Y40.0991 F350.00
G01 X126.5451 Y40.0627 F350.00
G01 X126.5235 Y39.9171 F350.00
G01 X126.5185 Y39.8806 F350.00
G01 X126.5144 Y39.8441 F350.00
G01 X126.5113 Y39.8074 F350.00
G01 X126.5090 Y39.7706 F350.00
G01 X126.5018 Y39.6236 F350.00
G01 X126.5005 Y39.5868 F350.00
G01 X126.5000 Y39.5500 F350.00
G01 X126.5005 Y39.5132 F350.00
G01 X126.5018 Y39.4764 F350.00
G01 X126.5090 Y39.3294 F350.00
G01 X126.5113 Y39.2926 F350.00
G01 X126.5144 Y39.2559 F350.00
G01 X126.5185 Y39.2194 F350.00
G01 X126.5235 Y39.1829 F350.00
G01 X126.5451 Y39.0373 F350.00
G01 X126.5509 Y39.0009 F350.00
G01 X126.5576 Y38.9647 F350.00
G01 X126.5653 Y38.9287 F350.00
G01 X126.5738 Y38.8929 F350.00
G01 X126.6095 Y38.7501 F350.00
G01 X126.6189 Y38.7145 F350.00
G01 X126.6292 Y38.6791 F350.00
G01 X126.6403 Y38.6441 F350.00
G01 X126.6523 Y38.6092 F350.00
G01 X126.7019 Y38.4706 F350.00
G01 X126.7147 Y38.4361 F350.00
G01 X126.7284 Y38.4019 F350.00
G01 X126.7429 Y38.3681 F350.00
G01 X126.7582 Y38.3346 F350.00
G01 X126.8211 Y38.2016 F350.00
G01 X126.8373 Y38.1685 F350.00
G01 X126.8542 Y38.1358 F350.00
G01 X126.8720 Y38.1036 F350.00
G01 X126.8905 Y38.0718 F350.00
G01 X126.9662 Y37.9455 F350.00
G01 X126.9855 Y37.9141 F350.00
G01 X127.0056 Y37.8833 F350.00
G01 X127.0264 Y37.8529 F350.00
G01 X127.0480 Y37.8231 F350.00
G01 X127.0787 Y37.7817 F350.00
G01 X127.0441 Y37.7856 F350.00
G01 X127.0074 Y37.7887 F350.00
G01 X126.9706 Y37.7910 F350.00
G01 X126.8236 Y37.7982 F350.00
G01 X126.7868 Y37.7995 F350.00
G01 X126.7500 Y37.8000 F350.00
G01 X126.7132 Y37.7995 F350.00
G01 X126.6764 Y37.7982 F350.00
G01 X126.5294 Y37.7910 F350.00
G01 X126.4926 Y37.7887 F350.00
G01 X126.4559 Y37.7856 F350.00
G01 X126.4194 Y37.7815 F350.00
G01 X126.3829 Y37.7765 F350.00
G01 X126.2373 Y37.7549 F350.00
G01 X126.2009 Y37.7491 F350.00
G01 X126.1647 Y37.7424 F350.00
G01 X126.1287 Y37.7347 F350.00
G01 X126.0929 Y37.7262 F350.00
G01 X125.9501 Y37.6905 F350.00
G01 X125.9145 Y37.6811 F350.00
G01 X125.8791 Y37.6708 F350.00
G01 X125.8441 Y37.6597 F350.00
G01 X125.8092 Y37.6477 F350.00
G01 X125.6706 Y37.5981 F350.00
G01 X125.6361 Y37.5853 F350.00
G01 X125.6019 Y37.5716 F350.00
G01 X125.5681 Y37.5571 F350.00
G01 X125.5346 Y37.5418 F350.00
G01 X125.4016 Y37.4789 F350.00
G01 X125.3685 Y37.4627 F350.00
G01 X125.3358 Y37.4458 F350.00
G01 X125.3036 Y37.4280 F350.00
G01 X125.2718 Y37.4095 F350.00
G01 X125.1455 Y37.3338 F350.00
G01 X125.1141 Y37.3145 F350.00
G01 X125.0833 Y37.2944 F350.00
G01 X125.0529 Y37.2736 F350.00
G01 X125.0231 Y37.2520 F350.00
G01 X124.9049 Y37.1643 F350.00
G01 X124.8756 Y37.1420 F350.00
G01 X124.8468 Y37.1190 F350.00
G01 X124.8187 Y37.0953 F350.00
G01 X124.7684 Y37.0504 F350.00
G01 X121.7316 Y37.0504 F350.00
G01 X121.6813 Y37.0953 F350.00
G01 X121.6532 Y37.1190 F350.00
G01 X121.6244 Y37.1420 F350.00
G01 X121.5951 Y37.1643 F350.00
G01 X121.4769 Y37.2520 F350.00
G01 X121.4471 Y37.2736 F350.00
G01 X121.4167 Y37.2944 F350.00
G01 X121.3859 Y37.3145 F350.00
G01 X121.3545 Y37.3338 F350.00
G01 X121.2282 Y37.4095 F350.00
G01 X121.1964 Y37.4280 F350.00
G01 X121.1642 Y37.4458 F350.00
G01 X121.1315 Y37.4627 F350.00
G01 X121.0984 Y37.4789 F350.00
G01 X120.9654 Y37.5418 F350.00
G01 X120.9319 Y37.5571 F350.00
G01 X120.8981 Y37.5716 F350.00
G01 X120.8639 Y37.5853 F350.00
G01 X120.8294 Y37.5981 F350.00
G01 X120.6880 Y37.6487 F350.00
G01 X120.6538 Y37.6604 F350.00
G01 X120.6194 Y37.6712 F350.00
G01 X120.5848 Y37.6813 F350.00
G01 X120.5499 Y37.6905 F350.00
G01 X120.4071 Y37.7262 F350.00
G01 X120.3713 Y37.7347 F350.00
G01 X120.3353 Y37.7424 F350.00
G01 X120.2991 Y37.7491 F350.00
G01 X120.2627 Y37.7549 F350.00
G01 X120.1171 Y37.7765 F350.00
G01 X120.0806 Y37.7815 F350.00
G01 X120.0441 Y37.7856 F350.00
G01 X120.0074 Y37.7887 F350.00
G01 X119.9706 Y37.7910 F350.00
G01 X119.8236 Y37.7982 F350.00
G01 X119.7868 Y37.7995 F350.00
G01 X119.7500 Y37.8000 F350.00
G01 X119.7132 Y37.7995 F350.00
G01 X119.6764 Y37.7982 F350.00
G01 X119.5541 Y37.7922 F350.00
G01 X119.5986 Y37.8529 F350.00
G01 X119.6194 Y37.8833 F350.00
G01 X119.6395 Y37.9141 F350.00
G01 X119.6588 Y37.9455 F350.00
G01 X119.7345 Y38.0718 F350.00
G01 X119.7530 Y38.1036 F350.00
G01 X119.7708 Y38.1358 F350.00
G01 X119.7877 Y38.1685 F350.00
G01 X119.8039 Y38.2016 F350.00
G01 X119.8668 Y38.3346 F350.00
G01 X119.8821 Y38.3681 F350.00
G01 X119.8966 Y38.4019 F350.00
G01 X119.9103 Y38.4361 F350.00
G01 X119.9231 Y38.4706 F350.00
G01 X119.9737 Y38.6120 F350.00
G01 X119.9854 Y38.6461 F350.00
G01 X119.9962 Y38.6806 F350.00
G01 X120.0063 Y38.7152 F350.00
G01 X120.0155 Y38.7501 F350.00
G01 X120.0512 Y38.8929 F350.00
G01 X120.0597 Y38.9287 F350.00
G01 X120.0674 Y38.9647 F350.00
G01 X120.0741 Y39.0009 F350.00
G01 X120.0799 Y39.0373 F350.00
G01 X120.1015 Y39.1829 F350.00
G01 X120.1065 Y39.2194 F350.00
G01 X120.1106 Y39.2559 F350.00
G01 X120.1137 Y39.2926 F350.00
G01 X120.1160 Y39.3294 F350.00
G01 X120.1232 Y39.4764 F350.00
G01 X120.1245 Y39.5132 F350.00
G01 X120.1250 Y39.5500 F350.00
G01 X120.1245 Y39.5868 F350.00
G01 X120.1232 Y39.6236 F350.00
G01 X120.1160 Y39.7706 F350.00
G01 X120.1137 Y39.8074 F350.00
G01 X120.1106 Y39.8441 F350.00
G01 X120.1065 Y39.8806 F350.00
G01 X120.1015 Y39.9171 F350.00
G01 X120.0799 Y40.0627 F350.00
G01 X120.0741 Y40.0991 F350.00
G01 X120.0674 Y40.1353 F350.00
G01 X120.0597 Y40.1713 F350.00
G01 X120.0512 Y40.2071 F350.00
G01 X120.0155 Y40.3499 F350.00
G01 X120.0061 Y40.3855 F350.00
G01 X119.9958 Y40.4209 F350.00
G01 X119.9847 Y40.4559 F350.00
G01 X119.9727 Y40.4908 F350.00
G01 X119.9231 Y40.6294 F350.00
G01 X119.9103 Y40.6639 F350.00
G01 X119.8966 Y40.6981 F350.00
G01 X119.8821 Y40.7319 F350.00
G01 X119.8668 Y40.7654 F350.00
G01 X119.8039 Y40.8984 F350.00
G01 X119.7877 Y40.9315 F350.00
G01 X119.7708 Y40.9642 F350.00
G01 X119.7530 Y40.9964 F350.00
G01 X119.7345 Y41.0282 F350.00
G01 X119.6588 Y41.1545 F350.00
G01 X119.6395 Y41.1859 F350.00
G01 X119.6194 Y41.2167 F350.00
G01 X119.5986 Y41.2471 F350.00
G01 X119.5770 Y41.2769 F350.00
G01 X119.4893 Y41.3951 F350.00
G01 X119.4670 Y41.4244 F350.00
G01 X119.4440 Y41.4532 F350.00
G01 X119.4203 Y41.4813 F350.00
G01 X119.3959 Y41.5089 F350.00
G01 X119.2971 Y41.6180 F350.00
G01 X119.2720 Y41.6450 F350.00
G01 X119.2463 Y41.6713 F350.00
G01 X119.2200 Y41.6970 F350.00
G01 X119.1930 Y41.7221 F350.00
G01 X119.0839 Y41.8209 F350.00
G01 X119.0563 Y41.8453 F350.00
G01 X119.0282 Y41.8690 F350.00
G01 X118.9994 Y41.8920 F350.00
G01 X118.9701 Y41.9143 F350.00
G01 X118.8519 Y42.0020 F350.00
G01 X118.8221 Y42.0236 F350.00
G01 X118.7917 Y42.0444 F350.00
G01 X118.7609 Y42.0645 F350.00
G01 X118.7295 Y42.0838 F350.00
G01 X118.6032 Y42.1595 F350.00
G01 X118.5714 Y42.1780 F350.00
G01 X118.5392 Y42.1958 F350.00
G01 X118.5065 Y42.2127 F350.00
G01 X118.4734 Y42.2289 F350.00
G01 X118.3404 Y42.2918 F350.00
G01 X118.3069 Y42.3071 F350.00
G01 X118.2731 Y42.3216 F350.00
G01 X118.2389 Y42.3353 F350.00
G01 X118.2044 Y42.3481 F350.00
G01 X118.0658 Y42.3977 F350.00
G01 X118.0288 Y42.4104 F350.00
G01 X117.9944 Y42.4212 F350.00
G01 X117.9598 Y42.4313 F350.00
G01 X117.9249 Y42.4405 F350.00
G01 X117.7821 Y42.4762 F350.00
G01 X117.7463 Y42.4847 F350.00
G01 X117.7103 Y42.4924 F350.00
G01 X117.6741 Y42.4991 F350.00
G01 X117.6377 Y42.5049 F350.00
G01 X117.4921 Y42.5265 F350.00
G01 X117.4556 Y42.5315 F350.00
G01 X117.4191 Y42.5356 F350.00
G01 X117.3824 Y42.5387 F350.00
G01 X117.3456 Y42.5410 F350.00
G01 X117.1986 Y42.5482 F350.00
G01 X117.1618 Y42.5495 F350.00
G01 X117.1250 Y42.5500 F350.00
G01 X117.0882 Y42.5495 F350.00
G01 X117.0514 Y42.5482 F350.00
G01 X116.9044 Y42.5410 F350.00
G01 X116.8676 Y42.5387 F350.00
G01 X116.8309 Y42.5356 F350.00
G01 X116.7944 Y42.5315 F350.00
G01 X116.7579 Y42.5265 F350.00
G01 X116.6123 Y42.5049 F350.00
G01 X116.5759 Y42.4991 F350.00
G01 X116.5397 Y42.4924 F350.00
G01 X116.5037 Y42.4847 F350.00
G01 X116.4679 Y42.4762 F350.00
G01 X116.3251 Y42.4405 F350.00
G01 X116.2895 Y42.4311 F350.00
G01 X116.2541 Y42.4208 F350.00
G01 X116.2191 Y42.4097 F350.00
G01 X116.1842 Y42.3977 F350.00
G01 X116.0456 Y42.3481 F350.00
G01 X116.0111 Y42.3353 F350.00
G01 X115.9769 Y42.3216 F350.00
G01 X115.9431 Y42.3071 F350.00
G01 X115.9096 Y42.2918 F350.00
G01 X115.7766 Y42.2289 F350.00
G01 X115.7435 Y42.2127 F350.00
G01 X115.7108 Y42.1958 F350.00
G01 X115.6786 Y42.1780 F350.00
G01 X115.6468 Y42.1595 F350.00
G01 X115.5205 Y42.0838 F350.00
G01 X115.4891 Y42.0645 F350.00
G01 X115.4583 Y42.0444 F350.00
G01 X115.4279 Y42.0236 F350.00
G01 X115.3981 Y42.0020 F350.00
G01 X115.2799 Y41.9143 F350.00
G01 X115.2506 Y41.8920 F350.00
G01 X115.2218 Y41.8690 F350.00
G01 X115.1937 Y41.8453 F350.00
G01 X115.1661 Y41.8209 F350.00
G01 X115.0570 Y41.7221 F350.00
G01 X115.0300 Y41.6970 F350.00
G01 X115.0037 Y41.6713 F350.00
G01 X114.9780 Y41.6450 F350.00
G01 X114.9529 Y41.6180 F350.00
G01 X114.8541 Y41.5089 F350.00
G01 X114.8297 Y41.4813 F350.00
G01 X114.8060 Y41.4532 F350.00
G01 X114.7830 Y41.4244 F350.00
G01 X114.7607 Y41.3951 F350.00
G01 X114.6730 Y41.2769 F350.00
G01 X114.6514 Y41.2471 F350.00
G01 X114.6306 Y41.2167 F350.00
G01 X114.6105 Y41.1859 F350.00
G01 X114.5912 Y41.1545 F350.00
G01 X114.5155 Y41.0282 F350.00
G01 X114.4970 Y40.9964 F350.00
G01 X114.4792 Y40.9642 F350.00
G01 X114.4623 Y40.9315 F350.00
G01 X114.4461 Y40.8984 F350.00
G01 X114.3832 Y40.7654 F350.00
G01 X114.3679 Y40.7319 F350.00
G01 X114.3534 Y40.6981 F350.00
G01 X114.3397 Y40.6639 F350.00
G01 X114.3269 Y40.6294 F350.00
G01 X114.2763 Y40.4880 F350.00
G01 X114.2646 Y40.4539 F350.00
G01 X114.2504 Y40.4078 F350.00
G01 X114.2504 Y44.2996 F350.00
G01 X115.1434 Y44.2996 F350.00
G01 X115.1937 Y44.2547 F350.00
G01 X115.2218 Y44.2310 F350.00
G01 X115.2506 Y44.2080 F350.00
G01 X115.2799 Y44.1857 F350.00
G01 X115.3981 Y44.0980 F350.00
G01 X115.4279 Y44.0764 F350.00
G01 X115.4583 Y44.0556 F350.00
G01 X115.4891 Y44.0355 F350.00
G01 X115.5205 Y44.0162 F350.00
G01 X115.6468 Y43.9405 F350.00
G01 X115.6786 Y43.9220 F350.00
G01 X115.7108 Y43.9042 F350.00
G01 X115.7435 Y43.8873 F350.00
G01 X115.7766 Y43.8711 F350.00
G01 X115.9096 Y43.8082 F350.00
G01 X115.9431 Y43.7929 F350.00
G01 X115.9769 Y43.7784 F350.00
G01 X116.0111 Y43.7647 F350.00
G01 X116.0456 Y43.7519 F350.00
G01 X116.1870 Y43.7013 F350.00
G01 X116.2212 Y43.6896 F350.00
G01 X116.2556 Y43.6788 F350.00
G01 X116.2902 Y43.6687 F350.00
G01 X116.3251 Y43.6595 F350.00
G01 X116.4679 Y43.6238 F350.00
G01 X116.5037 Y43.6153 F350.00
G01 X116.5397 Y43.6076 F350.00
G01 X116.5759 Y43.6009 F350.00
G01 X116.6123 Y43.5951 F350.00
G01 X116.7579 Y43.5735 F350.00
G01 X116.7944 Y43.5685 F350.00
G01 X116.8309 Y43.5644 F350.00
G01 X116.8676 Y43.5613 F350.00
G01 X116.9044 Y43.5590 F350.00
G01 X117.0514 Y43.5518 F350.00
G01 X117.0882 Y43.5505 F350.00
G01 X117.1250 Y43.5500 F350.00
G01 X117.1618 Y43.5505 F350.00
G01 X117.1986 Y43.5518 F350.00
G01 X117.3456 Y43.5590 F350.00
G01 X117.3824 Y43.5613 F350.00
G01 X117.4191 Y43.5644 F350.00
G01 X117.4556 Y43.5685 F350.00
G01 X117.4921 Y43.5735 F350.00
G01 X117.6377 Y43.5951 F350.00
G01 X117.6741 Y43.6009 F350.00
G01 X117.7103 Y43.6076 F350.00
G01 X117.7463 Y43.6153 F350.00
G01 X117.7821 Y43.6238 F350.00
G01 X117.9249 Y43.6595 F350.00
G01 X117.9605 Y43.6689 F350.00
G01 X117.9959 Y43.6792 F350.00
G01 X118.0309 Y43.6903 F350.00
G01 X118.0658 Y43.7023 F350.00
G01 X118.2044 Y43.7519 F350.00
G01 X118.2389 Y43.7647 F350.00
G01 X118.2731 Y43.7784 F350.00
G01 X118.3069 Y43.7929 F350.00
G01 X118.3404 Y43.8082 F350.00
G01 X118.4734 Y43.8711 F350.00
G01 X118.5065 Y43.8873 F350.00
G01 X118.5392 Y43.9042 F350.00
G01 X118.5714 Y43.9220 F350.00
G01 X118.6032 Y43.9405 F350.00
G01 X118.7295 Y44.0162 F350.00
G01 X118.7609 Y44.0355 F350.00
G01 X118.7917 Y44.0556 F350.00
G01 X118.8221 Y44.0764 F350.00
G01 X118.8519 Y44.0980 F350.00
G01 X118.9701 Y44.1857 F350.00
G01 X118.9994 Y44.2080 F350.00
G01 X119.0282 Y44.2310 F350.00
G01 X119.0563 Y44.2547 F350.00
G01 X119.1066 Y44.2996 F350.00
G01 X127.5184 Y44.2996 F350.00
G01 X127.5687 Y44.2547 F350.00
G01 X127.5968 Y44.2310 F350.00
G01 X127.6256 Y44.2080 F350.00
G01 X127.6549 Y44.1857 F350.00
G01 X127.7731 Y44.0980 F350.00
G01 X127.8029 Y44.0764 F350.00
G01 X127.8333 Y44.0556 F350.00
G01 X127.8641 Y44.0355 F350.00
G01 X127.8955 Y44.0162 F350.00
G01 X128.0218 Y43.9405 F350.00
G01 X128.0536 Y43.9220 F350.00
G01 X128.0858 Y43.9042 F350.00
G01 X128.1185 Y43.8873 F350.00
G01 X128.1516 Y43.8711 F350.00
G01 X128.2846 Y43.8082 F350.00
G01 X128.3181 Y43.7929 F350.00
G01 X128.3519 Y43.7784 F350.00
G01 X128.3861 Y43.7647 F350.00
G01 X128.4206 Y43.7519 F350.00
G01 X128.5620 Y43.7013 F350.00
G01 X128.5961 Y43.6896 F350.00
G01 X128.6306 Y43.6788 F350.00
G01 X128.6652 Y43.6687 F350.00
G01 X128.7001 Y43.6595 F350.00
G01 X128.8429 Y43.6238 F350.00
G01 X128.8787 Y43.6153 F350.00
G01 X128.9147 Y43.6076 F350.00
G01 X128.9509 Y43.6009 F350.00
G01 X128.9873 Y43.5951 F350.00
G01 X129.1329 Y43.5735 F350.00
G01 X129.1694 Y43.5685 F350.00
G01 X129.2059 Y43.5644 F350.00
G01 X129.2426 Y43.5613 F350.00
G01 X129.2794 Y43.5590 F350.00
G01 X129.4264 Y43.5518 F350.00
G01 X129.4632 Y43.5505 F350.00
G01 X129.5000 Y43.5500 F350.00
G01 X129.5368 Y43.5505 F350.00
G01 X129.5736 Y43.5518 F350.00
G01 X129.7206 Y43.5590 F350.00
G01 X129.7574 Y43.5613 F350.00
G01 X129.7941 Y43.5644 F350.00
G01 X129.8306 Y43.5685 F350.00
G01 X129.8671 Y43.5735 F350.00
G01 X130.0127 Y43.5951 F350.00
G01 X130.0491 Y43.6009 F350.00
G01 X130.0853 Y43.6076 F350.00
G01 X130.1213 Y43.6153 F350.00
G01 X130.1571 Y43.6238 F350.00
G01 X130.2999 Y43.6595 F350.00
G01 X130.3355 Y43.6689 F350.00
G01 X130.3709 Y43.6792 F350.00
G01 X130.4059 Y43.6903 F350.00
G01 X130.4408 Y43.7023 F350.00
G01 X130.5794 Y43.7519 F350.00
G01 X130.6139 Y43.7647 F350.00
G01 X130.6481 Y43.7784 F350.00
G01 X130.6819 Y43.7929 F350.00
G01 X130.7154 Y43.8082 F350.00
G01 X130.8484 Y43.8711 F350.00
G01 X130.8815 Y43.8873 F350.00
G01 X130.9142 Y43.9042 F350.00
G01 X130.9464 Y43.9220 F350.00
G01 X130.9997 Y43.9534 F350.00
G00 Z0.5000
G00 X128.6210 Y49.6003
G01 F250.00
G01 Z-0.0500
G01 F350.00
G01 X115.9849 Y49.6003 F350.00
G00 Z0.5000
G00 X115.9280 Y50.5497
G01 F250.00
G01 Z-0.0500
G01 F350.00
G01 X127.6715 Y50.5497 F350.00
G01 X128.7646 Y49.4566 F350.00
G01 X128.7001 Y49.4405 F350.00
G01 X128.6645 Y49.4311 F350.00
G01 X128.6291 Y49.4208 F350.00
G01 X128.5941 Y49.4097 F350.00
G01 X128.5592 Y49.3977 F350.00
G01 X128.4206 Y49.3481 F350.00
G01 X128.3861 Y49.3353 F350.00
G01 X128.3519 Y49.3216 F350.00
G01 X128.3181 Y49.3071 F350.00
G01 X128.2846 Y49.2918 F350.00
G01 X128.1516 Y49.2289 F350.00
G01 X128.1185 Y49.2127 F350.00
G01 X128.0858 Y49.1958 F350.00
G01 X128.0536 Y49.1780 F350.00
G01 X128.0218 Y49.1595 F350.00
G01 X127.8955 Y49.0838 F350.00
G01 X127.8641 Y49.0645 F350.00
G01 X127.8333 Y49.0444 F350.00
G01 X127.8029 Y49.0236 F350.00
G01 X127.7731 Y49.0020 F350.00
G01 X127.6549 Y48.9143 F350.00
G01 X127.6256 Y48.8920 F350.00
G01 X127.5968 Y48.8690 F350.00
G01 X127.5687 Y48.8453 F350.00
G01 X127.5184 Y48.8004 F350.00
G01 X119.1066 Y48.8004 F350.00
G01 X119.0563 Y48.8453 F350.00
G01 X119.0282 Y48.8690 F350.00
G01 X118.9994 Y48.8920 F350.00
G01 X118.9701 Y48.9143 F350.00
G01 X118.8519 Y49.0020 F350.00
G01 X118.8221 Y49.0236 F350.00
G01 X118.7917 Y49.0444 F350.00
G01 X118.7609 Y49.0645 F350.00
G01 X118.7295 Y49.0838 F350.00
G01 X118.6032 Y49.1595 F350.00
G01 X118.5714 Y49.1780 F350.00
G01 X118.5392 Y49.1958 F350.00
G01 X118.5065 Y49.2127 F350.00
G01 X118.4734 Y49.2289 F350.00
G01 X118.3404 Y49.2918 F350.00
G01 X118.3069 Y49.3071 F350.00
G01 X118.2731 Y49.3216 F350.00
G01 X118.2389 Y49.3353 F350.00
G01 X118.2044 Y49.3481 F350.00
G01 X118.0630 Y49.3987 F350.00
G01 X118.0288 Y49.4104 F350.00
G01 X117.9944 Y49.4212 F350.00
G01 X117.9598 Y49.4313 F350.00
G01 X117.9249 Y49.4405 F350.00
G01 X117.7821 Y49.4762 F350.00
G01 X117.7463 Y49.4847 F350.00
G01 X117.7103 Y49.4924 F350.00
G01 X117.6741 Y49.4991 F350.00
G01 X117.6377 Y49.5049 F350.00
G01 X117.4921 Y49.5265 F350.00
G01 X117.4556 Y49.5315 F350.00
G01 X117.4191 Y49.5356 F350.00
G01 X117.3824 Y49.5387 F350.00
G01 X117.3456 Y49.5410 F350.00
G01 X117.1986 Y49.5482 F350.00
G01 X117.1618 Y49.5495 F350.00
G01 X117.1250 Y49.5500 F350.00
G01 X117.0882 Y49.5495 F350.00
G01 X117.0514 Y49.5482 F350.00
G01 X116.9044 Y49.5410 F350.00
G01 X116.8676 Y49.5387 F350.00
G01 X116.8309 Y49.5356 F350.00
G01 X116.7944 Y49.5315 F350.00
G01 X116.7579 Y49.5265 F350.00
G01 X116.6123 Y49.5049 F350.00
G01 X116.5759 Y49.4991 F350.00
G01 X116.5397 Y49.4924 F350.00
G01 X116.5037 Y49.4847 F350.00
G01 X116.4679 Y49.4762 F350.00
G01 X116.3251 Y49.4405 F350.00
G01 X116.2895 Y49.4311 F350.00
G01 X116.2541 Y49.4208 F350.00
G01 X116.2191 Y49.4097 F350.00
G01 X116.1842 Y49.3977 F350.00
G01 X116.0456 Y49.3481 F350.00
G01 X116.0111 Y49.3353 F350.00
G01 X115.9769 Y49.3216 F350.00
G01 X115.9405 Y49.3059 F350.00
G01 X115.9491 Y49.3509 F350.00
G01 X115.9549 Y49.3873 F350.00
G01 X115.9765 Y49.5329 F350.00
G01 X115.9815 Y49.5694 F350.00
G01 X115.9856 Y49.6059 F350.00
G01 X115.9887 Y49.6426 F350.00
G01 X115.9910 Y49.6794 F350.00
G01 X115.9982 Y49.8264 F350.00
G01 X115.9995 Y49.8632 F350.00
G01 X116.0000 Y49.9000 F350.00
G01 X115.9995 Y49.9368 F350.00
G01 X115.9982 Y49.9736 F350.00
G01 X115.9910 Y50.1206 F350.00
G01 X115.9887 Y50.1574 F350.00
G01 X115.9856 Y50.1941 F350.00
G01 X115.9815 Y50.2306 F350.00
G01 X115.9765 Y50.2671 F350.00
G01 X115.9549 Y50.4127 F350.00
G01 X115.9491 Y50.4491 F350.00
G01 X115.9424 Y50.4853 F350.00
G01 X115.9347 Y50.5213 F350.00
G01 X115.9280 Y50.5497 F350.00
G00 Z0.5000
G00 X110.0151 Y49.6003
G01 F250.00
G01 Z-0.0500
G01 F350.00
G01 X83.8190 Y49.6003 F350.00
G00 Z0.5000
G00 X82.3315 Y47.6503
G01 F250.00
G01 Z-0.0500
G01 F350.00
G01 X81.8690 Y47.6503 F350.00
G00 Z0.5000
G00 X81.8346 Y45.7003
G01 F250.00
G01 Z-0.0500
G01 F350.00
G01 X79.9190 Y45.7003 F350.00
G01 X79.5003 Y43.7503 F350.00
G01 X81.8072 Y43.7503 F350.00
G00 Z0.5000
G00 X81.9220 Y41.8003
G01 F250.00
G01 Z-0.0500
G01 F350.00
G01 X79.5003 Y41.8003 F350.00
G01 X79.5003 Y39.8503 F350.00
G01 X82.0959 Y39.8503 F350.00
G00 Z0.5000
G00 X81.8717 Y37.9003
G01 F250.00
G01 Z-0.0500
G01 F350.00
G01 X79.5003 Y37.9003 F350.00
G00 Z0.5000
G00 X75.4997 Y37.9003
G01 F250.00
G01 Z-0.0500
G01 F350.00
G01 X74.3565 Y37.9003 F350.00
G01 X74.2250 Y39.8503 F350.00
G01 X75.4997 Y39.8503 F350.00
G01 X75.4997 Y41.8003 F350.00
G01 X73.7890 Y41.8003 F350.00
G00 Z0.5000
G00 X73.6735 Y43.7503
G01 F250.00
G01 Z-0.0500
G01 F350.00
G01 X75.4997 Y43.7503 F350.00
G01 X75.4997 Y45.7003 F350.00
G01 X29.7290 Y45.7003 F350.00
G01 X28.5003 Y43.7503 F350.00
G01 X37.1215 Y43.7503 F350.00
G00 Z0.5000
G00 X36.4287 Y42.8759
G01 F250.00
G01 Z-0.0500
G01 F350.00
G01 X36.4100 Y42.8780 F350.00
G01 X36.3734 Y42.8811 F350.00
G01 X36.3366 Y42.8834 F350.00
G01 X36.2386 Y42.8882 F350.00
G01 X36.2018 Y42.8895 F350.00
G01 X36.1650 Y42.8900 F350.00
G01 X36.1282 Y42.8895 F350.00
G01 X36.0914 Y42.8882 F350.00
G01 X35.9934 Y42.8834 F350.00
G01 X35.9566 Y42.8811 F350.00
G01 X35.9200 Y42.8780 F350.00
G01 X35.8834 Y42.8739 F350.00
G01 X35.8469 Y42.8689 F350.00
G01 X35.7498 Y42.8545 F350.00
G01 X35.7135 Y42.8487 F350.00
G01 X35.6773 Y42.8420 F350.00
G01 X35.6413 Y42.8343 F350.00
G01 X35.6054 Y42.8258 F350.00
G01 X35.5102 Y42.8020 F350.00
G01 X35.4746 Y42.7926 F350.00
G01 X35.4393 Y42.7824 F350.00
G01 X35.4042 Y42.7712 F350.00
G01 X35.3694 Y42.7593 F350.00
G01 X35.2770 Y42.7262 F350.00
G01 X35.2425 Y42.7134 F350.00
G01 X35.2083 Y42.6997 F350.00
G01 X35.1745 Y42.6852 F350.00
G01 X35.1410 Y42.6699 F350.00
G01 X35.0523 Y42.6279 F350.00
G01 X35.0192 Y42.6118 F350.00
G01 X34.9865 Y42.5948 F350.00
G01 X34.9543 Y42.5771 F350.00
G01 X34.8950 Y42.5421 F350.00
G01 X34.8357 Y42.5771 F350.00
G01 X34.8035 Y42.5948 F350.00
G01 X34.7708 Y42.6118 F350.00
G01 X34.7377 Y42.6279 F350.00
G01 X34.6490 Y42.6699 F350.00
G01 X34.6155 Y42.6852 F350.00
G01 X34.5817 Y42.6997 F350.00
G01 X34.5475 Y42.7134 F350.00
G01 X34.5130 Y42.7262 F350.00
G01 X34.4206 Y42.7593 F350.00
G01 X34.3837 Y42.7719 F350.00
G01 X34.3493 Y42.7828 F350.00
G01 X34.3146 Y42.7928 F350.00
G01 X34.2798 Y42.8020 F350.00
G01 X34.1846 Y42.8258 F350.00
G01 X34.1487 Y42.8343 F350.00
G01 X34.1127 Y42.8420 F350.00
G01 X34.0765 Y42.8487 F350.00
G01 X34.0402 Y42.8545 F350.00
G01 X33.9431 Y42.8689 F350.00
G01 X33.9066 Y42.8739 F350.00
G01 X33.8700 Y42.8780 F350.00
G01 X33.8334 Y42.8811 F350.00
G01 X33.7966 Y42.8834 F350.00
G01 X33.6986 Y42.8882 F350.00
G01 X33.6618 Y42.8895 F350.00
G01 X33.6250 Y42.8900 F350.00
G01 X33.5882 Y42.8895 F350.00
G01 X33.5514 Y42.8882 F350.00
G01 X33.4534 Y42.8834 F350.00
G01 X33.4166 Y42.8811 F350.00
G01 X33.3800 Y42.8780 F350.00
G01 X33.3434 Y42.8739 F350.00
G01 X33.3069 Y42.8689 F350.00
G01 X33.2098 Y42.8545 F350.00
G01 X33.1735 Y42.8487 F350.00
G01 X33.1373 Y42.8420 F350.00
G01 X33.1013 Y42.8343 F350.00
G01 X33.0654 Y42.8258 F350.00
G01 X32.9702 Y42.8020 F350.00
G01 X32.9346 Y42.7926 F350.00
G01 X32.8993 Y42.7824 F350.00
G01 X32.8642 Y42.7712 F350.00
G01 X32.8294 Y42.7593 F350.00
G01 X32.7370 Y42.7262 F350.00
G01 X32.7025 Y42.7134 F350.00
G01 X32.6683 Y42.6997 F350.00
G01 X32.6345 Y42.6852 F350.00
G01 X32.6010 Y42.6699 F350.00
G01 X32.5123 Y42.6279 F350.00
G01 X32.4792 Y42.6118 F350.00
G01 X32.4465 Y42.5948 F350.00
G01 X32.4143 Y42.5771 F350.00
G01 X32.3824 Y42.5585 F350.00
G01 X32.2983 Y42.5081 F350.00
G01 X32.2669 Y42.4887 F350.00
G01 X32.2361 Y42.4687 F350.00
G01 X32.2057 Y42.4478 F350.00
G01 X32.1759 Y42.4263 F350.00
G01 X32.0971 Y42.3678 F350.00
G01 X32.0678 Y42.3455 F350.00
G01 X32.0390 Y42.3225 F350.00
G01 X32.0108 Y42.2988 F350.00
G01 X31.9833 Y42.2744 F350.00
G01 X31.9106 Y42.2085 F350.00
G01 X31.8836 Y42.1835 F350.00
G01 X31.8572 Y42.1578 F350.00
G01 X31.8315 Y42.1314 F350.00
G01 X31.8065 Y42.1044 F350.00
G01 X31.7406 Y42.0317 F350.00
G01 X31.7162 Y42.0042 F350.00
G01 X31.6925 Y41.9760 F350.00
G01 X31.6695 Y41.9472 F350.00
G01 X31.6472 Y41.9179 F350.00
G01 X31.5887 Y41.8391 F350.00
G01 X31.5672 Y41.8093 F350.00
G01 X31.5463 Y41.7789 F350.00
G01 X31.5263 Y41.7481 F350.00
G01 X31.5069 Y41.7167 F350.00
G01 X31.4565 Y41.6326 F350.00
G01 X31.4379 Y41.6007 F350.00
G01 X31.4202 Y41.5685 F350.00
G01 X31.4032 Y41.5358 F350.00
G01 X31.3871 Y41.5027 F350.00
G01 X31.3451 Y41.4140 F350.00
G01 X31.3298 Y41.3805 F350.00
G01 X31.3153 Y41.3467 F350.00
G01 X31.3016 Y41.3125 F350.00
G01 X31.2888 Y41.2780 F350.00
G01 X31.2548 Y41.1828 F350.00
G01 X31.2431 Y41.1487 F350.00
G01 X31.2322 Y41.1143 F350.00
G01 X31.2222 Y41.0796 F350.00
G01 X31.2130 Y41.0448 F350.00
G01 X31.1892 Y40.9496 F350.00
G01 X31.1807 Y40.9137 F350.00
G01 X31.1730 Y40.8777 F350.00
G01 X31.1663 Y40.8415 F350.00
G01 X31.1605 Y40.8052 F350.00
G01 X31.1461 Y40.7081 F350.00
G01 X31.1411 Y40.6716 F350.00
G01 X31.1370 Y40.6350 F350.00
G01 X31.1339 Y40.5984 F350.00
G01 X31.1316 Y40.5616 F350.00
G01 X31.1268 Y40.4636 F350.00
G01 X31.1255 Y40.4268 F350.00
G01 X31.1250 Y40.3900 F350.00
G01 X31.1250 Y39.3900 F350.00
G01 X31.1255 Y39.3532 F350.00
G01 X31.1268 Y39.3164 F350.00
G01 X31.1316 Y39.2184 F350.00
G01 X31.1339 Y39.1816 F350.00
G01 X31.1370 Y39.1450 F350.00
G01 X31.1411 Y39.1084 F350.00
G01 X31.1461 Y39.0719 F350.00
G01 X31.1605 Y38.9748 F350.00
G01 X31.1663 Y38.9385 F350.00
G01 X31.1730 Y38.9023 F350.00
G01 X31.1807 Y38.8663 F350.00
G01 X31.1892 Y38.8304 F350.00
G01 X31.2130 Y38.7352 F350.00
G01 X31.2224 Y38.6996 F350.00
G01 X31.2326 Y38.6643 F350.00
G01 X31.2438 Y38.6292 F350.00
G01 X31.2557 Y38.5944 F350.00
G01 X31.2894 Y38.5003 F350.00
G01 X28.0202 Y38.5003 F350.00
G01 X28.0462 Y38.5311 F350.00
G01 X28.0692 Y38.5598 F350.00
G01 X28.0915 Y38.5891 F350.00
G01 X28.1208 Y38.6285 F350.00
G01 X28.1423 Y38.6584 F350.00
G01 X28.1631 Y38.6887 F350.00
G01 X28.1832 Y38.7196 F350.00
G01 X28.2025 Y38.7509 F350.00
G01 X28.2278 Y38.7930 F350.00
G01 X28.2463 Y38.8248 F350.00
G01 X28.2641 Y38.8571 F350.00
G01 X28.2810 Y38.8898 F350.00
G01 X28.2972 Y38.9229 F350.00
G01 X28.3182 Y38.9672 F350.00
G01 X28.3335 Y39.0007 F350.00
G01 X28.3480 Y39.0345 F350.00
G01 X28.3617 Y39.0687 F350.00
G01 X28.3745 Y39.1032 F350.00
G01 X28.4021 Y39.1816 F350.00
G01 X28.4136 Y39.2176 F350.00
G01 X28.4241 Y39.2538 F350.00
G01 X28.4338 Y39.2903 F350.00
G01 X28.4457 Y39.3379 F350.00
G01 X28.4542 Y39.3738 F350.00
G01 X28.4618 Y39.4098 F350.00
G01 X28.4686 Y39.4460 F350.00
G01 X28.4744 Y39.4823 F350.00
G01 X28.4816 Y39.5309 F350.00
G01 X28.4866 Y39.5674 F350.00
G01 X28.4906 Y39.6039 F350.00
G01 X28.4938 Y39.6406 F350.00
G01 X28.4960 Y39.6774 F350.00
G01 X28.4984 Y39.7264 F350.00
G01 X28.4998 Y39.7632 F350.00
G01 X28.5003 Y39.8000 F350.00
G01 X28.5003 Y44.4715 F350.00
G01 X41.9944 Y57.9656 F350.00
G01 X42.0172 Y57.9422 F350.00
G01 X42.0436 Y57.9165 F350.00
G01 X42.0706 Y57.8915 F350.00
G01 X42.1433 Y57.8256 F350.00
G01 X42.1708 Y57.8012 F350.00
G01 X42.1990 Y57.7775 F350.00
G01 X42.2278 Y57.7545 F350.00
G01 X42.2571 Y57.7322 F350.00
G01 X42.3359 Y57.6737 F350.00
G01 X42.3657 Y57.6522 F350.00
G01 X42.3961 Y57.6313 F350.00
G01 X42.4269 Y57.6113 F350.00
G01 X42.4583 Y57.5919 F350.00
G01 X42.5424 Y57.5415 F350.00
G01 X42.5743 Y57.5229 F350.00
G01 X42.6065 Y57.5052 F350.00
G01 X42.6392 Y57.4882 F350.00
G01 X42.6723 Y57.4721 F350.00
G01 X42.7610 Y57.4301 F350.00
G01 X42.7945 Y57.4148 F350.00
G01 X42.8283 Y57.4003 F350.00
G01 X42.8625 Y57.3866 F350.00
G01 X42.8970 Y57.3738 F350.00
G01 X42.9922 Y57.3398 F350.00
G01 X43.0263 Y57.3281 F350.00
G01 X43.0607 Y57.3172 F350.00
G01 X43.0954 Y57.3072 F350.00
G01 X43.1302 Y57.2980 F350.00
G01 X43.2254 Y57.2742 F350.00
G01 X43.2613 Y57.2657 F350.00
G01 X43.2973 Y57.2580 F350.00
G01 X43.3335 Y57.2513 F350.00
G01 X43.3698 Y57.2455 F350.00
G01 X43.4669 Y57.2311 F350.00
G01 X43.5034 Y57.2261 F350.00
G01 X43.5400 Y57.2220 F350.00
G01 X43.5766 Y57.2189 F350.00
G01 X43.6134 Y57.2166 F350.00
G01 X43.7114 Y57.2118 F350.00
G01 X43.7482 Y57.2105 F350.00
G01 X43.7850 Y57.2100 F350.00
G01 X43.8218 Y57.2105 F350.00
G01 X43.8586 Y57.2118 F350.00
G01 X43.9566 Y57.2166 F350.00
G01 X43.9934 Y57.2189 F350.00
G01 X44.0300 Y57.2220 F350.00
G01 X44.0666 Y57.2261 F350.00
G01 X44.1031 Y57.2311 F350.00
G01 X44.2002 Y57.2455 F350.00
G01 X44.2365 Y57.2513 F350.00
G01 X44.2727 Y57.2580 F350.00
G01 X44.3087 Y57.2657 F350.00
G01 X44.3446 Y57.2742 F350.00
G01 X44.4398 Y57.2980 F350.00
G01 X44.4754 Y57.3074 F350.00
G01 X44.5107 Y57.3176 F350.00
G01 X44.5458 Y57.3288 F350.00
G01 X44.5806 Y57.3407 F350.00
G01 X44.6730 Y57.3738 F350.00
G01 X44.7075 Y57.3866 F350.00
G01 X44.7417 Y57.4003 F350.00
G01 X44.7755 Y57.4148 F350.00
G01 X44.8446 Y57.4469 F350.00
G01 X44.9057 Y57.4022 F350.00
G01 X44.9361 Y57.3813 F350.00
G01 X44.9669 Y57.3613 F350.00
G01 X44.9983 Y57.3419 F350.00
G01 X45.0824 Y57.2915 F350.00
G01 X45.1143 Y57.2729 F350.00
G01 X45.1465 Y57.2552 F350.00
G01 X45.1792 Y57.2382 F350.00
G01 X45.2123 Y57.2221 F350.00
G01 X45.3010 Y57.1801 F350.00
G01 X45.3345 Y57.1648 F350.00
G01 X45.3683 Y57.1503 F350.00
G01 X45.4025 Y57.1366 F350.00
G01 X45.4370 Y57.1238 F350.00
G01 X45.5294 Y57.0907 F350.00
G01 X45.5663 Y57.0781 F350.00
G01 X45.6007 Y57.0672 F350.00
G01 X45.6354 Y57.0572 F350.00
G01 X45.6702 Y57.0480 F350.00
G01 X45.7654 Y57.0242 F350.00
G01 X45.8013 Y57.0157 F350.00
G01 X45.8373 Y57.0080 F350.00
G01 X45.8735 Y57.0013 F350.00
G01 X45.9098 Y56.9955 F350.00
G01 X46.0069 Y56.9811 F350.00
G01 X46.0434 Y56.9761 F350.00
G01 X46.0800 Y56.9720 F350.00
G01 X46.1166 Y56.9689 F350.00
G01 X46.1534 Y56.9666 F350.00
G01 X46.2514 Y56.9618 F350.00
G01 X46.2882 Y56.9605 F350.00
G01 X46.3250 Y56.9600 F350.00
G01 X46.3618 Y56.9605 F350.00
G01 X46.3986 Y56.9618 F350.00
G01 X46.4966 Y56.9666 F350.00
G01 X46.5334 Y56.9689 F350.00
G01 X46.5700 Y56.9720 F350.00
G01 X46.6066 Y56.9761 F350.00
G01 X46.6431 Y56.9811 F350.00
G01 X46.7402 Y56.9955 F350.00
G01 X46.7765 Y57.0013 F350.00
G01 X46.8127 Y57.0080 F350.00
G01 X46.8487 Y57.0157 F350.00
G01 X46.8846 Y57.0242 F350.00
G01 X46.9798 Y57.0480 F350.00
G01 X47.0154 Y57.0574 F350.00
G01 X47.0507 Y57.0676 F350.00
G01 X47.0858 Y57.0788 F350.00
G01 X47.1206 Y57.0907 F350.00
G01 X47.2130 Y57.1238 F350.00
G01 X47.2475 Y57.1366 F350.00
G01 X47.2817 Y57.1503 F350.00
G01 X47.3155 Y57.1648 F350.00
G01 X47.3846 Y57.1969 F350.00
G01 X47.4457 Y57.1522 F350.00
G01 X47.4761 Y57.1313 F350.00
G01 X47.5069 Y57.1113 F350.00
G01 X47.5383 Y57.0919 F350.00
G01 X47.6224 Y57.0415 F350.00
G01 X47.6543 Y57.0229 F350.00
G01 X47.6865 Y57.0052 F350.00
G01 X47.7192 Y56.9882 F350.00
G01 X47.7523 Y56.9721 F350.00
G01 X47.8410 Y56.9301 F350.00
G01 X47.8745 Y56.9148 F350.00
G01 X47.9083 Y56.9003 F350.00
G01 X47.9425 Y56.8866 F350.00
G01 X47.9770 Y56.8738 F350.00
G01 X48.0722 Y56.8398 F350.00
G01 X48.1063 Y56.8281 F350.00
G01 X48.1407 Y56.8172 F350.00
G01 X48.1754 Y56.8072 F350.00
G01 X48.2102 Y56.7980 F350.00
G01 X48.3054 Y56.7742 F350.00
G01 X48.3413 Y56.7657 F350.00
G01 X48.3773 Y56.7580 F350.00
G01 X48.4135 Y56.7513 F350.00
G01 X48.4498 Y56.7455 F350.00
G01 X48.5469 Y56.7311 F350.00
G01 X48.5834 Y56.7261 F350.00
G01 X48.6200 Y56.7220 F350.00
G01 X48.6566 Y56.7189 F350.00
G01 X48.6934 Y56.7166 F350.00
G01 X48.7914 Y56.7118 F350.00
G01 X48.8282 Y56.7105 F350.00
G01 X48.8650 Y56.7100 F350.00
G01 X48.9018 Y56.7105 F350.00
G01 X48.9386 Y56.7118 F350.00
G01 X49.0366 Y56.7166 F350.00
G01 X49.0734 Y56.7189 F350.00
G01 X49.1100 Y56.7220 F350.00
G01 X49.1466 Y56.7261 F350.00
G01 X49.1831 Y56.7311 F350.00
G01 X49.2802 Y56.7455 F350.00
G01 X49.3165 Y56.7513 F350.00
G01 X49.3527 Y56.7580 F350.00
G01 X49.3887 Y56.7657 F350.00
G01 X49.4246 Y56.7742 F350.00
G01 X49.5198 Y56.7980 F350.00
G01 X49.5554 Y56.8074 F350.00
G01 X49.5899 Y56.8174 F350.00
G01 X49.5899 Y55.6850 F350.00
G01 X49.5722 Y55.6678 F350.00
G01 X49.5465 Y55.6414 F350.00
G01 X49.5215 Y55.6144 F350.00
G01 X49.4556 Y55.5417 F350.00
G01 X49.4312 Y55.5142 F350.00
G01 X49.4075 Y55.4860 F350.00
G01 X49.3845 Y55.4572 F350.00
G01 X49.3622 Y55.4279 F350.00
G01 X49.3037 Y55.3491 F350.00
G01 X49.2822 Y55.3193 F350.00
G01 X49.2613 Y55.2889 F350.00
G01 X49.2413 Y55.2581 F350.00
G01 X49.2219 Y55.2267 F350.00
G01 X49.1715 Y55.1426 F350.00
G01 X49.1529 Y55.1107 F350.00
G01 X49.1352 Y55.0785 F350.00
G01 X49.1182 Y55.0458 F350.00
G01 X49.1021 Y55.0127 F350.00
G01 X49.0601 Y54.9240 F350.00
G01 X49.0448 Y54.8905 F350.00
G01 X49.0303 Y54.8567 F350.00
G01 X49.0166 Y54.8225 F350.00
G01 X49.0038 Y54.7880 F350.00
G01 X48.9698 Y54.6928 F350.00
G01 X48.9581 Y54.6587 F350.00
G01 X48.9472 Y54.6243 F350.00
G01 X48.9372 Y54.5896 F350.00
G01 X48.9280 Y54.5548 F350.00
G01 X48.9042 Y54.4596 F350.00
G01 X48.8957 Y54.4237 F350.00
G01 X48.8880 Y54.3877 F350.00
G01 X48.8813 Y54.3515 F350.00
G01 X48.8755 Y54.3152 F350.00
G01 X48.8611 Y54.2181 F350.00
G01 X48.8561 Y54.1816 F350.00
G01 X48.8520 Y54.1450 F350.00
G01 X48.8489 Y54.1084 F350.00
G01 X48.8466 Y54.0716 F350.00
G01 X48.8418 Y53.9736 F350.00
G01 X48.8405 Y53.9368 F350.00
G01 X48.8400 Y53.9000 F350.00
G01 X48.8405 Y53.8632 F350.00
G01 X48.8418 Y53.8264 F350.00
G01 X48.8466 Y53.7284 F350.00
G01 X48.8489 Y53.6916 F350.00
G01 X48.8520 Y53.6550 F350.00
G01 X48.8561 Y53.6184 F350.00
G01 X48.8611 Y53.5819 F350.00
G01 X48.8755 Y53.4848 F350.00
G01 X48.8813 Y53.4485 F350.00
G01 X48.8880 Y53.4123 F350.00
G01 X48.8957 Y53.3763 F350.00
G01 X48.9042 Y53.3404 F350.00
G01 X48.9280 Y53.2452 F350.00
G01 X48.9374 Y53.2096 F350.00
G01 X48.9476 Y53.1743 F350.00
G01 X48.9588 Y53.1392 F350.00
G01 X48.9707 Y53.1044 F350.00
G01 X49.0038 Y53.0120 F350.00
G01 X49.0166 Y52.9775 F350.00
G01 X49.0303 Y52.9433 F350.00
G01 X49.0448 Y52.9095 F350.00
G01 X49.0601 Y52.8760 F350.00
G01 X49.1021 Y52.7873 F350.00
G01 X49.1182 Y52.7542 F350.00
G01 X49.1352 Y52.7215 F350.00
G01 X49.1529 Y52.6893 F350.00
G01 X49.1715 Y52.6574 F350.00
G01 X49.2219 Y52.5733 F350.00
G01 X49.2413 Y52.5419 F350.00
G01 X49.2613 Y52.5111 F350.00
G01 X49.2822 Y52.4807 F350.00
G01 X49.3037 Y52.4509 F350.00
G01 X49.3622 Y52.3721 F350.00
G01 X49.3845 Y52.3428 F350.00
G01 X49.4075 Y52.3140 F350.00
G01 X49.4312 Y52.2858 F350.00
G01 X49.4556 Y52.2583 F350.00
G01 X49.5215 Y52.1856 F350.00
G01 X49.5465 Y52.1586 F350.00
G01 X49.5722 Y52.1322 F350.00
G01 X49.5986 Y52.1065 F350.00
G01 X49.6256 Y52.0815 F350.00
G01 X49.6983 Y52.0156 F350.00
G01 X49.7258 Y51.9912 F350.00
G01 X49.7540 Y51.9675 F350.00
G01 X49.7828 Y51.9445 F350.00
G01 X49.8121 Y51.9222 F350.00
G01 X49.8909 Y51.8637 F350.00
G01 X49.9207 Y51.8422 F350.00
G01 X49.9511 Y51.8213 F350.00
G01 X49.9819 Y51.8013 F350.00
G01 X50.0133 Y51.7819 F350.00
G01 X50.0974 Y51.7315 F350.00
G01 X50.1293 Y51.7129 F350.00
G01 X50.1615 Y51.6952 F350.00
G01 X50.1942 Y51.6782 F350.00
G01 X50.2273 Y51.6621 F350.00
G01 X50.3160 Y51.6201 F350.00
G01 X50.3495 Y51.6048 F350.00
G01 X50.3833 Y51.5903 F350.00
G01 X50.4175 Y51.5766 F350.00
G01 X50.4520 Y51.5638 F350.00
G01 X50.5444 Y51.5307 F350.00
G01 X50.5766 Y51.5196 F350.00
G01 X50.6125 Y51.5082 F350.00
G01 X50.6488 Y51.4976 F350.00
G01 X50.6852 Y51.4880 F350.00
G01 X50.7804 Y51.4642 F350.00
G01 X50.8163 Y51.4557 F350.00
G01 X50.8523 Y51.4480 F350.00
G01 X50.8885 Y51.4413 F350.00
G01 X50.9248 Y51.4355 F350.00
G01 X51.0219 Y51.4211 F350.00
G01 X51.0584 Y51.4161 F350.00
G01 X51.0950 Y51.4120 F350.00
G01 X51.1316 Y51.4089 F350.00
G01 X51.1684 Y51.4066 F350.00
G01 X51.2664 Y51.4018 F350.00
G01 X51.3032 Y51.4005 F350.00
G01 X51.3400 Y51.4000 F350.00
G01 X51.3768 Y51.4005 F350.00
G01 X51.4136 Y51.4018 F350.00
G01 X51.5116 Y51.4066 F350.00
G01 X51.5484 Y51.4089 F350.00
G01 X51.5850 Y51.4120 F350.00
G01 X51.6216 Y51.4161 F350.00
G01 X51.6581 Y51.4211 F350.00
G01 X51.7552 Y51.4355 F350.00
G01 X51.7915 Y51.4413 F350.00
G01 X51.8277 Y51.4480 F350.00
G01 X51.8637 Y51.4557 F350.00
G01 X51.8996 Y51.4642 F350.00
G01 X51.9948 Y51.4880 F350.00
G01 X52.0304 Y51.4974 F350.00
G01 X52.0657 Y51.5076 F350.00
G01 X52.1008 Y51.5188 F350.00
G01 X52.1356 Y51.5307 F350.00
G01 X52.2280 Y51.5638 F350.00
G01 X52.2625 Y51.5766 F350.00
G01 X52.2967 Y51.5903 F350.00
G01 X52.3305 Y51.6048 F350.00
G01 X52.3640 Y51.6201 F350.00
G01 X52.4527 Y51.6621 F350.00
G01 X52.4858 Y51.6782 F350.00
G01 X52.5185 Y51.6952 F350.00
G01 X52.5507 Y51.7129 F350.00
G01 X52.5826 Y51.7315 F350.00
G01 X52.6667 Y51.7819 F350.00
G01 X52.6981 Y51.8013 F350.00
G01 X52.7289 Y51.8213 F350.00
G01 X52.7593 Y51.8422 F350.00
G01 X52.7891 Y51.8637 F350.00
G01 X52.8679 Y51.9222 F350.00
G01 X52.8972 Y51.9445 F350.00
G01 X52.9260 Y51.9675 F350.00
G01 X52.9542 Y51.9912 F350.00
G01 X52.9817 Y52.0156 F350.00
G01 X53.0544 Y52.0815 F350.00
G01 X53.0814 Y52.1065 F350.00
G01 X53.1078 Y52.1322 F350.00
G01 X53.1335 Y52.1586 F350.00
G01 X53.1585 Y52.1856 F350.00
G01 X53.2244 Y52.2583 F350.00
G01 X53.2488 Y52.2858 F350.00
G01 X53.2725 Y52.3140 F350.00
G01 X53.2955 Y52.3428 F350.00
G01 X53.3178 Y52.3721 F350.00
G01 X53.3763 Y52.4509 F350.00
G01 X53.3978 Y52.4807 F350.00
G01 X53.4187 Y52.5111 F350.00
G01 X53.4387 Y52.5419 F350.00
G01 X53.4581 Y52.5733 F350.00
G01 X53.5085 Y52.6574 F350.00
G01 X53.5271 Y52.6893 F350.00
G01 X53.5448 Y52.7215 F350.00
G01 X53.5618 Y52.7542 F350.00
G01 X53.5779 Y52.7873 F350.00
G01 X53.6199 Y52.8760 F350.00
G01 X53.6352 Y52.9095 F350.00
G01 X53.6497 Y52.9433 F350.00
G01 X53.6634 Y52.9775 F350.00
G01 X53.6762 Y53.0120 F350.00
G01 X53.7093 Y53.1044 F350.00
G01 X53.7204 Y53.1366 F350.00
G01 X53.7318 Y53.1725 F350.00
G01 X53.7424 Y53.2088 F350.00
G01 X53.7520 Y53.2452 F350.00
G01 X53.7758 Y53.3404 F350.00
G01 X53.7843 Y53.3763 F350.00
G01 X53.7920 Y53.4123 F350.00
G01 X53.7987 Y53.4485 F350.00
G01 X53.8045 Y53.4848 F350.00
G01 X53.8189 Y53.5819 F350.00
G01 X53.8239 Y53.6184 F350.00
G01 X53.8280 Y53.6550 F350.00
G01 X53.8311 Y53.6916 F350.00
G01 X53.8334 Y53.7284 F350.00
G01 X53.8382 Y53.8264 F350.00
G01 X53.8395 Y53.8632 F350.00
G01 X53.8400 Y53.9000 F350.00
G01 X53.8395 Y53.9368 F350.00
G01 X53.8382 Y53.9736 F350.00
G01 X53.8334 Y54.0716 F350.00
G01 X53.8311 Y54.1084 F350.00
G01 X53.8280 Y54.1450 F350.00
G01 X53.8239 Y54.1816 F350.00
G01 X53.8189 Y54.2181 F350.00
G01 X53.8045 Y54.3152 F350.00
G01 X53.7987 Y54.3515 F350.00
G01 X53.7920 Y54.3877 F350.00
G01 X53.7843 Y54.4237 F350.00
G01 X53.7758 Y54.4596 F350.00
G01 X53.7520 Y54.5548 F350.00
G01 X53.7426 Y54.5904 F350.00
G01 X53.7324 Y54.6257 F350.00
G01 X53.7212 Y54.6608 F350.00
G01 X53.7093 Y54.6956 F350.00
G01 X53.6762 Y54.7880 F350.00
G01 X53.6634 Y54.8225 F350.00
G01 X53.6497 Y54.8567 F350.00
G01 X53.6352 Y54.8905 F350.00
G01 X53.6199 Y54.9240 F350.00
G01 X53.5779 Y55.0127 F350.00
G01 X53.5618 Y55.0458 F350.00
G01 X53.5448 Y55.0785 F350.00
G01 X53.5271 Y55.1107 F350.00
G01 X53.5085 Y55.1426 F350.00
G01 X53.4581 Y55.2267 F350.00
G01 X53.4387 Y55.2581 F350.00
G01 X53.4187 Y55.2889 F350.00
G01 X53.3978 Y55.3193 F350.00
G01 X53.3763 Y55.3491 F350.00
G01 X53.3178 Y55.4279 F350.00
G01 X53.2955 Y55.4572 F350.00
G01 X53.2725 Y55.4860 F350.00
G01 X53.2488 Y55.5142 F350.00
G01 X53.2244 Y55.5417 F350.00
G01 X53.1585 Y55.6144 F350.00
G01 X53.1335 Y55.6414 F350.00
G01 X53.1078 Y55.6678 F350.00
G01 X53.0901 Y55.6850 F350.00
G01 X53.0901 Y56.8619 F350.00
G01 X53.1522 Y56.8398 F350.00
G01 X53.1863 Y56.8281 F350.00
G01 X53.2207 Y56.8172 F350.00
G01 X53.2554 Y56.8072 F350.00
G01 X53.2902 Y56.7980 F350.00
G01 X53.3854 Y56.7742 F350.00
G01 X53.4213 Y56.7657 F350.00
G01 X53.4573 Y56.7580 F350.00
G01 X53.4935 Y56.7513 F350.00
G01 X53.5298 Y56.7455 F350.00
G01 X53.6269 Y56.7311 F350.00
G01 X53.6634 Y56.7261 F350.00
G01 X53.7000 Y56.7220 F350.00
G01 X53.7366 Y56.7189 F350.00
G01 X53.7734 Y56.7166 F350.00
G01 X53.8714 Y56.7118 F350.00
G01 X53.9082 Y56.7105 F350.00
G01 X53.9450 Y56.7100 F350.00
G01 X53.9818 Y56.7105 F350.00
G01 X54.0186 Y56.7118 F350.00
G01 X54.1166 Y56.7166 F350.00
G01 X54.1534 Y56.7189 F350.00
G01 X54.1900 Y56.7220 F350.00
G01 X54.2266 Y56.7261 F350.00
G01 X54.2631 Y56.7311 F350.00
G01 X54.3602 Y56.7455 F350.00
G01 X54.3965 Y56.7513 F350.00
G01 X54.4327 Y56.7580 F350.00
G01 X54.4687 Y56.7657 F350.00
G01 X54.5046 Y56.7742 F350.00
G01 X54.5998 Y56.7980 F350.00
G01 X54.6354 Y56.8074 F350.00
G01 X54.6707 Y56.8176 F350.00
G01 X54.7058 Y56.8288 F350.00
G01 X54.7406 Y56.8407 F350.00
G01 X54.8330 Y56.8738 F350.00
G01 X54.8675 Y56.8866 F350.00
G01 X54.9017 Y56.9003 F350.00
G01 X54.9355 Y56.9148 F350.00
G01 X54.9690 Y56.9301 F350.00
G01 X55.0577 Y56.9721 F350.00
G01 X55.0908 Y56.9882 F350.00
G01 X55.1235 Y57.0052 F350.00
G01 X55.1557 Y57.0229 F350.00
G01 X55.2150 Y57.0579 F350.00
G01 X55.2743 Y57.0229 F350.00
G01 X55.3065 Y57.0052 F350.00
G01 X55.3392 Y56.9882 F350.00
G01 X55.3723 Y56.9721 F350.00
G01 X55.4610 Y56.9301 F350.00
G01 X55.4945 Y56.9148 F350.00
G01 X55.5283 Y56.9003 F350.00
G01 X55.5625 Y56.8866 F350.00
G01 X55.5970 Y56.8738 F350.00
G01 X55.6922 Y56.8398 F350.00
G01 X55.7263 Y56.8281 F350.00
G01 X55.7607 Y56.8172 F350.00
G01 X55.7954 Y56.8072 F350.00
G01 X55.8302 Y56.7980 F350.00
G01 X55.9254 Y56.7742 F350.00
G01 X55.9613 Y56.7657 F350.00
G01 X55.9973 Y56.7580 F350.00
G01 X56.0335 Y56.7513 F350.00
G01 X56.0698 Y56.7455 F350.00
G01 X56.1669 Y56.7311 F350.00
G01 X56.2034 Y56.7261 F350.00
G01 X56.2400 Y56.7220 F350.00
G01 X56.2766 Y56.7189 F350.00
G01 X56.3134 Y56.7166 F350.00
G01 X56.4114 Y56.7118 F350.00
G01 X56.4482 Y56.7105 F350.00
G01 X56.4850 Y56.7100 F350.00
G01 X56.5218 Y56.7105 F350.00
G01 X56.5586 Y56.7118 F350.00
G01 X56.6566 Y56.7166 F350.00
G01 X56.6934 Y56.7189 F350.00
G01 X56.7300 Y56.7220 F350.00
G01 X56.7666 Y56.7261 F350.00
G01 X56.8031 Y56.7311 F350.00
G01 X56.9002 Y56.7455 F350.00
G01 X56.9365 Y56.7513 F350.00
G01 X56.9727 Y56.7580 F350.00
G01 X57.0087 Y56.7657 F350.00
G01 X57.0446 Y56.7742 F350.00
G01 X57.1398 Y56.7980 F350.00
G01 X57.1754 Y56.8074 F350.00
G01 X57.2107 Y56.8176 F350.00
G01 X57.2458 Y56.8288 F350.00
G01 X57.2806 Y56.8407 F350.00
G01 X57.3730 Y56.8738 F350.00
G01 X57.4075 Y56.8866 F350.00
G01 X57.4417 Y56.9003 F350.00
G01 X57.4755 Y56.9148 F350.00
G01 X57.5090 Y56.9301 F350.00
G01 X57.5977 Y56.9721 F350.00
G01 X57.6308 Y56.9882 F350.00
G01 X57.6635 Y57.0052 F350.00
G01 X57.6957 Y57.0229 F350.00
G01 X57.7550 Y57.0579 F350.00
G01 X57.8143 Y57.0229 F350.00
G01 X57.8465 Y57.0052 F350.00
G01 X57.8792 Y56.9882 F350.00
G01 X57.9123 Y56.9721 F350.00
G01 X58.0010 Y56.9301 F350.00
G01 X58.0345 Y56.9148 F350.00
G01 X58.0683 Y56.9003 F350.00
G01 X58.1025 Y56.8866 F350.00
G01 X58.1370 Y56.8738 F350.00
G01 X58.2294 Y56.8407 F350.00
G01 X58.2663 Y56.8281 F350.00
G01 X58.3007 Y56.8172 F350.00
G01 X58.3354 Y56.8072 F350.00
G01 X58.3702 Y56.7980 F350.00
G01 X58.4654 Y56.7742 F350.00
G01 X58.5013 Y56.7657 F350.00
G01 X58.5373 Y56.7580 F350.00
G01 X58.5735 Y56.7513 F350.00
G01 X58.6098 Y56.7455 F350.00
G01 X58.7069 Y56.7311 F350.00
G01 X58.7434 Y56.7261 F350.00
G01 X58.7800 Y56.7220 F350.00
G01 X58.8166 Y56.7189 F350.00
G01 X58.8534 Y56.7166 F350.00
G01 X58.9514 Y56.7118 F350.00
G01 X58.9882 Y56.7105 F350.00
G01 X59.0250 Y56.7100 F350.00
G01 X59.0618 Y56.7105 F350.00
G01 X59.0986 Y56.7118 F350.00
G01 X59.1966 Y56.7166 F350.00
G01 X59.2334 Y56.7189 F350.00
G01 X59.2700 Y56.7220 F350.00
G01 X59.3066 Y56.7261 F350.00
G01 X59.3431 Y56.7311 F350.00
G01 X59.4402 Y56.7455 F350.00
G01 X59.4765 Y56.7513 F350.00
G01 X59.5127 Y56.7580 F350.00
G01 X59.5284 Y56.7614 F350.00
G01 X59.5872 Y56.6821 F350.00
G01 X59.6095 Y56.6528 F350.00
G01 X59.6325 Y56.6240 F350.00
G01 X59.6562 Y56.5958 F350.00
G01 X59.6806 Y56.5683 F350.00
G01 X59.7465 Y56.4956 F350.00
G01 X59.7715 Y56.4686 F350.00
G01 X59.7972 Y56.4422 F350.00
G01 X59.8236 Y56.4165 F350.00
G01 X59.8506 Y56.3915 F350.00
G01 X59.9233 Y56.3256 F350.00
G01 X59.9508 Y56.3012 F350.00
G01 X59.9790 Y56.2775 F350.00
G01 X60.0078 Y56.2545 F350.00
G01 X60.0371 Y56.2322 F350.00
G01 X60.1159 Y56.1737 F350.00
G01 X60.1457 Y56.1522 F350.00
G01 X60.1761 Y56.1313 F350.00
G01 X60.2069 Y56.1113 F350.00
G01 X60.2675 Y56.0744 F350.00
G01 X60.1733 Y56.0181 F350.00
G01 X60.1419 Y55.9987 F350.00
G01 X60.1111 Y55.9787 F350.00
G01 X60.0807 Y55.9578 F350.00
G01 X60.0509 Y55.9363 F350.00
G01 X59.9721 Y55.8778 F350.00
G01 X59.9428 Y55.8555 F350.00
G01 X59.9140 Y55.8325 F350.00
G01 X59.8858 Y55.8088 F350.00
G01 X59.8583 Y55.7844 F350.00
G01 X59.7856 Y55.7185 F350.00
G01 X59.7586 Y55.6935 F350.00
G01 X59.7322 Y55.6678 F350.00
G01 X59.7065 Y55.6414 F350.00
G01 X59.6815 Y55.6144 F350.00
G01 X59.6156 Y55.5417 F350.00
G01 X59.5912 Y55.5142 F350.00
G01 X59.5675 Y55.4860 F350.00
G01 X59.5445 Y55.4572 F350.00
G01 X59.5222 Y55.4279 F350.00
G01 X59.4637 Y55.3491 F350.00
G01 X59.4422 Y55.3193 F350.00
G01 X59.4213 Y55.2889 F350.00
G01 X59.4013 Y55.2581 F350.00
G01 X59.3819 Y55.2267 F350.00
G01 X59.3315 Y55.1426 F350.00
G01 X59.3129 Y55.1107 F350.00
G01 X59.2952 Y55.0785 F350.00
G01 X59.2782 Y55.0458 F350.00
G01 X59.2621 Y55.0127 F350.00
G01 X59.2201 Y54.9240 F350.00
G01 X59.2048 Y54.8905 F350.00
G01 X59.1903 Y54.8567 F350.00
G01 X59.1766 Y54.8225 F350.00
G01 X59.1638 Y54.7880 F350.00
G01 X59.1298 Y54.6928 F350.00
G01 X59.1181 Y54.6587 F350.00
G01 X59.1072 Y54.6243 F350.00
G01 X59.0972 Y54.5896 F350.00
G01 X59.0880 Y54.5548 F350.00
G01 X59.0642 Y54.4596 F350.00
G01 X59.0557 Y54.4237 F350.00
G01 X59.0480 Y54.3877 F350.00
G01 X59.0413 Y54.3515 F350.00
G01 X59.0355 Y54.3152 F350.00
G01 X59.0211 Y54.2181 F350.00
G01 X59.0161 Y54.1816 F350.00
G01 X59.0120 Y54.1450 F350.00
G01 X59.0089 Y54.1084 F350.00
G01 X59.0066 Y54.0716 F350.00
G01 X59.0018 Y53.9736 F350.00
G01 X59.0005 Y53.9368 F350.00
G01 X59.0000 Y53.9000 F350.00
G01 X59.0005 Y53.8632 F350.00
G01 X59.0018 Y53.8264 F350.00
G01 X59.0066 Y53.7284 F350.00
G01 X59.0089 Y53.6916 F350.00
G01 X59.0120 Y53.6550 F350.00
G01 X59.0161 Y53.6184 F350.00
G01 X59.0211 Y53.5819 F350.00
G01 X59.0355 Y53.4848 F350.00
G01 X59.0413 Y53.4485 F350.00
G01 X59.0480 Y53.4123 F350.00
G01 X59.0557 Y53.3763 F350.00
G01 X59.0642 Y53.3404 F350.00
G01 X59.0880 Y53.2452 F350.00
G01 X59.0974 Y53.2096 F350.00
G01 X59.1076 Y53.1743 F350.00
G01 X59.1188 Y53.1392 F350.00
G01 X59.1307 Y53.1044 F350.00
G01 X59.1638 Y53.0120 F350.00
G01 X59.1766 Y52.9775 F350.00
G01 X59.1903 Y52.9433 F350.00
G01 X59.2048 Y52.9095 F350.00
G01 X59.2201 Y52.8760 F350.00
G01 X59.2621 Y52.7873 F350.00
G01 X59.2782 Y52.7542 F350.00
G01 X59.2952 Y52.7215 F350.00
G01 X59.3129 Y52.6893 F350.00
G01 X59.3315 Y52.6574 F350.00
G01 X59.3819 Y52.5733 F350.00
G01 X59.4013 Y52.5419 F350.00
G01 X59.4213 Y52.5111 F350.00
G01 X59.4422 Y52.4807 F350.00
G01 X59.4637 Y52.4509 F350.00
G01 X59.5222 Y52.3721 F350.00
G01 X59.5445 Y52.3428 F350.00
G01 X59.5675 Y52.3140 F350.00
G01 X59.5912 Y52.2858 F350.00
G01 X59.6156 Y52.2583 F350.00
G01 X59.6815 Y52.1856 F350.00
G01 X59.7065 Y52.1586 F350.00
G01 X59.7322 Y52.1322 F350.00
G01 X59.7586 Y52.1065 F350.00
G01 X59.7856 Y52.0815 F350.00
G01 X59.8583 Y52.0156 F350.00
G01 X59.8858 Y51.9912 F350.00
G01 X59.9140 Y51.9675 F350.00
G01 X59.9428 Y51.9445 F350.00
G01 X59.9721 Y51.9222 F350.00
G01 X60.0509 Y51.8637 F350.00
G01 X60.0807 Y51.8422 F350.00
G01 X60.1111 Y51.8213 F350.00
G01 X60.1419 Y51.8013 F350.00
G01 X60.1733 Y51.7819 F350.00
G01 X60.2574 Y51.7315 F350.00
G01 X60.2893 Y51.7129 F350.00
G01 X60.3215 Y51.6952 F350.00
G01 X60.3542 Y51.6782 F350.00
G01 X60.3873 Y51.6621 F350.00
G01 X60.4760 Y51.6201 F350.00
G01 X60.5095 Y51.6048 F350.00
G01 X60.5433 Y51.5903 F350.00
G01 X60.5775 Y51.5766 F350.00
G01 X60.6120 Y51.5638 F350.00
G01 X60.7044 Y51.5307 F350.00
G01 X60.7413 Y51.5181 F350.00
G01 X60.7757 Y51.5072 F350.00
G01 X60.8104 Y51.4972 F350.00
G01 X60.8452 Y51.4880 F350.00
G01 X60.9404 Y51.4642 F350.00
G01 X60.9763 Y51.4557 F350.00
G01 X61.0123 Y51.4480 F350.00
G01 X61.0485 Y51.4413 F350.00
G01 X61.0848 Y51.4355 F350.00
G01 X61.1819 Y51.4211 F350.00
G01 X61.2184 Y51.4161 F350.00
G01 X61.2550 Y51.4120 F350.00
G01 X61.2916 Y51.4089 F350.00
G01 X61.3284 Y51.4066 F350.00
G01 X61.4264 Y51.4018 F350.00
G01 X61.4632 Y51.4005 F350.00
G01 X61.5000 Y51.4000 F350.00
G01 X61.5368 Y51.4005 F350.00
G01 X61.5736 Y51.4018 F350.00
G01 X61.6716 Y51.4066 F350.00
G01 X61.7084 Y51.4089 F350.00
G01 X61.7450 Y51.4120 F350.00
G01 X61.7816 Y51.4161 F350.00
G01 X61.8181 Y51.4211 F350.00
G01 X61.9152 Y51.4355 F350.00
G01 X61.9515 Y51.4413 F350.00
G01 X61.9877 Y51.4480 F350.00
G01 X62.0237 Y51.4557 F350.00
G01 X62.0596 Y51.4642 F350.00
G01 X62.1548 Y51.4880 F350.00
G01 X62.1904 Y51.4974 F350.00
G01 X62.2257 Y51.5076 F350.00
G01 X62.2608 Y51.5188 F350.00
G01 X62.2956 Y51.5307 F350.00
G01 X62.3880 Y51.5638 F350.00
G01 X62.4225 Y51.5766 F350.00
G01 X62.4567 Y51.5903 F350.00
G01 X62.4905 Y51.6048 F350.00
G01 X62.5240 Y51.6201 F350.00
G01 X62.6127 Y51.6621 F350.00
G01 X62.6458 Y51.6782 F350.00
G01 X62.6785 Y51.6952 F350.00
G01 X62.7107 Y51.7129 F350.00
G01 X62.7426 Y51.7315 F350.00
G01 X62.8267 Y51.7819 F350.00
G01 X62.8581 Y51.8013 F350.00
G01 X62.8889 Y51.8213 F350.00
G01 X62.9193 Y51.8422 F350.00
G01 X62.9491 Y51.8637 F350.00
G01 X63.0279 Y51.9222 F350.00
G01 X63.0572 Y51.9445 F350.00
G01 X63.0860 Y51.9675 F350.00
G01 X63.1142 Y51.9912 F350.00
G01 X63.1417 Y52.0156 F350.00
G01 X63.2144 Y52.0815 F350.00
G01 X63.2414 Y52.1065 F350.00
G01 X63.2678 Y52.1322 F350.00
G01 X63.2935 Y52.1586 F350.00
G01 X63.3185 Y52.1856 F350.00
G01 X63.3844 Y52.2583 F350.00
G01 X63.4088 Y52.2858 F350.00
G01 X63.4325 Y52.3140 F350.00
G01 X63.4555 Y52.3428 F350.00
G01 X63.4778 Y52.3721 F350.00
G01 X63.5363 Y52.4509 F350.00
G01 X63.5578 Y52.4807 F350.00
G01 X63.5787 Y52.5111 F350.00
G01 X63.5987 Y52.5419 F350.00
G01 X63.6181 Y52.5733 F350.00
G01 X63.6685 Y52.6574 F350.00
G01 X63.6871 Y52.6893 F350.00
G01 X63.7048 Y52.7215 F350.00
G01 X63.7218 Y52.7542 F350.00
G01 X63.7379 Y52.7873 F350.00
G01 X63.7799 Y52.8760 F350.00
G01 X63.7952 Y52.9095 F350.00
G01 X63.8097 Y52.9433 F350.00
G01 X63.8234 Y52.9775 F350.00
G01 X63.8362 Y53.0120 F350.00
G01 X63.8702 Y53.1072 F350.00
G01 X63.8819 Y53.1413 F350.00
G01 X63.8928 Y53.1757 F350.00
G01 X63.9028 Y53.2104 F350.00
G01 X63.9120 Y53.2452 F350.00
G01 X63.9358 Y53.3404 F350.00
G01 X63.9443 Y53.3763 F350.00
G01 X63.9520 Y53.4123 F350.00
G01 X63.9587 Y53.4485 F350.00
G01 X63.9645 Y53.4848 F350.00
G01 X63.9789 Y53.5819 F350.00
G01 X63.9839 Y53.6184 F350.00
G01 X63.9880 Y53.6550 F350.00
G01 X63.9911 Y53.6916 F350.00
G01 X63.9934 Y53.7284 F350.00
G01 X63.9982 Y53.8264 F350.00
G01 X63.9995 Y53.8632 F350.00
G01 X64.0000 Y53.9000 F350.00
G01 X63.9995 Y53.9368 F350.00
G01 X63.9982 Y53.9736 F350.00
G01 X63.9934 Y54.0716 F350.00
G01 X63.9911 Y54.1084 F350.00
G01 X63.9880 Y54.1450 F350.00
G01 X63.9839 Y54.1816 F350.00
G01 X63.9789 Y54.2181 F350.00
G01 X63.9645 Y54.3152 F350.00
G01 X63.9587 Y54.3515 F350.00
G01 X63.9520 Y54.3877 F350.00
G01 X63.9443 Y54.4237 F350.00
G01 X63.9358 Y54.4596 F350.00
G01 X63.9120 Y54.5548 F350.00
G01 X63.9026 Y54.5904 F350.00
G01 X63.8924 Y54.6257 F350.00
G01 X63.8812 Y54.6608 F350.00
G01 X63.8693 Y54.6956 F350.00
G01 X63.8362 Y54.7880 F350.00
G01 X63.8234 Y54.8225 F350.00
G01 X63.8097 Y54.8567 F350.00
G01 X63.7952 Y54.8905 F350.00
G01 X63.7799 Y54.9240 F350.00
G01 X63.7379 Y55.0127 F350.00
G01 X63.7218 Y55.0458 F350.00
G01 X63.7048 Y55.0785 F350.00
G01 X63.6871 Y55.1107 F350.00
G01 X63.6685 Y55.1426 F350.00
G01 X63.6181 Y55.2267 F350.00
G01 X63.5958 Y55.2626 F350.00
G01 X63.6173 Y55.2580 F350.00
G01 X63.6535 Y55.2513 F350.00
G01 X63.6898 Y55.2455 F350.00
G01 X63.7869 Y55.2311 F350.00
G01 X63.8234 Y55.2261 F350.00
G01 X63.8600 Y55.2220 F350.00
G01 X63.8966 Y55.2189 F350.00
G01 X63.9334 Y55.2166 F350.00
G01 X64.0314 Y55.2118 F350.00
G01 X64.0682 Y55.2105 F350.00
G01 X64.1050 Y55.2100 F350.00
G01 X64.1418 Y55.2105 F350.00
G01 X64.1786 Y55.2118 F350.00
G01 X64.2766 Y55.2166 F350.00
G01 X64.3134 Y55.2189 F350.00
G01 X64.3500 Y55.2220 F350.00
G01 X64.3866 Y55.2261 F350.00
G01 X64.4231 Y55.2311 F350.00
G01 X64.5202 Y55.2455 F350.00
G01 X64.5565 Y55.2513 F350.00
G01 X64.5927 Y55.2580 F350.00
G01 X64.6287 Y55.2657 F350.00
G01 X64.6646 Y55.2742 F350.00
G01 X64.7598 Y55.2980 F350.00
G01 X64.7954 Y55.3074 F350.00
G01 X64.8307 Y55.3176 F350.00
G01 X64.8658 Y55.3288 F350.00
G01 X64.9006 Y55.3407 F350.00
G01 X64.9930 Y55.3738 F350.00
G01 X65.0275 Y55.3866 F350.00
G01 X65.0617 Y55.4003 F350.00
G01 X65.0955 Y55.4148 F350.00
G01 X65.1290 Y55.4301 F350.00
G01 X65.2177 Y55.4721 F350.00
G01 X65.2508 Y55.4882 F350.00
G01 X65.2835 Y55.5052 F350.00
G01 X65.3157 Y55.5229 F350.00
G01 X65.3750 Y55.5579 F350.00
G01 X65.4343 Y55.5229 F350.00
G01 X65.4665 Y55.5052 F350.00
G01 X65.4992 Y55.4882 F350.00
G01 X65.5323 Y55.4721 F350.00
G01 X65.6210 Y55.4301 F350.00
G01 X65.6545 Y55.4148 F350.00
G01 X65.6883 Y55.4003 F350.00
G01 X65.7225 Y55.3866 F350.00
G01 X65.7570 Y55.3738 F350.00
G01 X65.8522 Y55.3398 F350.00
G01 X65.8863 Y55.3281 F350.00
G01 X65.9207 Y55.3172 F350.00
G01 X65.9554 Y55.3072 F350.00
G01 X65.9902 Y55.2980 F350.00
G01 X66.0854 Y55.2742 F350.00
G01 X66.1213 Y55.2657 F350.00
G01 X66.1573 Y55.2580 F350.00
G01 X66.1935 Y55.2513 F350.00
G01 X66.2298 Y55.2455 F350.00
G01 X66.3269 Y55.2311 F350.00
G01 X66.3634 Y55.2261 F350.00
G01 X66.4000 Y55.2220 F350.00
G01 X66.4366 Y55.2189 F350.00
G01 X66.4734 Y55.2166 F350.00
G01 X66.5714 Y55.2118 F350.00
G01 X66.6082 Y55.2105 F350.00
G01 X66.6450 Y55.2100 F350.00
G01 X66.6818 Y55.2105 F350.00
G01 X66.7186 Y55.2118 F350.00
G01 X66.8166 Y55.2166 F350.00
G01 X66.8534 Y55.2189 F350.00
G01 X66.8900 Y55.2220 F350.00
G01 X66.9266 Y55.2261 F350.00
G01 X66.9631 Y55.2311 F350.00
G01 X67.0602 Y55.2455 F350.00
G01 X67.0965 Y55.2513 F350.00
G01 X67.1327 Y55.2580 F350.00
G01 X67.1687 Y55.2657 F350.00
G01 X67.2046 Y55.2742 F350.00
G01 X67.2998 Y55.2980 F350.00
G01 X67.3354 Y55.3074 F350.00
G01 X67.3707 Y55.3176 F350.00
G01 X67.4058 Y55.3288 F350.00
G01 X67.4406 Y55.3407 F350.00
G01 X67.5330 Y55.3738 F350.00
G01 X67.5675 Y55.3866 F350.00
G01 X67.6017 Y55.4003 F350.00
G01 X67.6355 Y55.4148 F350.00
G01 X67.6690 Y55.4301 F350.00
G01 X67.7577 Y55.4721 F350.00
G01 X67.7908 Y55.4882 F350.00
G01 X67.8235 Y55.5052 F350.00
G01 X67.8557 Y55.5229 F350.00
G01 X67.9150 Y55.5579 F350.00
G01 X67.9743 Y55.5229 F350.00
G01 X68.0065 Y55.5052 F350.00
G01 X68.0392 Y55.4882 F350.00
G01 X68.0723 Y55.4721 F350.00
G01 X68.1610 Y55.4301 F350.00
G01 X68.1945 Y55.4148 F350.00
G01 X68.2283 Y55.4003 F350.00
G01 X68.2625 Y55.3866 F350.00
G01 X68.2970 Y55.3738 F350.00
G01 X68.3922 Y55.3398 F350.00
G01 X68.4263 Y55.3281 F350.00
G01 X68.4607 Y55.3172 F350.00
G01 X68.4954 Y55.3072 F350.00
G01 X68.5302 Y55.2980 F350.00
G01 X68.6254 Y55.2742 F350.00
G01 X68.6613 Y55.2657 F350.00
G01 X68.6973 Y55.2580 F350.00
G01 X68.7335 Y55.2513 F350.00
G01 X68.7698 Y55.2455 F350.00
G01 X68.8669 Y55.2311 F350.00
G01 X68.9034 Y55.2261 F350.00
G01 X68.9400 Y55.2220 F350.00
G01 X68.9766 Y55.2189 F350.00
G01 X69.0134 Y55.2166 F350.00
G01 X69.1114 Y55.2118 F350.00
G01 X69.1482 Y55.2105 F350.00
G01 X69.1850 Y55.2100 F350.00
G01 X69.2218 Y55.2105 F350.00
G01 X69.2586 Y55.2118 F350.00
G01 X69.3566 Y55.2166 F350.00
G01 X69.3934 Y55.2189 F350.00
G01 X69.4300 Y55.2220 F350.00
G01 X69.4666 Y55.2261 F350.00
G01 X69.5031 Y55.2311 F350.00
G01 X69.6002 Y55.2455 F350.00
G01 X69.6365 Y55.2513 F350.00
G01 X69.6727 Y55.2580 F350.00
G01 X69.7087 Y55.2657 F350.00
G01 X69.7446 Y55.2742 F350.00
G01 X69.8398 Y55.2980 F350.00
G01 X69.8754 Y55.3074 F350.00
G01 X69.9107 Y55.3176 F350.00
G01 X69.9458 Y55.3288 F350.00
G01 X69.9806 Y55.3407 F350.00
G01 X70.0730 Y55.3738 F350.00
G01 X70.1075 Y55.3866 F350.00
G01 X70.1417 Y55.4003 F350.00
G01 X70.1755 Y55.4148 F350.00
G01 X70.2090 Y55.4301 F350.00
G01 X70.2977 Y55.4721 F350.00
G01 X70.3308 Y55.4882 F350.00
G01 X70.3635 Y55.5052 F350.00
G01 X70.3957 Y55.5229 F350.00
G01 X70.4550 Y55.5579 F350.00
G01 X70.5143 Y55.5229 F350.00
G01 X70.5465 Y55.5052 F350.00
G01 X70.5792 Y55.4882 F350.00
G01 X70.6123 Y55.4721 F350.00
G01 X70.7010 Y55.4301 F350.00
G01 X70.7345 Y55.4148 F350.00
G01 X70.7683 Y55.4003 F350.00
G01 X70.8025 Y55.3866 F350.00
G01 X70.8370 Y55.3738 F350.00
G01 X70.9322 Y55.3398 F350.00
G01 X70.9663 Y55.3281 F350.00
G01 X71.0007 Y55.3172 F350.00
G01 X71.0354 Y55.3072 F350.00
G01 X71.0702 Y55.2980 F350.00
G01 X71.1654 Y55.2742 F350.00
G01 X71.2013 Y55.2657 F350.00
G01 X71.2373 Y55.2580 F350.00
G01 X71.2735 Y55.2513 F350.00
G01 X71.3098 Y55.2455 F350.00
G01 X71.4069 Y55.2311 F350.00
G01 X71.4434 Y55.2261 F350.00
G01 X71.4800 Y55.2220 F350.00
G01 X71.5166 Y55.2189 F350.00
G01 X71.5534 Y55.2166 F350.00
G01 X71.6514 Y55.2118 F350.00
G01 X71.6882 Y55.2105 F350.00
G01 X71.7250 Y55.2100 F350.00
G01 X71.7618 Y55.2105 F350.00
G01 X71.7986 Y55.2118 F350.00
G01 X71.8966 Y55.2166 F350.00
G01 X71.9334 Y55.2189 F350.00
G01 X71.9700 Y55.2220 F350.00
G01 X72.0066 Y55.2261 F350.00
G01 X72.0431 Y55.2311 F350.00
G01 X72.1402 Y55.2455 F350.00
G01 X72.1765 Y55.2513 F350.00
G01 X72.2127 Y55.2580 F350.00
G01 X72.2487 Y55.2657 F350.00
G01 X72.2846 Y55.2742 F350.00
G01 X72.3798 Y55.2980 F350.00
G01 X72.4154 Y55.3074 F350.00
G01 X72.4507 Y55.3176 F350.00
G01 X72.4858 Y55.3288 F350.00
G01 X72.5206 Y55.3407 F350.00
G01 X72.6130 Y55.3738 F350.00
G01 X72.6475 Y55.3866 F350.00
G01 X72.6817 Y55.4003 F350.00
G01 X72.7155 Y55.4148 F350.00
G01 X72.7490 Y55.4301 F350.00
G01 X72.8377 Y55.4721 F350.00
G01 X72.8708 Y55.4882 F350.00
G01 X72.9035 Y55.5052 F350.00
G01 X72.9357 Y55.5229 F350.00
G01 X72.9676 Y55.5415 F350.00
G01 X73.0517 Y55.5919 F350.00
G01 X73.0831 Y55.6113 F350.00
G01 X73.1139 Y55.6313 F350.00
G01 X73.1443 Y55.6522 F350.00
G01 X73.1741 Y55.6737 F350.00
G01 X73.2529 Y55.7322 F350.00
G01 X73.2822 Y55.7545 F350.00
G01 X73.3110 Y55.7775 F350.00
G01 X73.3392 Y55.8012 F350.00
G01 X73.3667 Y55.8256 F350.00
G01 X73.4394 Y55.8915 F350.00
G01 X73.4664 Y55.9165 F350.00
G01 X73.4928 Y55.9422 F350.00
G01 X73.5185 Y55.9686 F350.00
G01 X73.5435 Y55.9956 F350.00
G01 X73.6094 Y56.0683 F350.00
G01 X73.6338 Y56.0958 F350.00
G01 X73.6575 Y56.1240 F350.00
G01 X73.6805 Y56.1528 F350.00
G01 X73.7028 Y56.1821 F350.00
G01 X73.7613 Y56.2609 F350.00
G01 X73.7828 Y56.2907 F350.00
G01 X73.8037 Y56.3211 F350.00
G01 X73.8237 Y56.3519 F350.00
G01 X73.8431 Y56.3833 F350.00
G01 X73.8935 Y56.4674 F350.00
G01 X73.9121 Y56.4993 F350.00
G01 X73.9298 Y56.5315 F350.00
G01 X73.9468 Y56.5642 F350.00
G01 X73.9629 Y56.5973 F350.00
G01 X74.0049 Y56.6860 F350.00
G01 X74.0202 Y56.7195 F350.00
G01 X74.0347 Y56.7533 F350.00
G01 X74.0484 Y56.7875 F350.00
G01 X74.0612 Y56.8220 F350.00
G01 X74.0943 Y56.9144 F350.00
G01 X74.1069 Y56.9513 F350.00
G01 X74.1178 Y56.9857 F350.00
G01 X74.1278 Y57.0204 F350.00
G01 X74.1370 Y57.0552 F350.00
G01 X74.1608 Y57.1504 F350.00
G01 X74.1693 Y57.1863 F350.00
G01 X74.1770 Y57.2223 F350.00
G01 X74.1837 Y57.2585 F350.00
G01 X74.1895 Y57.2948 F350.00
G01 X74.2039 Y57.3919 F350.00
G01 X74.2089 Y57.4284 F350.00
G01 X74.2130 Y57.4650 F350.00
G01 X74.2161 Y57.5016 F350.00
G01 X74.2184 Y57.5384 F350.00
G01 X74.2232 Y57.6364 F350.00
G01 X74.2245 Y57.6732 F350.00
G01 X74.2250 Y57.7100 F350.00
G01 X74.2250 Y60.2100 F350.00
G01 X74.2245 Y60.2468 F350.00
G01 X74.2232 Y60.2836 F350.00
G01 X74.2184 Y60.3816 F350.00
G01 X74.2161 Y60.4184 F350.00
G01 X74.2130 Y60.4550 F350.00
G01 X74.2089 Y60.4916 F350.00
G01 X74.2039 Y60.5281 F350.00
G01 X74.1895 Y60.6252 F350.00
G01 X74.1837 Y60.6615 F350.00
G01 X74.1770 Y60.6977 F350.00
G01 X74.1693 Y60.7337 F350.00
G01 X74.1608 Y60.7696 F350.00
G01 X74.1370 Y60.8648 F350.00
G01 X74.1276 Y60.9004 F350.00
G01 X74.1174 Y60.9357 F350.00
G01 X74.1062 Y60.9708 F350.00
G01 X74.0943 Y61.0056 F350.00
G01 X74.0612 Y61.0980 F350.00
G01 X74.0484 Y61.1325 F350.00
G01 X74.0347 Y61.1667 F350.00
G01 X74.0202 Y61.2005 F350.00
G01 X74.0049 Y61.2340 F350.00
G01 X73.9629 Y61.3227 F350.00
G01 X73.9468 Y61.3558 F350.00
G01 X73.9298 Y61.3885 F350.00
G01 X73.9121 Y61.4207 F350.00
G01 X73.8935 Y61.4526 F350.00
G01 X73.8431 Y61.5367 F350.00
G01 X73.8237 Y61.5681 F350.00
G01 X73.8037 Y61.5989 F350.00
G01 X73.7828 Y61.6293 F350.00
G01 X73.7613 Y61.6591 F350.00
G01 X73.7028 Y61.7379 F350.00
G01 X73.6805 Y61.7672 F350.00
G01 X73.6575 Y61.7960 F350.00
G01 X73.6338 Y61.8242 F350.00
G01 X73.6094 Y61.8517 F350.00
G01 X73.5435 Y61.9244 F350.00
G01 X73.5185 Y61.9514 F350.00
G01 X73.4928 Y61.9778 F350.00
G01 X73.4664 Y62.0035 F350.00
G01 X73.4394 Y62.0285 F350.00
G01 X73.3667 Y62.0944 F350.00
G01 X73.3392 Y62.1188 F350.00
G01 X73.3110 Y62.1425 F350.00
G01 X73.2822 Y62.1655 F350.00
G01 X73.2529 Y62.1878 F350.00
G01 X73.1741 Y62.2463 F350.00
G01 X73.1443 Y62.2678 F350.00
G01 X73.1139 Y62.2887 F350.00
G01 X73.0831 Y62.3087 F350.00
G01 X73.0517 Y62.3281 F350.00
G01 X72.9676 Y62.3785 F350.00
G01 X72.9357 Y62.3971 F350.00
G01 X72.9035 Y62.4148 F350.00
G01 X72.8708 Y62.4318 F350.00
G01 X72.8377 Y62.4479 F350.00
G01 X72.7490 Y62.4899 F350.00
G01 X72.7155 Y62.5052 F350.00
G01 X72.6817 Y62.5197 F350.00
G01 X72.6475 Y62.5334 F350.00
G01 X72.6130 Y62.5462 F350.00
G01 X72.5178 Y62.5802 F350.00
G01 X72.4837 Y62.5919 F350.00
G01 X72.4493 Y62.6028 F350.00
G01 X72.4146 Y62.6128 F350.00
G01 X72.3798 Y62.6220 F350.00
G01 X72.2846 Y62.6458 F350.00
G01 X72.2487 Y62.6543 F350.00
G01 X72.2127 Y62.6620 F350.00
G01 X72.1765 Y62.6687 F350.00
G01 X72.1402 Y62.6745 F350.00
G01 X72.0431 Y62.6889 F350.00
G01 X72.0066 Y62.6939 F350.00
G01 X71.9700 Y62.6980 F350.00
G01 X71.9334 Y62.7011 F350.00
G01 X71.8966 Y62.7034 F350.00
G01 X71.7986 Y62.7082 F350.00
G01 X71.7618 Y62.7095 F350.00
G01 X71.7250 Y62.7100 F350.00
G01 X71.6882 Y62.7095 F350.00
G01 X71.6514 Y62.7082 F350.00
G01 X71.5534 Y62.7034 F350.00
G01 X71.5166 Y62.7011 F350.00
G01 X71.4800 Y62.6980 F350.00
G01 X71.4434 Y62.6939 F350.00
G01 X71.4069 Y62.6889 F350.00
G01 X71.3098 Y62.6745 F350.00
G01 X71.2735 Y62.6687 F350.00
G01 X71.2373 Y62.6620 F350.00
G01 X71.2013 Y62.6543 F350.00
G01 X71.1654 Y62.6458 F350.00
G01 X71.0702 Y62.6220 F350.00
G01 X71.0346 Y62.6126 F350.00
G01 X70.9993 Y62.6024 F350.00
G01 X70.9642 Y62.5912 F350.00
G01 X70.9294 Y62.5793 F350.00
G01 X70.8370 Y62.5462 F350.00
G01 X70.8025 Y62.5334 F350.00
G01 X70.7683 Y62.5197 F350.00
G01 X70.7345 Y62.5052 F350.00
G01 X70.7010 Y62.4899 F350.00
G01 X70.6123 Y62.4479 F350.00
G01 X70.5792 Y62.4318 F350.00
G01 X70.5465 Y62.4148 F350.00
G01 X70.5143 Y62.3971 F350.00
G01 X70.4550 Y62.3621 F350.00
G01 X70.3957 Y62.3971 F350.00
G01 X70.3635 Y62.4148 F350.00
G01 X70.3308 Y62.4318 F350.00
G01 X70.2977 Y62.4479 F350.00
G01 X70.2090 Y62.4899 F350.00
G01 X70.1755 Y62.5052 F350.00
G01 X70.1417 Y62.5197 F350.00
G01 X70.1075 Y62.5334 F350.00
G01 X70.0730 Y62.5462 F350.00
G01 X69.9806 Y62.5793 F350.00
G01 X69.9484 Y62.5904 F350.00
G01 X69.9125 Y62.6018 F350.00
G01 X69.8762 Y62.6124 F350.00
G01 X69.8398 Y62.6220 F350.00
G01 X69.7446 Y62.6458 F350.00
G01 X69.7087 Y62.6543 F350.00
G01 X69.6727 Y62.6620 F350.00
G01 X69.6365 Y62.6687 F350.00
G01 X69.6002 Y62.6745 F350.00
G01 X69.5031 Y62.6889 F350.00
G01 X69.4666 Y62.6939 F350.00
G01 X69.4300 Y62.6980 F350.00
G01 X69.3934 Y62.7011 F350.00
G01 X69.3566 Y62.7034 F350.00
G01 X69.2586 Y62.7082 F350.00
G01 X69.2218 Y62.7095 F350.00
G01 X69.1850 Y62.7100 F350.00
G01 X69.1482 Y62.7095 F350.00
G01 X69.1114 Y62.7082 F350.00
G01 X69.0134 Y62.7034 F350.00
G01 X68.9766 Y62.7011 F350.00
G01 X68.9400 Y62.6980 F350.00
G01 X68.9034 Y62.6939 F350.00
G01 X68.8669 Y62.6889 F350.00
G01 X68.7698 Y62.6745 F350.00
G01 X68.7335 Y62.6687 F350.00
G01 X68.6973 Y62.6620 F350.00
G01 X68.6613 Y62.6543 F350.00
G01 X68.6254 Y62.6458 F350.00
G01 X68.5302 Y62.6220 F350.00
G01 X68.4946 Y62.6126 F350.00
G01 X68.4593 Y62.6024 F350.00
G01 X68.4242 Y62.5912 F350.00
G01 X68.3894 Y62.5793 F350.00
G01 X68.2970 Y62.5462 F350.00
G01 X68.2625 Y62.5334 F350.00
G01 X68.2283 Y62.5197 F350.00
G01 X68.1945 Y62.5052 F350.00
G01 X68.1610 Y62.4899 F350.00
G01 X68.0723 Y62.4479 F350.00
G01 X68.0392 Y62.4318 F350.00
G01 X68.0065 Y62.4148 F350.00
G01 X67.9743 Y62.3971 F350.00
G01 X67.9150 Y62.3621 F350.00
G01 X67.8557 Y62.3971 F350.00
G01 X67.8235 Y62.4148 F350.00
G01 X67.7908 Y62.4318 F350.00
G01 X67.7577 Y62.4479 F350.00
G01 X67.6690 Y62.4899 F350.00
