%
(; SHAPEOKO POSTPROCESSED v1)
( Source: OLD_BACK_2mm_NCC_avoid_keypin.nc )
( Stripped: M30 only - kept T#/M6/M0/M1/MSG for Shapeoko/Carbide Motion )
( Wrapped with Shapeoko start/end blocks - mirrors 1001.nc structure )
G90        ( absolute positioning )
G17        ( XY plane select )
G21        ( mm units )
G94        ( feedrate units/min )
G28 G91 Z0 ( safe Z home - assumes machine has been homed )
G90        ( back to absolute )
G54        ( work coordinate system 1 )
M5         ( ensure spindle off at start )

(G-CODE GENERATED BY FLATCAM v8.994 - www.flatcam.org - Version Date: 2020/11/7)

(Name: BACK_2mm_NCC_avoid_keypin)
(Type: G-code from Geometry)
(Units: MM)

(Created on Thursday, 25 June 2026 at 22:14)

(This preprocessor is used with a motion controller loaded with GRBL firmware.)
(It is configured to be compatible with almost any version of GRBL firmware.)

(TOOL DIAMETER: 2.0 mm)
(Feedrate_XY: 350.0 mm/min)
(Feedrate_Z: 250.0 mm/min)
(Feedrate rapids 1500.0 mm/min)

(Z_Cut: -0.05 mm)
(Z_Move: 0.5 mm)
(Z Start: None mm)
(Z End: 40.0 mm)
(X,Y End: None mm)
(Steps per circle: 64)
(Steps per circle: 64)
(Preprocessor Geometry: grbl_11)
(Edited: avoids 3.2 mm key pin at X131.4767 Y0.0015 with a 2.7 mm tool-center keepout)

(X range:   -3.0593 ...  130.1309  mm)
(Y range:   -4.2100 ...   71.2002  mm)

(Spindle Speed: 0.0 RPM)
G21
G90
G17
G94


G01 F350.00

M5             
G00 Z40.0000
G00 X0.0000 Y0.0000                
T1 M6
(MSG, Change to Tool Dia = 2.0000)
M0
G00 Z40.0000

M03
G01 F350.00
G00 X4.2474 Y10.1002
G01 F250.00
G01 Z-0.0500
G01 F350.00
G01 X37.5807 Y10.1002 F350.00
G01 X37.5807 Y11.4002 F350.00
G01 X1.8601 Y11.4002 F350.00
G01 X1.4743 Y12.7002 F350.00
G01 X0.4843 Y12.7002 F350.00
G01 X0.1743 Y14.0002 F350.00
G01 X-0.8157 Y14.0002 F350.00
G01 X-1.1257 Y15.3002 F350.00
G01 X-2.1157 Y15.3002 F350.00
G01 X-2.2481 Y16.6002 F350.00
G01 X-2.9843 Y16.6002 F350.00
G01 X-3.0593 Y17.9002 F350.00
G01 X-2.3593 Y17.9002 F350.00
G01 X-2.3593 Y19.2002 F350.00
G01 X-3.0593 Y19.2002 F350.00
G01 X-3.0593 Y20.5002 F350.00
G01 X-2.3593 Y20.5002 F350.00
G01 X-2.3593 Y21.8002 F350.00
G01 X-3.0593 Y21.8002 F350.00
G01 X-3.0593 Y23.1002 F350.00
G01 X-2.3593 Y23.1002 F350.00
G01 X-2.3593 Y24.4002 F350.00
G01 X-3.0593 Y24.4002 F350.00
G01 X-3.0593 Y25.7002 F350.00
G01 X-2.3593 Y25.7002 F350.00
G01 X-2.3593 Y27.0002 F350.00
G01 X-3.0593 Y27.0002 F350.00
G01 X-3.0593 Y28.3002 F350.00
G01 X-2.3593 Y28.3002 F350.00
G01 X-2.3593 Y29.6002 F350.00
G01 X-3.0593 Y29.6002 F350.00
G01 X-3.0593 Y30.9002 F350.00
G01 X-2.3593 Y30.9002 F350.00
G01 X-2.3593 Y32.2002 F350.00
G01 X-3.0593 Y32.2002 F350.00
G01 X-3.0593 Y33.5002 F350.00
G01 X-2.3593 Y33.5002 F350.00
G01 X-2.3593 Y34.8002 F350.00
G01 X-3.0593 Y34.8002 F350.00
G01 X-3.0593 Y36.1002 F350.00
G01 X-2.3593 Y36.1002 F350.00
G01 X-2.3593 Y37.4002 F350.00
G01 X-3.0593 Y37.4002 F350.00
G01 X-3.0593 Y38.7002 F350.00
G01 X-2.3593 Y38.7002 F350.00
G00 Z0.5000
G00 X-2.3579 Y40.0002
G01 F250.00
G01 Z-0.0500
G01 F350.00
G01 X-3.0588 Y40.0002 F350.00
G01 X-2.8070 Y41.3002 F350.00
G01 X-1.6431 Y41.3002 F350.00
G01 X-2.5102 Y42.6002 F350.00
G01 X-0.3431 Y42.6002 F350.00
G00 Z0.5000
G00 X1.0806 Y43.9002
G01 F250.00
G01 Z-0.0500
G01 F350.00
G01 X-2.2135 Y43.9002 F350.00
G01 X-1.9167 Y45.2002 F350.00
G01 X-0.4719 Y45.2002 F350.00
G00 Z0.5000
G00 X-0.8181 Y46.5002
G01 F250.00
G01 Z-0.0500
G01 F350.00
G01 X-1.6199 Y46.5002 F350.00
G01 X-0.8176 Y46.6138 F350.00
G01 X-0.8185 Y46.5893 F350.00
G01 X-0.8188 Y46.5647 F350.00
G01 X-0.8185 Y46.5107 F350.00
G01 X-0.8176 Y46.4862 F350.00
G01 X-0.8104 Y46.3392 F350.00
G01 X-0.8088 Y46.3147 F350.00
G01 X-0.8039 Y46.2609 F350.00
G01 X-0.8011 Y46.2365 F350.00
G01 X-0.7978 Y46.2122 F350.00
G01 X-0.7762 Y46.0666 F350.00
G01 X-0.7723 Y46.0424 F350.00
G01 X-0.7621 Y45.9894 F350.00
G01 X-0.7570 Y45.9654 F350.00
G01 X-0.7514 Y45.9415 F350.00
G01 X-0.7156 Y45.7987 F350.00
G01 X-0.7093 Y45.7750 F350.00
G01 X-0.7025 Y45.7514 F350.00
G01 X-0.6865 Y45.6998 F350.00
G01 X-0.6786 Y45.6766 F350.00
G01 X-0.6290 Y45.5380 F350.00
G01 X-0.6204 Y45.5150 F350.00
G01 X-0.6113 Y45.4922 F350.00
G01 X-0.5904 Y45.4425 F350.00
G01 X-0.5801 Y45.4202 F350.00
G01 X-0.5172 Y45.2871 F350.00
G01 X-0.5064 Y45.2650 F350.00
G01 X-0.4951 Y45.2432 F350.00
G01 X-0.4694 Y45.1958 F350.00
G01 X-0.4571 Y45.1746 F350.00
G01 X-0.3814 Y45.0483 F350.00
G01 X-0.3685 Y45.0274 F350.00
G01 X-0.3388 Y44.9824 F350.00
G01 X-0.3249 Y44.9621 F350.00
G01 X-0.3105 Y44.9422 F350.00
G01 X-0.2228 Y44.8240 F350.00
G01 X-0.2080 Y44.8045 F350.00
G01 X-0.1740 Y44.7625 F350.00
G01 X-0.1581 Y44.7438 F350.00
G01 X-0.1419 Y44.7254 F350.00
G01 X-0.0430 Y44.6163 F350.00
G01 X-0.0263 Y44.5983 F350.00
G01 X0.0116 Y44.5599 F350.00
G01 X0.0292 Y44.5428 F350.00
G01 X0.0472 Y44.5261 F350.00
G01 X0.1562 Y44.4272 F350.00
G01 X0.1746 Y44.4110 F350.00
G01 X0.2162 Y44.3765 F350.00
G01 X0.2353 Y44.3612 F350.00
G01 X0.2549 Y44.3463 F350.00
G01 X0.3731 Y44.2586 F350.00
G01 X0.3930 Y44.2442 F350.00
G01 X0.4377 Y44.2140 F350.00
G01 X0.4583 Y44.2006 F350.00
G01 X0.4792 Y44.1877 F350.00
G01 X0.6054 Y44.1121 F350.00
G01 X0.6266 Y44.0997 F350.00
G01 X0.6741 Y44.0740 F350.00
G01 X0.6959 Y44.0627 F350.00
G01 X0.7179 Y44.0519 F350.00
G01 X0.8510 Y43.9890 F350.00
G01 X0.8733 Y43.9788 F350.00
G01 X0.9231 Y43.9578 F350.00
G01 X0.9459 Y43.9487 F350.00
G01 X0.9689 Y43.9402 F350.00
G01 X1.1075 Y43.8906 F350.00
G01 X1.1307 Y43.8826 F350.00
G01 X1.1823 Y43.8666 F350.00
G01 X1.2058 Y43.8598 F350.00
G01 X1.2296 Y43.8535 F350.00
G01 X1.3724 Y43.8178 F350.00
G01 X1.3962 Y43.8121 F350.00
G01 X1.4491 Y43.8013 F350.00
G01 X1.4732 Y43.7968 F350.00
G01 X1.4975 Y43.7929 F350.00
G01 X1.6431 Y43.7713 F350.00
G01 X1.6674 Y43.7680 F350.00
G01 X1.7211 Y43.7624 F350.00
G01 X1.7456 Y43.7603 F350.00
G01 X1.7700 Y43.7588 F350.00
G01 X1.9171 Y43.7516 F350.00
G01 X1.9416 Y43.7507 F350.00
G01 X1.9956 Y43.7504 F350.00
G01 X2.0201 Y43.7507 F350.00
G01 X2.0446 Y43.7516 F350.00
G01 X2.1917 Y43.7588 F350.00
G01 X2.2162 Y43.7603 F350.00
G01 X2.2699 Y43.7653 F350.00
G01 X2.2943 Y43.7680 F350.00
G01 X2.3186 Y43.7713 F350.00
G01 X2.4642 Y43.7929 F350.00
G01 X2.4885 Y43.7968 F350.00
G01 X2.5415 Y43.8070 F350.00
G01 X2.5655 Y43.8121 F350.00
G01 X2.5894 Y43.8178 F350.00
G01 X2.7322 Y43.8535 F350.00
G01 X2.7559 Y43.8598 F350.00
G01 X2.8076 Y43.8752 F350.00
G01 X2.8310 Y43.8826 F350.00
G01 X2.8542 Y43.8906 F350.00
G01 X2.9928 Y43.9402 F350.00
G01 X3.0158 Y43.9487 F350.00
G01 X3.0386 Y43.9578 F350.00
G01 X3.0884 Y43.9788 F350.00
G01 X3.1107 Y43.9890 F350.00
G01 X3.2438 Y44.0519 F350.00
G01 X3.2658 Y44.0627 F350.00
G01 X3.2876 Y44.0740 F350.00
G01 X3.3351 Y44.0997 F350.00
G01 X3.3563 Y44.1121 F350.00
G01 X3.4825 Y44.1877 F350.00
G01 X3.5034 Y44.2006 F350.00
G01 X3.5240 Y44.2140 F350.00
G01 X3.5687 Y44.2442 F350.00
G01 X3.5886 Y44.2586 F350.00
G01 X3.7069 Y44.3463 F350.00
G01 X3.7264 Y44.3612 F350.00
G01 X3.7456 Y44.3765 F350.00
G01 X3.7871 Y44.4110 F350.00
G01 X3.8055 Y44.4272 F350.00
G01 X3.9145 Y44.5261 F350.00
G01 X3.9325 Y44.5428 F350.00
G01 X3.9501 Y44.5599 F350.00
G01 X3.9881 Y44.5983 F350.00
G01 X4.0048 Y44.6163 F350.00
G01 X4.1036 Y44.7254 F350.00
G01 X4.1199 Y44.7438 F350.00
G01 X4.1357 Y44.7625 F350.00
G01 X4.1697 Y44.8045 F350.00
G01 X4.1845 Y44.8240 F350.00
G01 X4.2722 Y44.9422 F350.00
G01 X4.2866 Y44.9621 F350.00
G01 X4.3005 Y44.9824 F350.00
G01 X4.3302 Y45.0274 F350.00
G01 X4.3431 Y45.0483 F350.00
G01 X4.4188 Y45.1746 F350.00
G01 X4.4311 Y45.1958 F350.00
G01 X4.4430 Y45.2173 F350.00
G01 X4.4682 Y45.2650 F350.00
G01 X4.4789 Y45.2871 F350.00
G01 X4.5419 Y45.4202 F350.00
G01 X4.5521 Y45.4425 F350.00
G01 X4.5618 Y45.4650 F350.00
G01 X4.5821 Y45.5150 F350.00
G01 X4.5907 Y45.5380 F350.00
G01 X4.6403 Y45.6766 F350.00
G01 X4.6483 Y45.6998 F350.00
G01 X4.6557 Y45.7232 F350.00
G01 X4.6711 Y45.7750 F350.00
G01 X4.6773 Y45.7987 F350.00
G01 X4.7131 Y45.9415 F350.00
G01 X4.7188 Y45.9654 F350.00
G01 X4.7238 Y45.9894 F350.00
G01 X4.7341 Y46.0424 F350.00
G01 X4.7380 Y46.0666 F350.00
G01 X4.7596 Y46.2122 F350.00
G01 X4.7629 Y46.2365 F350.00
G01 X4.7656 Y46.2609 F350.00
G01 X4.7706 Y46.3147 F350.00
G01 X4.7721 Y46.3392 F350.00
G01 X4.7793 Y46.4862 F350.00
G01 X4.7802 Y46.5107 F350.00
G01 X4.7805 Y46.5353 F350.00
G01 X4.7802 Y46.5893 F350.00
G01 X4.7793 Y46.6138 F350.00
G01 X4.7721 Y46.7608 F350.00
G01 X4.7706 Y46.7853 F350.00
G01 X4.7685 Y46.8098 F350.00
G01 X4.7629 Y46.8635 F350.00
G01 X4.7596 Y46.8878 F350.00
G01 X4.7380 Y47.0334 F350.00
G01 X4.7341 Y47.0576 F350.00
G01 X4.7296 Y47.0817 F350.00
G01 X4.7188 Y47.1346 F350.00
G01 X4.7131 Y47.1585 F350.00
G01 X4.6773 Y47.3013 F350.00
G01 X4.6711 Y47.3250 F350.00
G01 X4.6642 Y47.3486 F350.00
G01 X4.6483 Y47.4002 F350.00
G01 X4.6403 Y47.4234 F350.00
G01 X4.5907 Y47.5620 F350.00
G01 X4.5821 Y47.5850 F350.00
G01 X4.5730 Y47.6078 F350.00
G01 X4.5521 Y47.6575 F350.00
G01 X4.5419 Y47.6798 F350.00
G01 X4.4789 Y47.8129 F350.00
G01 X4.4682 Y47.8350 F350.00
G01 X4.4569 Y47.8568 F350.00
G01 X4.4311 Y47.9042 F350.00
G01 X4.4188 Y47.9254 F350.00
G01 X4.3431 Y48.0517 F350.00
G01 X4.3302 Y48.0726 F350.00
G01 X4.3169 Y48.0932 F350.00
G01 X4.2866 Y48.1379 F350.00
G01 X4.2722 Y48.1578 F350.00
G01 X4.1845 Y48.2760 F350.00
G01 X4.1697 Y48.2955 F350.00
G01 X4.1543 Y48.3147 F350.00
G01 X4.1199 Y48.3562 F350.00
G01 X4.1036 Y48.3746 F350.00
G01 X4.0048 Y48.4837 F350.00
G01 X3.9881 Y48.5017 F350.00
G01 X3.9709 Y48.5192 F350.00
G01 X3.9325 Y48.5572 F350.00
G01 X3.9145 Y48.5739 F350.00
G01 X3.8055 Y48.6728 F350.00
G01 X3.7871 Y48.6890 F350.00
G01 X3.7683 Y48.7048 F350.00
G01 X3.7264 Y48.7388 F350.00
G01 X3.7069 Y48.7537 F350.00
G01 X3.5886 Y48.8414 F350.00
G01 X3.5687 Y48.8558 F350.00
G01 X3.5485 Y48.8696 F350.00
G01 X3.5034 Y48.8994 F350.00
G01 X3.4825 Y48.9123 F350.00
G01 X3.3563 Y48.9879 F350.00
G01 X3.3351 Y49.0003 F350.00
G01 X3.3136 Y49.0121 F350.00
G01 X3.2658 Y49.0373 F350.00
G01 X3.2438 Y49.0481 F350.00
G01 X3.1107 Y49.1110 F350.00
G01 X3.0884 Y49.1212 F350.00
G01 X3.0658 Y49.1309 F350.00
G01 X3.0158 Y49.1513 F350.00
G01 X2.9928 Y49.1598 F350.00
G01 X2.8542 Y49.2094 F350.00
G01 X2.8310 Y49.2174 F350.00
G01 X2.8076 Y49.2248 F350.00
G01 X2.7559 Y49.2402 F350.00
G01 X2.7322 Y49.2465 F350.00
G01 X2.5894 Y49.2822 F350.00
G01 X2.5655 Y49.2879 F350.00
G01 X2.5415 Y49.2930 F350.00
G01 X2.4885 Y49.3032 F350.00
G01 X2.4642 Y49.3071 F350.00
G01 X2.3186 Y49.3287 F350.00
G01 X2.2943 Y49.3320 F350.00
G01 X2.2699 Y49.3347 F350.00
G01 X2.2162 Y49.3397 F350.00
G01 X2.1917 Y49.3412 F350.00
G01 X2.0446 Y49.3484 F350.00
G01 X2.0201 Y49.3493 F350.00
G01 X1.9661 Y49.3496 F350.00
G01 X1.9416 Y49.3493 F350.00
G01 X1.9171 Y49.3484 F350.00
G01 X1.7700 Y49.3412 F350.00
G01 X1.7456 Y49.3397 F350.00
G01 X1.7211 Y49.3376 F350.00
G01 X1.6674 Y49.3320 F350.00
G01 X1.6431 Y49.3287 F350.00
G01 X1.4975 Y49.3071 F350.00
G01 X1.4732 Y49.3032 F350.00
G01 X1.4202 Y49.2930 F350.00
G01 X1.3962 Y49.2879 F350.00
G01 X1.3724 Y49.2822 F350.00
G01 X1.2296 Y49.2465 F350.00
G01 X1.2058 Y49.2402 F350.00
G01 X1.1541 Y49.2248 F350.00
G01 X1.1307 Y49.2174 F350.00
G01 X1.1075 Y49.2094 F350.00
G01 X0.9689 Y49.1598 F350.00
G01 X0.9459 Y49.1513 F350.00
G01 X0.9231 Y49.1422 F350.00
G01 X0.8733 Y49.1212 F350.00
G01 X0.8510 Y49.1110 F350.00
G01 X0.7179 Y49.0481 F350.00
G01 X0.6959 Y49.0373 F350.00
G01 X0.6481 Y49.0121 F350.00
G01 X0.6266 Y49.0003 F350.00
G01 X0.6054 Y48.9879 F350.00
G01 X0.4792 Y48.9123 F350.00
G01 X0.4583 Y48.8994 F350.00
G01 X0.4377 Y48.8860 F350.00
G01 X0.3930 Y48.8558 F350.00
G01 X0.3731 Y48.8414 F350.00
G01 X0.2549 Y48.7537 F350.00
G01 X0.2353 Y48.7388 F350.00
G01 X0.2162 Y48.7235 F350.00
G01 X0.1746 Y48.6890 F350.00
G01 X0.1562 Y48.6728 F350.00
G01 X0.0472 Y48.5739 F350.00
G01 X0.0292 Y48.5572 F350.00
G01 X0.0116 Y48.5401 F350.00
G01 X-0.0263 Y48.5017 F350.00
G01 X-0.0430 Y48.4837 F350.00
G01 X-0.1419 Y48.3746 F350.00
G01 X-0.1581 Y48.3562 F350.00
G01 X-0.1740 Y48.3375 F350.00
G01 X-0.2080 Y48.2955 F350.00
G01 X-0.2228 Y48.2760 F350.00
G01 X-0.3105 Y48.1578 F350.00
G01 X-0.3249 Y48.1379 F350.00
G01 X-0.3551 Y48.0932 F350.00
G01 X-0.3685 Y48.0726 F350.00
G01 X-0.3814 Y48.0517 F350.00
G01 X-0.4571 Y47.9254 F350.00
G01 X-0.4694 Y47.9042 F350.00
G01 X-0.4951 Y47.8568 F350.00
G01 X-0.5064 Y47.8350 F350.00
G01 X-0.5172 Y47.8129 F350.00
G01 X-0.5801 Y47.6798 F350.00
G01 X-0.5904 Y47.6575 F350.00
G01 X-0.6000 Y47.6350 F350.00
G01 X-0.6204 Y47.5850 F350.00
G01 X-0.6290 Y47.5620 F350.00
G01 X-0.6786 Y47.4234 F350.00
G01 X-0.6865 Y47.4002 F350.00
G01 X-0.6940 Y47.3768 F350.00
G01 X-0.7093 Y47.3250 F350.00
G01 X-0.7156 Y47.3013 F350.00
G01 X-0.7514 Y47.1585 F350.00
G01 X-0.7570 Y47.1346 F350.00
G01 X-0.7679 Y47.0817 F350.00
G01 X-0.7723 Y47.0576 F350.00
G01 X-0.7762 Y47.0334 F350.00
G01 X-0.7978 Y46.8878 F350.00
G01 X-0.8011 Y46.8635 F350.00
G01 X-0.8039 Y46.8391 F350.00
G01 X-0.8088 Y46.7853 F350.00
G01 X-0.8104 Y46.7608 F350.00
G01 X-0.8176 Y46.6138 F350.00
G00 Z0.5000
G00 X-0.5232 Y47.8002
G01 F250.00
G01 Z-0.0500
G01 F350.00
G01 X-1.2872 Y47.8002 F350.00
G01 X-0.4591 Y49.1002 F350.00
G01 X0.8281 Y49.1002 F350.00
G01 X0.5882 Y50.4002 F350.00
G01 X17.7040 Y50.4002 F350.00
G00 Z0.5000
G00 X17.8488 Y49.1002
G01 F250.00
G01 Z-0.0500
G01 F350.00
G01 X15.5086 Y49.1002 F350.00
G00 Z0.5000
G00 X16.8599 Y47.8002
G01 F250.00
G01 Z-0.0500
G01 F350.00
G01 X18.8171 Y47.8002 F350.00
G01 X17.1548 Y46.5002 F350.00
G01 X23.9319 Y46.5002 F350.00
G00 Z0.5000
G00 X23.8144 Y47.8002
G01 F250.00
G01 Z-0.0500
G01 F350.00
G01 X22.1447 Y47.8002 F350.00
G00 Z0.5000
G00 X24.2781 Y45.2002
G01 F250.00
G01 Z-0.0500
G01 F350.00
G01 X16.8086 Y45.2002 F350.00
G00 Z0.5000
G00 X15.2561 Y43.9002
G01 F250.00
G01 Z-0.0500
G01 F350.00
G01 X25.8306 Y43.9002 F350.00
G00 Z0.5000
G00 X27.6311 Y43.9002
G01 F250.00
G01 Z-0.0500
G01 F350.00
G01 X33.2049 Y43.9002 F350.00
G01 X33.2049 Y42.6002 F350.00
G01 X16.6799 Y42.6002 F350.00
G00 Z0.5000
G00 X17.9222 Y41.3002
G01 F250.00
G01 Z-0.0500
G01 F350.00
G01 X24.5458 Y41.3002 F350.00
G00 Z0.5000
G00 X23.9688 Y40.0002
G01 F250.00
G01 Z-0.0500
G01 F350.00
G01 X18.1560 Y40.0002 F350.00
G01 X18.1560 Y38.7002 F350.00
G01 X24.0633 Y38.7002 F350.00
G00 Z0.5000
G00 X24.9375 Y37.4002
G01 F250.00
G01 Z-0.0500
G01 F350.00
G01 X20.5186 Y37.4002 F350.00
G00 Z0.5000
G00 X21.9603 Y36.1002
G01 F250.00
G01 Z-0.0500
G01 F350.00
G01 X23.6888 Y36.1002 F350.00
G01 X22.3888 Y34.8002 F350.00
G01 X22.2805 Y34.8002 F350.00
G00 Z0.5000
G00 X22.2763 Y34.6751
G01 F250.00
G01 Z-0.0500
G01 F350.00
G01 X22.2802 Y34.7607 F350.00
G01 X22.2805 Y34.8147 F350.00
G01 X22.2802 Y34.8393 F350.00
G01 X22.2793 Y34.8638 F350.00
G01 X22.2721 Y35.0108 F350.00
G01 X22.2706 Y35.0353 F350.00
G01 X22.2656 Y35.0891 F350.00
G01 X22.2629 Y35.1135 F350.00
G01 X22.2596 Y35.1378 F350.00
G01 X22.2380 Y35.2834 F350.00
G01 X22.2341 Y35.3076 F350.00
G01 X22.2296 Y35.3317 F350.00
G01 X22.2188 Y35.3846 F350.00
G01 X22.2131 Y35.4085 F350.00
G01 X22.1773 Y35.5513 F350.00
G01 X22.1711 Y35.5750 F350.00
G01 X22.1557 Y35.6268 F350.00
G01 X22.1483 Y35.6502 F350.00
G01 X22.1403 Y35.6734 F350.00
G01 X22.0907 Y35.8120 F350.00
G01 X22.0821 Y35.8350 F350.00
G01 X22.0618 Y35.8850 F350.00
G01 X22.0521 Y35.9075 F350.00
G01 X22.0419 Y35.9298 F350.00
G01 X21.9789 Y36.0629 F350.00
G01 X21.9682 Y36.0850 F350.00
G01 X21.9430 Y36.1327 F350.00
G01 X21.9311 Y36.1542 F350.00
G01 X21.9188 Y36.1754 F350.00
G01 X21.8431 Y36.3017 F350.00
G01 X21.8302 Y36.3226 F350.00
G01 X21.8005 Y36.3676 F350.00
G01 X21.7866 Y36.3879 F350.00
G01 X21.7722 Y36.4078 F350.00
G01 X21.6845 Y36.5260 F350.00
G01 X21.6697 Y36.5455 F350.00
G01 X21.6357 Y36.5875 F350.00
G01 X21.6199 Y36.6062 F350.00
G01 X21.6036 Y36.6246 F350.00
G01 X21.5048 Y36.7337 F350.00
G01 X21.4881 Y36.7517 F350.00
G01 X21.4501 Y36.7901 F350.00
G01 X21.4325 Y36.8072 F350.00
G01 X21.4145 Y36.8239 F350.00
G01 X21.3055 Y36.9228 F350.00
G01 X21.2871 Y36.9390 F350.00
G01 X21.2456 Y36.9735 F350.00
G01 X21.2264 Y36.9888 F350.00
G01 X21.2069 Y37.0037 F350.00
G01 X21.0886 Y37.0914 F350.00
G01 X21.0687 Y37.1058 F350.00
G01 X21.0240 Y37.1360 F350.00
G01 X21.0034 Y37.1494 F350.00
G01 X20.9825 Y37.1623 F350.00
G01 X20.8563 Y37.2379 F350.00
G01 X20.8351 Y37.2503 F350.00
G01 X20.8136 Y37.2621 F350.00
G01 X20.7658 Y37.2873 F350.00
G01 X20.7438 Y37.2981 F350.00
G01 X20.6107 Y37.3610 F350.00
G01 X20.5884 Y37.3712 F350.00
G01 X20.5658 Y37.3809 F350.00
G01 X20.5158 Y37.4013 F350.00
G01 X20.4928 Y37.4098 F350.00
G01 X20.3542 Y37.4594 F350.00
G01 X20.3310 Y37.4674 F350.00
G01 X20.3076 Y37.4748 F350.00
G01 X20.2559 Y37.4902 F350.00
G01 X20.2322 Y37.4965 F350.00
G01 X20.0894 Y37.5322 F350.00
G01 X20.0655 Y37.5379 F350.00
G01 X20.0415 Y37.5430 F350.00
G01 X19.9885 Y37.5532 F350.00
G01 X19.9642 Y37.5571 F350.00
G01 X19.8186 Y37.5787 F350.00
G01 X19.7943 Y37.5820 F350.00
G01 X19.7699 Y37.5847 F350.00
G01 X19.7162 Y37.5897 F350.00
G01 X19.6917 Y37.5912 F350.00
G01 X19.5446 Y37.5984 F350.00
G01 X19.5201 Y37.5993 F350.00
G01 X19.4956 Y37.5996 F350.00
G01 X19.4416 Y37.5993 F350.00
G01 X19.4171 Y37.5984 F350.00
G01 X19.2700 Y37.5912 F350.00
G01 X19.2456 Y37.5897 F350.00
G01 X19.2211 Y37.5876 F350.00
G01 X19.1674 Y37.5820 F350.00
G01 X19.1431 Y37.5787 F350.00
G01 X18.9975 Y37.5571 F350.00
G01 X18.9732 Y37.5532 F350.00
G01 X18.9491 Y37.5487 F350.00
G01 X18.8962 Y37.5379 F350.00
G01 X18.8724 Y37.5322 F350.00
G01 X18.7296 Y37.4965 F350.00
G01 X18.7058 Y37.4902 F350.00
G01 X18.6823 Y37.4834 F350.00
G01 X18.6307 Y37.4674 F350.00
G01 X18.6075 Y37.4594 F350.00
G01 X18.4689 Y37.4098 F350.00
G01 X18.4459 Y37.4013 F350.00
G01 X18.3959 Y37.3809 F350.00
G01 X18.3733 Y37.3712 F350.00
G01 X18.3510 Y37.3610 F350.00
G01 X18.2179 Y37.2981 F350.00
G01 X18.1959 Y37.2873 F350.00
G01 X18.1560 Y37.2663 F350.00
G01 X18.1560 Y40.4820 F350.00
G01 X18.1553 Y40.5212 F350.00
G01 X18.1544 Y40.5458 F350.00
G01 X18.1517 Y40.5948 F350.00
G01 X18.1467 Y40.6485 F350.00
G01 X18.1440 Y40.6729 F350.00
G01 X18.1371 Y40.7215 F350.00
G01 X18.1332 Y40.7458 F350.00
G01 X18.1287 Y40.7699 F350.00
G01 X18.1179 Y40.8228 F350.00
G01 X18.1063 Y40.8705 F350.00
G01 X18.1000 Y40.8942 F350.00
G01 X18.0932 Y40.9178 F350.00
G01 X18.0772 Y40.9693 F350.00
G01 X18.0692 Y40.9925 F350.00
G01 X18.0524 Y41.0387 F350.00
G01 X18.0320 Y41.0886 F350.00
G01 X18.0224 Y41.1112 F350.00
G01 X18.0121 Y41.1335 F350.00
G01 X17.9909 Y41.1778 F350.00
G01 X17.9796 Y41.1996 F350.00
G01 X17.9539 Y41.2470 F350.00
G01 X17.9289 Y41.2893 F350.00
G01 X17.9160 Y41.3102 F350.00
G01 X17.9026 Y41.3307 F350.00
G01 X17.8724 Y41.3755 F350.00
G01 X17.8580 Y41.3954 F350.00
G01 X17.8285 Y41.4346 F350.00
G01 X17.8132 Y41.4538 F350.00
G01 X17.7787 Y41.4953 F350.00
G01 X17.7460 Y41.5319 F350.00
G01 X17.7293 Y41.5499 F350.00
G01 X17.7020 Y41.5781 F350.00
G01 X16.3839 Y42.8961 F350.00
G01 X16.3557 Y42.9234 F350.00
G01 X16.3195 Y42.9566 F350.00
G01 X16.3012 Y42.9728 F350.00
G01 X16.2596 Y43.0073 F350.00
G01 X16.2405 Y43.0227 F350.00
G01 X16.2012 Y43.0521 F350.00
G01 X16.1813 Y43.0665 F350.00
G01 X16.1611 Y43.0804 F350.00
G01 X16.1160 Y43.1101 F350.00
G01 X16.0951 Y43.1230 F350.00
G01 X16.0529 Y43.1480 F350.00
G01 X16.0054 Y43.1737 F350.00
G01 X15.9836 Y43.1850 F350.00
G01 X15.9616 Y43.1958 F350.00
G01 X15.9171 Y43.2165 F350.00
G01 X15.8945 Y43.2262 F350.00
G01 X15.8445 Y43.2465 F350.00
G01 X15.7984 Y43.2634 F350.00
G01 X15.7752 Y43.2713 F350.00
G01 X15.7236 Y43.2873 F350.00
G01 X15.7001 Y43.2941 F350.00
G01 X15.6525 Y43.3064 F350.00
G01 X15.6286 Y43.3120 F350.00
G01 X15.6046 Y43.3171 F350.00
G01 X15.5516 Y43.3273 F350.00
G01 X15.5031 Y43.3349 F350.00
G01 X15.4788 Y43.3382 F350.00
G01 X15.4251 Y43.3437 F350.00
G01 X15.4006 Y43.3458 F350.00
G01 X15.3516 Y43.3486 F350.00
G01 X15.3271 Y43.3495 F350.00
G01 X15.2878 Y43.3501 F350.00
G01 X1.0489 Y43.3501 F350.00
G01 X1.0243 Y43.3498 F350.00
G01 X0.9851 Y43.3486 F350.00
G01 X0.9606 Y43.3474 F350.00
G01 X0.9361 Y43.3458 F350.00
G01 X0.9116 Y43.3437 F350.00
G01 X0.8579 Y43.3382 F350.00
G01 X0.8093 Y43.3312 F350.00
G01 X0.7851 Y43.3273 F350.00
G01 X0.7610 Y43.3229 F350.00
G01 X0.7081 Y43.3120 F350.00
G01 X0.6604 Y43.3004 F350.00
G01 X0.6367 Y43.2941 F350.00
G01 X0.6131 Y43.2873 F350.00
G01 X0.5615 Y43.2713 F350.00
G01 X0.5383 Y43.2634 F350.00
G01 X0.4922 Y43.2465 F350.00
G01 X0.4422 Y43.2262 F350.00
G01 X0.4197 Y43.2165 F350.00
G01 X0.3752 Y43.1958 F350.00
G01 X0.3531 Y43.1850 F350.00
G01 X0.3313 Y43.1737 F350.00
G01 X0.2838 Y43.1480 F350.00
G01 X0.2416 Y43.1230 F350.00
G01 X0.2207 Y43.1101 F350.00
G01 X0.1756 Y43.0804 F350.00
G01 X0.1554 Y43.0665 F350.00
G01 X0.1158 Y43.0375 F350.00
G01 X0.0963 Y43.0227 F350.00
G01 X0.0771 Y43.0073 F350.00
G01 X0.0356 Y42.9728 F350.00
G01 X-0.0010 Y42.9401 F350.00
G01 X-0.0297 Y42.9132 F350.00
G01 X-0.0472 Y42.8961 F350.00
G01 X-1.9052 Y41.0381 F350.00
G01 X-1.9325 Y41.0099 F350.00
G01 X-1.9492 Y40.9919 F350.00
G01 X-1.9820 Y40.9553 F350.00
G01 X-1.9978 Y40.9365 F350.00
G01 X-2.0318 Y40.8946 F350.00
G01 X-2.0613 Y40.8554 F350.00
G01 X-2.0757 Y40.8355 F350.00
G01 X-2.1059 Y40.7907 F350.00
G01 X-2.1193 Y40.7702 F350.00
G01 X-2.1448 Y40.7282 F350.00
G01 X-2.1571 Y40.7070 F350.00
G01 X-2.1690 Y40.6855 F350.00
G01 X-2.1942 Y40.6378 F350.00
G01 X-2.2154 Y40.5935 F350.00
G01 X-2.2256 Y40.5712 F350.00
G01 X-2.2466 Y40.5215 F350.00
G01 X-2.2557 Y40.4987 F350.00
G01 X-2.2642 Y40.4757 F350.00
G01 X-2.2805 Y40.4293 F350.00
G01 X-2.2964 Y40.3778 F350.00
G01 X-2.3033 Y40.3542 F350.00
G01 X-2.3155 Y40.3067 F350.00
G01 X-2.3212 Y40.2828 F350.00
G01 X-2.3263 Y40.2588 F350.00
G01 X-2.3365 Y40.2058 F350.00
G01 X-2.3404 Y40.1815 F350.00
G01 X-2.3473 Y40.1329 F350.00
G01 X-2.3529 Y40.0792 F350.00
G01 X-2.3550 Y40.0548 F350.00
G01 X-2.3577 Y40.0058 F350.00
G01 X-2.3586 Y39.9812 F350.00
G01 X-2.3593 Y39.9420 F350.00
G01 X-2.3593 Y17.1758 F350.00
G01 X-2.3586 Y17.1365 F350.00
G01 X-2.3577 Y17.1120 F350.00
G01 X-2.3550 Y17.0630 F350.00
G01 X-2.3500 Y17.0092 F350.00
G01 X-2.3473 Y16.9848 F350.00
G01 X-2.3404 Y16.9362 F350.00
G01 X-2.3365 Y16.9120 F350.00
G01 X-2.3263 Y16.8590 F350.00
G01 X-2.3212 Y16.8350 F350.00
G01 X-2.3095 Y16.7873 F350.00
G01 X-2.3033 Y16.7636 F350.00
G01 X-2.2964 Y16.7400 F350.00
G01 X-2.2805 Y16.6884 F350.00
G01 X-2.2642 Y16.6421 F350.00
G01 X-2.2557 Y16.6191 F350.00
G01 X-2.2466 Y16.5963 F350.00
G01 X-2.2256 Y16.5466 F350.00
G01 X-2.2049 Y16.5021 F350.00
G01 X-2.1942 Y16.4800 F350.00
G01 X-2.1690 Y16.4323 F350.00
G01 X-2.1571 Y16.4107 F350.00
G01 X-2.1448 Y16.3895 F350.00
G01 X-2.1193 Y16.3476 F350.00
G01 X-2.0895 Y16.3025 F350.00
G01 X-2.0757 Y16.2823 F350.00
G01 X-2.0467 Y16.2427 F350.00
G01 X-2.0318 Y16.2232 F350.00
G01 X-1.9978 Y16.1812 F350.00
G01 X-1.9820 Y16.1625 F350.00
G01 X-1.9657 Y16.1441 F350.00
G01 X-1.9492 Y16.1259 F350.00
G01 X-1.9224 Y16.0972 F350.00
G01 X-1.9052 Y16.0797 F350.00
G01 X1.9705 Y12.2039 F350.00
G01 X1.9988 Y12.1766 F350.00
G01 X2.0349 Y12.1434 F350.00
G01 X2.0533 Y12.1272 F350.00
G01 X2.0949 Y12.0927 F350.00
G01 X2.1140 Y12.0773 F350.00
G01 X2.1533 Y12.0479 F350.00
G01 X2.1732 Y12.0335 F350.00
G01 X2.1934 Y12.0196 F350.00
G01 X2.2385 Y11.9899 F350.00
G01 X2.2594 Y11.9770 F350.00
G01 X2.3016 Y11.9520 F350.00
G01 X2.3491 Y11.9263 F350.00
G01 X2.3709 Y11.9150 F350.00
G01 X2.3929 Y11.9042 F350.00
G01 X2.4374 Y11.8835 F350.00
G01 X2.4872 Y11.8626 F350.00
G01 X2.5100 Y11.8535 F350.00
G01 X2.5561 Y11.8366 F350.00
G01 X2.5793 Y11.8287 F350.00
G01 X2.6027 Y11.8212 F350.00
G01 X2.6544 Y11.8059 F350.00
G01 X2.6782 Y11.7996 F350.00
G01 X2.7259 Y11.7880 F350.00
G01 X2.7787 Y11.7771 F350.00
G01 X2.8029 Y11.7727 F350.00
G01 X2.8514 Y11.7651 F350.00
G01 X2.8757 Y11.7618 F350.00
G01 X2.9001 Y11.7591 F350.00
G01 X2.9538 Y11.7542 F350.00
G01 X3.0029 Y11.7514 F350.00
G01 X3.0274 Y11.7505 F350.00
G01 X3.0666 Y11.7499 F350.00
G01 X21.5216 Y11.7499 F350.00
G01 X21.5609 Y11.7505 F350.00
G01 X21.6099 Y11.7526 F350.00
G01 X21.6344 Y11.7542 F350.00
G01 X21.6882 Y11.7591 F350.00
G01 X21.7126 Y11.7618 F350.00
G01 X21.7612 Y11.7688 F350.00
G01 X21.7854 Y11.7727 F350.00
G01 X21.8095 Y11.7771 F350.00
G01 X21.8624 Y11.7880 F350.00
G01 X21.8863 Y11.7936 F350.00
G01 X21.9338 Y11.8059 F350.00
G01 X21.9856 Y11.8212 F350.00
G01 X22.0090 Y11.8287 F350.00
G01 X22.0553 Y11.8449 F350.00
G01 X22.0783 Y11.8535 F350.00
G01 X22.1011 Y11.8626 F350.00
G01 X22.1508 Y11.8835 F350.00
G01 X22.1954 Y11.9042 F350.00
G01 X22.2174 Y11.9150 F350.00
G01 X22.2392 Y11.9263 F350.00
G01 X22.2867 Y11.9520 F350.00
G01 X22.3079 Y11.9644 F350.00
G01 X22.3498 Y11.9899 F350.00
G01 X22.3949 Y12.0196 F350.00
G01 X22.4151 Y12.0335 F350.00
G01 X22.4547 Y12.0625 F350.00
G01 X22.4742 Y12.0773 F350.00
G01 X22.5162 Y12.1114 F350.00
G01 X22.5349 Y12.1272 F350.00
G01 X22.5533 Y12.1434 F350.00
G01 X22.5895 Y12.1766 F350.00
G01 X22.6177 Y12.2039 F350.00
G01 X26.1070 Y15.6932 F350.00
G01 X26.1434 Y15.6630 F350.00
G01 X26.1625 Y15.6477 F350.00
G01 X26.1821 Y15.6328 F350.00
G01 X26.2609 Y15.5744 F350.00
G01 X26.2808 Y15.5600 F350.00
G01 X26.3010 Y15.5461 F350.00
G01 X26.3461 Y15.5164 F350.00
G01 X26.3670 Y15.5035 F350.00
G01 X26.4511 Y15.4530 F350.00
G01 X26.4723 Y15.4407 F350.00
G01 X26.4938 Y15.4288 F350.00
G01 X26.5416 Y15.4037 F350.00
G01 X26.5636 Y15.3929 F350.00
G01 X26.6524 Y15.3509 F350.00
G01 X26.6747 Y15.3407 F350.00
G01 X26.6972 Y15.3310 F350.00
G01 X26.7472 Y15.3107 F350.00
G01 X26.8626 Y15.2691 F350.00
G01 X26.8858 Y15.2611 F350.00
G01 X26.9374 Y15.2451 F350.00
G01 X26.9610 Y15.2383 F350.00
G01 X26.9847 Y15.2320 F350.00
G01 X27.0799 Y15.2082 F350.00
G01 X27.1038 Y15.2025 F350.00
G01 X27.1567 Y15.1917 F350.00
G01 X27.1808 Y15.1872 F350.00
G01 X27.2050 Y15.1833 F350.00
G01 X27.3021 Y15.1689 F350.00
G01 X27.3264 Y15.1656 F350.00
G01 X27.3508 Y15.1629 F350.00
G01 X27.4046 Y15.1579 F350.00
G01 X27.5271 Y15.1516 F350.00
G01 X27.5516 Y15.1507 F350.00
G01 X27.5761 Y15.1504 F350.00
G01 X27.6301 Y15.1507 F350.00
G01 X27.6546 Y15.1516 F350.00
G01 X27.7772 Y15.1579 F350.00
G01 X27.8309 Y15.1629 F350.00
G01 X27.8553 Y15.1656 F350.00
G01 X27.8796 Y15.1689 F350.00
G01 X27.9767 Y15.1833 F350.00
G01 X28.0009 Y15.1872 F350.00
G01 X28.0251 Y15.1917 F350.00
G01 X28.0779 Y15.2025 F350.00
G01 X28.1970 Y15.2320 F350.00
G01 X28.2208 Y15.2383 F350.00
G01 X28.2443 Y15.2451 F350.00
G01 X28.2959 Y15.2611 F350.00
G01 X28.3191 Y15.2691 F350.00
G01 X28.4345 Y15.3107 F350.00
G01 X28.4845 Y15.3310 F350.00
G01 X28.5071 Y15.3407 F350.00
G01 X28.5294 Y15.3509 F350.00
G01 X28.6181 Y15.3929 F350.00
G01 X28.6401 Y15.4037 F350.00
G01 X28.6619 Y15.4150 F350.00
G01 X28.7094 Y15.4407 F350.00
G01 X28.7306 Y15.4530 F350.00
G01 X28.8357 Y15.5164 F350.00
G01 X28.8807 Y15.5461 F350.00
G01 X28.9009 Y15.5600 F350.00
G01 X28.9208 Y15.5744 F350.00
G01 X28.9997 Y15.6328 F350.00
G01 X29.0192 Y15.6477 F350.00
G01 X29.0384 Y15.6630 F350.00
G01 X29.0799 Y15.6975 F350.00
G01 X29.0983 Y15.7138 F350.00
G01 X29.1890 Y15.7964 F350.00
G01 X29.2274 Y15.8343 F350.00
G01 X29.2445 Y15.8519 F350.00
G01 X29.2612 Y15.8699 F350.00
G01 X29.3434 Y15.9610 F350.00
G01 X29.3778 Y16.0025 F350.00
G01 X29.3932 Y16.0217 F350.00
G01 X29.4080 Y16.0412 F350.00
G01 X29.4665 Y16.1200 F350.00
G01 X29.4809 Y16.1399 F350.00
G01 X29.4948 Y16.1601 F350.00
G01 X29.5245 Y16.2052 F350.00
G01 X29.5374 Y16.2261 F350.00
G01 X29.5924 Y16.3180 F350.00
G01 X29.6633 Y16.3006 F350.00
G01 X29.7162 Y16.2898 F350.00
G01 X29.7403 Y16.2853 F350.00
G01 X29.7645 Y16.2814 F350.00
G01 X29.8762 Y16.2651 F350.00
G01 X29.9299 Y16.2595 F350.00
G01 X29.9544 Y16.2574 F350.00
G01 X29.9789 Y16.2559 F350.00
G01 X30.0916 Y16.2507 F350.00
G01 X30.1456 Y16.2504 F350.00
G01 X30.1701 Y16.2507 F350.00
G01 X30.1946 Y16.2516 F350.00
G01 X30.2829 Y16.2559 F350.00
G01 X30.3074 Y16.2574 F350.00
G01 X30.3318 Y16.2595 F350.00
G01 X30.3855 Y16.2651 F350.00
G01 X30.4972 Y16.2814 F350.00
G01 X30.5214 Y16.2853 F350.00
G01 X30.5456 Y16.2898 F350.00
G01 X30.5984 Y16.3006 F350.00
G01 X30.6694 Y16.3180 F350.00
G01 X30.7243 Y16.2261 F350.00
G01 X30.7372 Y16.2052 F350.00
G01 X30.7506 Y16.1846 F350.00
G01 X30.7808 Y16.1399 F350.00
G01 X30.7952 Y16.1200 F350.00
G01 X30.8685 Y16.0217 F350.00
G01 X30.8839 Y16.0025 F350.00
G01 X30.9184 Y15.9610 F350.00
G01 X31.0005 Y15.8699 F350.00
G01 X31.0172 Y15.8519 F350.00
G01 X31.0344 Y15.8343 F350.00
G01 X31.0727 Y15.7964 F350.00
G01 X31.1634 Y15.7138 F350.00
G01 X31.1818 Y15.6975 F350.00
G01 X31.2234 Y15.6630 F350.00
G01 X31.2425 Y15.6477 F350.00
G01 X31.2621 Y15.6328 F350.00
G01 X31.3608 Y15.5600 F350.00
G01 X31.3810 Y15.5461 F350.00
G01 X31.4261 Y15.5164 F350.00
G01 X31.5311 Y15.4530 F350.00
G01 X31.5523 Y15.4407 F350.00
G01 X31.5998 Y15.4150 F350.00
G01 X31.6216 Y15.4037 F350.00
G01 X31.6436 Y15.3929 F350.00
G01 X31.7547 Y15.3407 F350.00
G01 X31.8044 Y15.3198 F350.00
G01 X31.8272 Y15.3107 F350.00
G01 X31.9426 Y15.2691 F350.00
G01 X31.9658 Y15.2611 F350.00
G01 X31.9892 Y15.2537 F350.00
G01 X32.0410 Y15.2383 F350.00
G01 X32.1599 Y15.2082 F350.00
G01 X32.1838 Y15.2025 F350.00
G01 X32.2078 Y15.1974 F350.00
G01 X32.2608 Y15.1872 F350.00
G01 X32.3821 Y15.1689 F350.00
G01 X32.4064 Y15.1656 F350.00
G01 X32.4601 Y15.1600 F350.00
G01 X32.4846 Y15.1579 F350.00
G01 X32.5091 Y15.1564 F350.00
G01 X32.6316 Y15.1507 F350.00
G01 X32.6856 Y15.1504 F350.00
G01 X32.7101 Y15.1507 F350.00
G01 X32.7346 Y15.1516 F350.00
G01 X32.8572 Y15.1579 F350.00
G01 X32.9109 Y15.1629 F350.00
G01 X32.9353 Y15.1656 F350.00
G01 X32.9596 Y15.1689 F350.00
G01 X33.0567 Y15.1833 F350.00
G01 X33.0809 Y15.1872 F350.00
G01 X33.1051 Y15.1917 F350.00
G01 X33.1579 Y15.2025 F350.00
G01 X33.2770 Y15.2320 F350.00
G01 X33.3008 Y15.2383 F350.00
G01 X33.3525 Y15.2537 F350.00
G01 X33.3759 Y15.2611 F350.00
G01 X33.3991 Y15.2691 F350.00
G01 X33.5145 Y15.3107 F350.00
G01 X33.5645 Y15.3310 F350.00
G01 X33.5871 Y15.3407 F350.00
G01 X33.6094 Y15.3509 F350.00
G01 X33.6981 Y15.3929 F350.00
G01 X33.7201 Y15.4037 F350.00
G01 X33.7419 Y15.4150 F350.00
G01 X33.7894 Y15.4407 F350.00
G01 X33.8106 Y15.4530 F350.00
G01 X33.8948 Y15.5035 F350.00
G01 X33.9157 Y15.5164 F350.00
G01 X33.9409 Y15.5328 F350.00
G01 X33.9661 Y15.5164 F350.00
G01 X33.9870 Y15.5035 F350.00
G01 X34.0711 Y15.4530 F350.00
G01 X34.0923 Y15.4407 F350.00
G01 X34.1138 Y15.4288 F350.00
G01 X34.1616 Y15.4037 F350.00
G01 X34.1836 Y15.3929 F350.00
G01 X34.2947 Y15.3407 F350.00
G01 X34.3444 Y15.3198 F350.00
G01 X34.3672 Y15.3107 F350.00
G01 X34.3902 Y15.3021 F350.00
G01 X34.5058 Y15.2611 F350.00
G01 X34.5574 Y15.2451 F350.00
G01 X34.5810 Y15.2383 F350.00
G01 X34.6047 Y15.2320 F350.00
G01 X34.6999 Y15.2082 F350.00
G01 X34.7238 Y15.2025 F350.00
G01 X34.7478 Y15.1974 F350.00
G01 X34.8008 Y15.1872 F350.00
G01 X34.9194 Y15.1693 F350.00
G01 X37.5807 Y12.5079 F350.00
G01 X37.5807 Y2.8096 F350.00
G01 X37.5301 Y2.8363 F350.00
G01 X37.4194 Y2.8891 F350.00
G01 X37.3971 Y2.8993 F350.00
G01 X37.3745 Y2.9090 F350.00
G01 X37.3245 Y2.9293 F350.00
G01 X37.2091 Y2.9709 F350.00
G01 X37.1859 Y2.9789 F350.00
G01 X37.1625 Y2.9863 F350.00
G01 X37.1108 Y3.0017 F350.00
G01 X36.9918 Y3.0318 F350.00
G01 X36.9679 Y3.0375 F350.00
G01 X36.9439 Y3.0426 F350.00
G01 X36.8909 Y3.0528 F350.00
G01 X36.7696 Y3.0711 F350.00
G01 X36.7453 Y3.0744 F350.00
G01 X36.7209 Y3.0771 F350.00
G01 X36.6672 Y3.0821 F350.00
G01 X36.5446 Y3.0884 F350.00
G01 X36.5201 Y3.0893 F350.00
G01 X36.4661 Y3.0896 F350.00
G01 X36.4416 Y3.0893 F350.00
G01 X36.4171 Y3.0884 F350.00
G01 X36.2946 Y3.0821 F350.00
G01 X36.2408 Y3.0771 F350.00
G01 X36.2164 Y3.0744 F350.00
G01 X36.1921 Y3.0711 F350.00
G01 X36.0708 Y3.0528 F350.00
G01 X36.0178 Y3.0426 F350.00
G01 X35.9938 Y3.0375 F350.00
G01 X35.9699 Y3.0318 F350.00
G01 X35.8510 Y3.0017 F350.00
G01 X35.7992 Y2.9863 F350.00
G01 X35.7758 Y2.9789 F350.00
G01 X35.7526 Y2.9709 F350.00
G01 X35.6602 Y2.9379 F350.00
G01 X35.6372 Y2.9293 F350.00
G01 X35.6144 Y2.9202 F350.00
G01 X35.5647 Y2.8993 F350.00
G01 X35.4536 Y2.8471 F350.00
G01 X35.4316 Y2.8363 F350.00
G01 X35.4098 Y2.8250 F350.00
G01 X35.3623 Y2.7993 F350.00
G01 X35.2570 Y2.7365 F350.00
G01 X35.2361 Y2.7236 F350.00
G01 X35.2109 Y2.7072 F350.00
G01 X35.1857 Y2.7236 F350.00
G01 X35.1648 Y2.7365 F350.00
G01 X35.0806 Y2.7870 F350.00
G01 X35.0594 Y2.7993 F350.00
G01 X35.0379 Y2.8112 F350.00
G01 X34.9901 Y2.8363 F350.00
G01 X34.8794 Y2.8891 F350.00
G01 X34.8571 Y2.8993 F350.00
G01 X34.8073 Y2.9202 F350.00
G01 X34.7845 Y2.9293 F350.00
G01 X34.7615 Y2.9379 F350.00
G01 X34.6459 Y2.9789 F350.00
G01 X34.5943 Y2.9949 F350.00
G01 X34.5708 Y3.0017 F350.00
G01 X34.5470 Y3.0080 F350.00
G01 X34.4518 Y3.0318 F350.00
G01 X34.4279 Y3.0375 F350.00
G01 X34.4039 Y3.0426 F350.00
G01 X34.3509 Y3.0528 F350.00
G01 X34.2296 Y3.0711 F350.00
G01 X34.2053 Y3.0744 F350.00
G01 X34.1809 Y3.0771 F350.00
G01 X34.1272 Y3.0821 F350.00
G01 X34.1027 Y3.0836 F350.00
G01 X33.9801 Y3.0893 F350.00
G01 X33.9261 Y3.0896 F350.00
G01 X33.9016 Y3.0893 F350.00
G01 X33.7791 Y3.0836 F350.00
G01 X33.7546 Y3.0821 F350.00
G01 X33.7301 Y3.0800 F350.00
G01 X33.6764 Y3.0744 F350.00
G01 X33.5550 Y3.0567 F350.00
G01 X33.5308 Y3.0528 F350.00
G01 X33.5067 Y3.0483 F350.00
G01 X33.4538 Y3.0375 F350.00
G01 X33.4299 Y3.0318 F350.00
G01 X33.3110 Y3.0017 F350.00
G01 X33.2592 Y2.9863 F350.00
G01 X33.2358 Y2.9789 F350.00
G01 X33.2126 Y2.9709 F350.00
G01 X33.1202 Y2.9379 F350.00
G01 X33.0972 Y2.9293 F350.00
G01 X33.0744 Y2.9202 F350.00
G01 X33.0247 Y2.8993 F350.00
G01 X32.9136 Y2.8471 F350.00
G01 X32.8916 Y2.8363 F350.00
G01 X32.8698 Y2.8250 F350.00
G01 X32.8223 Y2.7993 F350.00
G01 X32.7170 Y2.7365 F350.00
G01 X32.6961 Y2.7236 F350.00
G01 X32.6709 Y2.7072 F350.00
G01 X32.6457 Y2.7236 F350.00
G01 X32.6248 Y2.7365 F350.00
G01 X32.5406 Y2.7870 F350.00
G01 X32.5194 Y2.7993 F350.00
G01 X32.4979 Y2.8112 F350.00
G01 X32.4501 Y2.8363 F350.00
G01 X32.3394 Y2.8891 F350.00
G01 X32.3171 Y2.8993 F350.00
G01 X32.2673 Y2.9202 F350.00
G01 X32.2445 Y2.9293 F350.00
G01 X32.2215 Y2.9379 F350.00
G01 X32.1059 Y2.9789 F350.00
G01 X32.0543 Y2.9949 F350.00
G01 X32.0308 Y3.0017 F350.00
G01 X32.0070 Y3.0080 F350.00
G01 X31.9118 Y3.0318 F350.00
G01 X31.8879 Y3.0375 F350.00
G01 X31.8639 Y3.0426 F350.00
G01 X31.8109 Y3.0528 F350.00
G01 X31.6896 Y3.0711 F350.00
G01 X31.6653 Y3.0744 F350.00
G01 X31.6116 Y3.0800 F350.00
G01 X31.5872 Y3.0821 F350.00
G01 X31.5627 Y3.0836 F350.00
G01 X31.4401 Y3.0893 F350.00
G01 X31.3861 Y3.0896 F350.00
G01 X31.3616 Y3.0893 F350.00
G01 X31.3371 Y3.0884 F350.00
G01 X31.2146 Y3.0821 F350.00
G01 X31.1608 Y3.0771 F350.00
G01 X31.1364 Y3.0744 F350.00
G01 X31.1121 Y3.0711 F350.00
G01 X30.9908 Y3.0528 F350.00
G01 X30.9378 Y3.0426 F350.00
G01 X30.9138 Y3.0375 F350.00
G01 X30.8899 Y3.0318 F350.00
G01 X30.7947 Y3.0080 F350.00
G01 X30.7710 Y3.0017 F350.00
G01 X30.7474 Y2.9949 F350.00
G01 X30.6958 Y2.9789 F350.00
G01 X30.5802 Y2.9379 F350.00
G01 X30.5572 Y2.9293 F350.00
G01 X30.5344 Y2.9202 F350.00
G01 X30.4847 Y2.8993 F350.00
G01 X30.3736 Y2.8471 F350.00
G01 X30.3516 Y2.8363 F350.00
G01 X30.3298 Y2.8250 F350.00
G01 X30.2823 Y2.7993 F350.00
G01 X30.2611 Y2.7870 F350.00
G01 X30.1561 Y2.7236 F350.00
G01 X30.1110 Y2.6939 F350.00
G01 X30.0908 Y2.6800 F350.00
G01 X30.0709 Y2.6656 F350.00
G01 X29.9725 Y2.5923 F350.00
G01 X29.9306 Y2.5583 F350.00
G01 X29.9118 Y2.5425 F350.00
G01 X29.8934 Y2.5262 F350.00
G01 X29.8027 Y2.4436 F350.00
G01 X29.7644 Y2.4057 F350.00
G01 X29.7472 Y2.3881 F350.00
G01 X29.7305 Y2.3701 F350.00
G01 X29.6484 Y2.2790 F350.00
G01 X29.6139 Y2.2375 F350.00
G01 X29.5985 Y2.2183 F350.00
G01 X29.5837 Y2.1988 F350.00
G01 X29.5252 Y2.1200 F350.00
G01 X29.5108 Y2.1001 F350.00
G01 X29.4970 Y2.0799 F350.00
G01 X29.4672 Y2.0348 F350.00
G01 X29.4039 Y1.9297 F350.00
G01 X29.3915 Y1.9085 F350.00
G01 X29.3797 Y1.8870 F350.00
G01 X29.3545 Y1.8393 F350.00
G01 X29.3438 Y1.8172 F350.00
G01 X29.2916 Y1.7062 F350.00
G01 X29.2706 Y1.6564 F350.00
G01 X29.2615 Y1.6336 F350.00
G01 X29.2199 Y1.5182 F350.00
G01 X29.2119 Y1.4950 F350.00
G01 X29.1960 Y1.4435 F350.00
G01 X29.1891 Y1.4199 F350.00
G01 X29.1829 Y1.3962 F350.00
G01 X29.1534 Y1.2771 F350.00
G01 X29.1425 Y1.2242 F350.00
G01 X29.1380 Y1.2001 F350.00
G01 X29.1197 Y1.0788 F350.00
G01 X29.1164 Y1.0544 F350.00
G01 X29.1137 Y1.0301 F350.00
G01 X29.1087 Y0.9763 F350.00
G01 X29.1024 Y0.8538 F350.00
G01 X29.1012 Y0.8145 F350.00
G01 X29.1009 Y0.7900 F350.00
G01 X29.1009 Y-1.2100 F350.00
G01 X29.1015 Y-1.2493 F350.00
G01 X29.1072 Y-1.3718 F350.00
G01 X29.1087 Y-1.3963 F350.00
G01 X29.1137 Y-1.4501 F350.00
G01 X29.1164 Y-1.4744 F350.00
G01 X29.1197 Y-1.4988 F350.00
G01 X29.1341 Y-1.5958 F350.00
G01 X29.1380 Y-1.6201 F350.00
G01 X29.1425 Y-1.6442 F350.00
G01 X29.1534 Y-1.6971 F350.00
G01 X29.1590 Y-1.7210 F350.00
G01 X29.1891 Y-1.8399 F350.00
G01 X29.2045 Y-1.8916 F350.00
G01 X29.2119 Y-1.9150 F350.00
G01 X29.2530 Y-2.0306 F350.00
G01 X29.2615 Y-2.0536 F350.00
G01 X29.2706 Y-2.0764 F350.00
G01 X29.2916 Y-2.1262 F350.00
G01 X29.3438 Y-2.2372 F350.00
G01 X29.3545 Y-2.2593 F350.00
G01 X29.3658 Y-2.2811 F350.00
G01 X29.3915 Y-2.3285 F350.00
G01 X29.4543 Y-2.4339 F350.00
G01 X29.4672 Y-2.4548 F350.00
G01 X29.4806 Y-2.4754 F350.00
G01 X29.5108 Y-2.5201 F350.00
G01 X29.5252 Y-2.5400 F350.00
G01 X29.5985 Y-2.6383 F350.00
G01 X29.6326 Y-2.6803 F350.00
G01 X29.6484 Y-2.6990 F350.00
G01 X29.6646 Y-2.7174 F350.00
G01 X29.7472 Y-2.8081 F350.00
G01 X29.7852 Y-2.8465 F350.00
G01 X29.8027 Y-2.8636 F350.00
G01 X29.8207 Y-2.8803 F350.00
G01 X29.9118 Y-2.9625 F350.00
G01 X29.9534 Y-2.9970 F350.00
G01 X29.9725 Y-3.0123 F350.00
G01 X30.0709 Y-3.0856 F350.00
G01 X30.0908 Y-3.1000 F350.00
G01 X30.1110 Y-3.1139 F350.00
G01 X30.1561 Y-3.1436 F350.00
G01 X30.2611 Y-3.2070 F350.00
G01 X30.2823 Y-3.2193 F350.00
G01 X30.3038 Y-3.2312 F350.00
G01 X30.3516 Y-3.2563 F350.00
G01 X30.3736 Y-3.2671 F350.00
G01 X30.4847 Y-3.3193 F350.00
G01 X30.5344 Y-3.3402 F350.00
G01 X30.5572 Y-3.3493 F350.00
G01 X30.5802 Y-3.3579 F350.00
G01 X30.6958 Y-3.3989 F350.00
G01 X30.7474 Y-3.4149 F350.00
G01 X30.7710 Y-3.4217 F350.00
G01 X30.7947 Y-3.4280 F350.00
G01 X30.9138 Y-3.4575 F350.00
G01 X30.9667 Y-3.4683 F350.00
G01 X30.9908 Y-3.4728 F350.00
G01 X31.0150 Y-3.4767 F350.00
G01 X31.1364 Y-3.4944 F350.00
G01 X31.1901 Y-3.5000 F350.00
G01 X31.2146 Y-3.5021 F350.00
G01 X31.3371 Y-3.5084 F350.00
G01 X31.3616 Y-3.5093 F350.00
G01 X31.3861 Y-3.5096 F350.00
G01 X31.4401 Y-3.5093 F350.00
G01 X31.5627 Y-3.5036 F350.00
G01 X31.5872 Y-3.5021 F350.00
G01 X31.6116 Y-3.5000 F350.00
G01 X31.6653 Y-3.4944 F350.00
G01 X31.7867 Y-3.4767 F350.00
G01 X31.8109 Y-3.4728 F350.00
G01 X31.8639 Y-3.4626 F350.00
G01 X31.8879 Y-3.4575 F350.00
G01 X31.9118 Y-3.4518 F350.00
G01 X32.0308 Y-3.4217 F350.00
G01 X32.0825 Y-3.4063 F350.00
G01 X32.1059 Y-3.3989 F350.00
G01 X32.2215 Y-3.3579 F350.00
G01 X32.2445 Y-3.3493 F350.00
G01 X32.2945 Y-3.3290 F350.00
G01 X32.3171 Y-3.3193 F350.00
G01 X32.3394 Y-3.3091 F350.00
G01 X32.4281 Y-3.2671 F350.00
G01 X32.4501 Y-3.2563 F350.00
G01 X32.4979 Y-3.2312 F350.00
G01 X32.5194 Y-3.2193 F350.00
G01 X32.5406 Y-3.2070 F350.00
G01 X32.6248 Y-3.1565 F350.00
G01 X32.6457 Y-3.1436 F350.00
G01 X32.6709 Y-3.1272 F350.00
G01 X32.6961 Y-3.1436 F350.00
G01 X32.7170 Y-3.1565 F350.00
G01 X32.8223 Y-3.2193 F350.00
G01 X32.8698 Y-3.2450 F350.00
G01 X32.8916 Y-3.2563 F350.00
G01 X32.9136 Y-3.2671 F350.00
G01 X33.0247 Y-3.3193 F350.00
G01 X33.0744 Y-3.3402 F350.00
G01 X33.0972 Y-3.3493 F350.00
G01 X33.1202 Y-3.3579 F350.00
G01 X33.2126 Y-3.3909 F350.00
G01 X33.2358 Y-3.3989 F350.00
G01 X33.2592 Y-3.4063 F350.00
G01 X33.3110 Y-3.4217 F350.00
G01 X33.4299 Y-3.4518 F350.00
G01 X33.4538 Y-3.4575 F350.00
G01 X33.4778 Y-3.4626 F350.00
G01 X33.5308 Y-3.4728 F350.00
G01 X33.6521 Y-3.4911 F350.00
G01 X33.6764 Y-3.4944 F350.00
G01 X33.7008 Y-3.4971 F350.00
G01 X33.7546 Y-3.5021 F350.00
G01 X33.8771 Y-3.5084 F350.00
G01 X33.9016 Y-3.5093 F350.00
G01 X33.9261 Y-3.5096 F350.00
G01 X33.9801 Y-3.5093 F350.00
G01 X34.0046 Y-3.5084 F350.00
G01 X34.1272 Y-3.5021 F350.00
G01 X34.1516 Y-3.5000 F350.00
G01 X34.2053 Y-3.4944 F350.00
G01 X34.3267 Y-3.4767 F350.00
G01 X34.3509 Y-3.4728 F350.00
G01 X34.4039 Y-3.4626 F350.00
G01 X34.4279 Y-3.4575 F350.00
G01 X34.4518 Y-3.4518 F350.00
G01 X34.5708 Y-3.4217 F350.00
G01 X34.6225 Y-3.4063 F350.00
G01 X34.6459 Y-3.3989 F350.00
G01 X34.7615 Y-3.3579 F350.00
G01 X34.7845 Y-3.3493 F350.00
G01 X34.8345 Y-3.3290 F350.00
G01 X34.8571 Y-3.3193 F350.00
G01 X34.8794 Y-3.3091 F350.00
G01 X34.9901 Y-3.2563 F350.00
G01 X35.0379 Y-3.2312 F350.00
G01 X35.0594 Y-3.2193 F350.00
G01 X35.0806 Y-3.2070 F350.00
G01 X35.1648 Y-3.1565 F350.00
G01 X35.1857 Y-3.1436 F350.00
G01 X35.2109 Y-3.1272 F350.00
G01 X35.2361 Y-3.1436 F350.00
G01 X35.2570 Y-3.1565 F350.00
G01 X35.3623 Y-3.2193 F350.00
G01 X35.4098 Y-3.2450 F350.00
G01 X35.4316 Y-3.2563 F350.00
G01 X35.4536 Y-3.2671 F350.00
G01 X35.5647 Y-3.3193 F350.00
G01 X35.6144 Y-3.3402 F350.00
G01 X35.6372 Y-3.3493 F350.00
G01 X35.6602 Y-3.3579 F350.00
G01 X35.7758 Y-3.3989 F350.00
G01 X35.8274 Y-3.4149 F350.00
G01 X35.8510 Y-3.4217 F350.00
G01 X35.8747 Y-3.4280 F350.00
G01 X35.9938 Y-3.4575 F350.00
G01 X36.0467 Y-3.4683 F350.00
G01 X36.0708 Y-3.4728 F350.00
G01 X36.0950 Y-3.4767 F350.00
G01 X36.2164 Y-3.4944 F350.00
G01 X36.2701 Y-3.5000 F350.00
G01 X36.2946 Y-3.5021 F350.00
G01 X36.3191 Y-3.5036 F350.00
G01 X36.4416 Y-3.5093 F350.00
G01 X36.4956 Y-3.5096 F350.00
G01 X36.5201 Y-3.5093 F350.00
G01 X36.5446 Y-3.5084 F350.00
G01 X36.6427 Y-3.5036 F350.00
G01 X36.6672 Y-3.5021 F350.00
G01 X36.6916 Y-3.5000 F350.00
G01 X36.7453 Y-3.4944 F350.00
G01 X36.7696 Y-3.4911 F350.00
G01 X36.8909 Y-3.4728 F350.00
G01 X36.9151 Y-3.4683 F350.00
G01 X36.9679 Y-3.4575 F350.00
G01 X37.0870 Y-3.4280 F350.00
G01 X37.1108 Y-3.4217 F350.00
G01 X37.1343 Y-3.4149 F350.00
G01 X37.1859 Y-3.3989 F350.00
G01 X37.2091 Y-3.3909 F350.00
G01 X37.3245 Y-3.3493 F350.00
G01 X37.3745 Y-3.3290 F350.00
G01 X37.3971 Y-3.3193 F350.00
G01 X37.5081 Y-3.2671 F350.00
G01 X37.5301 Y-3.2563 F350.00
G01 X37.5779 Y-3.2312 F350.00
G01 X37.5994 Y-3.2193 F350.00
G01 X37.6206 Y-3.2070 F350.00
G01 X37.7048 Y-3.1565 F350.00
G01 X37.7257 Y-3.1436 F350.00
G01 X37.7509 Y-3.1272 F350.00
G01 X37.7761 Y-3.1436 F350.00
G01 X37.7970 Y-3.1565 F350.00
G01 X37.9023 Y-3.2193 F350.00
G01 X37.9498 Y-3.2450 F350.00
G01 X37.9716 Y-3.2563 F350.00
G01 X37.9936 Y-3.2671 F350.00
G01 X38.1047 Y-3.3193 F350.00
G01 X38.1544 Y-3.3402 F350.00
G01 X38.1772 Y-3.3493 F350.00
G01 X38.2002 Y-3.3579 F350.00
G01 X38.2926 Y-3.3909 F350.00
G01 X38.3158 Y-3.3989 F350.00
G01 X38.3392 Y-3.4063 F350.00
G01 X38.3910 Y-3.4217 F350.00
G01 X38.5099 Y-3.4518 F350.00
G01 X38.5338 Y-3.4575 F350.00
G01 X38.5578 Y-3.4626 F350.00
G01 X38.6108 Y-3.4728 F350.00
G01 X38.7321 Y-3.4911 F350.00
G01 X38.7564 Y-3.4944 F350.00
G01 X38.8101 Y-3.5000 F350.00
G01 X38.8346 Y-3.5021 F350.00
G01 X38.8591 Y-3.5036 F350.00
G01 X38.9571 Y-3.5084 F350.00
G01 X38.9816 Y-3.5093 F350.00
G01 X39.0061 Y-3.5096 F350.00
G01 X39.0601 Y-3.5093 F350.00
G01 X39.0846 Y-3.5084 F350.00
G01 X39.1827 Y-3.5036 F350.00
G01 X39.2072 Y-3.5021 F350.00
G01 X39.2316 Y-3.5000 F350.00
G01 X39.2853 Y-3.4944 F350.00
G01 X39.3096 Y-3.4911 F350.00
G01 X39.4309 Y-3.4728 F350.00
G01 X39.4551 Y-3.4683 F350.00
G01 X39.5079 Y-3.4575 F350.00
G01 X39.6270 Y-3.4280 F350.00
G01 X39.6508 Y-3.4217 F350.00
G01 X39.6743 Y-3.4149 F350.00
G01 X39.7259 Y-3.3989 F350.00
G01 X39.7491 Y-3.3909 F350.00
G01 X39.8645 Y-3.3493 F350.00
G01 X39.9145 Y-3.3290 F350.00
G01 X39.9371 Y-3.3193 F350.00
G01 X40.0481 Y-3.2671 F350.00
G01 X40.0701 Y-3.2563 F350.00
G01 X40.1179 Y-3.2312 F350.00
G01 X40.1394 Y-3.2193 F350.00
G01 X40.1606 Y-3.2070 F350.00
G01 X40.2448 Y-3.1565 F350.00
G01 X40.2657 Y-3.1436 F350.00
G01 X40.2909 Y-3.1272 F350.00
G01 X40.3161 Y-3.1436 F350.00
G01 X40.3370 Y-3.1565 F350.00
G01 X40.4211 Y-3.2070 F350.00
G01 X40.4423 Y-3.2193 F350.00
G01 X40.4638 Y-3.2312 F350.00
G01 X40.5116 Y-3.2563 F350.00
G01 X40.5336 Y-3.2671 F350.00
G01 X40.6224 Y-3.3091 F350.00
G01 X40.6447 Y-3.3193 F350.00
G01 X40.6672 Y-3.3290 F350.00
G01 X40.7172 Y-3.3493 F350.00
G01 X40.7402 Y-3.3579 F350.00
G01 X40.8326 Y-3.3909 F350.00
G01 X40.8558 Y-3.3989 F350.00
G01 X40.8792 Y-3.4063 F350.00
G01 X40.9310 Y-3.4217 F350.00
G01 X40.9547 Y-3.4280 F350.00
G01 X41.0738 Y-3.4575 F350.00
G01 X41.0978 Y-3.4626 F350.00
G01 X41.1508 Y-3.4728 F350.00
G01 X41.2721 Y-3.4911 F350.00
G01 X41.2964 Y-3.4944 F350.00
G01 X41.3208 Y-3.4971 F350.00
G01 X41.3746 Y-3.5021 F350.00
G01 X41.4971 Y-3.5084 F350.00
G01 X41.5216 Y-3.5093 F350.00
G01 X41.5461 Y-3.5096 F350.00
G01 X41.6001 Y-3.5093 F350.00
G01 X41.7227 Y-3.5036 F350.00
G01 X41.7472 Y-3.5021 F350.00
G01 X41.8009 Y-3.4971 F350.00
G01 X41.8253 Y-3.4944 F350.00
G01 X41.8496 Y-3.4911 F350.00
G01 X41.9709 Y-3.4728 F350.00
G01 X41.9951 Y-3.4683 F350.00
G01 X42.0479 Y-3.4575 F350.00
G01 X42.1670 Y-3.4280 F350.00
G01 X42.1908 Y-3.4217 F350.00
G01 X42.2425 Y-3.4063 F350.00
G01 X42.2659 Y-3.3989 F350.00
G01 X42.2891 Y-3.3909 F350.00
G01 X42.3815 Y-3.3579 F350.00
G01 X42.4045 Y-3.3493 F350.00
G01 X42.4273 Y-3.3402 F350.00
G01 X42.4771 Y-3.3193 F350.00
G01 X42.4994 Y-3.3091 F350.00
G01 X42.6101 Y-3.2563 F350.00
G01 X42.6319 Y-3.2450 F350.00
G01 X42.6794 Y-3.2193 F350.00
G01 X42.7848 Y-3.1565 F350.00
G01 X42.8057 Y-3.1436 F350.00
G01 X42.8507 Y-3.1139 F350.00
G01 X42.8709 Y-3.1000 F350.00
G01 X42.8908 Y-3.0856 F350.00
G01 X42.9892 Y-3.0123 F350.00
G01 X43.0311 Y-2.9783 F350.00
G01 X43.0499 Y-2.9625 F350.00
G01 X43.1410 Y-2.8803 F350.00
G01 X43.1590 Y-2.8636 F350.00
G01 X43.1974 Y-2.8257 F350.00
G01 X43.2145 Y-2.8081 F350.00
G01 X43.2312 Y-2.7901 F350.00
G01 X43.2971 Y-2.7174 F350.00
G01 X43.3134 Y-2.6990 F350.00
G01 X43.3292 Y-2.6803 F350.00
G01 X43.3632 Y-2.6383 F350.00
G01 X43.3780 Y-2.6188 F350.00
G01 X43.4365 Y-2.5400 F350.00
G01 X43.4509 Y-2.5201 F350.00
G01 X43.4648 Y-2.4999 F350.00
G01 X43.4945 Y-2.4548 F350.00
G01 X43.5074 Y-2.4339 F350.00
G01 X43.5702 Y-2.3285 F350.00
G01 X43.5959 Y-2.2811 F350.00
G01 X43.6072 Y-2.2593 F350.00
G01 X43.6599 Y-2.1485 F350.00
G01 X43.6701 Y-2.1262 F350.00
G01 X43.6798 Y-2.1036 F350.00
G01 X43.7002 Y-2.0536 F350.00
G01 X43.7087 Y-2.0306 F350.00
G01 X43.7498 Y-1.9150 F350.00
G01 X43.7658 Y-1.8635 F350.00
G01 X43.7726 Y-1.8399 F350.00
G01 X43.8027 Y-1.7210 F350.00
G01 X43.8084 Y-1.6971 F350.00
G01 X43.8192 Y-1.6442 F350.00
G01 X43.8237 Y-1.6201 F350.00
G01 X43.8276 Y-1.5958 F350.00
G01 X43.8420 Y-1.4988 F350.00
G01 X43.8453 Y-1.4744 F350.00
G01 X43.8480 Y-1.4501 F350.00
G01 X43.8530 Y-1.3963 F350.00
G01 X43.8545 Y-1.3718 F350.00
G01 X43.8593 Y-1.2738 F350.00
G01 X43.8602 Y-1.2493 F350.00
G01 X43.8609 Y-1.2100 F350.00
G01 X43.8609 Y0.7900 F350.00
G01 X43.8606 Y0.8145 F350.00
G01 X43.8593 Y0.8538 F350.00
G01 X43.8530 Y0.9763 F350.00
G01 X43.8480 Y1.0301 F350.00
G01 X43.8453 Y1.0544 F350.00
G01 X43.8420 Y1.0788 F350.00
G01 X43.8276 Y1.1758 F350.00
G01 X43.8237 Y1.2001 F350.00
G01 X43.8192 Y1.2242 F350.00
G01 X43.8084 Y1.2771 F350.00
G01 X43.7810 Y1.3876 F350.00
G01 X43.7810 Y15.0500 F350.00
G01 X43.7803 Y15.0893 F350.00
G01 X43.7794 Y15.1138 F350.00
G01 X43.7767 Y15.1628 F350.00
G01 X43.7746 Y15.1873 F350.00
G01 X43.7690 Y15.2409 F350.00
G01 X43.7657 Y15.2653 F350.00
G01 X43.7582 Y15.3138 F350.00
G01 X43.7526 Y15.3433 F350.00
G01 X43.8581 Y15.3929 F350.00
G01 X43.8801 Y15.4037 F350.00
G01 X43.9279 Y15.4288 F350.00
G01 X43.9494 Y15.4407 F350.00
G01 X43.9706 Y15.4530 F350.00
G01 X44.0548 Y15.5035 F350.00
G01 X44.0757 Y15.5164 F350.00
G01 X44.1009 Y15.5328 F350.00
G01 X44.1261 Y15.5164 F350.00
G01 X44.1470 Y15.5035 F350.00
G01 X44.2311 Y15.4530 F350.00
G01 X44.2523 Y15.4407 F350.00
G01 X44.2738 Y15.4288 F350.00
G01 X44.3216 Y15.4037 F350.00
G01 X44.3436 Y15.3929 F350.00
G01 X44.4324 Y15.3509 F350.00
G01 X44.4547 Y15.3407 F350.00
G01 X44.4772 Y15.3310 F350.00
G01 X44.5272 Y15.3107 F350.00
G01 X44.5502 Y15.3021 F350.00
G01 X44.6426 Y15.2691 F350.00
G01 X44.6658 Y15.2611 F350.00
G01 X44.6892 Y15.2537 F350.00
G01 X44.7410 Y15.2383 F350.00
G01 X44.7647 Y15.2320 F350.00
G01 X44.8599 Y15.2082 F350.00
G01 X44.8838 Y15.2025 F350.00
G01 X44.9078 Y15.1974 F350.00
G01 X44.9608 Y15.1872 F350.00
G01 X44.9850 Y15.1833 F350.00
G01 X45.0821 Y15.1689 F350.00
G01 X45.1064 Y15.1656 F350.00
G01 X45.1308 Y15.1629 F350.00
G01 X45.1846 Y15.1579 F350.00
G01 X45.2091 Y15.1564 F350.00
G01 X45.3071 Y15.1516 F350.00
G01 X45.3316 Y15.1507 F350.00
G01 X45.3561 Y15.1504 F350.00
G01 X45.4101 Y15.1507 F350.00
G01 X45.4346 Y15.1516 F350.00
G01 X45.5327 Y15.1564 F350.00
G01 X45.5572 Y15.1579 F350.00
G01 X45.5816 Y15.1600 F350.00
G01 X45.6353 Y15.1656 F350.00
G01 X45.6596 Y15.1689 F350.00
G01 X45.7567 Y15.1833 F350.00
G01 X45.7809 Y15.1872 F350.00
G01 X45.8051 Y15.1917 F350.00
G01 X45.8579 Y15.2025 F350.00
G01 X45.8818 Y15.2082 F350.00
G01 X45.9770 Y15.2320 F350.00
G01 X46.0008 Y15.2383 F350.00
G01 X46.0243 Y15.2451 F350.00
G01 X46.0759 Y15.2611 F350.00
G01 X46.0991 Y15.2691 F350.00
G01 X46.2145 Y15.3107 F350.00
G01 X46.2645 Y15.3310 F350.00
G01 X46.2871 Y15.3407 F350.00
G01 X46.3094 Y15.3509 F350.00
G01 X46.4201 Y15.4037 F350.00
G01 X46.4679 Y15.4288 F350.00
G01 X46.4894 Y15.4407 F350.00
G01 X46.5948 Y15.5035 F350.00
G01 X46.6157 Y15.5164 F350.00
G01 X46.6362 Y15.5297 F350.00
G01 X46.6809 Y15.5600 F350.00
G01 X46.7797 Y15.6328 F350.00
G01 X46.7992 Y15.6477 F350.00
G01 X46.8184 Y15.6630 F350.00
G01 X46.8599 Y15.6975 F350.00
G01 X46.8783 Y15.7138 F350.00
G01 X46.9690 Y15.7964 F350.00
G01 X47.0074 Y15.8343 F350.00
G01 X47.0245 Y15.8519 F350.00
G01 X47.0412 Y15.8699 F350.00
G01 X47.1234 Y15.9610 F350.00
G01 X47.1392 Y15.9797 F350.00
G01 X47.1732 Y16.0217 F350.00
G01 X47.2465 Y16.1200 F350.00
G01 X47.2609 Y16.1399 F350.00
G01 X47.2911 Y16.1846 F350.00
G01 X47.3045 Y16.2052 F350.00
G01 X47.3174 Y16.2261 F350.00
G01 X47.3802 Y16.3315 F350.00
G01 X47.3920 Y16.3530 F350.00
G01 X47.4172 Y16.4007 F350.00
G01 X47.4699 Y16.5115 F350.00
G01 X47.4801 Y16.5338 F350.00
G01 X47.4898 Y16.5564 F350.00
G01 X47.5102 Y16.6064 F350.00
G01 X47.5518 Y16.7218 F350.00
G01 X47.5598 Y16.7450 F350.00
G01 X47.5758 Y16.7965 F350.00
G01 X47.5826 Y16.8201 F350.00
G01 X47.5888 Y16.8438 F350.00
G01 X47.6184 Y16.9629 F350.00
G01 X47.6234 Y16.9869 F350.00
G01 X47.6337 Y17.0399 F350.00
G01 X47.6520 Y17.1612 F350.00
G01 X47.6553 Y17.1856 F350.00
G01 X47.6580 Y17.2099 F350.00
G01 X47.6630 Y17.2637 F350.00
G01 X47.6693 Y17.3862 F350.00
G01 X47.6702 Y17.4107 F350.00
G01 X47.6709 Y17.4500 F350.00
G01 X47.6709 Y19.4500 F350.00
G01 X47.6706 Y19.4745 F350.00
G01 X47.6693 Y19.5138 F350.00
G01 X47.6630 Y19.6363 F350.00
G01 X47.6580 Y19.6901 F350.00
G01 X47.6553 Y19.7144 F350.00
G01 X47.6520 Y19.7388 F350.00
G01 X47.6376 Y19.8358 F350.00
G01 X47.6337 Y19.8601 F350.00
G01 X47.6292 Y19.8842 F350.00
G01 X47.6184 Y19.9371 F350.00
G01 X47.6127 Y19.9610 F350.00
G01 X47.5826 Y20.0799 F350.00
G01 X47.5758 Y20.1035 F350.00
G01 X47.5598 Y20.1550 F350.00
G01 X47.5262 Y20.2499 F350.00
G01 X92.0609 Y20.2499 F350.00
G01 X92.0854 Y20.2502 F350.00
G01 X92.1246 Y20.2514 F350.00
G01 X92.1737 Y20.2542 F350.00
G01 X92.2274 Y20.2591 F350.00
G01 X92.2518 Y20.2618 F350.00
G01 X92.3004 Y20.2688 F350.00
G01 X92.3246 Y20.2727 F350.00
G01 X92.3776 Y20.2829 F350.00
G01 X92.4017 Y20.2880 F350.00
G01 X92.4493 Y20.2996 F350.00
G01 X92.4731 Y20.3059 F350.00
G01 X92.4966 Y20.3127 F350.00
G01 X92.5482 Y20.3287 F350.00
G01 X92.5945 Y20.3449 F350.00
G01 X92.6175 Y20.3535 F350.00
G01 X92.6403 Y20.3626 F350.00
G01 X92.6901 Y20.3835 F350.00
G01 X92.7346 Y20.4042 F350.00
G01 X92.7566 Y20.4150 F350.00
G01 X92.8044 Y20.4402 F350.00
G01 X92.8259 Y20.4520 F350.00
G01 X92.8471 Y20.4644 F350.00
G01 X92.8891 Y20.4899 F350.00
G01 X92.9096 Y20.5032 F350.00
G01 X92.9543 Y20.5335 F350.00
G01 X92.9742 Y20.5479 F350.00
G01 X93.0135 Y20.5773 F350.00
G01 X93.0554 Y20.6114 F350.00
G01 X93.0742 Y20.6272 F350.00
G01 X93.0926 Y20.6434 F350.00
G01 X93.1287 Y20.6766 F350.00
G01 X93.1570 Y20.7039 F350.00
G01 X99.4307 Y26.9777 F350.00
G01 X99.4307 Y24.3000 F350.00
G01 X99.4314 Y24.2607 F350.00
G01 X99.4323 Y24.2362 F350.00
G01 X99.4350 Y24.1872 F350.00
G01 X99.4371 Y24.1627 F350.00
G01 X99.4427 Y24.1091 F350.00
G01 X99.4496 Y24.0605 F350.00
G01 X99.4535 Y24.0362 F350.00
G01 X99.4637 Y23.9832 F350.00
G01 X99.4688 Y23.9592 F350.00
G01 X99.4745 Y23.9353 F350.00
G01 X99.4867 Y23.8878 F350.00
G01 X99.4936 Y23.8642 F350.00
G01 X99.5095 Y23.8126 F350.00
G01 X99.5258 Y23.7663 F350.00
G01 X99.5343 Y23.7433 F350.00
G01 X99.5434 Y23.7205 F350.00
G01 X99.5644 Y23.6708 F350.00
G01 X99.5851 Y23.6263 F350.00
G01 X99.5958 Y23.6042 F350.00
G01 X99.6072 Y23.5824 F350.00
G01 X99.6329 Y23.5350 F350.00
G01 X99.6452 Y23.5138 F350.00
G01 X99.6707 Y23.4718 F350.00
G01 X99.7005 Y23.4268 F350.00
G01 X99.7143 Y23.4065 F350.00
G01 X99.7433 Y23.3669 F350.00
G01 X99.7582 Y23.3474 F350.00
G01 X99.7735 Y23.3282 F350.00
G01 X99.8080 Y23.2867 F350.00
G01 X99.8243 Y23.2683 F350.00
G01 X99.8575 Y23.2321 F350.00
G01 X99.8954 Y23.1937 F350.00
G01 X99.9130 Y23.1766 F350.00
G01 X99.9310 Y23.1599 F350.00
G01 X99.9675 Y23.1272 F350.00
G01 X99.9863 Y23.1114 F350.00
G01 X100.0282 Y23.0773 F350.00
G01 X100.0675 Y23.0479 F350.00
G01 X100.0874 Y23.0335 F350.00
G01 X100.1076 Y23.0196 F350.00
G01 X100.1527 Y22.9899 F350.00
G01 X100.1946 Y22.9644 F350.00
G01 X100.2158 Y22.9520 F350.00
G01 X100.2373 Y22.9402 F350.00
G01 X100.2851 Y22.9150 F350.00
G01 X100.3293 Y22.8937 F350.00
G01 X100.3516 Y22.8835 F350.00
G01 X100.3742 Y22.8738 F350.00
G01 X100.4242 Y22.8535 F350.00
G01 X100.4703 Y22.8366 F350.00
G01 X100.4935 Y22.8287 F350.00
G01 X100.5169 Y22.8212 F350.00
G01 X100.5686 Y22.8059 F350.00
G01 X100.6162 Y22.7936 F350.00
G01 X100.6401 Y22.7880 F350.00
G01 X100.6641 Y22.7829 F350.00
G01 X100.7171 Y22.7727 F350.00
G01 X100.7656 Y22.7651 F350.00
G01 X100.7899 Y22.7618 F350.00
G01 X100.8143 Y22.7591 F350.00
G01 X100.8681 Y22.7542 F350.00
G01 X100.9171 Y22.7514 F350.00
G01 X100.9416 Y22.7505 F350.00
G01 X100.9809 Y22.7499 F350.00
G01 X104.2309 Y22.7499 F350.00
G01 X104.2554 Y22.7502 F350.00
G01 X104.2946 Y22.7514 F350.00
G01 X104.3437 Y22.7542 F350.00
G01 X104.3681 Y22.7563 F350.00
G01 X104.4218 Y22.7618 F350.00
G01 X104.4704 Y22.7688 F350.00
G01 X104.4946 Y22.7727 F350.00
G01 X104.5476 Y22.7829 F350.00
G01 X104.5717 Y22.7880 F350.00
G01 X104.5955 Y22.7936 F350.00
G01 X104.6431 Y22.8059 F350.00
G01 X104.6666 Y22.8127 F350.00
G01 X104.7182 Y22.8287 F350.00
G01 X104.7645 Y22.8449 F350.00
G01 X104.7875 Y22.8535 F350.00
G01 X104.8375 Y22.8738 F350.00
G01 X104.8601 Y22.8835 F350.00
G01 X104.9046 Y22.9042 F350.00
G01 X104.9266 Y22.9150 F350.00
G01 X104.9484 Y22.9263 F350.00
G01 X104.9959 Y22.9520 F350.00
G01 X105.0382 Y22.9770 F350.00
G01 X105.0591 Y22.9899 F350.00
G01 X105.0796 Y23.0032 F350.00
G01 X105.1243 Y23.0335 F350.00
G01 X105.1442 Y23.0479 F350.00
G01 X105.1835 Y23.0773 F350.00
G01 X105.2026 Y23.0927 F350.00
G01 X105.2442 Y23.1272 F350.00
G01 X105.2808 Y23.1599 F350.00
G01 X105.2987 Y23.1766 F350.00
G01 X105.3270 Y23.2039 F350.00
G01 X107.5770 Y25.4539 F350.00
G01 X107.5941 Y25.4715 F350.00
G01 X107.6210 Y25.5001 F350.00
G01 X107.6537 Y25.5367 F350.00
G01 X107.6882 Y25.5782 F350.00
G01 X107.7035 Y25.5974 F350.00
G01 X107.7330 Y25.6366 F350.00
G01 X107.7474 Y25.6565 F350.00
G01 X107.7613 Y25.6768 F350.00
G01 X107.7910 Y25.7218 F350.00
G01 X107.8039 Y25.7427 F350.00
G01 X107.8289 Y25.7850 F350.00
G01 X107.8546 Y25.8324 F350.00
G01 X107.8659 Y25.8542 F350.00
G01 X107.8766 Y25.8763 F350.00
G01 X107.8974 Y25.9208 F350.00
G01 X107.9183 Y25.9705 F350.00
G01 X107.9274 Y25.9933 F350.00
G01 X107.9442 Y26.0394 F350.00
G01 X107.9522 Y26.0626 F350.00
G01 X107.9596 Y26.0860 F350.00
G01 X107.9750 Y26.1378 F350.00
G01 X107.9872 Y26.1853 F350.00
G01 X107.9929 Y26.2092 F350.00
G01 X107.9980 Y26.2332 F350.00
G01 X108.0082 Y26.2862 F350.00
G01 X108.0157 Y26.3347 F350.00
G01 X108.0190 Y26.3591 F350.00
G01 X108.0246 Y26.4127 F350.00
G01 X108.0267 Y26.4372 F350.00
G01 X108.0294 Y26.4862 F350.00
G01 X108.0303 Y26.5107 F350.00
G01 X108.0310 Y26.5500 F350.00
G01 X108.0310 Y46.9820 F350.00
G01 X108.0303 Y47.0212 F350.00
G01 X108.0294 Y47.0458 F350.00
G01 X108.0267 Y47.0948 F350.00
G01 X108.0217 Y47.1485 F350.00
G01 X108.0190 Y47.1729 F350.00
G01 X108.0157 Y47.1972 F350.00
G01 X108.0082 Y47.2458 F350.00
G01 X107.9980 Y47.2988 F350.00
G01 X107.9929 Y47.3228 F350.00
G01 X107.9813 Y47.3705 F350.00
G01 X107.9750 Y47.3942 F350.00
G01 X107.9596 Y47.4459 F350.00
G01 X107.9522 Y47.4693 F350.00
G01 X107.9442 Y47.4925 F350.00
G01 X107.9274 Y47.5387 F350.00
G01 X107.9183 Y47.5615 F350.00
G01 X107.8974 Y47.6112 F350.00
G01 X107.8766 Y47.6557 F350.00
G01 X107.8659 Y47.6778 F350.00
G01 X107.8407 Y47.7255 F350.00
G01 X107.8289 Y47.7470 F350.00
G01 X107.8165 Y47.7682 F350.00
G01 X107.7910 Y47.8102 F350.00
G01 X107.7776 Y47.8307 F350.00
G01 X107.7474 Y47.8755 F350.00
G01 X107.7184 Y47.9151 F350.00
G01 X107.7035 Y47.9346 F350.00
G01 X107.6695 Y47.9765 F350.00
G01 X107.6537 Y47.9953 F350.00
G01 X107.6210 Y48.0319 F350.00
G01 X107.6043 Y48.0499 F350.00
G01 X107.5770 Y48.0781 F350.00
G01 X86.7589 Y68.8961 F350.00
G01 X86.7307 Y68.9234 F350.00
G01 X86.7127 Y68.9401 F350.00
G01 X86.6762 Y68.9728 F350.00
G01 X86.6346 Y69.0073 F350.00
G01 X86.6155 Y69.0227 F350.00
G01 X86.5762 Y69.0521 F350.00
G01 X86.5563 Y69.0665 F350.00
G01 X86.5116 Y69.0968 F350.00
G01 X86.4910 Y69.1101 F350.00
G01 X86.4701 Y69.1230 F350.00
G01 X86.4279 Y69.1480 F350.00
G01 X86.3804 Y69.1737 F350.00
G01 X86.3586 Y69.1850 F350.00
G01 X86.3366 Y69.1958 F350.00
G01 X86.2921 Y69.2165 F350.00
G01 X86.2423 Y69.2374 F350.00
G01 X86.2195 Y69.2465 F350.00
G01 X86.1965 Y69.2551 F350.00
G01 X86.1502 Y69.2713 F350.00
G01 X86.0986 Y69.2873 F350.00
G01 X86.0751 Y69.2941 F350.00
G01 X86.0513 Y69.3004 F350.00
G01 X86.0036 Y69.3120 F350.00
G01 X85.9507 Y69.3229 F350.00
G01 X85.9266 Y69.3273 F350.00
G01 X85.9024 Y69.3312 F350.00
G01 X85.8538 Y69.3382 F350.00
G01 X85.8001 Y69.3437 F350.00
G01 X85.7756 Y69.3458 F350.00
G01 X85.7266 Y69.3486 F350.00
G01 X85.7021 Y69.3495 F350.00
G01 X85.6628 Y69.3501 F350.00
G01 X72.4559 Y69.3501 F350.00
G01 X72.4313 Y69.3498 F350.00
G01 X72.3921 Y69.3486 F350.00
G01 X72.3676 Y69.3474 F350.00
G01 X72.3431 Y69.3458 F350.00
G01 X72.3186 Y69.3437 F350.00
G01 X72.2649 Y69.3382 F350.00
G01 X72.2163 Y69.3312 F350.00
G01 X72.1921 Y69.3273 F350.00
G01 X72.1680 Y69.3229 F350.00
G01 X72.1151 Y69.3120 F350.00
G01 X72.0674 Y69.3004 F350.00
G01 X72.0436 Y69.2941 F350.00
G01 X72.0201 Y69.2873 F350.00
G01 X71.9685 Y69.2713 F350.00
G01 X71.9453 Y69.2634 F350.00
G01 X71.8992 Y69.2465 F350.00
G01 X71.8492 Y69.2262 F350.00
G01 X71.8266 Y69.2165 F350.00
G01 X71.8043 Y69.2063 F350.00
G01 X71.7601 Y69.1850 F350.00
G01 X71.7383 Y69.1737 F350.00
G01 X71.6908 Y69.1480 F350.00
G01 X71.6486 Y69.1230 F350.00
G01 X71.6277 Y69.1101 F350.00
G01 X71.6071 Y69.0968 F350.00
G01 X71.5624 Y69.0665 F350.00
G01 X71.5319 Y69.0443 F350.00
G01 X71.5200 Y69.0637 F350.00
G01 X71.5066 Y69.0842 F350.00
G01 X71.4764 Y69.1290 F350.00
G01 X71.4620 Y69.1488 F350.00
G01 X71.4252 Y69.1979 F350.00
G01 X71.3912 Y69.2399 F350.00
G01 X71.3754 Y69.2586 F350.00
G01 X71.3344 Y69.3043 F350.00
G01 X71.3075 Y69.3330 F350.00
G01 X71.2904 Y69.3505 F350.00
G01 X70.6314 Y70.0095 F350.00
G01 X70.6138 Y70.0267 F350.00
G01 X70.5852 Y70.0535 F350.00
G01 X70.5579 Y70.0783 F350.00
G01 X70.5395 Y70.0945 F350.00
G01 X70.5207 Y70.1103 F350.00
G01 X70.4788 Y70.1443 F350.00
G01 X70.4297 Y70.1811 F350.00
G01 X70.4098 Y70.1955 F350.00
G01 X70.3651 Y70.2257 F350.00
G01 X70.3445 Y70.2391 F350.00
G01 X70.3236 Y70.2520 F350.00
G01 X70.2708 Y70.2833 F350.00
G01 X70.2234 Y70.3090 F350.00
G01 X70.2016 Y70.3203 F350.00
G01 X70.1463 Y70.3468 F350.00
G01 X70.1239 Y70.3570 F350.00
G01 X70.1014 Y70.3667 F350.00
G01 X70.0514 Y70.3871 F350.00
G01 X69.9999 Y70.4058 F350.00
G01 X69.9705 Y70.4160 F350.00
G01 X69.9189 Y70.4320 F350.00
G01 X69.8954 Y70.4388 F350.00
G01 X69.8359 Y70.4540 F350.00
G01 X69.8120 Y70.4597 F350.00
G01 X69.7880 Y70.4648 F350.00
G01 X69.7350 Y70.4750 F350.00
G01 X69.6744 Y70.4843 F350.00
G01 X69.6501 Y70.4876 F350.00
G01 X69.5964 Y70.4932 F350.00
G01 X69.5719 Y70.4953 F350.00
G01 X69.5474 Y70.4968 F350.00
G01 X69.5106 Y70.4986 F350.00
G01 X69.4714 Y70.4999 F350.00
G01 X69.4469 Y70.5002 F350.00
G01 X18.4809 Y70.5002 F350.00
G01 X18.4563 Y70.4999 F350.00
G01 X18.4171 Y70.4986 F350.00
G01 X18.3558 Y70.4953 F350.00
G01 X18.3020 Y70.4903 F350.00
G01 X18.2777 Y70.4876 F350.00
G01 X18.2533 Y70.4843 F350.00
G01 X18.1927 Y70.4750 F350.00
G01 X18.1397 Y70.4648 F350.00
G01 X18.1157 Y70.4597 F350.00
G01 X18.0918 Y70.4540 F350.00
G01 X18.0323 Y70.4388 F350.00
G01 X18.0088 Y70.4320 F350.00
G01 X17.9572 Y70.4160 F350.00
G01 X17.8993 Y70.3956 F350.00
G01 X17.8763 Y70.3871 F350.00
G01 X17.8263 Y70.3667 F350.00
G01 X17.8038 Y70.3570 F350.00
G01 X17.7815 Y70.3468 F350.00
G01 X17.7261 Y70.3203 F350.00
G01 X17.6784 Y70.2951 F350.00
G01 X17.6569 Y70.2833 F350.00
G01 X17.6041 Y70.2520 F350.00
G01 X17.5832 Y70.2391 F350.00
G01 X17.5626 Y70.2257 F350.00
G01 X17.5179 Y70.1955 F350.00
G01 X17.4980 Y70.1811 F350.00
G01 X17.4489 Y70.1443 F350.00
G01 X17.4297 Y70.1290 F350.00
G01 X17.3882 Y70.0945 F350.00
G01 X17.3425 Y70.0535 F350.00
G01 X17.3246 Y70.0368 F350.00
G01 X17.2862 Y69.9989 F350.00
G01 X17.2690 Y69.9813 F350.00
G01 X17.2523 Y69.9633 F350.00
G01 X17.2113 Y69.9177 F350.00
G01 X17.1769 Y69.8761 F350.00
G01 X17.1615 Y69.8570 F350.00
G01 X17.1247 Y69.8079 F350.00
G01 X17.1104 Y69.7880 F350.00
G01 X17.0965 Y69.7677 F350.00
G01 X17.0667 Y69.7227 F350.00
G01 X17.0349 Y69.6702 F350.00
G01 X17.0226 Y69.6490 F350.00
G01 X16.9969 Y69.6015 F350.00
G01 X16.9856 Y69.5797 F350.00
G01 X16.9748 Y69.5577 F350.00
G01 X16.9488 Y69.5021 F350.00
G01 X16.9392 Y69.4795 F350.00
G01 X16.9188 Y69.4295 F350.00
G01 X16.9102 Y69.4065 F350.00
G01 X16.8898 Y69.3487 F350.00
G01 X16.8739 Y69.2971 F350.00
G01 X16.8670 Y69.2735 F350.00
G01 X16.8518 Y69.2141 F350.00
G01 X16.8462 Y69.1902 F350.00
G01 X16.8411 Y69.1662 F350.00
G01 X16.8309 Y69.1132 F350.00
G01 X16.8270 Y69.0889 F350.00
G01 X16.8182 Y69.0282 F350.00
G01 X16.8127 Y68.9745 F350.00
G01 X16.8106 Y68.9501 F350.00
G01 X16.8072 Y68.8888 F350.00
G01 X16.8060 Y68.8495 F350.00
G01 X16.8057 Y68.8250 F350.00
G01 X16.8057 Y52.0500 F350.00
G01 X16.8063 Y52.0107 F350.00
G01 X16.8072 Y51.9862 F350.00
G01 X16.8106 Y51.9249 F350.00
G01 X16.8155 Y51.8712 F350.00
G01 X16.8182 Y51.8468 F350.00
G01 X16.8216 Y51.8225 F350.00
G01 X16.8309 Y51.7618 F350.00
G01 X16.8411 Y51.7088 F350.00
G01 X16.8462 Y51.6848 F350.00
G01 X16.8518 Y51.6609 F350.00
G01 X16.8670 Y51.6015 F350.00
G01 X16.8739 Y51.5779 F350.00
G01 X16.8898 Y51.5263 F350.00
G01 X16.8978 Y51.5031 F350.00
G01 X16.9188 Y51.4455 F350.00
G01 X16.9392 Y51.3955 F350.00
G01 X16.9488 Y51.3729 F350.00
G01 X16.9590 Y51.3506 F350.00
G01 X16.9856 Y51.2953 F350.00
G01 X17.0107 Y51.2475 F350.00
G01 X17.0226 Y51.2260 F350.00
G01 X17.0539 Y51.1732 F350.00
G01 X17.0667 Y51.1523 F350.00
G01 X17.0965 Y51.1073 F350.00
G01 X17.1104 Y51.0870 F350.00
G01 X17.1467 Y51.0376 F350.00
G01 X17.1615 Y51.0180 F350.00
G01 X17.1955 Y50.9761 F350.00
G01 X17.2113 Y50.9573 F350.00
G01 X17.2523 Y50.9117 F350.00
G01 X17.2792 Y50.8830 F350.00
G01 X17.2963 Y50.8655 F350.00
G01 X17.7114 Y50.4504 F350.00
G01 X17.6989 Y50.3635 F350.00
G01 X17.6933 Y50.3098 F350.00
G01 X17.6912 Y50.2853 F350.00
G01 X17.6896 Y50.2608 F350.00
G01 X17.6824 Y50.1138 F350.00
G01 X17.6815 Y50.0893 F350.00
G01 X17.6812 Y50.0647 F350.00
G01 X17.6815 Y50.0107 F350.00
G01 X17.6824 Y49.9862 F350.00
G01 X17.6896 Y49.8392 F350.00
G01 X17.6912 Y49.8147 F350.00
G01 X17.6933 Y49.7902 F350.00
G01 X17.6989 Y49.7365 F350.00
G01 X17.7022 Y49.7122 F350.00
G01 X17.7238 Y49.5666 F350.00
G01 X17.7277 Y49.5424 F350.00
G01 X17.7379 Y49.4894 F350.00
G01 X17.7430 Y49.4654 F350.00
G01 X17.7486 Y49.4415 F350.00
G01 X17.7844 Y49.2987 F350.00
G01 X17.7907 Y49.2750 F350.00
G01 X17.8060 Y49.2232 F350.00
G01 X17.8135 Y49.1998 F350.00
G01 X17.8214 Y49.1766 F350.00
G01 X17.8710 Y49.0380 F350.00
G01 X17.8796 Y49.0150 F350.00
G01 X17.9000 Y48.9650 F350.00
G01 X17.9096 Y48.9425 F350.00
G01 X17.9199 Y48.9202 F350.00
G01 X17.9828 Y48.7871 F350.00
G01 X17.9936 Y48.7650 F350.00
G01 X18.0049 Y48.7432 F350.00
G01 X18.0306 Y48.6958 F350.00
G01 X18.0429 Y48.6746 F350.00
G01 X18.1186 Y48.5483 F350.00
G01 X18.1315 Y48.5274 F350.00
G01 X18.1612 Y48.4824 F350.00
G01 X18.1751 Y48.4621 F350.00
G01 X18.1895 Y48.4422 F350.00
G01 X18.2772 Y48.3240 F350.00
G01 X18.2920 Y48.3045 F350.00
G01 X18.3260 Y48.2625 F350.00
G01 X18.3419 Y48.2438 F350.00
G01 X18.3581 Y48.2254 F350.00
G01 X18.4570 Y48.1163 F350.00
G01 X18.4737 Y48.0983 F350.00
G01 X18.5116 Y48.0599 F350.00
G01 X18.5292 Y48.0428 F350.00
G01 X18.5472 Y48.0261 F350.00
G01 X18.6562 Y47.9272 F350.00
G01 X18.6746 Y47.9110 F350.00
G01 X18.7162 Y47.8765 F350.00
G01 X18.7353 Y47.8612 F350.00
G01 X18.7549 Y47.8463 F350.00
G01 X18.8731 Y47.7586 F350.00
G01 X18.8930 Y47.7442 F350.00
G01 X18.9132 Y47.7304 F350.00
G01 X18.9583 Y47.7006 F350.00
G01 X18.9792 Y47.6877 F350.00
G01 X19.1054 Y47.6121 F350.00
G01 X19.1266 Y47.5997 F350.00
G01 X19.1481 Y47.5879 F350.00
G01 X19.1959 Y47.5627 F350.00
G01 X19.2179 Y47.5519 F350.00
G01 X19.3510 Y47.4890 F350.00
G01 X19.3733 Y47.4788 F350.00
G01 X19.3959 Y47.4691 F350.00
G01 X19.4459 Y47.4487 F350.00
G01 X19.4689 Y47.4402 F350.00
G01 X19.6075 Y47.3906 F350.00
G01 X19.6307 Y47.3826 F350.00
G01 X19.6541 Y47.3752 F350.00
G01 X19.7058 Y47.3598 F350.00
G01 X19.7296 Y47.3535 F350.00
G01 X19.8724 Y47.3178 F350.00
G01 X19.8962 Y47.3121 F350.00
G01 X19.9202 Y47.3070 F350.00
G01 X19.9732 Y47.2968 F350.00
G01 X19.9975 Y47.2929 F350.00
G01 X20.1431 Y47.2713 F350.00
G01 X20.1674 Y47.2680 F350.00
G01 X20.1918 Y47.2653 F350.00
G01 X20.2456 Y47.2603 F350.00
G01 X20.2700 Y47.2588 F350.00
G01 X20.4171 Y47.2516 F350.00
G01 X20.4416 Y47.2507 F350.00
G01 X20.4661 Y47.2504 F350.00
G01 X20.5201 Y47.2507 F350.00
G01 X20.5446 Y47.2516 F350.00
G01 X20.6917 Y47.2588 F350.00
G01 X20.7162 Y47.2603 F350.00
G01 X20.7699 Y47.2653 F350.00
G01 X20.7943 Y47.2680 F350.00
G01 X20.8186 Y47.2713 F350.00
G01 X20.9642 Y47.2929 F350.00
G01 X20.9885 Y47.2968 F350.00
G01 X21.0415 Y47.3070 F350.00
G01 X21.0655 Y47.3121 F350.00
G01 X21.0894 Y47.3178 F350.00
G01 X21.2322 Y47.3535 F350.00
G01 X21.2559 Y47.3598 F350.00
G01 X21.3076 Y47.3752 F350.00
G01 X21.3310 Y47.3826 F350.00
G01 X21.3542 Y47.3906 F350.00
G01 X21.4928 Y47.4402 F350.00
G01 X21.5158 Y47.4487 F350.00
G01 X21.5658 Y47.4691 F350.00
G01 X21.5884 Y47.4788 F350.00
G01 X21.6107 Y47.4890 F350.00
G01 X21.7438 Y47.5519 F350.00
G01 X21.7658 Y47.5627 F350.00
G01 X21.8136 Y47.5879 F350.00
G01 X21.8351 Y47.5997 F350.00
G01 X21.8563 Y47.6121 F350.00
G01 X21.9825 Y47.6877 F350.00
G01 X22.0034 Y47.7006 F350.00
G01 X22.0240 Y47.7140 F350.00
G01 X22.0687 Y47.7442 F350.00
G01 X22.0886 Y47.7586 F350.00
G01 X22.2069 Y47.8463 F350.00
G01 X22.2264 Y47.8612 F350.00
G01 X22.2456 Y47.8765 F350.00
G01 X22.2871 Y47.9110 F350.00
G01 X22.3055 Y47.9272 F350.00
G01 X22.4145 Y48.0261 F350.00
G01 X22.4325 Y48.0428 F350.00
G01 X22.4501 Y48.0599 F350.00
G01 X22.4881 Y48.0983 F350.00
G01 X22.5048 Y48.1163 F350.00
G01 X22.6036 Y48.2254 F350.00
G01 X22.6199 Y48.2438 F350.00
G01 X22.6357 Y48.2625 F350.00
G01 X22.6697 Y48.3045 F350.00
G01 X22.6845 Y48.3240 F350.00
G01 X22.7722 Y48.4422 F350.00
G01 X22.7866 Y48.4621 F350.00
G01 X22.8005 Y48.4824 F350.00
G01 X22.8302 Y48.5274 F350.00
G01 X22.8431 Y48.5483 F350.00
G01 X22.9170 Y48.6716 F350.00
G01 X23.6348 Y47.9539 F350.00
G01 X23.6630 Y47.9266 F350.00
G01 X23.6810 Y47.9099 F350.00
G01 X23.7175 Y47.8772 F350.00
G01 X23.7591 Y47.8427 F350.00
G01 X23.7782 Y47.8273 F350.00
G01 X23.8175 Y47.7979 F350.00
G01 X23.8374 Y47.7835 F350.00
G01 X23.8576 Y47.7696 F350.00
G01 X23.9027 Y47.7399 F350.00
G01 X23.9236 Y47.7270 F350.00
G01 X23.9658 Y47.7020 F350.00
G01 X23.9873 Y47.6902 F350.00
G01 X24.0351 Y47.6650 F350.00
G01 X24.0571 Y47.6542 F350.00
G01 X24.1016 Y47.6335 F350.00
G01 X24.1423 Y47.6164 F350.00
G01 X24.1296 Y47.5850 F350.00
G01 X24.1210 Y47.5620 F350.00
G01 X24.0714 Y47.4234 F350.00
G01 X24.0635 Y47.4002 F350.00
G01 X24.0475 Y47.3486 F350.00
G01 X24.0407 Y47.3250 F350.00
G01 X24.0344 Y47.3013 F350.00
G01 X23.9986 Y47.1585 F350.00
G01 X23.9930 Y47.1346 F350.00
G01 X23.9821 Y47.0817 F350.00
G01 X23.9777 Y47.0576 F350.00
G01 X23.9738 Y47.0334 F350.00
G01 X23.9522 Y46.8878 F350.00
G01 X23.9489 Y46.8635 F350.00
G01 X23.9461 Y46.8391 F350.00
G01 X23.9412 Y46.7853 F350.00
G01 X23.9396 Y46.7608 F350.00
G01 X23.9324 Y46.6138 F350.00
G01 X23.9315 Y46.5893 F350.00
G01 X23.9312 Y46.5647 F350.00
G01 X23.9315 Y46.5107 F350.00
G01 X23.9324 Y46.4862 F350.00
G01 X23.9396 Y46.3392 F350.00
G01 X23.9412 Y46.3147 F350.00
G01 X23.9433 Y46.2902 F350.00
G01 X23.9489 Y46.2365 F350.00
G01 X23.9522 Y46.2122 F350.00
G01 X23.9738 Y46.0666 F350.00
G01 X23.9777 Y46.0424 F350.00
G01 X23.9821 Y46.0183 F350.00
G01 X23.9930 Y45.9654 F350.00
G01 X23.9986 Y45.9415 F350.00
G01 X24.0344 Y45.7987 F350.00
G01 X24.0407 Y45.7750 F350.00
G01 X24.0475 Y45.7514 F350.00
G01 X24.0635 Y45.6998 F350.00
G01 X24.0714 Y45.6766 F350.00
G01 X24.1210 Y45.5380 F350.00
G01 X24.1296 Y45.5150 F350.00
G01 X24.1500 Y45.4650 F350.00
G01 X24.1596 Y45.4425 F350.00
G01 X24.1699 Y45.4202 F350.00
G01 X24.2328 Y45.2871 F350.00
G01 X24.2436 Y45.2650 F350.00
G01 X24.2687 Y45.2173 F350.00
G01 X24.2806 Y45.1958 F350.00
G01 X24.2929 Y45.1746 F350.00
G01 X24.3686 Y45.0483 F350.00
G01 X24.3815 Y45.0274 F350.00
G01 X24.4112 Y44.9824 F350.00
G01 X24.4251 Y44.9621 F350.00
G01 X24.4395 Y44.9422 F350.00
G01 X24.5272 Y44.8240 F350.00
G01 X24.5420 Y44.8045 F350.00
G01 X24.5760 Y44.7625 F350.00
G01 X24.5919 Y44.7438 F350.00
G01 X24.6081 Y44.7254 F350.00
G01 X24.7070 Y44.6163 F350.00
G01 X24.7237 Y44.5983 F350.00
G01 X24.7408 Y44.5808 F350.00
G01 X24.7792 Y44.5428 F350.00
G01 X24.7972 Y44.5261 F350.00
G01 X24.9062 Y44.4272 F350.00
G01 X24.9246 Y44.4110 F350.00
G01 X24.9434 Y44.3952 F350.00
G01 X24.9853 Y44.3612 F350.00
G01 X25.0049 Y44.3463 F350.00
G01 X25.1231 Y44.2586 F350.00
G01 X25.1430 Y44.2442 F350.00
G01 X25.1877 Y44.2140 F350.00
G01 X25.2083 Y44.2006 F350.00
G01 X25.2292 Y44.1877 F350.00
G01 X25.3554 Y44.1121 F350.00
G01 X25.3766 Y44.0997 F350.00
G01 X25.4241 Y44.0740 F350.00
G01 X25.4459 Y44.0627 F350.00
G01 X25.4679 Y44.0519 F350.00
G01 X25.6010 Y43.9890 F350.00
G01 X25.6233 Y43.9788 F350.00
G01 X25.6459 Y43.9691 F350.00
G01 X25.6959 Y43.9487 F350.00
G01 X25.7189 Y43.9402 F350.00
G01 X25.8575 Y43.8906 F350.00
G01 X25.8807 Y43.8826 F350.00
G01 X25.9041 Y43.8752 F350.00
G01 X25.9558 Y43.8598 F350.00
G01 X25.9796 Y43.8535 F350.00
G01 X26.1224 Y43.8178 F350.00
G01 X26.1462 Y43.8121 F350.00
G01 X26.1991 Y43.8013 F350.00
G01 X26.2232 Y43.7968 F350.00
G01 X26.2475 Y43.7929 F350.00
G01 X26.3931 Y43.7713 F350.00
G01 X26.4174 Y43.7680 F350.00
G01 X26.4418 Y43.7653 F350.00
G01 X26.4956 Y43.7603 F350.00
G01 X26.5200 Y43.7588 F350.00
G01 X26.6671 Y43.7516 F350.00
G01 X26.6916 Y43.7507 F350.00
G01 X26.7161 Y43.7504 F350.00
G01 X26.7701 Y43.7507 F350.00
G01 X26.7946 Y43.7516 F350.00
G01 X26.9417 Y43.7588 F350.00
G01 X26.9662 Y43.7603 F350.00
G01 X26.9906 Y43.7624 F350.00
G01 X27.0443 Y43.7680 F350.00
G01 X27.0686 Y43.7713 F350.00
G01 X27.2142 Y43.7929 F350.00
G01 X27.2385 Y43.7968 F350.00
G01 X27.2915 Y43.8070 F350.00
G01 X27.3155 Y43.8121 F350.00
G01 X27.3394 Y43.8178 F350.00
G01 X27.4822 Y43.8535 F350.00
G01 X27.5059 Y43.8598 F350.00
G01 X27.5295 Y43.8666 F350.00
G01 X27.5810 Y43.8826 F350.00
G01 X27.6042 Y43.8906 F350.00
G01 X27.7428 Y43.9402 F350.00
G01 X27.7658 Y43.9487 F350.00
G01 X27.7886 Y43.9578 F350.00
G01 X27.8384 Y43.9788 F350.00
G01 X27.8607 Y43.9890 F350.00
G01 X27.9938 Y44.0519 F350.00
G01 X28.0158 Y44.0627 F350.00
G01 X28.0376 Y44.0740 F350.00
G01 X28.0851 Y44.0997 F350.00
G01 X28.1063 Y44.1121 F350.00
G01 X28.2325 Y44.1877 F350.00
G01 X28.2534 Y44.2006 F350.00
G01 X28.2740 Y44.2140 F350.00
G01 X28.3187 Y44.2442 F350.00
G01 X28.3386 Y44.2586 F350.00
G01 X28.4569 Y44.3463 F350.00
G01 X28.4764 Y44.3612 F350.00
G01 X28.5183 Y44.3952 F350.00
G01 X28.5371 Y44.4110 F350.00
G01 X28.5555 Y44.4272 F350.00
G01 X28.6645 Y44.5261 F350.00
G01 X28.6825 Y44.5428 F350.00
G01 X28.7209 Y44.5808 F350.00
G01 X28.7381 Y44.5983 F350.00
G01 X28.7548 Y44.6163 F350.00
G01 X28.8536 Y44.7254 F350.00
G01 X28.8699 Y44.7438 F350.00
G01 X28.8857 Y44.7625 F350.00
G01 X28.9197 Y44.8045 F350.00
G01 X28.9345 Y44.8240 F350.00
G01 X29.0222 Y44.9422 F350.00
G01 X29.0366 Y44.9621 F350.00
G01 X29.0505 Y44.9824 F350.00
G01 X29.0802 Y45.0274 F350.00
G01 X29.0931 Y45.0483 F350.00
G01 X29.1688 Y45.1746 F350.00
G01 X29.1811 Y45.1958 F350.00
G01 X29.1930 Y45.2173 F350.00
G01 X29.2182 Y45.2650 F350.00
G01 X29.2289 Y45.2871 F350.00
G01 X29.2919 Y45.4202 F350.00
G01 X29.3021 Y45.4425 F350.00
G01 X29.3230 Y45.4922 F350.00
G01 X29.3321 Y45.5150 F350.00
G01 X29.3407 Y45.5380 F350.00
G01 X29.3903 Y45.6766 F350.00
G01 X29.3983 Y45.6998 F350.00
G01 X29.4057 Y45.7232 F350.00
G01 X29.4211 Y45.7750 F350.00
G01 X29.4273 Y45.7987 F350.00
G01 X29.4631 Y45.9415 F350.00
G01 X29.4688 Y45.9654 F350.00
G01 X29.4738 Y45.9894 F350.00
G01 X29.4841 Y46.0424 F350.00
G01 X29.4880 Y46.0666 F350.00
G01 X29.5096 Y46.2122 F350.00
G01 X29.5129 Y46.2365 F350.00
G01 X29.5185 Y46.2902 F350.00
G01 X29.5206 Y46.3147 F350.00
G01 X29.5221 Y46.3392 F350.00
G01 X29.5293 Y46.4862 F350.00
G01 X29.5302 Y46.5107 F350.00
G01 X29.5305 Y46.5647 F350.00
G01 X29.5302 Y46.5893 F350.00
G01 X29.5293 Y46.6138 F350.00
G01 X29.5221 Y46.7608 F350.00
G01 X29.5206 Y46.7853 F350.00
G01 X29.5156 Y46.8391 F350.00
G01 X29.5129 Y46.8635 F350.00
G01 X29.5096 Y46.8878 F350.00
G01 X29.4880 Y47.0334 F350.00
G01 X29.4841 Y47.0576 F350.00
G01 X29.4796 Y47.0817 F350.00
G01 X29.4688 Y47.1346 F350.00
G01 X29.4631 Y47.1585 F350.00
G01 X29.4273 Y47.3013 F350.00
G01 X29.4211 Y47.3250 F350.00
G01 X29.4057 Y47.3768 F350.00
G01 X29.3983 Y47.4002 F350.00
G01 X29.3629 Y47.4999 F350.00
G01 X33.2049 Y47.4999 F350.00
G01 X33.2049 Y37.3163 F350.00
G01 X21.7354 Y25.8467 F350.00
G01 X21.7437 Y25.8899 F350.00
G01 X21.7476 Y25.9142 F350.00
G01 X21.7620 Y26.0112 F350.00
G01 X21.7653 Y26.0356 F350.00
G01 X21.7680 Y26.0599 F350.00
G01 X21.7730 Y26.1137 F350.00
G01 X21.7745 Y26.1382 F350.00
G01 X21.7802 Y26.2607 F350.00
G01 X21.7809 Y26.3000 F350.00
G01 X21.7809 Y27.3000 F350.00
G01 X21.7802 Y27.3393 F350.00
G01 X21.7773 Y27.4042 F350.00
G01 X24.5770 Y30.2039 F350.00
G01 X24.5941 Y30.2215 F350.00
G01 X24.6210 Y30.2501 F350.00
G01 X24.6537 Y30.2867 F350.00
G01 X24.6882 Y30.3282 F350.00
G01 X24.7035 Y30.3474 F350.00
G01 X24.7330 Y30.3866 F350.00
G01 X24.7474 Y30.4065 F350.00
G01 X24.7613 Y30.4268 F350.00
G01 X24.7910 Y30.4718 F350.00
G01 X24.8039 Y30.4927 F350.00
G01 X24.8289 Y30.5350 F350.00
G01 X24.8546 Y30.5824 F350.00
G01 X24.8659 Y30.6042 F350.00
G01 X24.8766 Y30.6263 F350.00
G01 X24.8974 Y30.6708 F350.00
G01 X24.9183 Y30.7205 F350.00
G01 X24.9274 Y30.7433 F350.00
G01 X24.9442 Y30.7894 F350.00
G01 X24.9522 Y30.8126 F350.00
G01 X24.9596 Y30.8360 F350.00
G01 X24.9750 Y30.8878 F350.00
G01 X24.9872 Y30.9353 F350.00
G01 X24.9929 Y30.9592 F350.00
G01 X25.0037 Y31.0121 F350.00
G01 X25.0082 Y31.0362 F350.00
G01 X25.0157 Y31.0847 F350.00
G01 X25.0190 Y31.1091 F350.00
G01 X25.0217 Y31.1334 F350.00
G01 X25.0267 Y31.1872 F350.00
G01 X25.0282 Y31.2117 F350.00
G01 X25.0303 Y31.2607 F350.00
G01 X25.0310 Y31.3000 F350.00
G01 X25.0310 Y33.0579 F350.00
G01 X27.8270 Y35.8539 F350.00
G01 X27.8441 Y35.8715 F350.00
G01 X27.8710 Y35.9001 F350.00
G01 X27.9037 Y35.9367 F350.00
G01 X27.9382 Y35.9782 F350.00
G01 X27.9535 Y35.9974 F350.00
G01 X27.9830 Y36.0366 F350.00
G01 X27.9974 Y36.0565 F350.00
G01 X28.0113 Y36.0768 F350.00
G01 X28.0410 Y36.1218 F350.00
G01 X28.0539 Y36.1427 F350.00
G01 X28.0789 Y36.1850 F350.00
G01 X28.0907 Y36.2065 F350.00
G01 X28.1159 Y36.2542 F350.00
G01 X28.1266 Y36.2763 F350.00
G01 X28.1474 Y36.3208 F350.00
G01 X28.1683 Y36.3705 F350.00
G01 X28.1774 Y36.3933 F350.00
G01 X28.1942 Y36.4394 F350.00
G01 X28.2022 Y36.4626 F350.00
G01 X28.2182 Y36.5142 F350.00
G01 X28.2250 Y36.5378 F350.00
G01 X28.2313 Y36.5615 F350.00
G01 X28.2429 Y36.6092 F350.00
G01 X28.2480 Y36.6332 F350.00
G01 X28.2582 Y36.6862 F350.00
G01 X28.2657 Y36.7347 F350.00
G01 X28.2690 Y36.7591 F350.00
G01 X28.2746 Y36.8127 F350.00
G01 X28.2767 Y36.8372 F350.00
G01 X28.2794 Y36.8862 F350.00
G01 X28.2807 Y36.9255 F350.00
G01 X28.2810 Y36.9500 F350.00
G01 X28.2810 Y37.2187 F350.00
G01 X28.3187 Y37.2442 F350.00
G01 X28.3386 Y37.2586 F350.00
G01 X28.4569 Y37.3463 F350.00
G01 X28.4764 Y37.3612 F350.00
G01 X28.5183 Y37.3952 F350.00
G01 X28.5371 Y37.4110 F350.00
G01 X28.5555 Y37.4272 F350.00
G01 X28.6645 Y37.5261 F350.00
G01 X28.6825 Y37.5428 F350.00
G01 X28.7209 Y37.5808 F350.00
G01 X28.7381 Y37.5983 F350.00
G01 X28.7548 Y37.6163 F350.00
G01 X28.8536 Y37.7254 F350.00
G01 X28.8699 Y37.7438 F350.00
G01 X28.8857 Y37.7625 F350.00
G01 X28.9197 Y37.8045 F350.00
G01 X28.9345 Y37.8240 F350.00
G01 X29.0222 Y37.9422 F350.00
G01 X29.0366 Y37.9621 F350.00
G01 X29.0505 Y37.9824 F350.00
G01 X29.0802 Y38.0274 F350.00
G01 X29.0931 Y38.0483 F350.00
G01 X29.1688 Y38.1746 F350.00
G01 X29.1811 Y38.1958 F350.00
G01 X29.2069 Y38.2432 F350.00
G01 X29.2182 Y38.2650 F350.00
G01 X29.2289 Y38.2871 F350.00
G01 X29.2919 Y38.4202 F350.00
G01 X29.3021 Y38.4425 F350.00
G01 X29.3118 Y38.4650 F350.00
G01 X29.3321 Y38.5150 F350.00
G01 X29.3407 Y38.5380 F350.00
G01 X29.3903 Y38.6766 F350.00
G01 X29.3983 Y38.6998 F350.00
G01 X29.4057 Y38.7232 F350.00
G01 X29.4211 Y38.7750 F350.00
G01 X29.4273 Y38.7987 F350.00
G01 X29.4631 Y38.9415 F350.00
G01 X29.4688 Y38.9654 F350.00
G01 X29.4796 Y39.0183 F350.00
G01 X29.4841 Y39.0424 F350.00
G01 X29.4880 Y39.0666 F350.00
G01 X29.5096 Y39.2122 F350.00
G01 X29.5129 Y39.2365 F350.00
G01 X29.5156 Y39.2609 F350.00
G01 X29.5206 Y39.3147 F350.00
G01 X29.5221 Y39.3392 F350.00
G01 X29.5293 Y39.4862 F350.00
G01 X29.5302 Y39.5107 F350.00
G01 X29.5305 Y39.5353 F350.00
G01 X29.5302 Y39.5893 F350.00
G01 X29.5293 Y39.6138 F350.00
G01 X29.5221 Y39.7608 F350.00
G01 X29.5206 Y39.7853 F350.00
G01 X29.5156 Y39.8391 F350.00
G01 X29.5129 Y39.8635 F350.00
G01 X29.5096 Y39.8878 F350.00
G01 X29.4880 Y40.0334 F350.00
G01 X29.4841 Y40.0576 F350.00
G01 X29.4738 Y40.1106 F350.00
G01 X29.4688 Y40.1346 F350.00
G01 X29.4631 Y40.1585 F350.00
G01 X29.4273 Y40.3013 F350.00
G01 X29.4211 Y40.3250 F350.00
G01 X29.4142 Y40.3486 F350.00
G01 X29.3983 Y40.4002 F350.00
G01 X29.3903 Y40.4234 F350.00
G01 X29.3407 Y40.5620 F350.00
G01 X29.3321 Y40.5850 F350.00
G01 X29.3118 Y40.6350 F350.00
G01 X29.3021 Y40.6575 F350.00
G01 X29.2919 Y40.6798 F350.00
G01 X29.2289 Y40.8129 F350.00
G01 X29.2182 Y40.8350 F350.00
G01 X29.2069 Y40.8568 F350.00
G01 X29.1811 Y40.9042 F350.00
G01 X29.1688 Y40.9254 F350.00
G01 X29.0931 Y41.0517 F350.00
G01 X29.0802 Y41.0726 F350.00
G01 X29.0669 Y41.0932 F350.00
G01 X29.0366 Y41.1379 F350.00
G01 X29.0222 Y41.1578 F350.00
G01 X28.9345 Y41.2760 F350.00
G01 X28.9197 Y41.2955 F350.00
G01 X28.8857 Y41.3375 F350.00
G01 X28.8699 Y41.3562 F350.00
G01 X28.8536 Y41.3746 F350.00
G01 X28.7548 Y41.4837 F350.00
G01 X28.7381 Y41.5017 F350.00
G01 X28.7209 Y41.5192 F350.00
G01 X28.6825 Y41.5572 F350.00
G01 X28.6645 Y41.5739 F350.00
G01 X28.5555 Y41.6728 F350.00
G01 X28.5371 Y41.6890 F350.00
G01 X28.4956 Y41.7235 F350.00
G01 X28.4764 Y41.7388 F350.00
G01 X28.4569 Y41.7537 F350.00
G01 X28.3386 Y41.8414 F350.00
G01 X28.3187 Y41.8558 F350.00
G01 X28.2740 Y41.8860 F350.00
G01 X28.2534 Y41.8994 F350.00
G01 X28.2325 Y41.9123 F350.00
G01 X28.1063 Y41.9879 F350.00
G01 X28.0851 Y42.0003 F350.00
G01 X28.0376 Y42.0260 F350.00
G01 X28.0158 Y42.0373 F350.00
G01 X27.9938 Y42.0481 F350.00
G01 X27.8607 Y42.1110 F350.00
G01 X27.8384 Y42.1212 F350.00
G01 X27.7886 Y42.1422 F350.00
G01 X27.7658 Y42.1513 F350.00
G01 X27.7428 Y42.1598 F350.00
G01 X27.6042 Y42.2094 F350.00
G01 X27.5810 Y42.2174 F350.00
G01 X27.5576 Y42.2248 F350.00
G01 X27.5059 Y42.2402 F350.00
G01 X27.4822 Y42.2465 F350.00
G01 X27.3394 Y42.2822 F350.00
G01 X27.3155 Y42.2879 F350.00
G01 X27.2915 Y42.2930 F350.00
G01 X27.2385 Y42.3032 F350.00
G01 X27.2142 Y42.3071 F350.00
G01 X27.0686 Y42.3287 F350.00
G01 X27.0443 Y42.3320 F350.00
G01 X26.9906 Y42.3376 F350.00
G01 X26.9662 Y42.3397 F350.00
G01 X26.9417 Y42.3412 F350.00
G01 X26.7946 Y42.3484 F350.00
G01 X26.7701 Y42.3493 F350.00
G01 X26.7161 Y42.3496 F350.00
G01 X26.6916 Y42.3493 F350.00
G01 X26.6671 Y42.3484 F350.00
G01 X26.5200 Y42.3412 F350.00
G01 X26.4956 Y42.3397 F350.00
G01 X26.4418 Y42.3347 F350.00
G01 X26.4174 Y42.3320 F350.00
G01 X26.3931 Y42.3287 F350.00
G01 X26.2475 Y42.3071 F350.00
G01 X26.2232 Y42.3032 F350.00
G01 X26.1991 Y42.2987 F350.00
G01 X26.1462 Y42.2879 F350.00
G01 X26.1224 Y42.2822 F350.00
G01 X25.9796 Y42.2465 F350.00
G01 X25.9558 Y42.2402 F350.00
G01 X25.9323 Y42.2334 F350.00
G01 X25.8807 Y42.2174 F350.00
G01 X25.8575 Y42.2094 F350.00
G01 X25.7189 Y42.1598 F350.00
G01 X25.6959 Y42.1513 F350.00
G01 X25.6459 Y42.1309 F350.00
G01 X25.6233 Y42.1212 F350.00
G01 X25.6010 Y42.1110 F350.00
G01 X25.4679 Y42.0481 F350.00
G01 X25.4459 Y42.0373 F350.00
G01 X25.3981 Y42.0121 F350.00
G01 X25.3766 Y42.0003 F350.00
G01 X25.3554 Y41.9879 F350.00
G01 X25.2292 Y41.9123 F350.00
G01 X25.2083 Y41.8994 F350.00
G01 X25.1877 Y41.8860 F350.00
G01 X25.1430 Y41.8558 F350.00
G01 X25.1231 Y41.8414 F350.00
G01 X25.0049 Y41.7537 F350.00
G01 X24.9853 Y41.7388 F350.00
G01 X24.9434 Y41.7048 F350.00
G01 X24.9246 Y41.6890 F350.00
G01 X24.9062 Y41.6728 F350.00
G01 X24.7972 Y41.5739 F350.00
G01 X24.7792 Y41.5572 F350.00
G01 X24.7408 Y41.5192 F350.00
G01 X24.7237 Y41.5017 F350.00
G01 X24.7070 Y41.4837 F350.00
G01 X24.6081 Y41.3746 F350.00
G01 X24.5919 Y41.3562 F350.00
G01 X24.5574 Y41.3147 F350.00
G01 X24.5420 Y41.2955 F350.00
G01 X24.5272 Y41.2760 F350.00
G01 X24.4395 Y41.1578 F350.00
G01 X24.4251 Y41.1379 F350.00
G01 X24.4112 Y41.1176 F350.00
G01 X24.3815 Y41.0726 F350.00
G01 X24.3686 Y41.0517 F350.00
G01 X24.2929 Y40.9254 F350.00
G01 X24.2806 Y40.9042 F350.00
G01 X24.2687 Y40.8827 F350.00
G01 X24.2436 Y40.8350 F350.00
G01 X24.2328 Y40.8129 F350.00
G01 X24.1699 Y40.6798 F350.00
G01 X24.1596 Y40.6575 F350.00
G01 X24.1387 Y40.6078 F350.00
G01 X24.1296 Y40.5850 F350.00
G01 X24.1210 Y40.5620 F350.00
G01 X24.0714 Y40.4234 F350.00
G01 X24.0635 Y40.4002 F350.00
G01 X24.0560 Y40.3768 F350.00
G01 X24.0407 Y40.3250 F350.00
G01 X24.0344 Y40.3013 F350.00
G01 X23.9986 Y40.1585 F350.00
G01 X23.9930 Y40.1346 F350.00
G01 X23.9879 Y40.1106 F350.00
G01 X23.9777 Y40.0576 F350.00
G01 X23.9738 Y40.0334 F350.00
G01 X23.9522 Y39.8878 F350.00
G01 X23.9489 Y39.8635 F350.00
G01 X23.9433 Y39.8098 F350.00
G01 X23.9412 Y39.7853 F350.00
G01 X23.9396 Y39.7608 F350.00
G01 X23.9324 Y39.6138 F350.00
G01 X23.9315 Y39.5893 F350.00
G01 X23.9312 Y39.5647 F350.00
G01 X23.9315 Y39.5107 F350.00
G01 X23.9324 Y39.4862 F350.00
G01 X23.9396 Y39.3392 F350.00
G01 X23.9412 Y39.3147 F350.00
G01 X23.9461 Y39.2609 F350.00
G01 X23.9489 Y39.2365 F350.00
G01 X23.9522 Y39.2122 F350.00
G01 X23.9738 Y39.0666 F350.00
G01 X23.9777 Y39.0424 F350.00
G01 X23.9821 Y39.0183 F350.00
G01 X23.9930 Y38.9654 F350.00
G01 X23.9986 Y38.9415 F350.00
G01 X24.0344 Y38.7987 F350.00
G01 X24.0407 Y38.7750 F350.00
G01 X24.0475 Y38.7514 F350.00
G01 X24.0635 Y38.6998 F350.00
G01 X24.0714 Y38.6766 F350.00
G01 X24.1210 Y38.5380 F350.00
G01 X24.1296 Y38.5150 F350.00
G01 X24.1387 Y38.4922 F350.00
G01 X24.1596 Y38.4425 F350.00
G01 X24.1699 Y38.4202 F350.00
G01 X24.2328 Y38.2871 F350.00
G01 X24.2436 Y38.2650 F350.00
G01 X24.2549 Y38.2432 F350.00
G01 X24.2806 Y38.1958 F350.00
G01 X24.2929 Y38.1746 F350.00
G01 X24.3686 Y38.0483 F350.00
G01 X24.3815 Y38.0274 F350.00
G01 X24.3949 Y38.0068 F350.00
G01 X24.4251 Y37.9621 F350.00
G01 X24.4395 Y37.9422 F350.00
G01 X24.5272 Y37.8240 F350.00
G01 X24.5420 Y37.8045 F350.00
G01 X24.5574 Y37.7853 F350.00
G01 X24.5919 Y37.7438 F350.00
G01 X24.6081 Y37.7254 F350.00
G01 X24.7070 Y37.6163 F350.00
G01 X24.7237 Y37.5983 F350.00
G01 X24.7408 Y37.5808 F350.00
G01 X24.7792 Y37.5428 F350.00
G01 X24.7972 Y37.5261 F350.00
G01 X24.9062 Y37.4272 F350.00
G01 X24.9246 Y37.4110 F350.00
G01 X24.9656 Y37.3770 F350.00
G01 X22.3848 Y34.7961 F350.00
G01 X22.3575 Y34.7679 F350.00
G01 X22.3243 Y34.7317 F350.00
G01 X22.3080 Y34.7133 F350.00
G01 X22.2763 Y34.6751 F350.00
G00 Z0.5000
G00 X21.9307 Y32.2002
G01 F250.00
G01 Z-0.0500
G01 F350.00
G01 X20.5195 Y32.2002 F350.00
G00 Z0.5000
G00 X20.8888 Y30.9002
G01 F250.00
G01 Z-0.0500
G01 F350.00
G01 X18.1560 Y30.9002 F350.00
G01 X18.1560 Y32.2002 F350.00
G01 X18.4422 Y32.2002 F350.00
G01 X18.1560 Y29.6002 F350.00
G01 X19.5888 Y29.6002 F350.00
G00 Z0.5000
G00 X18.1560 Y29.1793
G01 F250.00
G01 Z-0.0500
G01 F350.00
G01 X18.1560 Y32.3337 F350.00
G01 X18.1959 Y32.3127 F350.00
G01 X18.2179 Y32.3019 F350.00
G01 X18.3510 Y32.2390 F350.00
G01 X18.3733 Y32.2288 F350.00
G01 X18.3959 Y32.2191 F350.00
G01 X18.4459 Y32.1987 F350.00
G01 X18.4689 Y32.1902 F350.00
G01 X18.6075 Y32.1406 F350.00
G01 X18.6307 Y32.1326 F350.00
G01 X18.6541 Y32.1252 F350.00
G01 X18.7058 Y32.1098 F350.00
G01 X18.7296 Y32.1035 F350.00
G01 X18.8724 Y32.0678 F350.00
G01 X18.8962 Y32.0621 F350.00
G01 X18.9202 Y32.0570 F350.00
G01 X18.9732 Y32.0468 F350.00
G01 X18.9975 Y32.0429 F350.00
G01 X19.1431 Y32.0213 F350.00
G01 X19.1674 Y32.0180 F350.00
G01 X19.1918 Y32.0153 F350.00
G01 X19.2456 Y32.0103 F350.00
G01 X19.2700 Y32.0088 F350.00
G01 X19.4171 Y32.0016 F350.00
G01 X19.4416 Y32.0007 F350.00
G01 X19.4661 Y32.0004 F350.00
G01 X19.5201 Y32.0007 F350.00
G01 X19.5446 Y32.0016 F350.00
G01 X19.6917 Y32.0088 F350.00
G01 X19.7162 Y32.0103 F350.00
G01 X19.7406 Y32.0124 F350.00
G01 X19.7943 Y32.0180 F350.00
G01 X19.8186 Y32.0213 F350.00
G01 X19.9642 Y32.0429 F350.00
G01 X19.9885 Y32.0468 F350.00
G01 X20.0126 Y32.0513 F350.00
G01 X20.0655 Y32.0621 F350.00
G01 X20.0894 Y32.0678 F350.00
G01 X20.2322 Y32.1035 F350.00
G01 X20.2559 Y32.1098 F350.00
G01 X20.2795 Y32.1166 F350.00
G01 X20.3310 Y32.1326 F350.00
G01 X20.3542 Y32.1406 F350.00
G01 X20.4928 Y32.1902 F350.00
G01 X20.5158 Y32.1987 F350.00
G01 X20.5386 Y32.2078 F350.00
G01 X20.5884 Y32.2288 F350.00
G01 X20.6107 Y32.2390 F350.00
G01 X20.7438 Y32.3019 F350.00
G01 X20.7658 Y32.3127 F350.00
G01 X20.7876 Y32.3240 F350.00
G01 X20.8351 Y32.3497 F350.00
G01 X20.8563 Y32.3621 F350.00
G01 X20.9825 Y32.4377 F350.00
G01 X21.0034 Y32.4506 F350.00
G01 X21.0240 Y32.4640 F350.00
G01 X21.0687 Y32.4942 F350.00
G01 X21.0886 Y32.5086 F350.00
G01 X21.2069 Y32.5963 F350.00
G01 X21.2264 Y32.6112 F350.00
G01 X21.2456 Y32.6265 F350.00
G01 X21.2871 Y32.6610 F350.00
G01 X21.3055 Y32.6772 F350.00
G01 X21.4145 Y32.7761 F350.00
G01 X21.4325 Y32.7928 F350.00
G01 X21.4501 Y32.8099 F350.00
G01 X21.4881 Y32.8483 F350.00
G01 X21.5048 Y32.8663 F350.00
G01 X21.6036 Y32.9754 F350.00
G01 X21.6199 Y32.9938 F350.00
G01 X21.6357 Y33.0125 F350.00
G01 X21.6697 Y33.0545 F350.00
G01 X21.6845 Y33.0740 F350.00
G01 X21.7722 Y33.1922 F350.00
G01 X21.7866 Y33.2121 F350.00
G01 X21.8005 Y33.2324 F350.00
G01 X21.8302 Y33.2774 F350.00
G01 X21.8431 Y33.2983 F350.00
G01 X21.9188 Y33.4246 F350.00
G01 X21.9307 Y33.4451 F350.00
G01 X21.9307 Y31.9421 F350.00
G01 X19.5851 Y29.5964 F350.00
G01 X19.5201 Y29.5993 F350.00
G01 X19.4956 Y29.5996 F350.00
G01 X19.4416 Y29.5993 F350.00
G01 X19.4171 Y29.5984 F350.00
G01 X19.2946 Y29.5921 F350.00
G01 X19.2408 Y29.5871 F350.00
G01 X19.2164 Y29.5844 F350.00
G01 X19.0950 Y29.5667 F350.00
G01 X19.0708 Y29.5628 F350.00
G01 X19.0178 Y29.5526 F350.00
G01 X18.9938 Y29.5475 F350.00
G01 X18.9699 Y29.5418 F350.00
G01 X18.8747 Y29.5180 F350.00
G01 X18.8510 Y29.5117 F350.00
G01 X18.8274 Y29.5049 F350.00
G01 X18.7758 Y29.4889 F350.00
G01 X18.7526 Y29.4809 F350.00
G01 X18.6372 Y29.4393 F350.00
G01 X18.6144 Y29.4302 F350.00
G01 X18.5647 Y29.4093 F350.00
G01 X18.4536 Y29.3571 F350.00
G01 X18.4316 Y29.3463 F350.00
G01 X18.3838 Y29.3212 F350.00
G01 X18.3623 Y29.3093 F350.00
G01 X18.3411 Y29.2970 F350.00
G01 X18.2361 Y29.2336 F350.00
G01 X18.1910 Y29.2039 F350.00
G01 X18.1708 Y29.1900 F350.00
G01 X18.1560 Y29.1793 F350.00
G00 Z0.5000
G00 X21.7809 Y27.0002
G01 F250.00
G01 Z-0.0500
G01 F350.00
G01 X22.8888 Y27.0002 F350.00
G01 X22.6733 Y28.3002 F350.00
G01 X24.1888 Y28.3002 F350.00
G01 X23.9733 Y29.6002 F350.00
G01 X25.4888 Y29.6002 F350.00
G00 Z0.5000
G00 X24.9783 Y30.9002
G01 F250.00
G01 Z-0.0500
G01 F350.00
G01 X26.7888 Y30.9002 F350.00
G01 X28.0888 Y32.2002 F350.00
G01 X25.0310 Y32.2002 F350.00
G01 X25.4733 Y33.5002 F350.00
G01 X29.3888 Y33.5002 F350.00
G01 X30.6888 Y34.8002 F350.00
G01 X26.7733 Y34.8002 F350.00
G00 Z0.5000
G00 X28.0269 Y36.1002
G01 F250.00
G01 Z-0.0500
G01 F350.00
G01 X31.9888 Y36.1002 F350.00
G01 X33.2049 Y37.4002 F350.00
G01 X28.5243 Y37.4002 F350.00
G00 Z0.5000
G00 X29.3984 Y38.7002
G01 F250.00
G01 Z-0.0500
G01 F350.00
G01 X33.2049 Y38.7002 F350.00
G01 X33.2049 Y40.0002 F350.00
G01 X29.4929 Y40.0002 F350.00
G00 Z0.5000
G00 X28.9160 Y41.3002
G01 F250.00
G01 Z-0.0500
G01 F350.00
G01 X33.2049 Y41.3002 F350.00
G00 Z0.5000
G00 X36.3052 Y41.3002
G01 F250.00
G01 Z-0.0500
G01 F350.00
G01 X38.6807 Y41.3002 F350.00
G01 X38.6807 Y40.0002 F350.00
G01 X36.3052 Y40.0002 F350.00
G01 X36.3052 Y38.7002 F350.00
G01 X38.6807 Y38.7002 F350.00
G01 X38.3888 Y37.4002 F350.00
G01 X36.3052 Y37.4002 F350.00
G00 Z0.5000
G00 X36.1947 Y36.1002
G01 F250.00
G01 Z-0.0500
G01 F350.00
G01 X37.0888 Y36.1002 F350.00
G01 X35.7888 Y34.8002 F350.00
G01 X35.0733 Y34.8002 F350.00
G01 X34.4888 Y33.5002 F350.00
G01 X33.7733 Y33.5002 F350.00
G01 X33.1888 Y32.2002 F350.00
G01 X32.4733 Y32.2002 F350.00
G01 X31.8888 Y30.9002 F350.00
G01 X31.1733 Y30.9002 F350.00
G01 X30.5888 Y29.6002 F350.00
G01 X29.8733 Y29.6002 F350.00
G01 X29.2888 Y28.3002 F350.00
G01 X28.5733 Y28.3002 F350.00
G01 X27.9888 Y27.0002 F350.00
G01 X27.2733 Y27.0002 F350.00
G01 X26.6888 Y25.7002 F350.00
G01 X25.9733 Y25.7002 F350.00
G01 X25.3888 Y24.4002 F350.00
G01 X24.6733 Y24.4002 F350.00
G01 X24.0888 Y23.1002 F350.00
G01 X23.3733 Y23.1002 F350.00
G00 Z0.5000
G00 X23.1250 Y22.0508
G01 F250.00
G01 Z-0.0500
G01 F350.00
G01 X23.1009 Y22.0571 F350.00
G01 X23.0485 Y22.0699 F350.00
G01 X23.0245 Y22.0750 F350.00
G01 X23.0003 Y22.0795 F350.00
G01 X22.9761 Y22.0834 F350.00
G01 X22.9227 Y22.0910 F350.00
G01 X22.8983 Y22.0937 F350.00
G01 X22.8738 Y22.0958 F350.00
G01 X22.8199 Y22.0988 F350.00
G01 X22.7954 Y22.0997 F350.00
G01 X22.7709 Y22.1000 F350.00
G01 X22.3731 Y22.1000 F350.00
G01 X35.8512 Y35.5781 F350.00
G01 X35.8683 Y35.5957 F350.00
G01 X35.8952 Y35.6243 F350.00
G01 X35.9279 Y35.6609 F350.00
G01 X35.9437 Y35.6797 F350.00
G01 X35.9777 Y35.7216 F350.00
G01 X36.0072 Y35.7608 F350.00
G01 X36.0216 Y35.7807 F350.00
G01 X36.0518 Y35.8254 F350.00
G01 X36.0652 Y35.8460 F350.00
G01 X36.0781 Y35.8669 F350.00
G01 X36.1031 Y35.9092 F350.00
G01 X36.1288 Y35.9566 F350.00
G01 X36.1401 Y35.9784 F350.00
G01 X36.1509 Y36.0005 F350.00
G01 X36.1716 Y36.0450 F350.00
G01 X36.1925 Y36.0947 F350.00
G01 X36.2016 Y36.1175 F350.00
G01 X36.2102 Y36.1405 F350.00
G01 X36.2264 Y36.1869 F350.00
G01 X36.2338 Y36.2103 F350.00
G01 X36.2492 Y36.2620 F350.00
G01 X36.2614 Y36.3095 F350.00
G01 X36.2671 Y36.3334 F350.00
G01 X36.2722 Y36.3574 F350.00
G01 X36.2824 Y36.4104 F350.00
G01 X36.2899 Y36.4589 F350.00
G01 X36.2932 Y36.4833 F350.00
G01 X36.2959 Y36.5077 F350.00
G01 X36.3009 Y36.5614 F350.00
G01 X36.3036 Y36.6104 F350.00
G01 X36.3049 Y36.6497 F350.00
G01 X36.3052 Y36.6742 F350.00
G01 X36.3052 Y48.2835 F350.00
G01 X38.6807 Y45.9079 F350.00
G01 X38.6807 Y37.6921 F350.00
G01 X23.3848 Y22.3961 F350.00
G01 X23.3676 Y22.3785 F350.00
G01 X23.3408 Y22.3499 F350.00
G01 X23.3080 Y22.3133 F350.00
G01 X23.2735 Y22.2718 F350.00
G01 X23.2582 Y22.2526 F350.00
G01 X23.2433 Y22.2331 F350.00
G01 X23.2143 Y22.1935 F350.00
G01 X23.2005 Y22.1732 F350.00
G01 X23.1707 Y22.1282 F350.00
G01 X23.1452 Y22.0862 F350.00
G01 X23.1250 Y22.0508 F350.00
G00 Z0.5000
G00 X19.9341 Y24.0455
G01 F250.00
G01 Z-0.0500
G01 F350.00
G01 X18.2410 Y22.3523 F350.00
G01 X18.2410 Y23.8679 F350.00
G01 X18.5641 Y24.1910 F350.00
G01 X18.5872 Y24.1810 F350.00
G01 X18.6372 Y24.1607 F350.00
G01 X18.7526 Y24.1191 F350.00
G01 X18.7758 Y24.1111 F350.00
G01 X18.7992 Y24.1037 F350.00
G01 X18.8510 Y24.0883 F350.00
G01 X18.8747 Y24.0820 F350.00
G01 X18.9938 Y24.0525 F350.00
G01 X19.0467 Y24.0417 F350.00
G01 X19.0708 Y24.0372 F350.00
G01 X19.0950 Y24.0333 F350.00
G01 X19.1921 Y24.0189 F350.00
G01 X19.2164 Y24.0156 F350.00
G01 X19.2408 Y24.0129 F350.00
G01 X19.2946 Y24.0079 F350.00
G01 X19.4171 Y24.0016 F350.00
G01 X19.4416 Y24.0007 F350.00
G01 X19.4661 Y24.0004 F350.00
G01 X19.5201 Y24.0007 F350.00
G01 X19.5446 Y24.0016 F350.00
G01 X19.6672 Y24.0079 F350.00
G01 X19.7209 Y24.0129 F350.00
G01 X19.7453 Y24.0156 F350.00
G01 X19.8667 Y24.0333 F350.00
G01 X19.8909 Y24.0372 F350.00
G01 X19.9341 Y24.0455 F350.00
G01 X18.9888 Y23.1002 F350.00
G01 X18.2410 Y23.1002 F350.00
G00 Z0.5000
G00 X15.1407 Y23.1002
G01 F250.00
G01 Z-0.0500
G01 F350.00
G01 X13.1981 Y23.1002 F350.00
G01 X14.4981 Y24.4002 F350.00
G01 X15.1407 Y24.4002 F350.00
G01 X15.1407 Y22.0766 F350.00
G01 X15.1253 Y22.0795 F350.00
G01 X15.0720 Y22.0877 F350.00
G01 X15.0477 Y22.0910 F350.00
G01 X15.0233 Y22.0937 F350.00
G01 X14.9988 Y22.0958 F350.00
G01 X14.9449 Y22.0988 F350.00
G01 X14.9204 Y22.0997 F350.00
G01 X14.8959 Y22.1000 F350.00
G01 X12.9060 Y22.1000 F350.00
G01 X12.9060 Y22.8080 F350.00
G01 X15.3081 Y25.2102 F350.00
G01 X15.2951 Y25.1837 F350.00
G01 X15.2744 Y25.1392 F350.00
G01 X15.2534 Y25.0895 F350.00
G01 X15.2443 Y25.0667 F350.00
G01 X15.2275 Y25.0206 F350.00
G01 X15.2195 Y24.9974 F350.00
G01 X15.2121 Y24.9740 F350.00
G01 X15.1967 Y24.9222 F350.00
G01 X15.1905 Y24.8985 F350.00
G01 X15.1788 Y24.8508 F350.00
G01 X15.1737 Y24.8268 F350.00
G01 X15.1635 Y24.7738 F350.00
G01 X15.1560 Y24.7253 F350.00
G01 X15.1527 Y24.7009 F350.00
G01 X15.1471 Y24.6473 F350.00
G01 X15.1450 Y24.6228 F350.00
G01 X15.1435 Y24.5983 F350.00
G01 X15.1414 Y24.5493 F350.00
G01 X15.1407 Y24.5100 F350.00
G01 X15.1407 Y22.0766 F350.00
G00 Z0.5000
G00 X15.3962 Y16.6002
G01 F250.00
G01 Z-0.0500
G01 F350.00
G01 X16.0207 Y16.6002 F350.00
G00 Z0.5000
G00 X17.3611 Y16.6002
G01 F250.00
G01 Z-0.0500
G01 F350.00
G01 X18.5607 Y16.6002 F350.00
G00 Z0.5000
G00 X19.9011 Y16.6002
G01 F250.00
G01 Z-0.0500
G01 F350.00
G01 X20.2705 Y16.6002 F350.00
G00 Z0.5000
G00 X23.1140 Y12.7002
G01 F250.00
G01 Z-0.0500
G01 F350.00
G01 X37.3885 Y12.7002 F350.00
G01 X36.0885 Y14.0002 F350.00
G01 X24.4140 Y14.0002 F350.00
G01 X25.7140 Y15.3002 F350.00
G01 X26.7756 Y15.3002 F350.00
G00 Z0.5000
G00 X28.4061 Y15.3002
G01 F250.00
G01 Z-0.0500
G01 F350.00
G01 X31.8556 Y15.3002 F350.00
G00 Z0.5000
G00 X33.4861 Y15.3002
G01 F250.00
G01 Z-0.0500
G01 F350.00
G01 X34.3956 Y15.3002 F350.00
G00 Z0.5000
G00 X38.9715 Y15.5015
G01 F250.00
G01 Z-0.0500
G01 F350.00
G01 X38.9957 Y15.5164 F350.00
G01 X39.0209 Y15.5328 F350.00
G01 X39.0461 Y15.5164 F350.00
G01 X39.0670 Y15.5035 F350.00
G01 X39.1511 Y15.4530 F350.00
G01 X39.1723 Y15.4407 F350.00
G01 X39.2198 Y15.4150 F350.00
G01 X39.2416 Y15.4037 F350.00
G01 X39.2636 Y15.3929 F350.00
G01 X39.3524 Y15.3509 F350.00
G01 X39.3747 Y15.3407 F350.00
G01 X39.3972 Y15.3310 F350.00
G01 X39.4472 Y15.3107 F350.00
G01 X39.5626 Y15.2691 F350.00
G01 X39.5858 Y15.2611 F350.00
G01 X39.6092 Y15.2537 F350.00
G01 X39.6610 Y15.2383 F350.00
G01 X39.7799 Y15.2082 F350.00
G01 X39.8038 Y15.2025 F350.00
G01 X39.8567 Y15.1917 F350.00
G01 X39.8808 Y15.1872 F350.00
G01 X39.9054 Y15.1832 F350.00
G01 X40.6807 Y14.4079 F350.00
G01 X40.6807 Y13.1704 F350.00
G01 X40.6794 Y13.2138 F350.00
G01 X40.6782 Y13.2383 F350.00
G01 X40.6767 Y13.2628 F350.00
G01 X40.6746 Y13.2873 F350.00
G01 X40.6690 Y13.3409 F350.00
G01 X40.6621 Y13.3895 F350.00
G01 X40.6582 Y13.4138 F350.00
G01 X40.6537 Y13.4379 F350.00
G01 X40.6429 Y13.4908 F350.00
G01 X40.6313 Y13.5385 F350.00
G01 X40.6250 Y13.5622 F350.00
G01 X40.6182 Y13.5858 F350.00
G01 X40.6022 Y13.6374 F350.00
G01 X40.5860 Y13.6837 F350.00
G01 X40.5774 Y13.7067 F350.00
G01 X40.5683 Y13.7295 F350.00
G01 X40.5474 Y13.7792 F350.00
G01 X40.5266 Y13.8237 F350.00
G01 X40.5159 Y13.8458 F350.00
G01 X40.5046 Y13.8676 F350.00
G01 X40.4789 Y13.9150 F350.00
G01 X40.4539 Y13.9573 F350.00
G01 X40.4410 Y13.9782 F350.00
G01 X40.4276 Y13.9988 F350.00
G01 X40.3974 Y14.0435 F350.00
G01 X40.3830 Y14.0634 F350.00
G01 X40.3535 Y14.1026 F350.00
G01 X40.3195 Y14.1445 F350.00
G01 X40.3037 Y14.1633 F350.00
G01 X40.2710 Y14.1999 F350.00
G01 X40.2543 Y14.2179 F350.00
G01 X40.2270 Y14.2461 F350.00
G01 X38.9715 Y15.5015 F350.00
G00 Z0.5000
G00 X39.9068 Y15.1819
G01 F250.00
G01 Z-0.0500
G01 F350.00
G01 X39.9068 Y14.5663 F350.00
G00 Z0.5000
G00 X43.7604 Y15.3002
G01 F250.00
G01 Z-0.0500
G01 F350.00
G01 X44.5556 Y15.3002 F350.00
G00 Z0.5000
G00 X46.1861 Y15.3002
G01 F250.00
G01 Z-0.0500
G01 F350.00
G01 X129.7807 Y15.3002 F350.00
G01 X129.7573 Y14.0002 F350.00
G01 X128.0001 Y14.0002 F350.00
G00 Z0.5000
G00 X128.9243 Y12.7002
G01 F250.00
G01 Z-0.0500
G01 F350.00
G01 X129.7339 Y12.7002 F350.00
G01 X129.7106 Y11.4002 F350.00
G01 X129.0049 Y11.4002 F350.00
G00 Z0.5000
G00 X128.7749 Y10.1002
G01 F250.00
G01 Z-0.0500
G01 F350.00
G01 X129.6836 Y10.1002 F350.00
G01 X129.6553 Y8.8002 F350.00
G01 X119.8121 Y8.8002 F350.00
G00 Z0.5000
G00 X121.0969 Y10.1002
G01 F250.00
G01 Z-0.0500
G01 F350.00
G01 X122.0948 Y10.1002 F350.00
G00 Z0.5000
G00 X121.8649 Y11.4002
G01 F250.00
G01 Z-0.0500
G01 F350.00
G01 X121.0969 Y11.4002 F350.00
G01 X121.0969 Y12.7002 F350.00
G01 X121.9454 Y12.7002 F350.00
G00 Z0.5000
G00 X122.8696 Y14.0002
G01 F250.00
G01 Z-0.0500
G01 F350.00
G01 X120.7346 Y14.0002 F350.00
G01 X120.9171 Y18.5016 F350.00
G01 X120.9416 Y18.5007 F350.00
G01 X120.9661 Y18.5004 F350.00
G01 X121.0201 Y18.5007 F350.00
G01 X121.0446 Y18.5016 F350.00
G01 X121.1378 Y18.5064 F350.00
G01 X121.1915 Y18.5114 F350.00
G01 X121.2159 Y18.5141 F350.00
G01 X121.2402 Y18.5174 F350.00
G01 X121.3324 Y18.5314 F350.00
G01 X121.3854 Y18.5417 F350.00
G01 X121.4094 Y18.5467 F350.00
G01 X121.4333 Y18.5524 F350.00
G01 X121.5237 Y18.5754 F350.00
G01 X121.5472 Y18.5822 F350.00
G01 X121.5988 Y18.5982 F350.00
G01 X121.6220 Y18.6061 F350.00
G01 X121.7097 Y18.6378 F350.00
G01 X121.7325 Y18.6469 F350.00
G01 X121.7822 Y18.6679 F350.00
G01 X121.8667 Y18.7075 F350.00
G01 X121.8887 Y18.7182 F350.00
G01 X121.9365 Y18.7434 F350.00
G01 X121.9580 Y18.7552 F350.00
G01 X121.9792 Y18.7676 F350.00
G01 X122.0381 Y18.8029 F350.00
G01 X122.0590 Y18.8158 F350.00
G01 X122.0796 Y18.8292 F350.00
G01 X122.1243 Y18.8594 F350.00
G01 X122.1442 Y18.8738 F350.00
G01 X122.1993 Y18.9147 F350.00
G01 X122.2309 Y18.9392 F350.00
G01 X122.2624 Y18.9147 F350.00
G01 X122.3176 Y18.8738 F350.00
G01 X122.3374 Y18.8594 F350.00
G01 X122.3577 Y18.8455 F350.00
G01 X122.4027 Y18.8158 F350.00
G01 X122.4825 Y18.7676 F350.00
G01 X122.5038 Y18.7552 F350.00
G01 X122.5512 Y18.7295 F350.00
G01 X122.5730 Y18.7182 F350.00
G01 X122.6572 Y18.6781 F350.00
G01 X122.6795 Y18.6679 F350.00
G01 X122.7020 Y18.6582 F350.00
G01 X122.7520 Y18.6378 F350.00
G01 X122.7750 Y18.6293 F350.00
G01 X122.8629 Y18.5982 F350.00
G01 X122.9145 Y18.5822 F350.00
G01 X122.9381 Y18.5754 F350.00
G01 X122.9618 Y18.5691 F350.00
G01 X123.0523 Y18.5467 F350.00
G01 X123.1052 Y18.5359 F350.00
G01 X123.1293 Y18.5314 F350.00
G01 X123.1535 Y18.5275 F350.00
G01 X123.2215 Y18.5174 F350.00
G01 X123.2458 Y18.5141 F350.00
G01 X123.2702 Y18.5114 F350.00
G01 X123.3240 Y18.5064 F350.00
G01 X123.4171 Y18.5016 F350.00
G01 X123.4416 Y18.5007 F350.00
G01 X123.4956 Y18.5004 F350.00
G01 X123.5201 Y18.5007 F350.00
G01 X123.5446 Y18.5016 F350.00
G01 X123.6378 Y18.5064 F350.00
G01 X123.6915 Y18.5114 F350.00
G01 X123.7159 Y18.5141 F350.00
G01 X123.8082 Y18.5275 F350.00
G01 X123.8324 Y18.5314 F350.00
G01 X123.8854 Y18.5417 F350.00
G01 X123.9094 Y18.5467 F350.00
G01 X123.9333 Y18.5524 F350.00
G01 X124.0237 Y18.5754 F350.00
G01 X124.0472 Y18.5822 F350.00
G01 X124.0988 Y18.5982 F350.00
G01 X124.1220 Y18.6061 F350.00
G01 X124.2097 Y18.6378 F350.00
G01 X124.2597 Y18.6582 F350.00
G01 X124.2822 Y18.6679 F350.00
G01 X124.3046 Y18.6781 F350.00
G01 X124.3887 Y18.7182 F350.00
G01 X124.4365 Y18.7434 F350.00
G01 X124.4580 Y18.7552 F350.00
G01 X124.4792 Y18.7676 F350.00
G01 X124.5381 Y18.8029 F350.00
G01 X124.5590 Y18.8158 F350.00
G01 X124.5796 Y18.8292 F350.00
G01 X124.6243 Y18.8594 F350.00
G01 X124.6442 Y18.8738 F350.00
G01 X124.6993 Y18.9147 F350.00
G01 X124.7309 Y18.9392 F350.00
G01 X124.7624 Y18.9147 F350.00
G01 X124.8176 Y18.8738 F350.00
G01 X124.8374 Y18.8594 F350.00
G01 X124.8577 Y18.8455 F350.00
G01 X124.9027 Y18.8158 F350.00
G01 X124.9236 Y18.8029 F350.00
G01 X125.0038 Y18.7552 F350.00
G01 X125.0512 Y18.7295 F350.00
G01 X125.0730 Y18.7182 F350.00
G01 X125.0951 Y18.7075 F350.00
G01 X125.1795 Y18.6679 F350.00
G01 X125.2020 Y18.6582 F350.00
G01 X125.2520 Y18.6378 F350.00
G01 X125.3397 Y18.6061 F350.00
G01 X125.3629 Y18.5982 F350.00
G01 X125.4145 Y18.5822 F350.00
G01 X125.4381 Y18.5754 F350.00
G01 X125.4618 Y18.5691 F350.00
G01 X125.5523 Y18.5467 F350.00
G01 X125.5763 Y18.5417 F350.00
G01 X125.6293 Y18.5314 F350.00
